epiphany24262/financial-performance-prediction/results/oof/baseline_oof.csv
Id,group_id,fold,actual_Q0_TOTAL_ASSETS,actual_Q0_TOTAL_LIABILITIES,actual_Q0_TOTAL_STOCKHOLDERS_EQUITY,actual_Q0_GROSS_PROFIT,actual_Q0_COST_OF_REVENUES,actual_Q0_REVENUES,actual_Q0_OPERATING_INCOME,actual_Q0_OPERATING_EXPENSES,actual_Q0_EBITDA,B0_Q0_TOTAL_ASSETS,B0_Q0_TOTAL_LIABILITIES,B0_Q0_TOTAL_STOCKHOLDERS_EQUITY,B0_Q0_GROSS_PROFIT,B0_Q0_COST_OF_REVENUES,B0_Q0_REVENUES,B0_Q0_OPERATING_INCOME,B0_Q0_OPERATING_EXPENSES,B0_Q0_EBITDA,B1_Q0_TOTAL_ASSETS,B1_Q0_TOTAL_LIABILITIES,B1_Q0_TOTAL_STOCKHOLDERS_EQUITY,B1_Q0_GROSS_PROFIT,B1_Q0_COST_OF_REVENUES,B1_Q0_REVENUES,B1_Q0_OPERATING_INCOME,B1_Q0_OPERATING_EXPENSES,B1_Q0_EBITDA,B2_Q0_TOTAL_ASSETS,B2_Q0_TOTAL_LIABILITIES,B2_Q0_TOTAL_STOCKHOLDERS_EQUITY,B2_Q0_GROSS_PROFIT,B2_Q0_COST_OF_REVENUES,B2_Q0_REVENUES,B2_Q0_OPERATING_INCOME,B2_Q0_OPERATING_EXPENSES,B2_Q0_EBITDA,B3_Q0_TOTAL_ASSETS,B3_Q0_TOTAL_LIABILITIES,B3_Q0_TOTAL_STOCKHOLDERS_EQUITY,B3_Q0_GROSS_PROFIT,B3_Q0_COST_OF_REVENUES,B3_Q0_REVENUES,B3_Q0_OPERATING_INCOME,B3_Q0_OPERATING_EXPENSES,B3_Q0_EBITDA,B4_Q0_TOTAL_ASSETS,B4_Q0_TOTAL_LIABILITIES,B4_Q0_TOTAL_STOCKHOLDERS_EQUITY,B4_Q0_GROSS_PROFIT,B4_Q0_COST_OF_REVENUES,B4_Q0_REVENUES,B4_Q0_OPERATING_INCOME,B4_Q0_OPERATING_EXPENSES,B4_Q0_EBITDA
196,1119,4,1192950000.0,1055816000.0,137134000.0,25598000.0,61899000.0,42992000.0,15222000.0,10383000.0,15215000.0,4727288030.718462,3211783158.4280415,1232631661.462514,441757192.47692305,672585084.3115385,1096637221.1707692,96537440.85615385,369189874.7430769,72567317.73384616,1192950000.0,1055816000.0,137134000.0,27712000.0,62888000.0,42550000.0,19725000.0,9180000.0,18532000.0,1178631000.0,1050616000.0,128015000.0,33164000.0,61877000.0,46210000.0,23265000.0,9041000.0,24123000.0,1200109499.9999998,1058416000.0,141693499.9999999,28369000.0,63790999.99999998,44313499.99999998,20667999.999999993,8939500.0,19429499.999999993,1178631000.0,1050616000.0,130750699.99999999,27712000.0,62786900.0,42916000.0,21258499.999999996,9128150.0,19919449.999999996
1568,556,2,1219954000.0,835046000.0,384908000.0,111786000.0,217796000.0,329582000.0,28908000.0,85522000.0,26264000.0,4477527608.691301,3116993103.3607926,1060132734.0932164,414394115.5442648,654843072.9761355,1048567242.1909161,92227053.46728252,348255722.2755966,66138393.268668205,1253205000.0,886176000.0,367029000.0,95873000.0,199919000.0,295792000.0,9477000.0,86254000.0,9619000.0,1313447000.0,966070000.0,347377000.0,116706000.0,229899000.0,346605000.0,34525000.0,81371000.0,35335000.0,-702199499.9999975,-558468499.9999983,-143730999.99999946,90241500.0,200025500.00000003,290266999.99999994,-15079999.999999972,87308000.00000001,2933500.0000000037,1313447000.0,966070000.0,249155400.00000012,95873000.0,202917000.0,300873300.0,4712900.000000014,85382800.0,12756550.000000002
1218,1577,0,-135820000000.0,-37972000000.0,-97848000000.0,-435000000.0,4445000000.0,4010000000.0,-1472000000.0,219000000.0,-654000000.0,5572920030.95766,3400494987.3406277,1831684863.2391856,406234554.0184758,658548990.7721324,1040845932.5111624,102754619.98691301,340547538.3425712,65687015.67590454,65680000000.0,20275000000.0,45405000000.0,-668000000.0,4420000000.0,3752000000.0,-1761000000.0,219000000.0,-887000000.0,66283000000.0,16376000000.0,49907000000.0,13898000000.0,16860000000.0,30758000000.0,9702000000.0,1066000000.0,12832000000.0,65798499999.999985,21718500000.0,44079999999.99998,-8219999999.999991,-1560499999.9999907,-9780499999.99998,-7763499999.99999,-198499999.9999995,-8021499999.9999895,66283000000.0,16376000000.0,48741600000.0,-668000000.0,5664000000.0,6452600000.0,-1323349999.9999952,346650000.00000006,-283549999.99999666
23,1062,1,83298000.0,16040000.0,-31633000.0,494000.0,3339000.0,3833000.0,-12348000.0,12842000.0,-12348000.0,4569392647.153194,3148205417.965642,1102833887.9482822,442438272.06466514,662012570.395689,1080646990.1424172,99137490.8860662,385791846.87836796,56646425.18629715,94091000.0,17885000.0,-22685000.0,434000.0,2348000.0,2787000.0,-15116000.0,15550000.0,-15116000.0,32835000.0,20401000.0,12434000.0,-71000.0,1872000.0,1778000.0,-15020000.0,14949000.0,-15020000.0,130008499.9999999,15966000.0,-34293999.99999996,432499.99999999994,2135999.9999999995,2640499.999999999,-14627499.99999999,15060000.000000002,-14627499.99999999,32835000.0,20401000.0,3088400.0000000075,434000.0,2300400.0,2686100.0,-14842949.999999996,15380800.0,-14950249.999999996
783,805,3,148546000.0,56555000.0,91991000.0,1761000.0,-2375000.0,-614000.0,-10098000.0,11859000.0,-10098000.0,4641379180.050808,3122869605.61366,1222168580.2567902,415573749.07929176,644449495.9491917,1047932274.8583525,101471620.37028484,335075420.6374134,80498328.44187836,154856000.0,61778000.0,93078000.0,131454000.0,-130986000.0,468000.0,116514000.0,14940000.0,116514000.0,112293000.0,95084000.0,17209000.0,1557000.0,0.0,1557000.0,-21801000.0,23358000.0,-21801000.0,133857500.00000003,64341000.00000001,69516500.0,131240499.99999996,-130985999.99999997,254500.00000000015,122073499.99999996,9166999.999999998,122073499.99999996,112293000.0,95084000.0,27670500.0,131454000.0,-117887400.0,576900.0,77799249.99999997,16046300.0,90518849.99999999
1251,822,1,7304300000.0,2451900000.0,4830200000.0,578200000.0,581100000.0,1159300000.0,245200000.0,333000000.0,245200000.0,4569392647.153194,3148205417.965642,1102833887.9482822,442438272.06466514,662012570.395689,1080646990.1424172,99137490.8860662,385791846.87836796,56646425.18629715,7230400000.0,2451100000.0,4757100000.0,603700000.0,587600000.0,1191300000.0,277000000.0,326700000.0,277000000.0,6835500000.0,2496000000.0,4317200000.0,532600000.0,569900000.0,1102500000.0,223500000.0,309100000.0,223500000.0,7375449999.999999,2449700000.000001,4903600000.0,632199999.9999998,599349999.9999998,1231549999.9999998,295149999.9999999,337049999.9999999,295149999.9999999,6835500000.0,2496000000.0,4434480000.0,603700000.0,585830000.0,1182420000.0,270024999.99999994,324215000.0,271744999.99999994
1224,228,0,1976905000.0,699909000.0,1276996000.0,53993000.0,315825000.0,369818000.0,-1572000.0,371390000.0,-317397000.0,5572920030.95766,3400494987.3406277,1831684863.2391856,406234554.0184758,658548990.7721324,1040845932.5111624,102754619.98691301,340547538.3425712,65687015.67590454,1933027000.0,647412000.0,1285615000.0,77969000.0,318948000.0,396917000.0,20508000.0,376409000.0,-298440000.0,1854286000.0,592152000.0,1262134000.0,50656000.0,283695000.0,334351000.0,-7633000.0,341984000.0,-291328000.0,1974132500.0,684241999.9999999,1289890500.0000005,77456999.99999999,321923999.9999998,399380999.9999998,23596999.999999985,375783999.9999999,-298327000.0,1854286000.0,592152000.0,1267685300.0,77969000.0,315422700.0,390660400.0,13610199.999999993,369461500.0,-296983700.0
1410,1451,2,2097274000.0,1132234000.0,965931000.0,70481000.0,291052000.0,361533000.0,58709000.0,11772000.0,58709000.0,4477527608.691301,3116993103.3607926,1060132734.0932164,414394115.5442648,654843072.9761355,1048567242.1909161,92227053.46728252,348255722.2755966,66138393.268668205,2170891000.0,1198289000.0,973318000.0,168069000.0,293998000.0,462067000.0,154489000.0,11960000.0,156109000.0,2098763000.0,1228506000.0,870556000.0,71638000.0,229361000.0,300999000.0,56317000.0,15321000.0,56317000.0,2169246499.9999995,1220607999.9999998,949584999.9999996,145221499.99999997,291973499.9999999,437194999.9999998,134144999.99999999,9456499.999999996,135765000.0,2098763000.0,1228506000.0,886361800.0,168069000.0,287534300.0,445960200.0,114865400.0,12381850.0,130047400.0
529,34,4,31183000.0,15926000.0,15257000.0,2456000.0,2151000.0,4607000.0,-2931000.0,5387000.0,-2931000.0,4727288030.718462,3211783158.4280415,1232631661.462514,441757192.47692305,672585084.3115385,1096637221.1707692,96537440.85615385,369189874.7430769,72567317.73384616,33986000.0,16179000.0,17807000.0,2254000.0,2449000.0,4703000.0,-4284000.0,6538000.0,-4284000.0,39311000.0,10697000.0,28614000.0,1686000.0,1643000.0,3329000.0,-3654000.0,5340000.0,-3654000.0,32882500.0,18740999.99999999,14141500.000000015,2410999.9999999995,2688499.999999998,5099499.999999997,-4680999.999999997,7091999.999999998,-4680999.999999997,39311000.0,10697000.0,25719500.000000004,2254000.0,2368400.0,4565600.0,-4293499.999999998,6353800.0,-4277099.999999999
730,909,4,978523000.0,851196000.0,-94184000.0,24321000.0,137937000.0,162258000.0,-764000.0,25085000.0,-764000.0,4727288030.718462,3211783158.4280415,1232631661.462514,441757192.47692305,672585084.3115385,1096637221.1707692,96537440.85615385,369189874.7430769,72567317.73384616,1010273000.0,869594000.0,-78075000.0,24213000.0,132725000.0,156938000.0,-12360000.0,36573000.0,-12360000.0,1157210000.0,864503000.0,147433000.0,-94394000.0,236707000.0,142313000.0,-119657000.0,25263000.0,-119657000.0,954548500.0000004,879816000.0000002,-143973999.9999998,81022999.99999993,80135500.00000004,161158500.0,41783999.9999999,39238999.999999985,41783999.9999999,1157210000.0,864503000.0,89151600.00000004,24213000.0,143123200.0,155475500.0,-17477100.00000005,34577600.0,-17576200.00000003
1590,1344,4,27253000.0,14465193.072010836,12787806.927989164,-17000.0,17493000.0,17476000.0,1196000.0,138000.0,-155000.0,4727288030.718462,3211783158.4280415,1232631661.462514,441757192.47692305,672585084.3115385,1096637221.1707692,96537440.85615385,369189874.7430769,72567317.73384616,25963000.0,13780494.174168618,12182505.825831382,-25000.0,23047000.0,23022000.0,1399000.0,131000.0,-156000.0,28099000.0,14914228.163153874,13184771.836846126,59798000.0,22908000.0,82706000.0,1213000.0,113000.0,59685000.0,25244000.000000007,13398867.424130982,11845132.575869022,-29930999.99999993,27241500.0,-2689499.999999974,1482999.9999999993,179499.99999999994,-30110499.999999948,28099000.0,14914228.163153874,12916843.984650705,-25000.0,23033100.0,28990400.0,1385199.9999999995,132250.0,2825850.0000000168
367,268,0,798398000.0,795372000.0,3026000.0,37121000.0,256160000.0,293281000.0,10257000.0,26864000.0,10257000.0,5572920030.95766,3400494987.3406277,1831684863.2391856,406234554.0184758,658548990.7721324,1040845932.5111624,102754619.98691301,340547538.3425712,65687015.67590454,803894000.0,799208000.0,4686000.0,38860000.0,368033000.0,406893000.0,4337000.0,34523000.0,4337000.0,884379000.0,822804000.0,61575000.0,18744000.0,269913000.0,288657000.0,-13351000.0,32095000.0,-13351000.0,-548151499.9999985,-429707999.999999,-118443499.9999998,27004000.000000007,374860499.9999999,401864499.9999999,-8693999.999999983,35697999.99999998,-8693999.999999983,884379000.0,822804000.0,25571300.000000037,38860000.0,358221000.0,395069400.0,-7484899.999999992,34154900.0,-3109899.999999995
636,839,4,1059052000.0,883921000.0,175131000.0,91945000.0,202788000.0,235132000.0,-287000.0,84957000.0,6988000.0,4727288030.718462,3211783158.4280415,1232631661.462514,441757192.47692305,672585084.3115385,1096637221.1707692,96537440.85615385,369189874.7430769,72567317.73384616,1036859000.0,854219000.0,182640000.0,106401000.0,230263000.0,269721000.0,819000.0,100313000.0,6088000.0,1304582000.0,812975000.0,491607000.0,116346000.0,241246000.0,291491000.0,13591000.0,96185000.0,20161000.0,903507000.0000008,870658500.0,32848500.000000272,93745499.99999996,210159999.99999997,240616999.9999999,-6376999.99999997,95767999.99999996,-2022499.9999999872,1304582000.0,812975000.0,399855300.00000006,106401000.0,231361300.0,271898000.0,1052600.000000015,99032900.0,6469450.000000004
1270,1065,3,11069000000.0,5919000000.0,5105000000.0,727000000.0,1752000000.0,2479000000.0,462000000.0,265000000.0,462000000.0,4641379180.050808,3122869605.61366,1222168580.2567902,415573749.07929176,644449495.9491917,1047932274.8583525,101471620.37028484,335075420.6374134,80498328.44187836,11001000000.0,5942000000.0,5014000000.0,752000000.0,1811000000.0,2563000000.0,487000000.0,265000000.0,487000000.0,10721000000.0,6035000000.0,4640000000.0,693000000.0,1836000000.0,2529000000.0,608000000.0,85000000.0,608000000.0,11060500000.0,5926000000.000002,5089499999.999999,699999999.9999999,1763999999.9999993,2463999999.999998,450000000.00000006,249999999.9999999,450000000.00000006,10721000000.0,6035000000.0,4729900000.0,752000000.0,1813500000.0,2559600000.0,504800000.0,227500000.0,500100000.0
102,712,1,12331000.0,10875000.0,1456000.0,1472000.0,1968000.0,3440000.0,-4166000.0,5638000.0,-4166000.0,4569392647.153194,3148205417.965642,1102833887.9482822,442438272.06466514,662012570.395689,1080646990.1424172,99137490.8860662,385791846.87836796,56646425.18629715,5304128.0,14927727.0,-14477599.0,0.0,25599000.0,93681798.0,-1475615.0,1475615.0,-1475615.0,254860871.0,12987174.0,-12072932.0,0.0,25599000.0,93681798.0,-237071.0,237071.0,-237071.0,-119420028.49999967,15435580.5,-15143624.999999996,0.0,25599000.0,93681798.0,-1620770.499999999,1620770.499999999,-1620770.499999999,254860871.0,12987174.0,-12687070.6,0.0,25599000.0,93681798.0,-1176629.5499999996,1242421.75,-1271452.8499999996
1658,812,1,180372000.0,121221000.0,30642000.0,18014000.0,31653000.0,49667000.0,-11599000.0,29613000.0,-11599000.0,4569392647.153194,3148205417.965642,1102833887.9482822,442438272.06466514,662012570.395689,1080646990.1424172,99137490.8860662,385791846.87836796,56646425.18629715,182313000.0,102912000.0,50892000.0,17828000.0,29224000.0,47052000.0,2076000.0,15752000.0,2076000.0,214499000.0,139230000.0,46760000.0,21020000.0,47716000.0,68736000.0,6464000.0,14556000.0,6464000.0,164844500.0,83943000.0,52392499.99999999,14891999.999999993,18386499.999999996,33278500.00000001,-1245999.9999999953,16137999.999999993,-1245999.9999999953,214499000.0,139230000.0,47886500.0,17828000.0,31073200.0,49220400.0,1731400.0000000023,15551400.0,1957000.0000000014
6,356,2,2319806000.0,1534495000.0,785311000.0,376397000.0,415254000.0,791651000.0,93430000.0,288680000.0,87717000.0,4477527608.691301,3116993103.3607926,1060132734.0932164,414394115.5442648,654843072.9761355,1048567242.1909161,92227053.46728252,348255722.2755966,66138393.268668205,2288471000.0,1513462000.0,775009000.0,291896000.0,308303000.0,600199000.0,37561000.0,258676000.0,33220000.0,2611567000.0,1823365000.0,788202000.0,370528000.0,448096000.0,818624000.0,91583000.0,286218000.0,84310000.0,2124350999.9999995,1344496500.0,779854499.9999999,261365500.0,277461499.9999999,538826999.9999999,19946499.999999996,245383000.0,15982499.999999989,2611567000.0,1823365000.0,786532500.0,291896000.0,322282300.0,622041500.0,44960350.0,262855100.0,38266750.0
1147,318,0,19295025.0,28370931.0,-13369686.0,2067435.0,4847499.0,6914934.0,-1108124.0,3175559.0,-1108124.0,5572920030.95766,3400494987.3406277,1831684863.2391856,406234554.0184758,658548990.7721324,1040845932.5111624,102754619.98691301,340547538.3425712,65687015.67590454,19657009.0,27615726.0,-12244894.0,2700360.0,5449120.0,8149480.0,-525997.0,3226357.0,-525997.0,20765740.0,23851274.0,-3376224.0,2325849.0,4263378.0,6589227.0,-1363614.0,3689463.0,-1363614.0,18542881.499999996,28339637.999999996,-13926718.499999994,2363973.4999999995,5350577.999999997,5259317.499999997,-757538.4999999993,3121511.9999999995,-757538.4999999993,20765740.0,23851274.0,-5486322.899999999,2700360.0,5330545.8,7993454.7,-893052.8499999996,3308493.7,-762982.8499999999
114,141,2,3549408000.0,2109262000.0,1440146000.0,264579000.0,494402000.0,758981000.0,58594000.0,205985000.0,58594000.0,4477527608.691301,3116993103.3607926,1060132734.0932164,414394115.5442648,654843072.9761355,1048567242.1909161,92227053.46728252,348255722.2755966,66138393.268668205,3380509000.0,1993208000.0,1387301000.0,234804000.0,491443000.0,726247000.0,42412000.0,192392000.0,42412000.0,3086226000.0,1923645000.0,1162581000.0,228509000.0,440418000.0,668927000.0,56011000.0,172498000.0,56011000.0,-1105508999.9999962,-861478499.9999977,-244030499.9999989,346747999.99999994,606410999.9999998,953158999.9999999,127290999.99999993,219456999.99999985,127290999.99999993,3086226000.0,1923645000.0,881258700.0000002,234804000.0,486340500.0,720515000.0,88931199.99999997,191119700.0,70595499.99999997
139,890,3,331401784.0,56254670.0,275147114.0,17982150.0,0.0,17982150.0,-40215832.0,58197982.0,-40215832.0,4641379180.050808,3122869605.61366,1222168580.2567902,415573749.07929176,644449495.9491917,1047932274.8583525,101471620.37028484,335075420.6374134,80498328.44187836,359989184.0,58273664.0,301715520.0,24974054.0,0.0,24974054.0,-34874617.0,59848671.0,-34874617.0,379620341.0,40526658.0,339093683.0,3493298.0,7489884.0,10983182.0,-7788088.0,11281386.0,-7788088.0,347490552.0,58683935.49999998,288806616.4999998,23227966.999999996,9262240.500000011,28290150.50000002,-42802717.99999996,74837810.49999996,-51609843.49999996,379620341.0,40526658.0,329036269.7,24974054.0,748988.4,23574966.8,-30712708.799999982,51634127.949999996,-34477879.14999999
411,956,2,5533000.0,4648000.0,885000.0,-1669000.0,2438000.0,769000.0,-6339000.0,4670000.0,-6339000.0,4477527608.691301,3116993103.3607926,1060132734.0932164,414394115.5442648,654843072.9761355,1048567242.1909161,92227053.46728252,348255722.2755966,66138393.268668205,8931000.0,3070000.0,5861000.0,-201000.0,626000.0,425000.0,-4693000.0,4492000.0,-4693000.0,11570000.0,6218000.0,5352000.0,130000.0,807000.0,937000.0,-4748000.0,4878000.0,-4748000.0,9434500.0,2368000.000000002,7066500.000000002,-892499.9999999993,1083499.9999999986,191000.00000000032,-5219999.999999999,4327499.999999999,-5219999.999999999,11570000.0,6218000.0,5694900.0,-201000.0,644100.0,476200.0,-4973000.0,4552750.0,-4862100.0
681,18,1,36550000000.0,16943241279.095451,15250000000.0,577000000.0,3467000000.0,4044000000.0,714000000.0,627000000.0,-50000000.0,4569392647.153194,3148205417.965642,1102833887.9482822,442438272.06466514,662012570.395689,1080646990.1424172,99137490.8860662,385791846.87836796,56646425.18629715,36093000000.0,16731392817.685148,15125000000.0,538000000.0,3255000000.0,3793000000.0,514000000.0,695000000.0,-157000000.0,33165000000.0,15374079261.865955,14144000000.0,445000000.0,2639000000.0,3084000000.0,269000000.0,620000000.0,-175000000.0,37031500000.0,17166447043.141544,15410000000.0,566499999.9999998,3426499999.999999,3992999999.999998,598499999.9999995,712499999.9999996,-145999999.99999994,33165000000.0,15374079261.865955,14397200000.0,538000000.0,3193400000.0,3722100000.0,482749999.99999976,681750000.0,-157299999.99999997
1671,1574,4,100449000.0,141057000.0,-40608000.0,-171000.0,512000.0,341000.0,-48297000.0,24344000.0,-24515000.0,4727288030.718462,3211783158.4280415,1232631661.462514,441757192.47692305,672585084.3115385,1096637221.1707692,96537440.85615385,369189874.7430769,72567317.73384616,140097000.0,134233000.0,5864000.0,431000.0,26000.0,457000.0,-52414000.0,25872000.0,-25441000.0,244818000.0,117832000.0,126986000.0,126000.0,11000.0,137000.0,-38990000.0,17054000.0,-16928000.0,107739500.00000012,138866000.00000003,-31126499.999999907,466499.9999999997,25000.000000000015,491500.0000000001,-58517999.99999997,29142499.999999993,-28675999.999999993,244818000.0,117832000.0,95363500.00000001,431000.0,24500.0,425000.0,-51438799.999999985,24435450.0,-24708900.0
500,1524,4,10599934.0,26203416.0,-15603482.0,-6219.0,193120.0,186901.0,-1076399.0,1070180.0,-1076399.0,4727288030.718462,3211783158.4280415,1232631661.462514,441757192.47692305,672585084.3115385,1096637221.1707692,96537440.85615385,369189874.7430769,72567317.73384616,10903780.0,26255730.0,-15351950.0,-46476.0,199963.0,153487.0,-679471.0,632995.0,-679471.0,10833317.0,21234598.0,-10401281.0,-331366.0,495742.0,164376.0,-2132187.0,1800821.0,-2132187.0,10891604.000000004,27482048.499999993,-16590444.499999993,110889.99999999978,42752.500000000226,153642.49999999988,-137370.0000000007,248260.0,-137370.0000000007,10833317.0,21234598.0,-11639113.7,-46476.0,229540.90000000002,154575.90000000002,-844235.3000000004,828086.7,-807383.9000000003
1203,855,3,13322000.0,67881000.0,8277888.77383834,3223000.0,1889000.0,5112000.0,-3552000.0,8664000.0,-5441000.0,4641379180.050808,3122869605.61366,1222168580.2567902,415573749.07929176,644449495.9491917,1047932274.8583525,101471620.37028484,335075420.6374134,80498328.44187836,14074000.0,69738000.0,8745158.880273292,165000.0,2293000.0,2458000.0,-7336000.0,9794000.0,-9629000.0,42283000.0,120327000.0,-78044000.0,4691000.0,1680000.0,6371000.0,-18724000.0,25095000.0,-20404000.0,5949500.000000021,50792000.000000104,55855529.858283505,36000.00000000106,2140999.999999999,2177000.000000001,236499.9999999938,1940500.0000000137,-1904500.0000000035,42283000.0,120327000.0,-51264094.0283433,165000.0,2231700.0,2849300.0,-6966150.000000003,12068850.000000002,-9466650.000000002
180,1091,2,635001000.0,115305000.0,502273000.0,21465000.0,40457000.0,61922000.0,-143360000.0,205282000.0,-183817000.0,4477527608.691301,3116993103.3607926,1060132734.0932164,414394115.5442648,654843072.9761355,1048567242.1909161,92227053.46728252,348255722.2755966,66138393.268668205,772176000.0,128488000.0,625575000.0,24203000.0,38244000.0,62447000.0,-94506000.0,156953000.0,-132750000.0,1231774000.0,126925000.0,1084446000.0,27702000.0,41507000.0,69209000.0,-71124000.0,140333000.0,-112631000.0,581541500.0000006,133140000.00000001,430913500.0000005,22976499.999999993,36866499.999999985,59842999.99999999,-257604999.99999976,317447999.9999999,-294471499.99999994,1231774000.0,126925000.0,953739500.0000001,24203000.0,38570300.0,63123200.0,-169040899.99999988,169678500.0,-177242650.0
1960,1407,1,2672864000.0,288913000.0,2383951000.0,132902000.0,168499000.0,301401000.0,55706000.0,77196000.0,55706000.0,4569392647.153194,3148205417.965642,1102833887.9482822,442438272.06466514,662012570.395689,1080646990.1424172,99137490.8860662,385791846.87836796,56646425.18629715,2696417000.0,297867000.0,2398550000.0,147691000.0,192280000.0,339971000.0,72063000.0,75628000.0,72063000.0,2962520000.0,382011000.0,2580509000.0,150424000.0,198582000.0,349006000.0,93162000.0,57262000.0,93162000.0,2550735000.0000005,273177000.00000024,2277558000.0000005,145948000.0,193106999.9999999,339054999.9999998,63195000.00000003,82752999.99999994,63195000.00000003,2962520000.0,382011000.0,2519918800.0,147691000.0,192910200.0,340874500.0,73958700.00000001,72667300.0,73622400.0
356,219,4,8388335000.0,5163154000.0,3225181000.0,313343000.0,687959000.0,1001302000.0,116260000.0,85661000.0,227682000.0,4727288030.718462,3211783158.4280415,1232631661.462514,441757192.47692305,672585084.3115385,1096637221.1707692,96537440.85615385,369189874.7430769,72567317.73384616,8392600000.0,5182828000.0,3209772000.0,330004000.0,732108000.0,1062112000.0,118013000.0,91312000.0,238692000.0,8712616000.0,5643298000.0,3069318000.0,323733000.0,694535000.0,1018268000.0,252901000.0,90013000.0,233720000.0,8328719000.000002,5056859999.999999,3271859000.0,331989499.9999997,720075999.9999998,1052065499.9999998,65983500.00000003,89380499.99999996,242608999.99999985,8712616000.0,5643298000.0,3109826200.0,330004000.0,728350700.0,1057727600.0,132464650.00000001,90859050.0,238872699.99999994
1646,1209,4,1563399000.0,1445358000.0,-136248000.0,72333000.0,116682000.0,189015000.0,23506000.0,11423000.0,60910000.0,4727288030.718462,3211783158.4280415,1232631661.462514,441757192.47692305,672585084.3115385,1096637221.1707692,96537440.85615385,369189874.7430769,72567317.73384616,1532280000.0,1416141000.0,-125444000.0,67009000.0,115281000.0,182290000.0,19133000.0,10787000.0,56222000.0,1349749000.0,1216518000.0,710756377.6795151,58459000.0,107958000.0,166417000.0,14080000.0,10178000.0,48281000.0,1580398000.0,1470040000.0000002,-538133188.8397565,69310499.99999999,122284999.99999996,191595499.99999997,20516999.99999999,10256999.999999998,59053499.999999985,1349749000.0,1216518000.0,460978464.37566084,67009000.0,114548700.0,180702700.0,18309099.999999993,10612200.0,55483250.0
1793,1494,4,320019000.0,126984000.0,193035000.0,177377000.0,58492000.0,235869000.0,25509000.0,151868000.0,25509000.0,4727288030.718462,3211783158.4280415,1232631661.462514,441757192.47692305,672585084.3115385,1096637221.1707692,96537440.85615385,369189874.7430769,72567317.73384616,318725000.0,133164000.0,185561000.0,210715000.0,85473000.0,296188000.0,38706000.0,172009000.0,38706000.0,326351000.0,175829000.0,150522000.0,282849000.0,107549000.0,390398000.0,48156000.0,234693000.0,48156000.0,316352500.00000006,120602500.00000003,195750000.0,192485500.0,82994999.99999996,275480499.99999994,41383499.999999985,151102000.0,41383499.999999985,326351000.0,175829000.0,159567600.0,210715000.0,87680600.0,305609000.0,42879749.99999999,182455100.0,41399249.99999999
235,903,0,0.0,0.0,-804876.0,0.0,0.0,0.0,-14550.0,14550.0,-14550.0,5572920030.95766,3400494987.3406277,1831684863.2391856,406234554.0184758,658548990.7721324,1040845932.5111624,102754619.98691301,340547538.3425712,65687015.67590454,750.0,355.0619165047454,-790326.0,0.0,0.0,0.0,-1655918.0,1655918.0,-1655918.0,0.0,0.0,-9503.0,0.0,0.0,0.0,0.0,0.0,0.0,749.9999999999997,355.0619165047453,-802778.4999999997,0.0,0.0,0.0,-1664745.4999999993,1664745.4999999993,-1664745.4999999993,0.0,0.0,-168158.09999999995,0.0,0.0,0.0,-1163556.3499999996,1325617.15,-1327382.65
1668,520,3,267194000.0,175308000.0,91886000.0,5103000.0,0.0,5103000.0,-32762000.0,37865000.0,-32762000.0,4641379180.050808,3122869605.61366,1222168580.2567902,415573749.07929176,644449495.9491917,1047932274.8583525,101471620.37028484,335075420.6374134,80498328.44187836,310263000.0,186736000.0,123527000.0,3540000.0,0.0,3540000.0,-28785000.0,32325000.0,-28785000.0,301412000.0,178742000.0,122670000.0,4816000.0,0.0,4816000.0,-22808000.0,27624000.0,-22808000.0,303626999.9999999,196324000.0,107303000.00000001,2799000.0000000005,0.0,2799000.0000000005,-33260999.999999985,36059999.99999998,-33260999.999999985,301412000.0,178742000.0,119596600.0,3540000.0,0.0,3667600.0,-29229899.999999993,31758300.0,-28932399.999999993
1456,719,4,2249377000.0,1923326000.0,326519000.0,-76300000.0,416103000.0,339803000.0,34941000.0,184914000.0,-261214000.0,4727288030.718462,3211783158.4280415,1232631661.462514,441757192.47692305,672585084.3115385,1096637221.1707692,96537440.85615385,369189874.7430769,72567317.73384616,2306838000.0,1979941000.0,327363000.0,-72786000.0,426096000.0,353310000.0,13511000.0,184127000.0,-256913000.0,2481652000.0,2168517000.0,313406000.0,-97496000.0,459343000.0,361847000.0,-25143000.0,212473000.0,-309969000.0,2230228999.9999995,1899578000.0000007,331208000.00000006,-68708499.99999999,411518499.9999999,342810000.00000006,36062999.99999996,168085500.0,-236794000.00000003,2481652000.0,2168517000.0,316966400.0,-72786000.0,429420700.0,354163700.0,13190799.999999981,188192050.0,-261488500.0
1291,57,1,396890000.0,107071000.0,289819000.0,52569000.0,13634000.0,66203000.0,8375000.0,57828000.0,-5259000.0,4569392647.153194,3148205417.965642,1102833887.9482822,442438272.06466514,662012570.395689,1080646990.1424172,99137490.8860662,385791846.87836796,56646425.18629715,443846000.0,148295000.0,295551000.0,45921000.0,12608000.0,58529000.0,-5630000.0,64159000.0,-18238000.0,408551000.0,112234000.0,296317000.0,39257000.0,11607000.0,50864000.0,-16114000.0,66978000.0,-27721000.0,455415000.0,154567499.99999994,300847500.00000006,41462499.999999985,12194499.999999996,53656999.99999998,-1155000.0000000098,54812000.000000045,-13349500.000000007,408551000.0,112234000.0,297223100.0,45921000.0,12507900.0,57762500.0,-6537700.000000005,63788100.00000001,-18668050.0
1376,344,4,7827000.0,4744000.0,3083000.0,1288000.0,867000.0,2155000.0,-3880000.0,5168000.0,-3880000.0,4727288030.718462,3211783158.4280415,1232631661.462514,441757192.47692305,672585084.3115385,1096637221.1707692,96537440.85615385,369189874.7430769,72567317.73384616,11852000.0,5114000.0,6738000.0,1194000.0,1060000.0,2254000.0,-3976000.0,5170000.0,-3976000.0,28456000.0,7513000.0,20943000.0,2101000.0,697000.0,2798000.0,-11926000.0,14027000.0,-11926000.0,5800000.000000029,5654500.0,145500.00000001185,755500.0000000001,1242999.999999999,1998500.0000000002,-828499.9999999991,1584000.0000000056,-828499.9999999991,28456000.0,7513000.0,16783500.000000004,1194000.0,1023700.0,2308400.0,-4787250.0,6582800.000000001,-4621750.0
1702,1482,1,11990000.0,3030000.0,8960000.0,1480000.0,3017000.0,4497000.0,-944000.0,2424000.0,-944000.0,4569392647.153194,3148205417.965642,1102833887.9482822,442438272.06466514,662012570.395689,1080646990.1424172,99137490.8860662,385791846.87836796,56646425.18629715,12657000.0,2801000.0,9856000.0,1559000.0,3247000.0,86000.0,-1029000.0,2588000.0,-1029000.0,15667000.0,2595000.0,13072000.0,1291000.0,3515000.0,4806000.0,-1693000.0,2984000.0,-1693000.0,11877500.0,3252000.000000002,8625500.000000006,1480999.9999999995,2856999.9999999995,-381999.9999999983,-858999.9999999992,2339999.999999999,-858999.9999999992,15667000.0,2595000.0,12182700.000000002,1559000.0,3273800.0,558000.0,-1143199.9999999995,2642400.0,-1110799.9999999998
1591,331,2,7472874.0,3243445.0,4067990.0,3065804.0,0.0,3065804.0,-21884.0,3087688.0,-21884.0,4477527608.691301,3116993103.3607926,1060132734.0932164,414394115.5442648,654843072.9761355,1048567242.1909161,92227053.46728252,348255722.2755966,66138393.268668205,5160818.0,7119788.0,-2120409.0,458633.0,0.0,458633.0,-2579750.0,3038383.0,-2579750.0,7618091.0,2668307.0,4011565.6792432633,708288.0,0.0,708288.0,-2937920.0,3646208.0,-2937920.0,-8819130.999999983,3363843.0000000014,-10938382.591527669,358122.49999999965,0.0,358122.49999999965,-3139175.4999999986,3497297.999999999,-3139175.4999999986,7618091.0,2668307.0,1021576.0250890767,458633.0,0.0,483598.5,-2966913.749999999,3205839.5,-2819211.6499999994
647,1582,1,2182494000.0,2467501000.0,-484456000.0,389190000.0,141172000.0,531030000.0,-54175000.0,443365000.0,-54175000.0,4569392647.153194,3148205417.965642,1102833887.9482822,442438272.06466514,662012570.395689,1080646990.1424172,99137490.8860662,385791846.87836796,56646425.18629715,1960360000.0,2232752000.0,-471841000.0,374888000.0,136067000.0,513632000.0,-45062000.0,419950000.0,-45062000.0,2315717000.0,2361144000.0,-244876000.0,341558000.0,134372000.0,483229000.0,-182559000.0,524117000.0,-182559000.0,1825711499.9999998,2211643000.0000005,-585380499.9999998,390615499.99999976,137093499.99999997,526164499.99999994,18951999.999999978,371663499.99999994,18951999.999999978,2315717000.0,2361144000.0,-312976899.99999994,374888000.0,135897500.0,510591700.0,-54304100.000000015,435954750.0,-53357200.00000001
100,1589,2,12166000.0,2892000.0,9274000.0,5000.0,54000.0,59000.0,-3433000.0,3433000.0,-3428000.0,4477527608.691301,3116993103.3607926,1060132734.0932164,414394115.5442648,654843072.9761355,1048567242.1909161,92227053.46728252,348255722.2755966,66138393.268668205,12147000.0,7590000.0,4557000.0,14000.0,23000.0,37000.0,-4885000.0,4899000.0,-4885000.0,6166000.0,3420000.0,2746000.0,0.0,31000.0,22000.0,-3115000.0,3115000.0,-3115000.0,18047999.999999993,10991999.999999994,7055999.999999994,9500.0,4982.876712328775,18095.890410958902,-5390499.999999997,5399999.999999996,-5390499.999999997,6166000.0,3420000.0,3607999.999999999,14000.0,23800.0,35500.0,-4606749.999999998,4592300.0,-4682649.999999999
507,336,2,189783000.0,45792000.0,143991000.0,2372000.0,0.0,2372000.0,-18270000.0,20642000.0,-18270000.0,4477527608.691301,3116993103.3607926,1060132734.0932164,414394115.5442648,654843072.9761355,1048567242.1909161,92227053.46728252,348255722.2755966,66138393.268668205,217518000.0,53277000.0,164240000.0,2288000.0,0.0,2288000.0,-25076000.0,27364000.0,-25076000.0,248117000.0,36065000.0,212052000.0,2074000.0,0.0,2074000.0,-18020000.0,20094000.0,-18020000.0,209923999.99999997,62161499.99999998,147761000.00000003,2347999.9999999995,0.0,2347999.9999999995,-26648499.999999993,28996499.99999998,-26648499.999999993,248117000.0,36065000.0,199193800.0,2288000.0,0.0,2266600.0,-23745449.999999996,26073250.0,-24136549.999999996
547,1095,3,1072653000.0,455367000.0,617286000.0,134998000.0,27783000.0,163452000.0,5489000.0,129509000.0,5489000.0,4641379180.050808,3122869605.61366,1222168580.2567902,415573749.07929176,644449495.9491917,1047932274.8583525,101471620.37028484,335075420.6374134,80498328.44187836,1024018000.0,445166000.0,578852000.0,131426000.0,27476000.0,157665000.0,-3193000.0,134619000.0,-3193000.0,911284000.0,403269000.0,508015000.0,108471000.0,25402000.0,133075000.0,-21675000.0,130146000.0,-21675000.0,-273354499.999999,-106964499.99999931,-166389999.9999992,140193499.9999999,27533499.999999985,165301499.99999994,6735499.99999999,133457999.99999997,6735499.99999999,911284000.0,403269000.0,373134000.0000002,131426000.0,27268600.0,155206000.0,-3773350.000000005,133608300.0,-3910850.0000000033
457,886,2,665104000.0,575531000.0,89573000.0,30803000.0,19437000.0,50240000.0,10357000.0,22017000.0,8786000.0,4477527608.691301,3116993103.3607926,1060132734.0932164,414394115.5442648,654843072.9761355,1048567242.1909161,92227053.46728252,348255722.2755966,66138393.268668205,671134000.0,586801000.0,84333000.0,28369000.0,16990000.0,45359000.0,594000.0,21577000.0,6792000.0,574751000.0,468330000.0,106421000.0,19429000.0,10292000.0,29721000.0,2395000.0,15218000.0,4211000.0,721006999.9999996,645313999.9999999,75693000.00000001,29975999.99999999,18515999.999999993,48491999.99999996,-4096499.999999993,23082499.999999993,6893499.999999999,574751000.0,468330000.0,100275400.0,28369000.0,16320200.0,43795200.0,-1210949.9999999965,20455750.0,6306250.0
560,670,3,1900367000.0,289037000.0,1613343000.0,45433000.0,413911000.0,459344000.0,-6757000.0,52246000.0,-6813000.0,4641379180.050808,3122869605.61366,1222168580.2567902,415573749.07929176,644449495.9491917,1047932274.8583525,101471620.37028484,335075420.6374134,80498328.44187836,-3356127000.0,-922554000.0,-2434188000.0,198092000.0,490588000.0,688680000.0,136225000.0,62159000.0,135933000.0,1554729000.0,366766000.0,1188322000.0,217490000.0,440854000.0,658344000.0,163850000.0,53607000.0,163883000.0,-3137249999.999999,-877139499.9999998,-2260353999.999999,320859999.9999998,537394499.9999999,858254499.9999998,258191499.9999998,64599999.99999997,256259999.99999982,1554729000.0,366766000.0,498586800.0000002,198092000.0,485614600.0,685646400.0,205495749.99999988,60692700.0,177621099.99999994
1402,905,3,88944000.0,45361000.0,43583000.0,0.0,45000.0,45000.0,-14351000.0,14351000.0,-14351000.0,4641379180.050808,3122869605.61366,1222168580.2567902,415573749.07929176,644449495.9491917,1047932274.8583525,101471620.37028484,335075420.6374134,80498328.44187836,99051000.0,45974000.0,53077000.0,0.0,45000.0,45000.0,-15642000.0,15642000.0,-15642000.0,116816000.0,45561000.0,71255000.0,45000.0,0.0,45000.0,-9799000.0,9844000.0,-9799000.0,91656000.00000006,45602499.99999999,46053500.000000015,-22499.999999999967,514999.9999999994,492499.99999999953,-16534499.999999989,16511999.999999993,-16534499.999999989,116816000.0,45561000.0,66214700.0,0.0,40500.0,45000.0,-14335349.999999994,14569400.0,-14741149.999999996
1274,1040,3,5390785000.0,4083098000.0,1050686000.0,352054000.0,284900000.0,636954000.0,120850000.0,187232000.0,164822000.0,4641379180.050808,3122869605.61366,1222168580.2567902,415573749.07929176,644449495.9491917,1047932274.8583525,101471620.37028484,335075420.6374134,80498328.44187836,5470481000.0,4188744000.0,1007666000.0,356667000.0,321961000.0,678628000.0,105701000.0,194298000.0,162369000.0,5813498000.0,4491521000.0,1002430000.0,388384000.0,293459000.0,681843000.0,150677000.0,207972000.0,180412000.0,5295350999.999999,4065122000.0000024,967349000.0,357833999.9999998,338595999.9999997,696429999.9999998,117014500.00000003,183114999.99999994,174718999.99999997,5813498000.0,4491521000.0,995413800.0,356667000.0,319110800.0,678949500.0,124850550.00000001,195914500.0,169682600.0
799,197,1,18535000.0,13748000.0,4787000.0,2839000.0,7502000.0,10341000.0,-2229000.0,3071000.0,-232000.0,4569392647.153194,3148205417.965642,1102833887.9482822,442438272.06466514,662012570.395689,1080646990.1424172,99137490.8860662,385791846.87836796,56646425.18629715,20973000.0,13525000.0,7448000.0,3272000.0,8816000.0,12088000.0,-2300000.0,3288000.0,-16000.0,27950000.0,15480000.0,12470000.0,8543000.0,17383000.0,25926000.0,1792000.0,4464000.0,4079000.0,19002500.000000007,12940500.000000006,6062000.000000005,709000.0000000015,5776000.000000002,6485000.0,-4472499.999999996,2859000.0000000014,-2149999.9999999963,27950000.0,15480000.0,11188400.0,3272000.0,9672700.0,13471800.0,-2158649.999999998,3480300.0,162800.00000000116
1436,782,1,13281300000.0,5777300000.0,7484300000.0,1030700000.0,1150100000.0,2180800000.0,687000000.0,343700000.0,687000000.0,4569392647.153194,3148205417.965642,1102833887.9482822,442438272.06466514,662012570.395689,1080646990.1424172,99137490.8860662,385791846.87836796,56646425.18629715,12762700000.0,5759100000.0,6984100000.0,993400000.0,1101000000.0,2094400000.0,674700000.0,318700000.0,674700000.0,11100700000.0,5424100000.0,5656000000.0,1058300000.0,1134300000.0,2192600000.0,424500000.0,633800000.0,424500000.0,13349500000.0,5950699999.999997,7380100000.000003,922999999.9999999,1054949999.9999994,1977950000.0000002,744899999.9999996,178100000.00000015,744899999.9999996,11100700000.0,5424100000.0,6000820000.000001,993400000.0,1104330000.0,2104220000.0,634739999.9999998,367660000.0,645719999.9999999
1518,137,1,108681735.0,9192190.0,67531550.37365061,2201326.0,255772.0,2457098.0,-8935951.0,11137277.0,-8935951.0,4569392647.153194,3148205417.965642,1102833887.9482822,442438272.06466514,662012570.395689,1080646990.1424172,99137490.8860662,385791846.87836796,56646425.18629715,112801186.0,9368809.0,70091252.90985216,-261289.0,459095.0,197806.0,-11994439.0,11733150.0,-11994439.0,147841111.0,12895694.0,91864004.88355264,4326520.0,767936.0,5094456.0,-6535615.0,10862135.0,-6535615.0,97379053.50000001,6104500.000000007,60508405.17749986,-2374690.9999999963,326247.5000000001,-2048443.4999999972,-13701956.499999996,11327265.499999996,-13701956.499999996,147841111.0,12895694.0,85592884.94234209,-261289.0,489979.1,687471.0,-11210550.549999999,11518358.549999999,-11414929.45
211,1313,0,189692000.0,90178000.0,99514000.0,-4411000.0,24963000.0,20552000.0,-10000000.0,5589000.0,-10000000.0,5572920030.95766,3400494987.3406277,1831684863.2391856,406234554.0184758,658548990.7721324,1040845932.5111624,102754619.98691301,340547538.3425712,65687015.67590454,191072000.0,84371000.0,106701000.0,-2169000.0,26976000.0,24807000.0,-6457000.0,4288000.0,-6457000.0,199538000.0,83894000.0,115644000.0,-2178000.0,26047000.0,23869000.0,-9947000.0,7769000.0,-9947000.0,188903500.0,84528999.99999999,104374500.00000007,884499.9999999958,27601999.99999999,28486499.999999978,-2068000.000000004,2952499.9999999995,-2068000.000000004,199538000.0,83894000.0,113390100.00000001,-2169000.0,26883100.0,24713200.0,-5309500.000000002,4850650.0,-5838300.000000001
1542,188,0,230878000.0,57278000.0,173600000.0,26973000.0,7041000.0,34014000.0,-11169000.0,38142000.0,-11169000.0,5572920030.95766,3400494987.3406277,1831684863.2391856,406234554.0184758,658548990.7721324,1040845932.5111624,102754619.98691301,340547538.3425712,65687015.67590454,233825000.0,56418000.0,177407000.0,26987000.0,6318000.0,33305000.0,-11963000.0,38950000.0,-11963000.0,158265000.0,55437000.0,102828000.0,22264000.0,4168000.0,26432000.0,-13566000.0,35830000.0,-13566000.0,229230500.00000003,56258000.0,172972500.00000003,29246999.999999993,7195999.999999996,36442999.99999999,-10826499.999999996,40073499.999999985,-10826499.999999996,158265000.0,55437000.0,116856900.0,26987000.0,6103000.0,32617700.0,-11875649.999999998,38438350.0,-11942649.999999998
1496,602,1,73773000.0,50819000.0,38847689.64492722,5428000.0,22481000.0,27909000.0,-1778000.0,7206000.0,-1778000.0,4569392647.153194,3148205417.965642,1102833887.9482822,442438272.06466514,662012570.395689,1080646990.1424172,99137490.8860662,385791846.87836796,56646425.18629715,69712000.0,49151000.0,36709231.56882825,5937000.0,19069000.0,25006000.0,-1752000.0,7689000.0,-1752000.0,97124000.0,33562000.0,51143955.22852414,3617000.0,15417000.0,19034000.0,-4857000.0,8474000.0,-4857000.0,55313500.00000003,57245999.99999998,29127210.241886366,5902999.999999997,18265499.999999996,24168500.0,-650499.9999999976,6553500.0,-650499.9999999976,97124000.0,33562000.0,46740606.23119659,5937000.0,18703800.0,24408800.0,-2132749.9999999986,7732450.0,-2042549.9999999993
1891,1386,2,1582767000.0,680421000.0,880211000.0,56683000.0,17637000.0,74320000.0,-5119000.0,35279000.0,21404000.0,4477527608.691301,3116993103.3607926,1060132734.0932164,414394115.5442648,654843072.9761355,1048567242.1909161,92227053.46728252,348255722.2755966,66138393.268668205,1575570000.0,671954000.0,878511000.0,54943000.0,16840000.0,71783000.0,-9866000.0,38177000.0,16766000.0,1639896578.0,704989874.0,899220522.0,54921210.0,16633889.0,71555099.0,-5432239.0,36031642.0,18889568.0,1546340711.0000002,658600562.9999998,864478238.9999998,55768394.999999985,17505555.499999996,73273950.49999997,-16131880.499999989,39420178.99999999,16348215.999999994,1639896578.0,704989874.0,892272065.4,54943000.0,16819388.9,71760209.9,-11668811.949999996,37872246.3,17065378.4
362,63,0,5641000.0,5200000.0,-3859000.0,1192000.0,781000.0,1973000.0,-97000.0,2070000.0,-878000.0,5572920030.95766,3400494987.3406277,1831684863.2391856,406234554.0184758,658548990.7721324,1040845932.5111624,102754619.98691301,340547538.3425712,65687015.67590454,5786000.0,5332000.0,-3846000.0,1128000.0,713000.0,1841000.0,-144000.0,1985000.0,-857000.0,5042000.0,5394000.0,-4652000.0,1013000.0,690000.0,1703000.0,-300000.0,2003000.0,-990000.0,5935499.999999999,5378500.0,-3743000.0000000037,1252499.9999999993,779999.9999999995,2032500.0000000002,6999.999999999833,2025499.9999999998,-772999.9999999998,5042000.0,5394000.0,-4470200.000000001,1128000.0,710700.0,1827200.0,-115300.00000000009,1992650.0,-858399.9999999999
605,600,3,3208196000.0,2133043000.0,1075153000.0,625972000.0,1066275000.0,1692247000.0,91616000.0,497965000.0,128007000.0,4641379180.050808,3122869605.61366,1222168580.2567902,415573749.07929176,644449495.9491917,1047932274.8583525,101471620.37028484,335075420.6374134,80498328.44187836,3169394000.0,2118464000.0,1050930000.0,650062000.0,1083248000.0,1733310000.0,101522000.0,486195000.0,163867000.0,2987324000.0,1973634000.0,1013690000.0,580357000.0,1015125000.0,1595482000.0,86510000.0,462110000.0,118247000.0,-1290375499.9999952,-824445499.9999968,-465929999.9999985,646287999.9999998,1077557999.9999998,1723845999.9999993,89201999.99999994,491537500.0,154750499.99999994,2987324000.0,1973634000.0,717766000.0000002,650062000.0,1076435700.0,1719527200.0,90858399.99999997,481912250.0,152008049.99999997
384,240,3,13057000.0,4943774.229094189,10949000.0,7944000.0,0.0,7944000.0,1997000.0,5947000.0,1997000.0,4641379180.050808,3122869605.61366,1222168580.2567902,415573749.07929176,644449495.9491917,1047932274.8583525,101471620.37028484,335075420.6374134,80498328.44187836,9842000.0,3726478.208068087,7992000.0,53000.0,0.0,53000.0,-2364000.0,2417000.0,-2364000.0,18507000.0,7007308.69708556,15637000.0,4315000.0,0.0,4315000.0,-1458000.0,5773000.0,-1458000.0,6572000.000000002,2488357.527273266,5106500.000000006,-2099999.9999999963,0.0,-2099999.9999999963,-3805499.9999999963,1705500.0000000005,-3805499.9999999963,18507000.0,7007308.69708556,13530900.000000002,53000.0,0.0,479200.0,-2812949.999999998,3017050.0,-2615249.999999999
438,681,2,5973000000.0,4408000000.0,1554000000.0,244000000.0,1526000000.0,1770000000.0,147000000.0,127000000.0,117000000.0,4477527608.691301,3116993103.3607926,1060132734.0932164,414394115.5442648,654843072.9761355,1048567242.1909161,92227053.46728252,348255722.2755966,66138393.268668205,6287000000.0,4658000000.0,1615000000.0,251000000.0,1502000000.0,1753000000.0,10000000.0,119000000.0,132000000.0,5354000000.0,3785000000.0,1563000000.0,225000000.0,1401000000.0,1626000000.0,125000000.0,103000000.0,122000000.0,6477999999.999999,4804999999.999998,1655500000.0000002,260999999.99999997,1530499999.9999993,1791499999.9999995,19499999.999999993,129499999.99999991,131500000.00000003,5354000000.0,3785000000.0,1581500000.0,251000000.0,1491900000.0,1740300000.0,49250000.0,116850000.0,129850000.0
1761,1233,0,589088000.0,253950000.0,335138000.0,19294000.0,99428000.0,118722000.0,9057000.0,10237000.0,9057000.0,5572920030.95766,3400494987.3406277,1831684863.2391856,406234554.0184758,658548990.7721324,1040845932.5111624,102754619.98691301,340547538.3425712,65687015.67590454,602738000.0,274137000.0,328601000.0,22481000.0,93891000.0,116372000.0,11465000.0,11016000.0,11465000.0,586477000.0,277800000.0,308677000.0,25118000.0,97866000.0,122984000.0,14464000.0,10654000.0,14464000.0,600689000.0000001,265888000.00000003,334800999.99999994,18210500.000000004,86217999.99999997,104428499.99999997,6588500.000000007,11621999.999999996,6588500.000000007,586477000.0,277800000.0,313901800.0,22481000.0,94288500.0,117033200.0,9926450.000000004,11004200.0,10601850.000000002
403,509,4,21286772.0,1383236.0,19903536.0,781782.0,421382.0,1203164.0,-1960898.0,2742680.0,-1960898.0,4727288030.718462,3211783158.4280415,1232631661.462514,441757192.47692305,672585084.3115385,1096637221.1707692,96537440.85615385,369189874.7430769,72567317.73384616,22773503.0,1362072.0,21411431.0,1119258.0,536486.0,1655744.0,-1623455.0,2742713.0,-1623455.0,24032390.0,2066122.0,21966268.0,1274432.0,693571.0,1968003.0,-1712991.0,2987423.0,-1712991.0,22562331.99999999,1127661.0000000005,21434671.000000007,1081241.4999999995,452886.49999999994,1534128.0000000002,-1621993.9999999993,2703235.4999999995,-1621993.9999999993,24032390.0,2066122.0,21859948.600000005,1119258.0,552194.5,1686969.9000000001,-1649585.2999999998,2787707.2499999995,-1640923.8999999997
388,1329,4,3445920.0,1859560.0,1616914.0883314284,2970901.0,569508.0,805185.0,2437201.0,533700.0,2437201.0,4727288030.718462,3211783158.4280415,1232631661.462514,441757192.47692305,672585084.3115385,1096637221.1707692,96537440.85615385,369189874.7430769,72567317.73384616,2112699.0,3477555.0,991332.5838973976,1095092.0,814437.0,1909529.0,642189.0,452903.0,642189.0,1119266.0,3362090.0,525188.3282230477,417805.0,813252.0,1231057.0,6995.0,410810.0,6995.0,2253093.0,3643126.0,1057209.0512899088,1148025.9999999995,1686484.999999998,2834510.9999999967,698195.4999999998,449830.49999999994,698195.4999999998,1119266.0,3362090.0,631592.4728364199,1095092.0,814318.5,1841681.8,479634.0499999999,444177.14999999997,531952.1499999999
1452,1493,0,328158000.0,124250521.82515822,270486000.0,24944000.0,16521000.0,41465000.0,-7674000.0,24827000.0,117000.0,5572920030.95766,3400494987.3406277,1831684863.2391856,406234554.0184758,658548990.7721324,1040845932.5111624,102754619.98691301,340547538.3425712,65687015.67590454,328882000.0,124524650.07375012,274015000.0,28972000.0,15330000.0,44302000.0,-3631000.0,23689000.0,5283000.0,347746000.0,131667129.74424352,284937000.0,22779000.0,17485000.0,40264000.0,-5798000.0,21276000.0,1503000.0,324546000.0000001,122882909.62361977,270340500.0,29003999.99999999,14127999.999999998,43131999.99999998,-7008499.999999995,26548999.99999999,2455000.000000003,347746000.0,131667129.74424352,282017700.0,28972000.0,15545500.0,43898200.0,-5969849.999999998,23492400.0,3678600.000000001
1876,217,1,2498305.0,2997402.0,-3454854.0,467340.0,346611.0,813951.0,-114631.0,581971.0,-114631.0,4569392647.153194,3148205417.965642,1102833887.9482822,442438272.06466514,662012570.395689,1080646990.1424172,99137490.8860662,385791846.87836796,56646425.18629715,2701730.0,3041259.0,1506332.817375064,204984.0,209071.0,414055.0,3479845.0,776848.0,-571864.0,1742662.0,4821954.0,-6089020.0,327303.0,246346.0,573649.0,-500824.0,828127.0,-500824.0,2575499.5,3567225.9999999995,4966268.983347442,176262.5000000001,208577.9999999999,384840.4999999998,3468455.999999998,759515.4999999994,-583252.9999999998,1742662.0,4821954.0,-3877962.2033305117,204984.0,212798.5,430014.4,2279949.799999999,785370.5499999999,-561072.7
757,180,3,1288046000.0,649920845.9604261,889849000.0,105384000.0,285360000.0,390744000.0,53190000.0,52194000.0,53190000.0,4641379180.050808,3122869605.61366,1222168580.2567902,415573749.07929176,644449495.9491917,1047932274.8583525,101471620.37028484,335075420.6374134,80498328.44187836,1238577000.0,624959831.8904191,850310000.0,96739000.0,268175000.0,364914000.0,43077000.0,53662000.0,43077000.0,1326263000.0,669204338.1416601,843491000.0,94556000.0,296735000.0,391291000.0,47396000.0,47160000.0,47396000.0,1179691500.0,595247450.5198759,846258000.0000002,87925500.0,227976499.99999997,315901999.9999999,34063999.99999999,53861499.999999985,34063999.99999999,1326263000.0,669204338.1416601,844044400.0,96739000.0,271031000.0,367551700.0,39866200.0,52381550.0,41236900.0
660,425,3,600057000.0,369915000.0,225443000.0,43121000.0,106269000.0,149390000.0,7853000.0,30439000.0,12682000.0,4641379180.050808,3122869605.61366,1222168580.2567902,415573749.07929176,644449495.9491917,1047932274.8583525,101471620.37028484,335075420.6374134,80498328.44187836,582618000.0,355470000.0,222066000.0,39817000.0,89364000.0,129181000.0,8603000.0,28451000.0,11366000.0,486229000.0,280809000.0,200539000.0,32426000.0,75988000.0,108414000.0,2773000.0,25166000.0,7260000.0,623287499.9999999,387758499.9999999,230180000.00000003,41050499.99999999,90204999.99999996,131255500.00000001,9946999.999999996,29464499.999999996,11585999.999999996,486229000.0,280809000.0,206467200.0,39817000.0,88026400.0,127104300.0,7525999.999999998,27895350.0,10610799.999999998
197,250,3,538955000.0,291671000.0,247284000.0,-14193000.0,14235000.0,42000.0,-51845000.0,37652000.0,-51845000.0,4641379180.050808,3122869605.61366,1222168580.2567902,415573749.07929176,644449495.9491917,1047932274.8583525,101471620.37028484,335075420.6374134,80498328.44187836,410605000.0,98494000.0,312111000.0,-12227000.0,12248000.0,21000.0,-63250000.0,51023000.0,-63250000.0,487255000.0,58515000.0,428740000.0,-638000.0,5739000.0,5101000.0,-28031000.0,27393000.0,-28031000.0,-343281999.99999917,-15197999.999999855,-328083999.9999992,-16796999.99999999,14234857.142857136,-2158000.0000000014,-71811499.99999997,55014499.999999985,-71811499.99999997,487255000.0,58515000.0,277375200.0000001,-12227000.0,11597100.0,529000.0,-56965049.999999985,46696150.0,-58774649.999999985
93,807,1,25334074.0,18917048.0,5501613.0,-536032.0,4501393.0,3965361.0,-2975120.0,2439088.0,-2975120.0,4569392647.153194,3148205417.965642,1102833887.9482822,442438272.06466514,662012570.395689,1080646990.1424172,99137490.8860662,385791846.87836796,56646425.18629715,27864379.0,18539219.0,9754184.0,33630.0,5063425.0,5097055.0,-5610858.0,5644488.0,-5610858.0,28956916.0,10693970.0,17631110.0,-165174.0,2688450.0,2685920.0,-2502186.0,2337012.0,-2502186.0,27606308.500000004,21251802.499999993,7313960.000000007,81480.99999999987,6505903.499999997,6506062.499999996,-5989799.499999999,6071280.499999995,-5989799.499999999,28956916.0,10693970.0,15567680.000000002,33630.0,4825927.5,4855941.5,-4867727.149999999,5025672.05,-5102806.05
472,555,3,1934400000.0,855887268.5537325,957200000.0,84000000.0,375600000.0,459600000.0,30800000.0,59000000.0,25000000.0,4641379180.050808,3122869605.61366,1222168580.2567902,415573749.07929176,644449495.9491917,1047932274.8583525,101471620.37028484,335075420.6374134,80498328.44187836,1934400000.0,855887268.5537325,957200000.0,120500000.0,444800000.0,565300000.0,65200000.0,63200000.0,57300000.0,2012800000.0,890575834.4421799,870200000.0,123000000.0,376800000.0,499800000.0,57300000.0,64200000.0,58800000.0,1895200000.0000012,838542985.6095092,1000699999.9999999,133649999.99999997,463199999.9999999,596849999.9999999,78199999.99999999,61800000.00000001,71849999.99999997,2012800000.0,890575834.4421799,896300000.0,120500000.0,438000000.0,558750000.0,69330000.0,63260000.0,61964999.999999985
1345,974,4,102973000.0,162948000.0,-346214000.0,-13037000.0,25768000.0,12731000.0,-23219000.0,35950000.0,-48987000.0,4727288030.718462,3211783158.4280415,1232631661.462514,441757192.47692305,672585084.3115385,1096637221.1707692,96537440.85615385,369189874.7430769,72567317.73384616,95763000.0,168582000.0,-678272000.0,-4488000.0,22481000.0,17993000.0,-13183000.0,31176000.0,-35664000.0,332219900.0,14013654.0,333525.0,0.0,23126000.0,18236000.0,-2011943.0,2011943.0,-2011943.0,-20493949.99999976,272000672.9999998,-1120102762.4999993,-6932999.999999995,21835999.999999996,17749999.99999999,-19158528.499999985,46269528.49999996,-53202528.49999999,332219900.0,14013654.0,-223753732.49999988,-4488000.0,22545500.0,18017300.0,-12819447.149999993,26852541.45,-34195147.15
1672,1178,0,2501300000.0,1075500000.0,1407900000.0,99600000.0,151100000.0,250700000.0,31900000.0,67700000.0,31900000.0,5572920030.95766,3400494987.3406277,1831684863.2391856,406234554.0184758,658548990.7721324,1040845932.5111624,102754619.98691301,340547538.3425712,65687015.67590454,2633100000.0,1200800000.0,1414400000.0,114800000.0,162100000.0,276900000.0,-19400000.0,134200000.0,-19400000.0,2694600000.0,1377800000.0,1267800000.0,110800000.0,169300000.0,280100000.0,44900000.0,65900000.0,44900000.0,2621550000.0000005,1121150000.0000002,1498049999.9999998,117449999.99999997,160699999.9999999,278150000.0,-19949999.999999978,137399999.99999994,-19949999.999999978,2694600000.0,1377800000.0,1313850000.0,114800000.0,162820000.0,277220000.0,-384999.9999999888,120860000.0,-6704999.9999999935
521,196,2,27910000000.0,24392000000.0,14058781786.346067,1525000000.0,6421000000.0,7946000000.0,561000000.0,638000000.0,887000000.0,4477527608.691301,3116993103.3607926,1060132734.0932164,414394115.5442648,654843072.9761355,1048567242.1909161,92227053.46728252,348255722.2755966,66138393.268668205,28991000000.0,25659000000.0,14603301424.864164,1386000000.0,4962000000.0,6348000000.0,530000000.0,522000000.0,864000000.0,32243000000.0,27113000000.0,16241393806.41907,708000000.0,7802000000.0,8510000000.0,156000000.0,326000000.0,382000000.0,27717500000.000015,25410499999.999996,13961815985.777401,504000000.00000083,5449999999.999994,5954000000.000001,-319999999.9999988,571999999.9999998,-67999999.99999878,32243000000.0,27113000000.0,15785478242.290737,1386000000.0,5246000000.0,6564200000.0,-7199999.999999404,487800000.0,488000000.00000036
1143,374,4,105238000.0,42240000.0,62998000.0,8572000.0,322000.0,8894000.0,2218000.0,6354000.0,2218000.0,4727288030.718462,3211783158.4280415,1232631661.462514,441757192.47692305,672585084.3115385,1096637221.1707692,96537440.85615385,369189874.7430769,72567317.73384616,107808000.0,45762000.0,62046000.0,8290000.0,414000.0,8704000.0,2665000.0,5625000.0,2665000.0,89767000.0,33877000.0,55890000.0,8238000.0,1123000.0,7433000.0,5242000.0,2395000.0,5843000.0,118200500.0,53892999.99999999,64307500.0,8750999.999999996,-65999.99999999875,9648999.999999998,1702000.000000001,7349499.999999994,1401500.0000000007,89767000.0,33877000.0,57573500.0,8290000.0,484900.0,8576900.0,2956600.0000000005,5151450.0,2921550.0
502,643,0,2010176000.0,889414829.379791,1057656000.0,113627000.0,250202000.0,363829000.0,44531000.0,69096000.0,44531000.0,5572920030.95766,3400494987.3406277,1831684863.2391856,406234554.0184758,658548990.7721324,1040845932.5111624,102754619.98691301,340547538.3425712,65687015.67590454,2046212000.0,905359180.9149452,1054264000.0,122177000.0,252136000.0,374313000.0,51591000.0,70586000.0,51591000.0,1839208000.0,813768978.1959125,954514000.0,121758000.0,239318000.0,361076000.0,47493000.0,74265000.0,47493000.0,2137971500.0,945958740.3746516,1091117500.0,123629499.99999997,254648499.9999999,378277999.99999976,53263499.99999997,70365999.99999994,53263499.99999997,1839208000.0,813768978.1959125,981834700.0,122177000.0,250854200.0,372989300.0,51197849.999999985,71299800.0,51273149.99999999
319,277,1,15154000000.0,5534200000.0,9554000000.0,739300000.0,999600000.0,1738900000.0,318400000.0,315200000.0,424100000.0,4569392647.153194,3148205417.965642,1102833887.9482822,442438272.06466514,662012570.395689,1080646990.1424172,99137490.8860662,385791846.87836796,56646425.18629715,15028600000.0,5548200000.0,9414800000.0,697500000.0,989000000.0,1686500000.0,272400000.0,315600000.0,381900000.0,14225600000.0,5410600000.0,8750900000.0,575300000.0,940400000.0,1515700000.0,190000000.0,278700000.0,296600000.0,15413300000.000002,5649550000.0,9698000000.000002,741950000.0,1001349999.9999996,1743299999.9999998,297549999.9999998,331799999.9999998,410149999.9999998,14225600000.0,5410600000.0,8940320000.0,697500000.0,984140000.0,1669420000.0,260254999.9999999,309840000.0,373314999.99999994
471,1421,2,346507000.0,100361000.0,246146000.0,14398000.0,62502000.0,72480000.0,4926000.0,9472000.0,4926000.0,4477527608.691301,3116993103.3607926,1060132734.0932164,414394115.5442648,654843072.9761355,1048567242.1909161,92227053.46728252,348255722.2755966,66138393.268668205,348635000.0,109833000.0,238802000.0,12689000.0,62087000.0,72435000.0,3083000.0,9606000.0,3083000.0,375398000.0,135837000.0,239561000.0,11429000.0,60163000.0,66663000.0,3777000.0,7652000.0,3777000.0,340569500.00000006,105662000.00000006,234907500.00000006,12792999.999999994,67361999.99999997,78152499.99999997,390500.0000000023,12402499.99999999,390500.0000000023,375398000.0,135837000.0,238630300.0,12689000.0,61894600.0,71857800.0,1944950.0000000012,9494850.0,2414050.000000001
1756,928,0,229309000.0,190264000.0,-44269000.0,9225000.0,52669000.0,61894000.0,1401000.0,7511000.0,1714000.0,5572920030.95766,3400494987.3406277,1831684863.2391856,406234554.0184758,658548990.7721324,1040845932.5111624,102754619.98691301,340547538.3425712,65687015.67590454,208244000.0,173945000.0,-48954000.0,12955000.0,75641000.0,88596000.0,7726000.0,5851000.0,7104000.0,193051000.0,211899000.0,-18848000.0,4554000.0,81189000.0,85743000.0,-10663000.0,7112000.0,-2558000.0,213053000.0,185587000.00000006,-55787000.000000015,14420499.999999998,71803499.99999996,86223999.99999997,13605999.99999999,5489000.0,8931499.999999994,193051000.0,211899000.0,-26235800.000000004,12955000.0,76195800.0,88310700.0,5149299.999999995,6067000.0,5719849.999999998
848,613,0,101740000.0,28463000.0,50734000.0,29850000.0,12745000.0,40857000.0,2689000.0,27161000.0,2689000.0,5572920030.95766,3400494987.3406277,1831684863.2391856,406234554.0184758,658548990.7721324,1040845932.5111624,102754619.98691301,340547538.3425712,65687015.67590454,94053000.0,21810000.0,48128000.0,28513000.0,12523000.0,39610000.0,2446000.0,26067000.0,2446000.0,115602000.0,12432000.0,61129000.0,27177000.0,10077000.0,35953000.0,2941000.0,24236000.0,2941000.0,96998500.0,26767999.999999993,49416000.000000015,28758999.999999985,13321999.999999998,40632499.99999999,3314999.999999999,25443999.999999996,3314999.999999999,115602000.0,12432000.0,58786400.0,28513000.0,12278400.0,39244300.0,3028999.9999999995,25638500.0,2805699.9999999995
1310,607,1,9582645000.0,3280269000.0,6302376000.0,376175000.0,424915000.0,801090000.0,272965000.0,103421000.0,272754000.0,4569392647.153194,3148205417.965642,1102833887.9482822,442438272.06466514,662012570.395689,1080646990.1424172,99137490.8860662,385791846.87836796,56646425.18629715,8997166000.0,2957528000.0,6039638000.0,310420000.0,500253000.0,810673000.0,168515000.0,142040000.0,168380000.0,7492817000.0,1664480000.0,5828337000.0,20982000.0,607951000.0,628933000.0,-68353000.0,95319000.0,-74337000.0,9533055499.999998,3473222000.0,6059833500.000001,355954499.9999999,414394999.99999994,770349499.9999998,211692499.99999997,141396499.99999994,214557999.9999999,7492817000.0,1664480000.0,5874636300.0,310420000.0,511022800.0,792499000.0,119043349.99999999,132631450.0,133689999.99999997
202,502,1,609678000.0,288631252.1743736,366720000.0,84451000.0,21802000.0,106253000.0,5683000.0,78768000.0,5683000.0,4569392647.153194,3148205417.965642,1102833887.9482822,442438272.06466514,662012570.395689,1080646990.1424172,99137490.8860662,385791846.87836796,56646425.18629715,596061000.0,282184748.0183134,352893000.0,78990000.0,22845000.0,101835000.0,4595000.0,74395000.0,4595000.0,604326000.0,286097530.3381957,346839000.0,82886000.0,25247000.0,108133000.0,-22882000.0,105768000.0,-22882000.0,588570500.0000001,278638626.30420834,354620000.0,77501999.99999994,22057499.999999993,99559500.0,14633499.999999983,62868499.99999999,14633499.999999983,604326000.0,286097530.3381957,348395200.0,78990000.0,23085200.0,102464800.0,1371149.9999999916,79516950.0,2111149.9999999944
1444,124,4,43441700000.0,21559314449.01792,21882385550.98208,1370000000.0,587400000.0,1957400000.0,472000000.0,1485400000.0,-115400000.0,4727288030.718462,3211783158.4280415,1232631661.462514,441757192.47692305,672585084.3115385,1096637221.1707692,96537440.85615385,369189874.7430769,72567317.73384616,43019300000.0,21349685119.98003,21669614880.01997,1297000000.0,533000000.0,1830000000.0,425300000.0,1404700000.0,-107700000.0,40761000000.0,20228932483.222782,20532067516.77721,1197900000.0,805100000.0,2003000000.0,404200000.0,1598800000.0,-400900000.0,44036750000.00002,21854626788.61071,22182123211.3893,1487249999.999999,785299999.9999995,2272549999.9999995,557849999.9999996,1714699999.9999998,-227449999.99999982,40761000000.0,20228932483.222782,20862078655.69963,1297000000.0,560210000.0,1847300000.0,485244999.9999998,1474520000.0,-202264999.99999994
1578,1121,2,1146353000.0,752649000.0,393704000.0,95229000.0,32092000.0,127321000.0,-58245000.0,153474000.0,-58245000.0,4477527608.691301,3116993103.3607926,1060132734.0932164,414394115.5442648,654843072.9761355,1048567242.1909161,92227053.46728252,348255722.2755966,66138393.268668205,1159015000.0,743332000.0,415683000.0,92033000.0,34018000.0,126051000.0,-62660000.0,154693000.0,-62660000.0,1174215000.0,728814000.0,445401000.0,101249000.0,29749000.0,130998000.0,-24611000.0,125860000.0,-24611000.0,1159077500.0,750021999.9999998,409055500.00000006,87692499.99999999,33950500.0,121642999.99999996,-80478999.99999997,168171499.99999985,-80478999.99999997,1174215000.0,728814000.0,438131900.0,92033000.0,33591100.0,126545700.0,-60154799.999999985,150274250.0,-60395899.999999985
451,840,3,796771.0,1072746.0,-275975.0,205707.0,158335.0,364042.0,-168127.0,373834.0,-168127.0,4641379180.050808,3122869605.61366,1222168580.2567902,415573749.07929176,644449495.9491917,1047932274.8583525,101471620.37028484,335075420.6374134,80498328.44187836,605836.0,998635.0,-392799.0,173440.0,159136.0,332576.0,-26065.0,199505.0,-26065.0,558605.0,909735.0,294152.51750782225,190010.0,130971.0,320981.0,-67411.0,257421.0,-67411.0,-248115.49999999916,-312069.9999999993,-1252879.7401698662,168604.9999999999,172491.49999999988,341096.4999999999,-11896.000000000016,180500.99999999985,-11896.000000000016,558605.0,909735.0,-15253.93402771544,173440.0,156319.5,331416.5,-31384.300000000007,209187.8,-30083.500000000007
35,1605,2,9069035000.0,2563480000.0,6505555000.0,942419000.0,522866000.0,1285548000.0,602695000.0,339724000.0,602695000.0,4477527608.691301,3116993103.3607926,1060132734.0932164,414394115.5442648,654843072.9761355,1048567242.1909161,92227053.46728252,348255722.2755966,66138393.268668205,8186041000.0,2328459000.0,5857582000.0,884129000.0,533613000.0,1261537000.0,530062000.0,354067000.0,530062000.0,6162010000.0,1776792000.0,4385218000.0,709980000.0,432569000.0,1008689000.0,417347000.0,292633000.0,417347000.0,8876568999.999998,2547008999.9999995,6329559999.999999,931392499.9999995,571759499.9999996,1343239499.9999998,563677499.9999999,367714999.9999998,563677499.9999999,6162010000.0,1776792000.0,4774086400.0,884129000.0,523508600.0,1236252200.0,513055249.99999994,343145000.0,517603650.0
237,1328,0,48924605000.0,25766652000.0,22441501000.0,1560160000.0,915531000.0,2475691000.0,558196000.0,1001964000.0,558196000.0,5572920030.95766,3400494987.3406277,1831684863.2391856,406234554.0184758,658548990.7721324,1040845932.5111624,102754619.98691301,340547538.3425712,65687015.67590454,48150880000.0,25235421000.0,22171486000.0,1510517000.0,941952000.0,2452469000.0,602741000.0,1013514000.0,497003000.0,43938749000.0,21065794000.0,22660579000.0,1354122000.0,931249000.0,2285371000.0,386432000.0,918757000.0,435365000.0,50500827500.00001,27580431500.000004,21882835499.999996,1505802999.9999998,950203999.9999996,2456006999.999999,437892500.0,1075698499.9999998,430104499.9999998,43938749000.0,21065794000.0,22505030300.0,1510517000.0,940881700.0,2435759200.0,455424050.0,1000781050.0,464605849.99999994
917,299,4,514281000.0,309957000.0,198004000.0,106985000.0,149052000.0,309744000.0,62399000.0,44586000.0,62399000.0,4727288030.718462,3211783158.4280415,1232631661.462514,441757192.47692305,672585084.3115385,1096637221.1707692,96537440.85615385,369189874.7430769,72567317.73384616,368941000.0,212697000.0,150291000.0,51198000.0,86156000.0,166933000.0,16448000.0,34750000.0,16448000.0,477114000.0,366656000.0,105469000.0,91911000.0,174334000.0,322998000.0,53741000.0,38170000.0,53741000.0,295077000.00000006,120523500.0000001,168168499.99999997,20961000.000000034,28141000.000000037,59176000.00000016,-12622499.999999963,33583499.99999999,-12622499.999999963,477114000.0,366656000.0,118008900.0,51198000.0,94973800.0,182539500.0,13100650.000000019,35317350.0,15185450.000000011
558,1592,4,17876000000.0,4077000000.0,13799000000.0,-917000000.0,1453000000.0,536000000.0,-1774000000.0,857000000.0,-1774000000.0,4727288030.718462,3211783158.4280415,1232631661.462514,441757192.47692305,672585084.3115385,1096637221.1707692,96537440.85615385,369189874.7430769,72567317.73384616,17876000000.0,4077000000.0,13799000000.0,-704000000.0,1068000000.0,364000000.0,-1708000000.0,1004000000.0,-1708000000.0,22294000000.0,2780000000.0,19514000000.0,-82000000.0,83000000.0,1000000.0,-776000000.0,694000000.0,-776000000.0,15667000000.0,4725499999.999999,10941500000.00001,-913999999.9999996,1324999999.9999995,410999999.99999994,-2109499999.9999998,1195499999.9999995,-2109499999.9999998,22294000000.0,2780000000.0,17799500000.0,-704000000.0,969500000.0,327700000.0,-1629150000.0,961150000.0,-1642050000.0
73,1398,0,218354000.0,62021000.0,156333000.0,-143000.0,848000.0,705000.0,-31577000.0,40859000.0,-41002000.0,5572920030.95766,3400494987.3406277,1831684863.2391856,406234554.0184758,658548990.7721324,1040845932.5111624,102754619.98691301,340547538.3425712,65687015.67590454,235649000.0,55899000.0,179750000.0,-167000.0,1042000.0,875000.0,-31815000.0,33684000.0,-33851000.0,267632000.0,47794000.0,219838000.0,167000.0,923000.0,1090000.0,-20874000.0,39892000.0,-39725000.0,216685500.0000001,58449500.00000001,158236000.0000001,-209999.99999999988,984499.9999999998,774499.9999999997,-36336999.99999999,29960999.99999999,-30170999.99999998,267632000.0,47794000.0,207517600.00000003,-167000.0,1030100.0,896500.0,-30793699.999999996,34553300.0,-33921799.99999999
532,116,2,2268100000.0,1627400000.0,640700000.0,78400000.0,665200000.0,743600000.0,19100000.0,724500000.0,-646100000.0,4477527608.691301,3116993103.3607926,1060132734.0932164,414394115.5442648,654843072.9761355,1048567242.1909161,92227053.46728252,348255722.2755966,66138393.268668205,2267500000.0,1629400000.0,638100000.0,95700000.0,718400000.0,814100000.0,35900000.0,778200000.0,-682500000.0,2373600000.0,1731600000.0,642000000.0,54000000.0,694900000.0,748900000.0,3000000.0,745900000.0,-691900000.0,2245550000.0,1610650000.0,634900000.0,106949999.99999999,736499999.9999996,843449999.9999998,43949999.999999985,799499999.9999998,-692550000.0,2373600000.0,1731600000.0,640580000.0,95700000.0,716050000.0,807580000.0,30054999.999999993,773870000.0,-687395000.0
986,1241,2,49117000.0,7104000.0,42013000.0,1616000.0,3273000.0,4889000.0,-1489000.0,3105000.0,-1489000.0,4477527608.691301,3116993103.3607926,1060132734.0932164,414394115.5442648,654843072.9761355,1048567242.1909161,92227053.46728252,348255722.2755966,66138393.268668205,51676000.0,8310000.0,43366000.0,1848000.0,3635000.0,5483000.0,-1355000.0,3203000.0,-1355000.0,57757000.0,7679000.0,50078000.0,2570000.0,3694000.0,6264000.0,-1130000.0,3700000.0,-1130000.0,63389499.999999985,8399500.0,54989999.99999999,1220500.0000000005,3219499.9999999995,4439999.999999999,-1884499.9999999984,3104999.9999999986,-1884499.9999999984,57757000.0,7679000.0,51060400.0,1848000.0,3640900.0,5561100.0,-1552249.999999999,3292600.0,-1468849.9999999995
252,13,2,12822000.0,1624000.0,11198000.0,0.0,0.0,0.0,-1983000.0,1983000.0,-1983000.0,4477527608.691301,3116993103.3607926,1060132734.0932164,414394115.5442648,654843072.9761355,1048567242.1909161,92227053.46728252,348255722.2755966,66138393.268668205,13991000.0,1197000.0,12794000.0,0.0,0.0,0.0,-1992000.0,1992000.0,-1992000.0,27232000.0,4536000.0,22696000.0,0.0,0.0,0.0,-6482000.0,6482000.0,-6482000.0,8953500.000000017,371000.0000000024,8582500.000000007,0.0,0.0,0.0,-1256500.0000000007,1256500.0000000007,-1256500.0000000007,27232000.0,4536000.0,19873300.0,0.0,0.0,0.0,-2971250.0000000005,2816450.0,-2669350.0
982,352,1,543788000.0,205894547.02387,402777000.0,1944000.0,0.0,1944000.0,-51279000.0,53223000.0,-51279000.0,4569392647.153194,3148205417.965642,1102833887.9482822,442438272.06466514,662012570.395689,1080646990.1424172,99137490.8860662,385791846.87836796,56646425.18629715,584757000.0,221406646.77050093,437755000.0,933000.0,0.0,933000.0,-62565000.0,63498000.0,-62565000.0,749349000.0,283726144.96419555,518003000.0,14981000.0,0.0,14981000.0,-86391000.0,101372000.0,-86391000.0,525250500.00000024,198875690.10636738,417489500.0000003,22932499.999999978,0.0,22932499.999999978,-33665500.00000003,56597999.99999999,-33665500.00000003,749349000.0,283726144.96419555,497900300.00000006,933000.0,0.0,2337800.0,-55263050.000000015,70382800.0,-58660350.00000001
1947,1444,4,16965000000.0,7506269391.549871,7744800000.0,1329900000.0,1175700000.0,2505600000.0,1069200000.0,32700000.0,1297200000.0,4727288030.718462,3211783158.4280415,1232631661.462514,441757192.47692305,672585084.3115385,1096637221.1707692,96537440.85615385,369189874.7430769,72567317.73384616,16939500000.0,7494986758.512175,7899600000.0,1153000000.0,1147700000.0,2300700000.0,900700000.0,31000000.0,1122000000.0,17083200000.0,7558567714.101077,7566800000.0,1019000000.0,1137900000.0,2156900000.0,787200000.0,30200000.0,988800000.0,17059549999.999998,7548103625.028857,8178600000.0,1443349999.9999988,1175849999.9999998,2619199999.999999,1183949999.9999993,31099999.999999993,1412249999.9999998,17083200000.0,7558567714.101077,7689160000.0,1153000000.0,1146720000.0,2286320000.0,1008274999.9999996,30850000.0,1182435000.0
1206,430,3,29788000.0,27907000.0,1881000.0,0.0,3452000.0,3452000.0,-23801000.0,23801000.0,-23801000.0,4641379180.050808,3122869605.61366,1222168580.2567902,415573749.07929176,644449495.9491917,1047932274.8583525,101471620.37028484,335075420.6374134,80498328.44187836,54148000.0,29611000.0,24537000.0,178000.0,0.0,178000.0,-17108000.0,17286000.0,-17108000.0,154854000.0,86280000.0,68574000.0,3452000.0,0.0,3452000.0,-23098000.0,26550000.0,-23098000.0,13299500.0000001,2971500.000000036,10328000.000000037,-1547999.9999999984,1434499.9999999981,-113500.00000000087,-14686499.999999998,13138500.000000002,-14686499.999999998,154854000.0,86280000.0,56924800.00000001,178000.0,0.0,505400.0,-17694250.0,18724050.0,-17579550.0
542,123,0,39315010.0,15768167.0,23791305.0,7600979.0,41810204.0,49411183.0,-1588725.0,9189704.0,-1588725.0,5572920030.95766,3400494987.3406277,1831684863.2391856,406234554.0184758,658548990.7721324,1040845932.5111624,102754619.98691301,340547538.3425712,65687015.67590454,37327094.0,13668370.0,23903186.0,5152485.0,28494333.0,33646818.0,-1185478.0,6337963.0,-1185478.0,43757309.0,15164295.0,28585062.0,9409935.0,40806381.0,50216316.0,-570257.0,9980192.0,-570257.0,35872238.0,14500739.000000006,21742168.000000004,1607667.5000000054,16094049.500000013,17701717.00000001,-1300861.9999999995,2908529.500000005,-1300861.9999999995,43757309.0,15164295.0,27216483.200000003,5152485.0,29725537.8,35303767.8,-1058603.6999999997,6723465.45,-1097049.0
15,385,3,184728000.0,40367000.0,144361000.0,0.0,8094000.0,8094000.0,-23114000.0,23114000.0,-23114000.0,4641379180.050808,3122869605.61366,1222168580.2567902,415573749.07929176,644449495.9491917,1047932274.8583525,101471620.37028484,335075420.6374134,80498328.44187836,204721000.0,40993000.0,163728000.0,0.0,6169000.0,6169000.0,-26843000.0,26843000.0,-26843000.0,184474000.0,41199000.0,143275000.0,0.0,6169000.0,6169000.0,-21132000.0,21132000.0,-21132000.0,227278000.00000003,43293999.999999985,183983999.99999997,0.0,6169000.0,6169000.0,-32291999.999999978,32291999.999999978,-32291999.999999978,184474000.0,41199000.0,151416800.0,0.0,6169000.0,6169000.0,-27854199.99999999,26245700.0,-27335499.999999993
1754,1014,4,5014090000.0,2606263000.0,2407827000.0,420690000.0,905430000.0,1326120000.0,237492000.0,183198000.0,237492000.0,4727288030.718462,3211783158.4280415,1232631661.462514,441757192.47692305,672585084.3115385,1096637221.1707692,96537440.85615385,369189874.7430769,72567317.73384616,4857946000.0,2619900000.0,2238046000.0,421800000.0,895462000.0,1317262000.0,237103000.0,184697000.0,237103000.0,4506117000.0,2671678000.0,1834439000.0,395748000.0,905250000.0,1300998000.0,222874000.0,172874000.0,222874000.0,4955344499.999999,2601946000.0,2353398500.0000005,409033499.99999994,890348499.9999994,1299381999.9999993,225381499.99999997,183651999.99999994,225381499.99999997,4506117000.0,2671678000.0,1938230900.0,421800000.0,896440800.0,1315635600.0,226973550.0,182227900.0,230740750.0
1448,316,2,3543460000.0,2602227000.0,941233000.0,443568000.0,134292000.0,414603000.0,14363000.0,429205000.0,14363000.0,4477527608.691301,3116993103.3607926,1060132734.0932164,414394115.5442648,654843072.9761355,1048567242.1909161,92227053.46728252,348255722.2755966,66138393.268668205,3543460000.0,2602227000.0,941233000.0,426426000.0,125484000.0,401161000.0,-4567000.0,430993000.0,-4567000.0,3135315000.0,2380979000.0,754336000.0,340027000.0,101150000.0,324935000.0,-33930000.0,373957000.0,-33930000.0,-1159512499.9999948,-969241499.999996,-190270999.99999875,332531999.9999999,96434999.99999996,335874499.99999994,-54035999.99999995,386567999.99999994,-54035999.99999995,3135315000.0,2380979000.0,565414600.0000002,426426000.0,123050600.0,393538400.0,-38110399.99999997,415143300.0,-25280299.999999985
459,80,3,747087000.0,79688000.0,667399000.0,34565000.0,22203000.0,57261000.0,-16306000.0,50871000.0,-16306000.0,4641379180.050808,3122869605.61366,1222168580.2567902,415573749.07929176,644449495.9491917,1047932274.8583525,101471620.37028484,335075420.6374134,80498328.44187836,768268000.0,94410000.0,673858000.0,34472000.0,19721000.0,54603000.0,-21171000.0,55643000.0,-21171000.0,782440000.0,71439000.0,711001000.0,32000000.0,13920000.0,46357000.0,-15918000.0,47918000.0,-15918000.0,760816499.9999999,101685499.99999999,659130999.9999998,35217499.999999985,21567499.99999999,57109999.999999985,-21748499.999999985,56965999.99999999,-21748499.999999985,782440000.0,71439000.0,700627000.0,34472000.0,19140900.0,53778400.0,-19883849.999999993,54230300.0,-20293649.999999996
1505,982,1,4578121000.0,2310023301.364386,2489780000.0,2190001000.0,-1465670000.0,724331000.0,216069000.0,1973932000.0,216069000.0,4569392647.153194,3148205417.965642,1102833887.9482822,442438272.06466514,662012570.395689,1080646990.1424172,99137490.8860662,385791846.87836796,56646425.18629715,4564040000.0,2302918325.740869,2555932000.0,2239752000.0,-1488581000.0,751171000.0,248497000.0,1991255000.0,248497000.0,6607526000.0,3334018263.032152,3482180000.0,4362146000.0,-2881191000.0,1480955000.0,526923000.0,3835223000.0,526923000.0,3926565500.000002,1981262137.748981,2388426500.0000005,1354973500.0000007,-891828500.0000007,463145000.0,123020000.00000004,1231953500.0,123020000.00000004,6607526000.0,3334018263.032152,3263429300.0,2239752000.0,-1627842000.0,824149400.0,269286300.0,2284118450.0,266539100.0
1613,267,1,11895943000.0,3479745000.0,8416198000.0,335683000.0,296441000.0,632124000.0,90949000.0,201199000.0,134484000.0,4569392647.153194,3148205417.965642,1102833887.9482822,442438272.06466514,662012570.395689,1080646990.1424172,99137490.8860662,385791846.87836796,56646425.18629715,11978229000.0,3531336000.0,8446893000.0,362483000.0,318627000.0,681110000.0,89617000.0,207824000.0,154659000.0,12058462000.0,3604857000.0,8453605000.0,373792000.0,307008000.0,680800000.0,92796000.0,211047000.0,162745000.0,12782704999.999998,3680756499.9999986,9101948500.0,356795499.99999994,322336499.9999999,679131999.9999999,74175499.99999999,215077000.0,141718499.99999997,12058462000.0,3604857000.0,8583273700.0,362483000.0,317465100.0,681079000.0,82849950.0,209193900.0,152394050.0
1214,941,2,1059300000.0,513000000.0,545000000.0,132000000.0,172700000.0,304700000.0,34700000.0,88200000.0,43800000.0,4477527608.691301,3116993103.3607926,1060132734.0932164,414394115.5442648,654843072.9761355,1048567242.1909161,92227053.46728252,348255722.2755966,66138393.268668205,1108300000.0,586400000.0,520600000.0,139500000.0,182200000.0,321700000.0,43500000.0,87000000.0,52500000.0,1005100000.0,578600000.0,425200000.0,100700000.0,162200000.0,262900000.0,21400000.0,71400000.0,29300000.0,1156099999.9999998,600850000.0000001,553950000.0,151899999.99999997,191249999.9999999,343149999.9999999,50749999.99999997,92149999.99999994,59749999.999999955,1005100000.0,578600000.0,450950000.0,139500000.0,180200000.0,315820000.0,40494999.999999985,84395000.0,50034999.999999985
454,977,1,11204065000.0,4242197120.938668,3489373000.0,480702000.0,457696000.0,938398000.0,172392000.0,308310000.0,172392000.0,4569392647.153194,3148205417.965642,1102833887.9482822,442438272.06466514,662012570.395689,1080646990.1424172,99137490.8860662,385791846.87836796,56646425.18629715,11260540000.0,4263580260.219368,3525675000.0,498480000.0,448507000.0,946987000.0,157636000.0,340844000.0,157636000.0,10384667000.0,3931948310.662852,2745194000.0,383241000.0,552525000.0,935766000.0,24763000.0,358478000.0,24763000.0,11208097850.000006,4243724079.6504564,3573563250.000002,518845499.9999999,402367999.99999994,921213499.9999998,208282000.0,310563499.99999994,208282000.0,10384667000.0,3931948310.662852,2910867850.0000005,498480000.0,458908800.0,945864900.0,143097100.0,341342750.0,146255200.0
1392,303,0,531121000.0,248900000.0,282221000.0,62379000.0,135419000.0,197798000.0,18703000.0,43698000.0,18681000.0,5572920030.95766,3400494987.3406277,1831684863.2391856,406234554.0184758,658548990.7721324,1040845932.5111624,102754619.98691301,340547538.3425712,65687015.67590454,542710000.0,268288000.0,274422000.0,68410000.0,140043000.0,208453000.0,16142000.0,52351000.0,16059000.0,549724000.0,304747000.0,244977000.0,71648000.0,156417000.0,228065000.0,19897000.0,51756000.0,19892000.0,545946500.0,261389500.00000003,284556999.99999994,68118499.99999999,134171500.00000001,202289999.99999994,15671999.99999999,52513499.99999999,15604999.999999996,549724000.0,304747000.0,252893000.0,68410000.0,141680400.0,210414200.0,17033499.999999996,52248250.0,16689400.0
1519,1560,3,961035000.0,1381722000.0,-420687000.0,271111000.0,201537000.0,472648000.0,5387000.0,265724000.0,5387000.0,4641379180.050808,3122869605.61366,1222168580.2567902,415573749.07929176,644449495.9491917,1047932274.8583525,101471620.37028484,335075420.6374134,80498328.44187836,965155000.0,1384296000.0,-419141000.0,264245000.0,194544000.0,458789000.0,11226000.0,253019000.0,11226000.0,940781000.0,1378252000.0,-437471000.0,303087000.0,237479000.0,540566000.0,12642000.0,290445000.0,12642000.0,976169000.0000005,1389097999.9999998,-412929000.00000024,267833999.99999982,183935499.99999997,451769499.9999997,17871499.999999993,249962499.99999988,17871499.999999993,940781000.0,1378252000.0,-432562600.00000006,264245000.0,198837500.0,466966700.0,14973549.999999996,260198550.0,13502849.999999996
1060,1032,1,3194462000.0,1643299000.0,1512215000.0,817744000.0,0.0,817744000.0,37900000.0,779844000.0,37900000.0,4569392647.153194,3148205417.965642,1102833887.9482822,442438272.06466514,662012570.395689,1080646990.1424172,99137490.8860662,385791846.87836796,56646425.18629715,3105193000.0,1568975000.0,1497070000.0,811096000.0,0.0,811096000.0,47198000.0,763898000.0,47198000.0,2859129000.0,1433895000.0,1386558000.0,827606000.0,0.0,827606000.0,76261000.0,751345000.0,76261000.0,3233786500.0,1655412499.9999998,1539059499.9999995,813649999.9999995,0.0,813649999.9999995,35760500.00000001,777889499.9999998,35760500.00000001,2859129000.0,1433895000.0,1417058300.0,811096000.0,0.0,812747000.0,50198150.0,762786550.0,49579350.0
1100,1277,1,6042273.0,3627261.0,2415012.0,0.0,0.0,0.0,-1829562.0,1829562.0,-1829562.0,4569392647.153194,3148205417.965642,1102833887.9482822,442438272.06466514,662012570.395689,1080646990.1424172,99137490.8860662,385791846.87836796,56646425.18629715,7711968.0,3380190.0,4331778.0,0.0,0.0,0.0,-1784290.0,1784290.0,-1784290.0,5202340.0,2462870.414279063,4767353.0,0.0,0.0,0.0,-1328291.0,1328291.0,-1328291.0,7424834.499999999,3244256.438929713,2995725.000000002,0.0,0.0,0.0,-2043847.499999999,2043847.499999999,-2043847.499999999,5202340.0,2462870.414279063,4413027.4,0.0,0.0,0.0,-1777269.0499999996,1719045.95,-1770957.4499999997
203,261,2,76266906.0,57438990.0,40912361.81482647,9146097.0,0.0,9146097.0,-2633902.0,11779999.0,-2633902.0,4477527608.691301,3116993103.3607926,1060132734.0932164,414394115.5442648,654843072.9761355,1048567242.1909161,92227053.46728252,348255722.2755966,66138393.268668205,62939933.0,44624238.0,33763285.369108014,9710182.0,0.0,9710182.0,-2301506.0,12011688.0,-2301506.0,66242382.0,41971849.0,35534839.97187389,14792266.0,0.0,14792266.0,1442159.0,13350107.0,1442159.0,62159913.5,46179586.000000015,33344854.33944726,7340171.500000004,0.0,7340171.500000004,-4133942.4999999967,11474114.0,-4133942.4999999967,66242382.0,41971849.0,35096842.84538856,9710182.0,0.0,10218390.4,-2094624.7499999984,12225614.4,-2102503.9499999993
1493,405,3,-3532973000.0,-2747133000.0,-773571000.0,87737000.0,40236000.0,103187000.0,7123000.0,80614000.0,7123000.0,4641379180.050808,3122869605.61366,1222168580.2567902,415573749.07929176,644449495.9491917,1047932274.8583525,101471620.37028484,335075420.6374134,80498328.44187836,1591188000.0,1267022000.0,318097000.0,98643000.0,259975000.0,325665000.0,-8802000.0,107445000.0,-8802000.0,1572064000.0,1193518000.0,371611000.0,453220000.0,1366132000.0,1819352000.0,114509000.0,338711000.0,114509000.0,1625197499.9999988,1324544499.9999995,295205999.99999994,-72776499.99999976,-274523999.9999994,-397086499.9999992,-69639999.99999991,-3136499.999999863,-69639999.99999991,1572064000.0,1193518000.0,356330000.0,98643000.0,370590700.0,475033700.0,-2227699.9999999553,142640050.0,-2391199.999999974
543,9,3,846734000.0,635659000.0,69332000.0,204774000.0,-13024000.0,191750000.0,-52860000.0,257634000.0,-52860000.0,4641379180.050808,3122869605.61366,1222168580.2567902,415573749.07929176,644449495.9491917,1047932274.8583525,101471620.37028484,335075420.6374134,80498328.44187836,1023742000.0,763866000.0,83796000.0,347629000.0,-347629000.0,0.0,-51088000.0,398717000.0,-51088000.0,878544000.0,219719000.0,185315000.0,12860000.0,0.0,12860000.0,-1594901000.0,1607761000.0,-1594901000.0,791128500.0000008,711533499.9999998,35778500.00000019,347691999.99999994,-347628999.9999999,63000.00000000144,723638499.9999993,-375946499.9999991,723638499.9999993,878544000.0,219719000.0,155407700.00000003,347629000.0,-312866100.0,1286000.0,-126868650.00000036,563059450.0000001,-127432650.00000021
1966,415,3,1354514000.0,675720000.0,319291000.0,-16558000.0,64132000.0,47574000.0,22229000.0,13428000.0,-29986000.0,4641379180.050808,3122869605.61366,1222168580.2567902,415573749.07929176,644449495.9491917,1047932274.8583525,101471620.37028484,335075420.6374134,80498328.44187836,1332693000.0,663327000.0,315596000.0,-13816000.0,63532000.0,49716000.0,19961000.0,13140000.0,-26956000.0,1280722000.0,613900000.0,276257000.0,-21153000.0,60827000.0,39674000.0,9006000.0,20943000.0,-42096000.0,1356452000.0,689885999.9999999,333509999.9999999,-11414999.999999996,64343999.99999996,52928999.99999997,23805999.99999999,8880499.999999998,-20295500.0,1280722000.0,613900000.0,287707600.0,-13816000.0,63261500.0,48711800.0,18596999.999999993,14274650.0,-27985850.0
1802,888,0,270533000.0,240046000.0,30487000.0,26052000.0,12454000.0,38506000.0,-21038000.0,47090000.0,-21038000.0,5572920030.95766,3400494987.3406277,1831684863.2391856,406234554.0184758,658548990.7721324,1040845932.5111624,102754619.98691301,340547538.3425712,65687015.67590454,285299000.0,230426000.0,54873000.0,30261000.0,18300000.0,48561000.0,-13713000.0,43974000.0,-13713000.0,187653000.0,186134000.0,1519000.0,26040000.0,12205000.0,38245000.0,-10517000.0,36557000.0,-10517000.0,296151999.99999994,250036499.9999999,46115500.0,32280499.99999998,20419999.99999999,52700499.99999997,-12534499.999999994,44814999.99999999,-12534499.999999994,187653000.0,186134000.0,10438300.0,30261000.0,17690500.0,47529400.0,-12164949.999999996,42574700.0,-12720249.999999998
1372,500,3,583783000.0,717382000.0,-133599000.0,41865000.0,32703000.0,74568000.0,-32006000.0,48224000.0,-6359000.0,4641379180.050808,3122869605.61366,1222168580.2567902,415573749.07929176,644449495.9491917,1047932274.8583525,101471620.37028484,335075420.6374134,80498328.44187836,469591000.0,644355000.0,-174764000.0,33868000.0,24848000.0,58716000.0,-34543000.0,45144000.0,-11276000.0,550907000.0,648040000.0,-97133000.0,10190000.0,35234000.0,45424000.0,-80449000.0,44831000.0,-34641000.0,395350500.00000006,619801500.0,-224450999.99999994,36553999.999999985,15668000.00000001,52222000.0,-28191000.0,47304999.99999998,-10751000.000000013,550907000.0,648040000.0,-122596600.0,33868000.0,25886600.0,57386800.0,-45138800.0,45297500.0,-15791500.000000004
1325,678,0,534446.0,9794849.0,-9132038.0,6264.0,3881.0,10145.0,-961868.0,972013.0,-965749.0,5572920030.95766,3400494987.3406277,1831684863.2391856,406234554.0184758,658548990.7721324,1040845932.5111624,102754619.98691301,340547538.3425712,65687015.67590454,756759.0,9467269.0,-8583213.0,9259.0,10376.0,19635.0,-946901.0,966536.0,-957277.0,819249.0,8019715.0,-7078433.0,92098.0,2343.0,94441.0,-1029128.0,1123569.0,-1031471.0,701715.0000000001,10225541.499999998,-9394450.499999998,-20906.999999999975,13542.499999999993,-7364.499999999956,-960494.4999999998,953129.9999999997,-974036.9999999997,819249.0,8019715.0,-7541636.5,9259.0,9572.699999999999,27115.6,-978365.8499999999,996602.0,-977143.7999999998
1504,581,2,106308000.0,29369000.0,76939000.0,15630000.0,0.0,15630000.0,-23899000.0,39529000.0,-23899000.0,4477527608.691301,3116993103.3607926,1060132734.0932164,414394115.5442648,654843072.9761355,1048567242.1909161,92227053.46728252,348255722.2755966,66138393.268668205,133117000.0,30491000.0,102626000.0,14097000.0,0.0,14097000.0,-8019000.0,22116000.0,-8019000.0,174712000.0,44231000.0,130481000.0,23569000.0,0.0,23569000.0,-4380000.0,27949000.0,-4380000.0,117312000.00000004,24348000.000000015,92964000.00000001,8506000.000000004,0.0,8506000.000000004,-9722999.999999994,18229000.0,-9722999.999999994,174712000.0,44231000.0,122977600.0,14097000.0,0.0,15044200.0,-7779299.999999997,22893900.0,-7802399.999999998
1347,435,3,369031000.0,216722530.1814524,188777000.0,45044000.0,42173000.0,87217000.0,-3804000.0,48848000.0,-3804000.0,4641379180.050808,3122869605.61366,1222168580.2567902,415573749.07929176,644449495.9491917,1047932274.8583525,101471620.37028484,335075420.6374134,80498328.44187836,374325000.0,219831561.87467223,193185000.0,52833000.0,47686000.0,100519000.0,2480000.0,51366000.0,1467000.0,402687000.0,236487843.86996892,194939000.0,60772000.0,57240000.0,118012000.0,10672000.0,54695000.0,6077000.0,368789999.99999976,216580997.004636,192645499.99999997,51045499.999999955,44316499.99999998,95361999.9999999,-793699.9999999955,51265999.99999999,-220500.00000000017,402687000.0,236487843.86996892,194480300.0,52833000.0,48641400.0,102268300.0,3300750.0000000023,52021800.0,1882750.0
1492,360,3,327784000.0,323919000.0,3865000.0,33496000.0,8201000.0,41697000.0,-4913000.0,37287000.0,-3791000.0,4641379180.050808,3122869605.61366,1222168580.2567902,415573749.07929176,644449495.9491917,1047932274.8583525,101471620.37028484,335075420.6374134,80498328.44187836,328778000.0,315137000.0,13641000.0,29338000.0,7555000.0,36893000.0,-15979000.0,37635000.0,-8297000.0,303017000.0,247977000.0,55040000.0,24294000.0,5260000.0,29554000.0,-18780000.0,34491000.0,-10197000.0,337949499.99999994,336804500.0,1145000.000000026,30663999.999999993,7584499.999999995,38248499.999999985,-13227500.0,37191999.99999998,-6528000.0,303017000.0,247977000.0,44261000.00000001,29338000.0,7325500.0,36159100.0,-15443550.0,36961900.0,-8146300.0
1107,1471,2,85658000000.0,88335000000.0,-2772000000.0,5387000000.0,14002000000.0,16935000000.0,1165000000.0,4222000000.0,1165000000.0,4477527608.691301,3116993103.3607926,1060132734.0932164,414394115.5442648,654843072.9761355,1048567242.1909161,92227053.46728252,348255722.2755966,66138393.268668205,84094000000.0,87018000000.0,-3023000000.0,5018000000.0,12375000000.0,15036000000.0,1069000000.0,3949000000.0,1069000000.0,88775000000.0,91530000000.0,-2860000000.0,5439000000.0,17671000000.0,20810000000.0,1270000000.0,4169000000.0,1270000000.0,-46664499999.999855,-47844499999.9999,1241499999.999995,5176499999.999997,11413499999.999996,14150000000.000002,1028499999.9999994,4147999999.9999976,1028499999.9999994,88775000000.0,91530000000.0,-2039700000.000001,5018000000.0,12904600000.0,15613400000.0,1109049999.9999998,4012900000.0,1097049999.9999998
1336,16,4,898860000.0,527877640.3036609,360528000.0,68259000.0,42065000.0,110324000.0,-1325000.0,69584000.0,-1325000.0,4727288030.718462,3211783158.4280415,1232631661.462514,441757192.47692305,672585084.3115385,1096637221.1707692,96537440.85615385,369189874.7430769,72567317.73384616,881166000.0,517486403.6622118,358633000.0,83071000.0,47856000.0,130927000.0,11066000.0,72005000.0,11066000.0,897461000.0,527056043.1486148,350650000.0,64680000.0,37482000.0,102162000.0,-3285000.0,67965000.0,-3285000.0,852457500.0000001,500626631.0205792,366955000.0,77932499.99999997,46016999.99999997,123949499.99999996,14307499.999999989,63624999.99999997,14307499.999999989,897461000.0,527056043.1486148,353911000.0,83071000.0,46818600.0,128050500.0,8381449.999999994,70359000.0,9168249.999999996
599,1259,4,50546000.0,5959000.0,44587000.0,1989000.0,1909000.0,3898000.0,-1895000.0,3884000.0,-1895000.0,4727288030.718462,3211783158.4280415,1232631661.462514,441757192.47692305,672585084.3115385,1096637221.1707692,96537440.85615385,369189874.7430769,72567317.73384616,52017000.0,6007000.0,46010000.0,2619000.0,1908000.0,4527000.0,-1127000.0,3746000.0,-1127000.0,54759000.0,7635000.0,47124000.0,5874000.0,3136000.0,9010000.0,2161000.0,3713000.0,2161000.0,51336499.99999999,5726500.0,45609999.99999999,493000.0000000019,1235999.9999999993,1729000.0000000005,-3676999.999999996,4170000.0000000005,-3676999.999999996,54759000.0,7635000.0,46821200.0,2619000.0,2030800.0,4975300.0,-1415599.999999998,3781800.0,-1234399.9999999986
117,1466,2,939056000.0,419590000.0,517473000.0,90527000.0,120216000.0,210268000.0,61012000.0,29515000.0,61012000.0,4477527608.691301,3116993103.3607926,1060132734.0932164,414394115.5442648,654843072.9761355,1048567242.1909161,92227053.46728252,348255722.2755966,66138393.268668205,892266000.0,414606000.0,475898000.0,109670000.0,115610000.0,224788000.0,74501000.0,35169000.0,74501000.0,678082000.0,364712000.0,312019000.0,105296000.0,96484000.0,201240000.0,70132000.0,35164000.0,70132000.0,962953500.0,441788500.0000001,519257499.9999998,110899499.99999999,114810000.00000001,225320999.99999997,76274999.99999997,34624499.99999999,76274999.99999997,678082000.0,364712000.0,353466700.0,109670000.0,113697400.0,222433200.0,74077299.99999999,35113550.0,74159399.99999999
1825,1105,3,20027115000.0,12952737000.0,5611108000.0,32786000.0,283742000.0,316528000.0,-1347477000.0,1910658000.0,-1877872000.0,4641379180.050808,3122869605.61366,1222168580.2567902,415573749.07929176,644449495.9491917,1047932274.8583525,101471620.37028484,335075420.6374134,80498328.44187836,20490638000.0,12295521000.0,6597454000.0,33462000.0,268687000.0,302149000.0,-205941000.0,796134000.0,-762672000.0,18568058000.0,10514821000.0,6618501000.0,61672000.0,209539000.0,271211000.0,-136245000.0,768151000.0,-706479000.0,21070772499.99999,12818396999.999994,6522082499.999999,7410500.00000003,282369999.99999976,289780499.99999994,-251665499.99999985,820829999.9999996,-813419499.9999999,18568058000.0,10514821000.0,6599217300.0,33462000.0,262772200.0,299055200.0,-207894449.99999994,793007000.0,-766657650.0
1507,930,3,124094000.0,18130000.0,105964000.0,830000.0,0.0,830000.0,-5787000.0,6617000.0,-5787000.0,4641379180.050808,3122869605.61366,1222168580.2567902,415573749.07929176,644449495.9491917,1047932274.8583525,101471620.37028484,335075420.6374134,80498328.44187836,125661000.0,15537000.0,110124000.0,1658000.0,0.0,1658000.0,-5957000.0,7615000.0,-5957000.0,146131000.0,15806000.0,130325000.0,451000.0,0.0,451000.0,-4372000.0,4823000.0,-4372000.0,119427500.00000004,17202999.999999993,102224500.00000001,1651000.0,0.0,1651000.0,-8855999.999999993,10506999.999999989,-8855999.999999993,146131000.0,15806000.0,124704900.0,1658000.0,0.0,1537300.0,-6930999.999999996,7345799.999999999,-6509699.999999998
321,688,0,68675000.0,40331082.646745786,53645000.0,10938000.0,6604000.0,17542000.0,880000.0,10058000.0,880000.0,5572920030.95766,3400494987.3406277,1831684863.2391856,406234554.0184758,658548990.7721324,1040845932.5111624,102754619.98691301,340547538.3425712,65687015.67590454,70927000.0,41653625.02927904,52996000.0,10921000.0,6561000.0,17482000.0,790000.0,10131000.0,790000.0,70225000.0,41241358.26527445,50663000.0,11596000.0,7461000.0,19057000.0,976000.0,10620000.0,976000.0,69907500.0,41054898.58212422,53822500.00000002,11090542.372881358,6962898.3050847445,18053440.6779661,892237.2881355933,10198305.084745761,892237.2881355933,70225000.0,41241358.26527445,51294900.00000001,10921000.0,6651000.0,17639500.0,896918.6440677966,10235530.508474575,857871.186440678
1482,964,4,1833700000.0,811331929.4597701,482900000.0,110200000.0,356000000.0,466200000.0,45700000.0,55600000.0,54600000.0,4727288030.718462,3211783158.4280415,1232631661.462514,441757192.47692305,672585084.3115385,1096637221.1707692,96537440.85615385,369189874.7430769,72567317.73384616,1843200000.0,815535263.3365589,464200000.0,117100000.0,341700000.0,458800000.0,58900000.0,55000000.0,62100000.0,1843400000.0,815623754.5760703,430700000.0,114400000.0,428700000.0,543100000.0,53600000.0,56000000.0,58400000.0,1865900000.0000005,825579019.021097,479350000.00000024,128099999.99999993,309500000.0,437599999.9999998,68849999.99999997,55849999.99999998,72249999.99999994,1843400000.0,815623754.5760703,440430000.00000006,117100000.0,350400000.0,467230000.0,62284999.999999985,55285000.0,64404999.999999985
508,608,0,62515472.0,29595817.732691668,21861273.0,7032458.0,11256239.0,18288697.0,-1564350.0,8596808.0,-1564350.0,5572920030.95766,3400494987.3406277,1831684863.2391856,406234554.0184758,658548990.7721324,1040845932.5111624,102754619.98691301,340547538.3425712,65687015.67590454,65696996.0,31102001.744486123,23929469.0,7136934.0,12699357.0,19836291.0,-1415320.0,8552254.0,-1415320.0,51249355.0,24262258.941242743,30235509.0,2013742.0,5695320.0,7709062.0,-2400979.0,4414721.0,-2400979.0,75993156.99999996,35976367.95422132,21310645.5,10133220.499999989,16881251.49999999,27014471.99999998,-1289593.4999999993,11422813.99999999,-1289593.4999999993,51249355.0,24262258.941242743,28450536.300000004,7136934.0,11998953.3,18623568.1,-1648154.4499999997,8011803.399999999,-1574733.8499999999
1411,715,3,33859785.0,6178818.0,27680967.0,-63384.0,87873.0,24489.0,-2675666.0,2612282.0,-2675666.0,4641379180.050808,3122869605.61366,1222168580.2567902,415573749.07929176,644449495.9491917,1047932274.8583525,101471620.37028484,335075420.6374134,80498328.44187836,34046402.0,3651065.0,30395337.0,-27262.0,55817.0,28555.0,-2316598.0,2289336.0,-2316598.0,39081822.0,2655752.0,36426070.0,581742.0,1176032.0,1757774.0,-7822271.0,8404013.0,-7822271.0,32859612.499999996,4508098.500000003,28351514.000000004,-343974.9999999995,-481774.9999999991,-825749.999999999,338021.49999999546,-681996.4999999977,338021.49999999546,39081822.0,2655752.0,34811158.8,-27262.0,167838.5,201476.90000000002,-2640990.1500000022,3215138.15,-2621346.7500000014
718,899,4,770792000.0,581187000.0,188503000.0,456709000.0,0.0,456709000.0,-29756000.0,486465000.0,-29756000.0,4727288030.718462,3211783158.4280415,1232631661.462514,441757192.47692305,672585084.3115385,1096637221.1707692,96537440.85615385,369189874.7430769,72567317.73384616,783546000.0,572434000.0,209980000.0,462379000.0,0.0,462379000.0,-23659000.0,486038000.0,-23659000.0,777543000.0,505399000.0,272144000.0,360348000.0,0.0,360348000.0,-33410000.0,393758000.0,-33410000.0,775650000.0000002,588639999.9999996,185318500.00000006,501782500.0,0.0,501782500.0,-23198500.000000007,524980999.99999976,-23198500.000000007,777543000.0,505399000.0,254778900.0,462379000.0,0.0,452175900.0,-26354050.000000004,471476300.0,-25471050.0
1865,42,1,4753100000.0,2691038000.0,2062062000.0,383135000.0,0.0,383135000.0,126771000.0,256364000.0,126771000.0,4569392647.153194,3148205417.965642,1102833887.9482822,442438272.06466514,662012570.395689,1080646990.1424172,99137490.8860662,385791846.87836796,56646425.18629715,4805413000.0,2743525000.0,2061888000.0,367210000.0,0.0,367210000.0,40425000.0,326785000.0,40425000.0,2813366000.0,1658023000.0,1155343000.0,377128000.0,0.0,377128000.0,163988000.0,213140000.0,163988000.0,5796607499.999999,3281970500.0000005,2514636999.999999,339936999.9999998,0.0,339936999.9999998,-37642999.999999925,377579999.99999994,-37642999.999999925,2813366000.0,1658023000.0,1427201799.9999998,367210000.0,0.0,368201800.0,38459900.00000004,309135500.0,41717200.00000002
710,971,2,9330700000.0,4987700000.0,4343000000.0,590200000.0,367100000.0,444000000.0,121300000.0,468900000.0,121300000.0,4477527608.691301,3116993103.3607926,1060132734.0932164,414394115.5442648,654843072.9761355,1048567242.1909161,92227053.46728252,348255722.2755966,66138393.268668205,9556300000.0,5225000000.0,4331300000.0,604500000.0,389100000.0,490500000.0,93600000.0,510900000.0,93600000.0,7077700000.0,3232900000.0,3844800000.0,515400000.0,369500000.0,503900000.0,122400000.0,393000000.0,122400000.0,10023899999.999996,5492399999.999998,4531500000.000001,627199999.9999998,381649999.99999994,455749999.9999999,100900000.00000001,526299999.99999976,100900000.00000001,7077700000.0,3232900000.0,3982140000.0,604500000.0,387140000.0,491840000.0,105890000.0,488860000.0,101550000.0
285,867,1,1797231000.0,1568932000.0,228299000.0,143030000.0,0.0,143030000.0,-113543000.0,256573000.0,-113543000.0,4569392647.153194,3148205417.965642,1102833887.9482822,442438272.06466514,662012570.395689,1080646990.1424172,99137490.8860662,385791846.87836796,56646425.18629715,1840017000.0,1547291000.0,292726000.0,137150000.0,0.0,137150000.0,-119616000.0,256766000.0,-119616000.0,1701779000.0,1535034000.0,166745000.0,117404000.0,0.0,117404000.0,-144600000.0,262004000.0,-144600000.0,1744943000.0000005,1557865000.0000002,187078000.00000018,142804999.99999997,0.0,142804999.99999997,-114343499.99999996,257148500.0,-114343499.99999996,1701779000.0,1535034000.0,170811600.00000003,137150000.0,0.0,135175400.0,-124474949.99999997,257851850.0,-123031049.99999999
1609,632,1,90048000.0,45436321.63528667,37547000.0,2482000.0,9262000.0,11744000.0,1360000.0,2815000.0,-333000.0,4569392647.153194,3148205417.965642,1102833887.9482822,442438272.06466514,662012570.395689,1080646990.1424172,99137490.8860662,385791846.87836796,56646425.18629715,91357000.0,46096815.42771504,36662000.0,2074000.0,8224000.0,10298000.0,143000.0,2501000.0,-427000.0,91680000.0,46259794.41545711,39462000.0,2863000.0,12173000.0,15036000.0,1513000.0,2913000.0,-50000.0,91892500.0,46367017.43370846,35338000.00000001,1778500.0000000026,7327500.0,9106000.0,-1280499.999999998,2309499.999999999,-530999.999999997,91680000.0,46259794.41545711,38637200.0,2074000.0,8618900.0,10771800.0,-157749.99999999895,2564250.0,-382799.99999999907
