epiphany24262/financial-performance-prediction/results/oof/m1_ridge_history_raw.csv
Id,group_id,fold,actual_Q0_TOTAL_ASSETS,pred_Q0_TOTAL_ASSETS,actual_Q0_TOTAL_LIABILITIES,pred_Q0_TOTAL_LIABILITIES,actual_Q0_TOTAL_STOCKHOLDERS_EQUITY,pred_Q0_TOTAL_STOCKHOLDERS_EQUITY,actual_Q0_GROSS_PROFIT,pred_Q0_GROSS_PROFIT,actual_Q0_COST_OF_REVENUES,pred_Q0_COST_OF_REVENUES,actual_Q0_REVENUES,pred_Q0_REVENUES,actual_Q0_OPERATING_INCOME,pred_Q0_OPERATING_INCOME,actual_Q0_OPERATING_EXPENSES,pred_Q0_OPERATING_EXPENSES,actual_Q0_EBITDA,pred_Q0_EBITDA
196,1499,1,1192950000.0,1166259495.507861,1055816000.0,1031221992.6894542,137134000.0,151856311.90366542,25598000.0,39486306.50046656,61899000.0,64574156.65370352,42992000.0,54452858.3078983,15222000.0,18437515.905447178,10383000.0,15491329.865984846,15215000.0,23994976.634481404
1568,1145,4,1219954000.0,1457925747.9427156,835046000.0,1015346619.3087962,384908000.0,314216490.5399517,111786000.0,111084321.33936802,217796000.0,152216805.03902847,329582000.0,251552041.07251608,28908000.0,19476057.362510666,85522000.0,96875038.52805114,26264000.0,14209282.811316978
1218,856,0,-135820000000.0,15747556709.366295,-37972000000.0,-805649321.3353946,-97848000000.0,15957291445.699137,-435000000.0,1309580408.953515,4445000000.0,9706730836.370424,4010000000.0,8769445285.694237,-1472000000.0,-2171645353.4747553,219000000.0,3655253084.0524282,-654000000.0,-2345672675.0988736
23,1337,2,83298000.0,231136221.3795938,16040000.0,160433539.4733843,-31633000.0,58799104.49264711,494000.0,21703492.36814921,3339000.0,-14251345.46522383,3833000.0,9852592.945936441,-12348000.0,-57369.41402678378,12842000.0,12326029.510095455,-12348000.0,9377462.858053926
783,1345,4,148546000.0,323072244.6497299,56555000.0,139356934.65481362,91991000.0,265416639.9410485,1761000.0,115358675.64414154,-2375000.0,-163735014.08488816,-614000.0,-48848758.71446273,-10098000.0,69266244.50524463,11859000.0,17958427.040049944,-10098000.0,97400248.60409199
1251,1021,3,7304300000.0,7061104370.15615,2451900000.0,2477572762.5147834,4830200000.0,4087692236.850433,578200000.0,604194604.3392729,581100000.0,618681064.1084889,1159300000.0,1208830928.2299135,245200000.0,171798665.1542259,333000000.0,410624965.2470356,245200000.0,193569639.09223658
1224,234,4,1976905000.0,2140044396.6170065,699909000.0,864942003.8717968,1276996000.0,1318935928.3940492,53993000.0,100841712.70648234,315825000.0,186055914.63201016,369818000.0,289867091.4912472,-1572000.0,41491142.00536055,371390000.0,378898356.63185036,-317397000.0,-278056643.92536736
1410,323,0,2097274000.0,2988363832.7629085,1132234000.0,1622302359.065598,965931000.0,1436573886.4065056,70481000.0,137740666.36528915,291052000.0,467200266.862315,361533000.0,602151570.6802967,58709000.0,207189901.56569582,11772000.0,25189473.460204676,58709000.0,112551192.90508547
529,1124,0,31183000.0,29089598.718601346,15926000.0,11604820.206236064,15257000.0,22768311.405738115,2456000.0,4887899.521972507,2151000.0,13026350.756508524,4607000.0,17330707.86436677,-2931000.0,-592414.5897583934,5387000.0,6818728.048342884,-2931000.0,-1930828.526370402
730,576,2,978523000.0,3193314933.7225785,851196000.0,1853808143.4466646,-94184000.0,830108086.5218916,24321000.0,28576876.02601619,137937000.0,275671561.54222506,162258000.0,263995609.387995,-764000.0,-70159021.10230169,25085000.0,92306738.82559252,-764000.0,-63729862.79957539
1590,10,2,27253000.0,-200856683.45923495,14465193.072010836,-94003094.36043358,12787806.927989164,-44114339.28681809,-17000.0,13480571.943218809,17493000.0,32586466.154351316,17476000.0,48015294.02911517,1196000.0,1286974.8975317124,138000.0,3530124.434022315,-155000.0,9950447.509196749
367,641,2,798398000.0,983052956.5602853,795372000.0,742273672.4725959,3026000.0,38021317.0033367,37121000.0,-44343471.73221481,256160000.0,158619402.36012667,293281000.0,122958192.18670793,10257000.0,-141279443.6794378,26864000.0,90596754.51834819,10257000.0,-134940226.2505632
636,48,0,1059052000.0,953780411.3504146,883921000.0,811838925.3266869,175131000.0,88008340.45017141,91945000.0,127278413.51117878,202788000.0,334274474.63740087,235132000.0,403320844.6846416,-287000.0,-18132409.262895953,84957000.0,121907419.72060204,6988000.0,5370993.7905760165
1270,290,3,11069000000.0,11991508757.283442,5919000000.0,6270718137.994192,5105000000.0,5935289057.373824,727000000.0,777695570.4953434,1752000000.0,1888062381.643059,2479000000.0,2633437242.2735815,462000000.0,570609559.8235008,265000000.0,201512119.27252066,462000000.0,576183451.2228224
102,167,1,12331000.0,176264024.9758156,10875000.0,133131798.69332293,1456000.0,71974607.86349893,1472000.0,-15719735.498195887,1968000.0,20375384.639890976,3440000.0,85215630.15401314,-4166000.0,-11642185.258499973,5638000.0,616269.7439813763,-4166000.0,-16336005.242177535
1658,1140,4,180372000.0,100384186.23925686,121221000.0,142997734.68556687,30642000.0,-21146907.019821286,18014000.0,26899682.5521924,31653000.0,36672720.996459216,49667000.0,64542111.23819436,-11599000.0,13839434.058086745,29613000.0,19511214.679504823,-11599000.0,7388467.872688085
6,1573,2,2319806000.0,2050144142.8707228,1534495000.0,1629112978.3746986,785311000.0,155823594.45861295,376397000.0,283196776.81957746,415254000.0,317796974.681596,791651000.0,619042707.1446557,93430000.0,32143876.990019687,288680000.0,248583754.30825153,87717000.0,34613022.51132551
1147,1457,3,19295025.0,7885524.170553923,28370931.0,17905887.912063062,-13369686.0,20788168.416736394,2067435.0,6779543.651371114,4847499.0,6479153.126124002,6914934.0,10119718.83203496,-1108124.0,1145534.4902217276,3175559.0,2692840.466384098,-1108124.0,4086703.1849875357
114,1091,3,3549408000.0,3578116354.3865585,2109262000.0,1639383178.2879663,1440146000.0,1703819158.700107,264579000.0,282420548.81676084,494402000.0,510994444.6967462,758981000.0,794011302.0182937,58594000.0,87788648.86096671,205985000.0,191814576.5377395,58594000.0,90605972.27902122
139,988,1,331401784.0,193589040.3146925,56254670.0,50357147.72464287,275147114.0,-66373564.716417074,17982150.0,-10316679.169752747,0.0,-27757039.104705222,17982150.0,-23326597.770929456,-40215832.0,-56926101.78524695,58197982.0,68630974.52789605,-40215832.0,-78947653.69764906
411,662,1,5533000.0,4471580.333291054,4648000.0,10426507.270630121,885000.0,28085825.252340794,-1669000.0,963735.981999144,2438000.0,-12775243.327834822,769000.0,-13488617.66565463,-6339000.0,-4830812.435300618,4670000.0,6558890.354851015,-6339000.0,-5595154.372852141
681,175,3,36550000000.0,38644551759.20321,16943241279.095451,17537038152.580612,15250000000.0,16629209378.268646,577000000.0,310592712.7034337,3467000000.0,2642877848.529689,4044000000.0,2873706224.2619705,714000000.0,394768565.4407327,627000000.0,620777716.5940585,-50000000.0,-310185003.89062685
1671,163,0,100449000.0,-70464593.49403548,141057000.0,74328201.07650548,-40608000.0,-159756860.2613263,-171000.0,-11393721.121615537,512000.0,-44264481.04587411,341000.0,-34907779.18863925,-48297000.0,-51725039.43725205,24344000.0,19729915.66423191,-24515000.0,-31123636.785847522
500,170,3,10599934.0,2710.6419875621796,26203416.0,20363609.03516966,-15603482.0,12348301.632236183,-6219.0,4521316.690806553,193120.0,2554171.3384634536,186901.0,6024120.865830585,-1076399.0,2511573.3742097393,1070180.0,-417615.746018976,-1076399.0,4938932.4368260335
1203,193,0,13322000.0,381366090.15009207,67881000.0,243504038.0164136,8277888.77383834,187649254.792728,3223000.0,-21081178.19347778,1889000.0,107046648.34145007,5112000.0,94369629.65782167,-3552000.0,-35148846.660206825,8664000.0,97614.84989976883,-5441000.0,-21178793.043377616
180,382,1,635001000.0,224108745.8189335,115305000.0,541996679.4787298,502273000.0,-354185146.9383671,21465000.0,-91565218.6773761,40457000.0,-182845604.76529545,61922000.0,-272891142.4587324,-143360000.0,-196046953.56179518,205282000.0,169537194.1134875,-183817000.0,-261102412.79086393
1960,1074,0,2672864000.0,2889251816.6465974,288913000.0,409592517.2039077,2383951000.0,2501013493.8230567,132902000.0,162632538.69241458,168499000.0,291367947.1629202,301401000.0,463115276.6932429,55706000.0,127378250.27070178,77196000.0,30779635.22368644,55706000.0,131852903.4687283
356,1599,3,8388335000.0,8877363346.20556,5163154000.0,5431195102.83079,3225181000.0,3571533440.520175,313343000.0,314580528.26795393,687959000.0,751562538.1454846,1001302000.0,1068583888.753927,116260000.0,148286753.11920077,85661000.0,53136951.52486803,227682000.0,261443576.74308574
1646,1068,1,1563399000.0,1689494411.0227811,1445358000.0,1315141060.858128,-136248000.0,312352057.47446805,72333000.0,144051566.51625776,116682000.0,300316283.0672421,189015000.0,436716526.3916674,23506000.0,42733950.35673009,11423000.0,34737036.51328335,60910000.0,109314530.00297424
1793,586,2,320019000.0,90834350.9857682,126984000.0,23401560.762005687,193035000.0,71495606.15588337,177377000.0,225097692.42858705,58492000.0,151823747.672161,235869000.0,377992651.5449337,25509000.0,35237535.21278891,151868000.0,191743379.052852,25509000.0,33354313.375735223
235,418,0,0.0,-2204641.5255458355,0.0,-2085572.3723640442,-804876.0,3475447.926422119,0.0,2814255.6185488403,0.0,13400044.968065225,0.0,15545537.198895767,-14550.0,1546375.6449798495,14550.0,2962536.233797677,-14550.0,-148280.6152488701
1668,345,3,267194000.0,360812430.38518524,175308000.0,265978384.16674718,91886000.0,114676257.43722166,5103000.0,7834083.444683496,0.0,-1589313.1199044473,5103000.0,3422653.585191041,-32762000.0,-27502577.886875898,37865000.0,29885354.126694474,-32762000.0,-22051270.6820105
1456,769,4,2249377000.0,2031259909.6411157,1923326000.0,1879849144.7934723,326519000.0,172818741.99968827,-76300000.0,-100568078.88175589,416103000.0,390794814.3379715,339803000.0,281118900.6024449,34941000.0,4343704.892076906,184914000.0,185115195.75413856,-261214000.0,-285683274.6358938
1291,32,1,396890000.0,309709274.99869746,107071000.0,-105136598.43815154,289819000.0,293886244.4430968,52569000.0,39511931.71107372,13634000.0,18768008.794899352,66203000.0,59434718.8868804,8375000.0,-20753679.686313763,57828000.0,66508957.08741078,-5259000.0,-26997025.376337327
1376,256,2,7827000.0,-48044677.68727076,4744000.0,-69824287.05332053,3083000.0,62623123.61573094,1288000.0,-922741.5676057264,867000.0,17235242.74405971,2155000.0,17641024.129028626,-3880000.0,-11222561.40446873,5168000.0,10411875.24513327,-3880000.0,-11334616.812738687
1702,1050,4,11990000.0,-60161317.80425656,3030000.0,-54534589.01701146,8960000.0,29104306.905000687,1480000.0,2352476.5770168826,3017000.0,6356219.804908589,4497000.0,6494702.135995239,-944000.0,-512082.12486171536,2424000.0,-2279200.6229606643,-944000.0,4631677.199978006
1591,116,2,7472874.0,-20024012.829850554,3243445.0,34220705.450773835,4067990.0,-61034561.15810603,3065804.0,-37156897.28545605,0.0,23202706.24972737,3065804.0,-10696616.518902332,-21884.0,-35246413.76379103,3087688.0,-402951.6273393333,-21884.0,-36753945.658116624
647,998,1,2182494000.0,2384989657.354704,2467501000.0,2312156715.478199,-484456000.0,-161506937.56066728,389190000.0,393010377.78901863,141172000.0,114448088.13255297,531030000.0,491594794.840436,-54175000.0,-61649795.386333756,443365000.0,433475389.2316676,-54175000.0,-40465011.442649424
100,324,4,12166000.0,188812218.2126131,2892000.0,200939003.57980198,9274000.0,43887725.18622953,5000.0,-15254211.601979837,54000.0,17751775.40729717,59000.0,32848394.214510404,-3433000.0,-11162699.092041638,3433000.0,15753831.619732484,-3428000.0,-31008043.22171174
507,554,4,189783000.0,113445990.49419475,45792000.0,-3456150.240460038,143991000.0,81952800.36706418,2372000.0,12976378.028891847,0.0,48336410.65995018,2372000.0,57678204.07383268,-18270000.0,-12084520.936390992,20642000.0,22787555.921723418,-18270000.0,-9811177.892831184
547,509,4,1072653000.0,1633896868.699315,455367000.0,565257917.6380616,617286000.0,748738179.7677622,134998000.0,227322535.11899832,27783000.0,121332418.73027073,163452000.0,351445152.7318518,5489000.0,99190039.25230244,129509000.0,146495472.69506094,5489000.0,80827062.4239378
457,1464,1,665104000.0,953376757.9918516,575531000.0,661920754.758173,89573000.0,258440406.64082053,30803000.0,29870844.119354025,19437000.0,2974645.3143159617,50240000.0,30563625.10715665,10357000.0,15945257.693829287,22017000.0,11180704.103350714,8786000.0,18690140.016003065
560,1261,3,1900367000.0,-2996633156.459451,289037000.0,-1125119554.9239817,1613343000.0,-2406043838.3864164,45433000.0,50764465.613663085,413911000.0,488266380.6202079,459344000.0,603840525.8097751,-6757000.0,105081077.17058495,52246000.0,-26833631.576679558,-6813000.0,77598097.19034211
1402,384,4,88944000.0,78222548.25731307,45361000.0,58777042.6987108,43583000.0,48581808.26564136,0.0,4007460.051346682,45000.0,28943837.550153434,45000.0,33110544.28250525,-14351000.0,-5395459.05985352,14351000.0,12510926.762447387,-14351000.0,-8503466.711100256
1274,1350,4,5390785000.0,4723223293.974592,4083098000.0,3791274309.178071,1050686000.0,385658047.35390615,352054000.0,412758138.6631383,284900000.0,410216719.3622857,636954000.0,847046671.6011176,120850000.0,176423925.1696388,187232000.0,163449947.1931959,164822000.0,249308191.46994275
799,892,2,18535000.0,-73861940.36914694,13748000.0,-27738277.645698905,4787000.0,-19944210.49080041,2839000.0,2694907.0946199335,7502000.0,32068285.265373573,10341000.0,33390540.233094566,-2229000.0,-8213686.857585661,3071000.0,7291949.290305644,-232000.0,-4597042.195685502
1436,1492,3,13281300000.0,14051384438.43287,5777300000.0,6067663580.326502,7484300000.0,7966906662.989794,1030700000.0,1003320212.9938892,1150100000.0,1047166129.5674685,2180800000.0,2002211597.374297,687000000.0,498609447.9384576,343700000.0,496231000.286485,687000000.0,507089212.7074037
1518,1341,3,108681735.0,77640450.02512348,9192190.0,-35767730.63163763,67531550.37365061,120121635.8940053,2201326.0,-714908.5180237144,255772.0,10071855.83641387,2457098.0,8817431.852836937,-8935951.0,-12325259.73939411,11137277.0,6726793.930192538,-8935951.0,-7441702.448215781
211,403,0,189692000.0,183402030.82182038,90178000.0,75382073.92567298,99514000.0,110843263.47925773,-4411000.0,32457.55563057959,24963000.0,50852210.46845664,20552000.0,51029496.41008325,-10000000.0,-3237814.9836130044,5589000.0,4649657.739790432,-10000000.0,-4617200.1841598535
1542,1378,2,230878000.0,222611650.04092288,57278000.0,53066023.32077974,173600000.0,202573993.42279363,26973000.0,28577338.714956466,7041000.0,21567795.48011999,34014000.0,48242019.83735868,-11169000.0,-9252910.423318796,38142000.0,37391512.282075435,-11169000.0,-8814173.567118738
1496,1478,2,73773000.0,44902327.44362682,50819000.0,5854465.597825885,38847689.64492722,66950557.609160185,5428000.0,-3203743.221795067,22481000.0,26347118.400305025,27909000.0,23137688.117389567,-1778000.0,-11249175.671049029,7206000.0,6271295.581531286,-1778000.0,-9475038.803326143
1891,702,1,1582767000.0,1384384287.524845,680421000.0,686104900.1176703,880211000.0,604220725.8859969,56683000.0,49062888.23472841,17637000.0,11262746.33722931,74320000.0,62519746.31880386,-5119000.0,-16074757.789921323,35279000.0,49426154.0759351,21404000.0,-363265.84120707586
362,1108,1,5641000.0,9139561.324075341,5200000.0,8444685.905531645,-3859000.0,36367038.18337342,1192000.0,2988049.342328094,781000.0,-10533536.620361518,1973000.0,-8991781.966449931,-97000.0,-504329.5275302292,2070000.0,4041646.877427265,-878000.0,-1053597.5350994254
605,1128,1,3208196000.0,2722567692.5921106,2133043000.0,1718970014.0616267,1075153000.0,464574044.79551286,625972000.0,521936343.69394046,1066275000.0,967662678.0700184,1692247000.0,1469877785.7959185,91616000.0,-20810762.752278894,497965000.0,357591169.02727354,128007000.0,164345174.66666818
384,67,1,13057000.0,1514659026.8117297,4943774.229094189,499345526.2205665,10949000.0,1123888884.8490548,7944000.0,8873101.653214514,0.0,50902048.20692981,7944000.0,50067746.17971692,1997000.0,21070661.622056287,5947000.0,567361.5109905452,1997000.0,8305740.142224021
438,863,1,5973000000.0,3835522597.568065,4408000000.0,3087876967.6662383,1554000000.0,776461868.5142767,244000000.0,261303020.3625056,1526000000.0,1471095651.047938,1770000000.0,1764141914.757741,147000000.0,56477936.62012633,127000000.0,90076002.79235533,117000000.0,171227017.57015067
1761,1201,3,589088000.0,601024686.4384044,253950000.0,282801446.8645632,335138000.0,355120488.4148679,19294000.0,21034021.56155379,99428000.0,93726547.94513062,118722000.0,113027640.6036209,9057000.0,4508633.051671645,10237000.0,13912588.719913796,9057000.0,7121432.841640484
403,1321,3,21286772.0,21514192.926842272,1383236.0,-1519830.1422504187,19903536.0,55025508.22264168,781782.0,4788944.31901668,421382.0,4137469.4514811486,1203164.0,7595197.153292283,-1960898.0,274346.54621528834,2742680.0,2574899.4833622724,-1960898.0,2214044.8356548697
388,1465,0,3445920.0,26690518.303643107,1859560.0,139338927.31174806,1616914.0883314284,31446801.447765052,2970901.0,2550085.519401528,569508.0,5654219.407155127,805185.0,10020356.121076092,2437201.0,-67635.9428801043,533700.0,7445999.641274206,2437201.0,-4895914.121872736
1452,1235,4,328158000.0,302613258.5178782,124250521.82515822,139243798.58887935,270486000.0,269031577.5134467,24944000.0,23470635.59489306,16521000.0,23804872.304370336,41465000.0,46443907.9655138,-7674000.0,-5062475.044517215,24827000.0,22445408.423566435,117000.0,1025227.1713270345
1876,600,3,2498305.0,-10134894.392547727,2997402.0,-2897239.4224660397,-3454854.0,34802626.95969862,467340.0,5123755.065034255,346611.0,2649157.815810183,813951.0,6842627.287136495,-114631.0,4024453.889630923,581971.0,867566.18975465,-114631.0,4256188.875280116
757,967,2,1288046000.0,1427846266.8042302,649920845.9604261,713298987.4883914,889849000.0,973186970.0905939,105384000.0,100049365.49746844,285360000.0,320721232.11578363,390744000.0,419484817.53486973,53190000.0,47564963.41420022,52194000.0,59726695.82101236,53190000.0,40322669.6764562
660,231,2,600057000.0,600660785.9105506,369915000.0,346568828.2488332,225443000.0,244188978.43137866,43121000.0,37837198.07147717,106269000.0,112088737.78227445,149390000.0,147332180.25194386,7853000.0,4597861.671081981,30439000.0,31252568.193468608,12682000.0,6584629.878008759
197,1227,2,538955000.0,563864111.6348406,291671000.0,186910770.27484235,247284000.0,674399059.2005799,-14193000.0,20590823.22743793,14235000.0,-235209.96367181093,42000.0,59109298.756979786,-51845000.0,-1126996.3192587476,37652000.0,24221544.104943793,-51845000.0,-3630720.8775059897
93,446,2,25334074.0,7309006.809840798,18917048.0,-13879367.013948798,5501613.0,26892561.47076422,-536032.0,1144157.3184264898,4501393.0,18710798.588248357,3965361.0,18844792.420853943,-2975120.0,-4352195.005379601,2439088.0,6546809.478807993,-2975120.0,-5402652.160381293
472,459,4,1934400000.0,2493130049.267489,855887268.5537325,928907862.6535815,957200000.0,1288887041.6692023,84000000.0,146451803.63312578,375600000.0,534261452.77158755,459600000.0,672130268.9467291,30800000.0,92270024.64682171,59000000.0,64883861.11472479,25000000.0,81567942.51840116
1345,1471,4,102973000.0,450665854.7578258,162948000.0,438233131.7337069,-346214000.0,-338411007.6666683,-13037000.0,20450359.845847026,25768000.0,109189850.59572934,12731000.0,162418184.81511486,-23219000.0,18236310.125130348,35950000.0,30499861.033336855,-48987000.0,-10049501.187489478
1672,1007,2,2501300000.0,2604823073.781597,1075500000.0,1319472028.7529402,1407900000.0,1204694403.0175006,99600000.0,85233966.34351528,151100000.0,266493429.59819707,250700000.0,356899814.88843155,31900000.0,-19081111.049506504,67700000.0,95932343.79111153,31900000.0,-10698377.447595984
521,1060,4,27910000000.0,38885662058.719505,24392000000.0,33779905897.335567,14058781786.346067,12905485004.729002,1525000000.0,2458706985.655899,6421000000.0,5503215268.204354,7946000000.0,7468057469.274918,561000000.0,1769750323.9325588,638000000.0,117509098.21447107,887000000.0,2341197887.441417
1143,781,2,105238000.0,-125766492.31491864,42240000.0,-167304603.79756325,62998000.0,-11667998.619598418,8572000.0,-2906935.2130111977,322000.0,23739318.361934558,8894000.0,20984618.139576584,2218000.0,-5953156.24556989,6354000.0,8570991.08500358,2218000.0,-11477926.298014592
502,145,3,2010176000.0,2061707060.80666,889414829.379791,960815838.3345098,1057656000.0,1022207774.3419932,113627000.0,121883572.1352342,250202000.0,252081408.8079033,363829000.0,368566293.2830496,44531000.0,34441003.25204586,69096000.0,81378019.24040475,44531000.0,40505552.89482984
319,979,0,15154000000.0,15541674101.835884,5534200000.0,5660425339.741985,9554000000.0,10065565345.235172,739300000.0,753369818.3050687,999600000.0,936673984.6826342,1738900000.0,1643212257.685855,318400000.0,415800362.8219159,315200000.0,187041544.31540003,424100000.0,566328273.98967
471,8,4,346507000.0,446406392.67370254,100361000.0,192045124.89654487,246146000.0,265042831.22472745,14398000.0,14149805.829542458,62502000.0,85869759.65609035,72480000.0,93953261.65282965,4926000.0,5984541.648889233,9472000.0,12018840.040231742,4926000.0,2130965.789311113
1756,1541,4,229309000.0,51272651.30370247,190264000.0,106078129.74296623,-44269000.0,-72273079.90245098,9225000.0,13904685.19176758,52669000.0,93630086.24495132,61894000.0,108463693.38408831,1401000.0,10645544.074142175,7511000.0,318968.86090157926,1714000.0,13585716.330866493
848,860,4,101740000.0,-93139741.90183115,28463000.0,-60244317.923334956,50734000.0,-369422.8183591366,29850000.0,4067555.313116938,12745000.0,13723459.133367963,40857000.0,16407776.897182092,2689000.0,488855.79310160223,27161000.0,12544332.139544263,2689000.0,-8476776.826426838
1310,236,2,9582645000.0,8886630207.09766,3280269000.0,2678028682.8851337,6302376000.0,6509441940.670857,376175000.0,192044334.72227934,424915000.0,490242368.2014459,801090000.0,685752259.9855452,272965000.0,71367762.10676894,103421000.0,85274533.66225426,272754000.0,106769801.0600249
202,276,2,609678000.0,642634492.1276364,288631252.1743736,295449929.18863153,366720000.0,437847994.8239062,84451000.0,75853765.82536136,21802000.0,45221564.16691705,106253000.0,117618807.48638268,5683000.0,-8504694.878666893,78768000.0,85099091.70846194,5683000.0,-9245325.883100307
1444,1363,1,43441700000.0,40825316675.730896,21559314449.01792,20191426990.143845,21882385550.98208,19027178369.913845,1370000000.0,1075983543.1845784,587400000.0,-131062191.73242322,1957400000.0,1044845108.3320757,472000000.0,338456141.9064066,1485400000.0,1351078967.3861213,-115400000.0,-275095424.2015426
1578,181,2,1146353000.0,959484497.7219634,752649000.0,859793416.4211965,393704000.0,62884569.15437853,95229000.0,73608256.14257795,32092000.0,71081499.53175932,127321000.0,143446027.69353276,-58245000.0,-60261375.93378242,153474000.0,139659992.45457563,-58245000.0,-66051736.311997406
451,1540,0,796771.0,115054978.90583551,1072746.0,80196641.91647512,-275975.0,75415141.8832714,205707.0,-21836407.490004554,158335.0,23202976.035714414,364042.0,-9585559.480682865,-168127.0,-42143345.92604459,373834.0,17258323.654446993,-168127.0,-39094731.14445206
35,1028,1,9069035000.0,8079289936.5603485,2563480000.0,2193828343.5863085,6505555000.0,5228935382.340683,942419000.0,928817339.3334042,522866000.0,750692939.3570915,1285548000.0,1523900514.7507257,602695000.0,602051384.0193967,339724000.0,349420380.52806115,602695000.0,579396958.8053427
237,1408,2,48924605000.0,47278730051.50245,25766652000.0,24840690309.776146,22441501000.0,21988458814.83995,1560160000.0,1579548856.744348,915531000.0,1711865852.9553933,2475691000.0,3300294443.340171,558196000.0,475270459.60444283,1001964000.0,1000420745.4674518,558196000.0,579128111.2768948
917,458,0,514281000.0,-27216840.86778319,309957000.0,39775434.971837044,198004000.0,-75937610.85862255,106985000.0,23744736.957594603,149052000.0,66314776.47727447,309744000.0,113918800.88276225,62399000.0,-6339069.714490127,44586000.0,32548087.89192179,62399000.0,-8803350.934327004
558,415,3,17876000000.0,31673090925.636253,4077000000.0,8801285169.817759,13799000000.0,25268809197.1805,-917000000.0,-586477866.1605477,1453000000.0,1408235835.6659088,536000000.0,822862679.1732374,-1774000000.0,-1823703054.6864092,857000000.0,1204845020.8291562,-1774000000.0,-1791322886.9897068
73,1395,0,218354000.0,216780186.27424943,62021000.0,51774412.87169266,156333000.0,175368432.40260956,-143000.0,-5389827.319852546,848000.0,68000.70729982108,705000.0,-4863797.796879649,-31577000.0,-22780376.35869561,40859000.0,24946135.06928176,-41002000.0,-30335962.389134247
532,1216,3,2268100000.0,2582984600.16774,1627400000.0,1906993251.847521,640700000.0,350151726.763564,78400000.0,86883856.1128768,665200000.0,759179133.2030282,743600000.0,832158841.8980839,19100000.0,70416464.08363514,724500000.0,858286165.0149889,-646100000.0,-771402308.9021115
986,1129,0,49117000.0,64042741.721143365,7104000.0,25113800.36325872,42013000.0,32520496.178596944,1616000.0,-1326915.9286632463,3273000.0,22695612.557944216,4889000.0,20073636.92773609,-1489000.0,-5613646.825642342,3105000.0,6516283.257716142,-1489000.0,-7843199.186379351
252,269,4,12822000.0,-26248967.960326076,1624000.0,-24438809.2304731,11198000.0,30105942.499761343,0.0,1258783.0233749151,0.0,8409861.630154923,0.0,10330767.034089029,-1983000.0,-172205.47134898417,1983000.0,1065674.7415858284,-1983000.0,193108.28178954776
982,657,1,543788000.0,633875003.7876608,205894547.02387,264394106.79539183,402777000.0,450972475.1945243,1944000.0,1307070.3111438751,0.0,-14209255.923519466,1944000.0,-16485990.57566154,-51279000.0,-52194082.17633568,53223000.0,52719749.79157992,-51279000.0,-51412679.48043636
1947,648,0,16965000000.0,17396025516.467358,7506269391.549871,7668246845.113825,7744800000.0,8254312137.544437,1329900000.0,1631118342.5632071,1175700000.0,1751449434.7857819,2505600000.0,3345290937.3585477,1069200000.0,1010596434.4741284,32700000.0,399264568.2973232,1297200000.0,1231853774.2658808
1206,510,3,29788000.0,20726981.37194848,27907000.0,3652265.4216328263,1881000.0,51092362.01332724,0.0,-8556923.865670517,3452000.0,1832590.9681362025,3452000.0,-8322545.506795958,-23801000.0,-25527127.883837383,23801000.0,12436347.105216205,-23801000.0,-20993270.9708862
542,1455,0,39315010.0,-22767093.98668182,15768167.0,-65928489.283177555,23791305.0,57827139.558066726,7600979.0,-15906109.010241032,41810204.0,57775620.08073736,49411183.0,37664848.37980602,-1588725.0,-23138812.29817118,9189704.0,-645458.6656118631,-1588725.0,-15260650.34462924
15,1272,2,184728000.0,217748375.39044338,40367000.0,199767916.21472263,144361000.0,137654673.363508,0.0,-13317827.576367326,8094000.0,-23280740.605946563,8094000.0,11999050.747027248,-23114000.0,-41590701.47915709,23114000.0,21320450.03555461,-23114000.0,-34638277.6119217
1754,1527,3,5014090000.0,5457101295.371929,2606263000.0,2912456456.9007015,2407827000.0,2608961761.9257913,420690000.0,424413553.250799,905430000.0,889197749.9669647,1326120000.0,1299032622.0305078,237492000.0,207598609.78904682,183198000.0,212455142.11559883,237492000.0,211958411.1352004
1448,1438,2,3543460000.0,4946324998.367375,2602227000.0,3172727498.2624173,941233000.0,1274539523.1341186,443568000.0,625609388.1442297,134292000.0,170575614.1740398,414603000.0,645495070.7279798,14363000.0,247041218.3428124,429205000.0,278349932.74084,14363000.0,347259455.403389
459,682,1,747087000.0,878681675.829438,79688000.0,174069931.686833,667399000.0,683824498.1623907,34565000.0,27271370.053642765,22203000.0,23280834.555204656,57261000.0,46484724.319861844,-16306000.0,-10696902.479442332,50871000.0,45332466.95510373,-16306000.0,-18061096.901461236
1505,317,1,4578121000.0,7984887434.643812,2310023301.364386,2060368542.8479092,2489780000.0,6761949070.697124,2190001000.0,2672094191.2395887,-1465670000.0,990707127.562145,724331000.0,3667995021.0666394,216069000.0,71970452.37367333,1973932000.0,2496201251.8069844,216069000.0,175892939.43260622
1613,680,3,11895943000.0,-2590580081.0460362,3479745000.0,4346796582.899525,8416198000.0,-9909763517.238594,335683000.0,-83788211.10448232,296441000.0,1483673404.7344263,632124000.0,2050516459.6947205,90949000.0,526754310.00490797,201199000.0,-243147435.6934151,134484000.0,159359224.58893242
1214,90,3,1059300000.0,989330205.6392009,513000000.0,477368894.9255941,545000000.0,501765933.4128809,132000000.0,114170817.28652032,172700000.0,209251367.63704285,304700000.0,332222020.72897077,34700000.0,34425662.27146046,88200000.0,80355960.73227586,43800000.0,33814856.5542448
454,544,4,11204065000.0,5779290903.538441,4242197120.938668,2616849154.993851,3489373000.0,-67159533.97202754,480702000.0,626950097.3813944,457696000.0,833638348.6471686,938398000.0,1410455029.088829,172392000.0,366528463.04689336,308310000.0,412022975.6588623,172392000.0,214927121.72253126
1392,712,1,531121000.0,480932888.87448204,248900000.0,255224644.9700438,282221000.0,248164047.4514644,62379000.0,71145401.61923957,135419000.0,131286654.38665022,197798000.0,199381083.62154114,18703000.0,15770048.685682207,43698000.0,53768637.46075484,18681000.0,17376764.15848449
1519,1529,1,961035000.0,1304240826.2260334,1381722000.0,831055518.4069555,-420687000.0,1268254060.5270033,271111000.0,220094020.0118239,201537000.0,315262688.8837566,472648000.0,551468405.7021346,5387000.0,-79726432.07332915,265724000.0,223738920.1403595,5387000.0,-3644900.1285350397
1060,9,3,3194462000.0,3197516961.9574175,1643299000.0,1642353217.5019197,1512215000.0,1364433460.370594,817744000.0,854961107.8298382,0.0,968183.1992322952,817744000.0,848009151.7985711,37900000.0,73451279.46890049,779844000.0,784375397.0388379,37900000.0,70585710.79100078
1100,1253,1,6042273.0,10846723.182740927,3627261.0,12911183.48372066,2415012.0,20031271.276661545,0.0,1615194.2972031385,0.0,-10727800.03017376,0.0,-10371893.472593129,-1829562.0,-1246205.547658055,1829562.0,2976688.656494625,-1829562.0,-1361494.3592917714
203,112,1,76266906.0,66646860.540303886,57438990.0,52812896.939175844,40912361.81482647,57930686.06780723,9146097.0,12370778.267178204,0.0,-15381815.260503747,9146097.0,-4098501.9643116742,-2633902.0,-3058530.735785559,11779999.0,16874103.517180294,-2633902.0,-4503325.2500023795
1493,1589,2,-3532973000.0,-2926287437.846506,-2747133000.0,-271580518.76370263,-773571000.0,-1679551289.8471346,87737000.0,36230487.11332507,40236000.0,405757699.47440493,103187000.0,429697002.04242814,7123000.0,-80799237.37471196,80614000.0,136864078.36199477,7123000.0,-100633591.2486697
543,613,0,846734000.0,2780524783.8055773,635659000.0,1057345795.5752603,69332000.0,1183841634.055491,204774000.0,311649235.88785255,-13024000.0,220062834.16931286,191750000.0,730338333.2189251,-52860000.0,-243653861.2645548,257634000.0,438447157.12471545,-52860000.0,-126797921.23686372
1966,79,4,1354514000.0,1814857915.309419,675720000.0,792198697.683271,319291000.0,508296781.26812196,-16558000.0,5284830.213490292,64132000.0,34934616.967217274,47574000.0,40946832.95249233,22229000.0,24663195.269167036,13428000.0,15340703.982867874,-29986000.0,-10055873.769377094
1802,943,1,270533000.0,315967823.723053,240046000.0,270063483.1545568,30487000.0,81027011.34940451,26052000.0,36361807.471877754,12454000.0,28555431.30623236,38506000.0,62176863.64435939,-21038000.0,-5918427.674486604,47090000.0,44678224.4558422,-21038000.0,-8316416.983964673
1372,520,3,583783000.0,840425099.9684198,717382000.0,913994181.0101942,-133599000.0,-77060263.24774379,41865000.0,27055606.830745995,32703000.0,27538655.690765895,74568000.0,52897402.953295164,-32006000.0,-60046422.833361335,48224000.0,68893969.31687233,-6359000.0,-41838362.48612566
1325,178,0,534446.0,-5720223.071480274,9794849.0,3885021.2540602684,-9132038.0,-5459943.964981884,6264.0,2334706.421832271,3881.0,12715619.271765886,10145.0,14435787.501003355,-961868.0,743241.7341547124,972013.0,3132175.40631599,-965749.0,-797468.9844837682
1504,342,1,106308000.0,93181641.96992135,29369000.0,22268043.491464496,76939000.0,116337011.96761502,15630000.0,18383380.09530132,0.0,-2899120.2261089124,15630000.0,13580733.047532097,-23899000.0,-7281078.122775818,39529000.0,23572024.188389126,-23899000.0,-5188644.093088079
1347,419,4,369031000.0,1277201666.6455736,216722530.1814524,406327129.67740357,188777000.0,965617711.6877985,45044000.0,-1869319.473593004,42173000.0,-21767900.58043636,87217000.0,-22299596.954025164,-3804000.0,-36073887.075138055,48848000.0,32236909.23152306,-3804000.0,-34106228.7051156
1492,886,3,327784000.0,326751970.70596045,323919000.0,309084674.453313,3865000.0,66953518.17259207,33496000.0,34019180.202562734,8201000.0,16203706.401109505,41697000.0,48566719.54169123,-4913000.0,-15545401.750689045,37287000.0,39319650.99731892,-3791000.0,-5300470.794755705
1107,1421,4,85658000000.0,75970734817.95743,88335000000.0,74750411405.36217,-2772000000.0,-11231772426.405302,5387000000.0,2049729639.3698597,14002000000.0,24508051525.84452,16935000000.0,24945943798.983078,1165000000.0,-2100624278.7868981,4222000000.0,5562633354.076024,1165000000.0,-3512903714.7061663
1336,954,0,898860000.0,809526670.5977957,527877640.3036609,498914188.3325747,360528000.0,303413109.23741233,68259000.0,64495027.430308685,42065000.0,-42808769.160114996,110324000.0,17349990.18816918,-1325000.0,-15963687.271025829,69584000.0,67199172.96401522,-1325000.0,-2704145.533706646
599,1230,4,50546000.0,15206320.798443317,5959000.0,3573021.9388508797,44587000.0,44997109.558953434,1989000.0,6195396.360636145,1909000.0,16703114.763511447,3898000.0,22642582.49072674,-1895000.0,1904287.3320604041,3884000.0,5415864.692222476,-1895000.0,779531.6684141429
117,1592,4,939056000.0,927321230.8408535,419590000.0,420034334.52787584,517473000.0,566048459.3324468,90527000.0,122600219.32501432,120216000.0,108464297.46667778,210268000.0,226746599.61968684,61012000.0,83814504.68462808,29515000.0,44454975.80896361,61012000.0,78145243.5160512
1825,1596,0,20027115000.0,20766558368.399002,12952737000.0,12217649354.69286,5611108000.0,6884461975.387325,32786000.0,-98771866.33883387,283742000.0,554624819.5367649,316528000.0,503777271.204842,-1347477000.0,-432710674.40108,1910658000.0,847615082.3797276,-1877872000.0,-946386948.7185593
1507,1095,4,124094000.0,150337508.81709546,18130000.0,12046170.8071478,105964000.0,171208297.9510954,830000.0,3580626.9733415097,0.0,15706254.12843138,830000.0,20626698.650338992,-5787000.0,-3384392.3766407017,6617000.0,9011797.457720503,-5787000.0,-5431170.48437853
321,18,1,68675000.0,194079753.0781175,40331082.646745786,112023077.34704292,53645000.0,114881562.44357163,10938000.0,20908655.237662286,6604000.0,2150627.6779843476,17542000.0,29825317.439906754,880000.0,2379963.3580261273,10058000.0,17392012.234713286,880000.0,3516643.002948746
1482,1044,0,1833700000.0,2019481369.3346593,811331929.4597701,967739778.9730861,482900000.0,471274163.57324684,110200000.0,145210093.25516868,356000000.0,378490312.5666046,466200000.0,515381603.69325995,45700000.0,90978710.72886322,55600000.0,50916938.75544538,54600000.0,94293154.499723
508,1491,4,62515472.0,38738008.77452052,29595817.732691668,26241595.64773661,21861273.0,42996696.569686234,7032458.0,10659368.51146248,11256239.0,22196530.6808213,18288697.0,33361728.786337472,-1564350.0,3566980.6147471024,8596808.0,8452126.458655551,-1564350.0,2207242.05280738
1411,89,4,33859785.0,17940252.532042503,6178818.0,-1200295.8903084397,27680967.0,70410376.99381512,-63384.0,5366046.872110076,87873.0,3286943.894616804,24489.0,8550973.097761363,-2675666.0,3385458.234160778,2612282.0,4661613.727723062,-2675666.0,704433.1443874557
718,784,4,770792000.0,898459390.9078213,581187000.0,807075614.0899929,188503000.0,52903266.00877684,456709000.0,456769866.56522703,0.0,-74018768.71242332,456709000.0,386120306.87113595,-29756000.0,-5121931.157448534,486465000.0,481259664.6066754,-29756000.0,-24489798.0414478
1865,1595,1,4753100000.0,5098561216.686953,2691038000.0,3158894535.2701187,2062062000.0,1928386356.7072015,383135000.0,438467640.6818317,0.0,-43302188.835467055,383135000.0,393173331.6687856,126771000.0,58680949.24853166,256364000.0,418847942.53766686,126771000.0,19619698.144164518
710,229,4,9330700000.0,7805909363.167398,4987700000.0,3085414707.175158,4343000000.0,4659270970.807761,590200000.0,569205872.2140837,367100000.0,669509404.869452,444000000.0,779088812.0980418,121300000.0,-38648902.68775622,468900000.0,410507941.20516336,121300000.0,158697931.00891984
285,865,4,1797231000.0,1426942244.3785129,1568932000.0,1515019654.7177274,228299000.0,126553703.94590795,143030000.0,30301596.486492977,0.0,119987960.02810177,143030000.0,168977067.78585142,-113543000.0,-221788528.2301048,256573000.0,256459628.89338338,-113543000.0,-226158032.4068899
1609,549,4,90048000.0,257311359.71857774,45436321.63528667,52008985.63646531,37547000.0,161277124.02729073,2482000.0,-13724550.96441394,9262000.0,33167095.855252493,11744000.0,19417815.16108434,1360000.0,-10828037.929557938,2815000.0,7283416.95281323,-333000.0,-21007967.917226795
1814,521,2,190817000.0,131015629.93268812,91955000.0,23589606.058433592,118567925.39840196,134648103.27642107,16838000.0,13765546.919369418,21962000.0,25908934.61887146,38800000.0,39042157.15955415,3292000.0,708523.8035189733,13546000.0,13590852.443888701,3292000.0,174694.47548092622
720,482,1,24930824.0,-1548595.3147355914,6278564.0,4283585.526616871,18652260.0,43296444.11831385,7866761.0,10880033.479081199,20382092.0,14908482.624644792,28248853.0,22448264.510323033,1448213.0,2275250.1037524827,6418548.0,8441093.571593866,1448213.0,2438939.907487057
1707,1123,1,6071000000.0,6147121556.50102,14261000000.0,14547102156.295462,-8190000000.0,-11118889839.122904,1287000000.0,1363916377.0139956,421000000.0,346064788.7876971,1708000000.0,1638252529.1306558,613000000.0,550406934.2899455,1095000000.0,945807385.0788614,192000000.0,418108991.93513465
485,633,0,5768300000.0,5768634020.459541,3017800000.0,3056484314.9893894,2739100000.0,2708292865.5369225,487400000.0,496288077.9193306,888400000.0,913581957.6799389,1375800000.0,1396632058.134917,276300000.0,269163139.32982534,211100000.0,222678539.95204592,276300000.0,273609537.96728444
1364,815,3,3486179000.0,4153124366.612122,1927467000.0,2200114622.955749,1501742000.0,1840292865.1002743,315111000.0,332232116.0413828,669472000.0,730877216.0208911,949217000.0,1044995111.4210193,-24190000.0,139405541.37238532,194277000.0,186808113.9791014,120834000.0,145424002.0622817
1943,1072,2,496042000.0,630292704.7339424,349488000.0,373229064.97458565,146554000.0,266916388.4822357,33924000.0,42686620.43153775,212763000.0,227370427.70840257,246687000.0,266951258.2774439,12448000.0,25161039.33397564,21476000.0,20418404.361460745,12448000.0,22268216.07007723
708,1318,1,1713800000.0,2122954476.3102164,864747334.9608463,1009431733.523125,585500000.0,1028463053.4936086,141400000.0,117367046.05171803,205900000.0,194292184.94189355,347300000.0,303299042.001042,100200000.0,79048088.4583537,64600000.0,72411751.48688129,76800000.0,44955294.5648363
1795,1600,4,5817000.0,-20018375.335671186,1413000.0,-9400884.33664161,5436000.0,22777511.26328391,5000.0,3268759.3861792833,0.0,11048858.390089102,5000.0,14901520.506953865,-3525000.0,1092411.4601485226,3530000.0,2430721.571196839,-3525000.0,838037.8149829372
1196,706,2,4180537.0,-26021523.759341836,13379601.0,15984359.115469694,-9199064.0,-20956818.40649557,1107842.0,-668638.2422585711,974711.0,6039772.270669522,2069845.0,3836363.062524587,-2577294.0,-6344050.458346309,3685136.0,7330451.227618709,-2577294.0,-7999089.469877085
1785,1398,2,6656000000.0,13733617732.800484,2127000000.0,6841338558.917101,4529000000.0,7093676163.437857,386000000.0,798187900.7261357,110000000.0,197241656.24895626,496000000.0,620690493.5507294,-53000000.0,292145446.5195651,439000000.0,208052512.38229617,-53000000.0,590135388.3438405
1117,883,1,191593000.0,309135262.34844244,250675000.0,253357330.1805362,89973054.63642293,276555838.9681439,28173000.0,31055679.079358056,35245000.0,41877308.85737293,63418000.0,75344660.40878165,-6852000.0,-6539251.807462323,35025000.0,47805347.751120895,-6852000.0,-16749668.671763137
611,1106,3,69753000.0,7717322.469134331,24624000.0,115786568.0680708,45129000.0,-92043964.75436658,4333000.0,-3358022.366999857,3937000.0,-13134841.911818333,8270000.0,-22077888.21552232,-17948000.0,-41159310.15165793,22281000.0,27095254.98075435,-17948000.0,-30453277.347753678
1037,853,0,12798100000.0,12885714393.333515,7698700000.0,8040338985.464218,5099400000.0,4791376063.9771385,578600000.0,496017457.5576061,1141600000.0,1093035555.043,1720200000.0,1607429331.479338,210200000.0,31000284.255987898,368400000.0,375955837.989041,210200000.0,120061619.5685638
1049,1153,1,41718000.0,55802661.98884469,16883000.0,39511686.66531515,24835000.0,45428790.49572563,4472000.0,9046861.819661062,-7000.0,-4406988.929430343,4465000.0,2532457.9110991806,467000.0,1371750.832141783,4005000.0,8329700.519129932,467000.0,717161.3005308527
181,100,3,2175066000.0,1788665475.8394318,720018000.0,507810841.82162964,1455048000.0,769344664.5651253,262895000.0,286184104.1823094,0.0,34980456.82847595,262895000.0,321417248.0881776,-74357000.0,-1944598.667090647,337252000.0,328283069.2042509,-74357000.0,-42098965.02194121
1530,839,4,432444000.0,415428526.50598097,58115000.0,93956352.53575611,374329000.0,343921856.40082717,30953000.0,23541708.853291877,9019000.0,15115742.346053066,39972000.0,38370636.96922446,-4508000.0,-12964152.602372218,35461000.0,40849899.009290196,-4508000.0,-17308190.155997865
1172,936,3,1951144000.0,2228359693.518441,976648000.0,1198989944.6448627,828149000.0,721132688.5984256,81471000.0,7592107.999899339,811299000.0,901459067.3871558,892770000.0,905763047.0526652,21174000.0,-31733180.510558985,35340000.0,8102950.168573648,46131000.0,-510842.1686738804
1844,1278,1,5184000.0,-30593882.357344627,33317000.0,-13322765.191682637,2568262.933576247,-6143234.532921851,28000.0,-7272110.335529633,1138000.0,-25056272.149761163,1166000.0,-11049765.835894495,-1174000.0,-15282576.171704281,1202000.0,173238.1430356279,-1174000.0,-7445348.47856556
937,1185,4,30042800000.0,31436739688.02105,15158963259.867964,15509499899.00818,10331300000.0,11815459870.61941,1541600000.0,1653289860.1923997,2284300000.0,1727970616.1723049,3825900000.0,3348174155.5305753,727800000.0,770307846.5814921,402100000.0,431785150.8535236,1139500000.0,1221504709.3388739
1319,477,1,3143366000.0,3207925835.329692,724791000.0,728064955.1730264,1686216654.8151803,1835513195.4703336,293240000.0,168921839.68761545,0.0,-41890737.9243827,293240000.0,132564829.48976046,242794000.0,106781364.46811667,50446000.0,78403711.89168552,242794000.0,90518127.79592928
785,340,3,2558318838.0,2810598804.9235067,289865031.0,276962527.85123336,2268453807.0,2502998131.517521,191440633.0,179860619.42179328,384407857.0,387388627.809,575848490.0,556202645.7237014,122416529.0,123708160.93904768,69024104.0,55567870.61525996,122416529.0,124292748.80653363
534,421,2,355784000.0,293426561.66214985,359982000.0,288846076.1116792,21035000.0,-25885283.39532137,21274000.0,14792405.700157594,23247000.0,72321536.67439939,43857000.0,89047425.17583288,-2501000.0,-3154906.2673751498,23775000.0,22468643.059848472,-2501000.0,-7676237.359690631
1073,1259,0,107571000000.0,104217770019.47438,49865975585.04998,45149021024.47804,57705024414.95002,56982985252.00242,4680000000.0,2135156567.7174494,16059000000.0,17420723766.418255,20739000000.0,19992117748.66397,2233000000.0,1241376587.1940277,234000000.0,395231267.51736474,4446000000.0,1739925300.2000363
871,1087,2,357016000.0,387613625.54155636,134021000.0,135695919.8534609,222995000.0,239904762.43754917,10859000.0,8039015.183877282,60424000.0,73843421.75224733,71283000.0,81065056.09625971,4410000.0,1652903.6935170218,6449000.0,7986804.389142439,4410000.0,52210.79473509081
145,1542,3,10492900000.0,11836833269.022617,4642648635.342979,5536482842.603306,7724300000.0,8041841713.230192,1077000000.0,1338106894.7271857,2546000000.0,2782441896.1126566,3623000000.0,4101805319.9957952,389500000.0,570483296.6601661,626900000.0,658110267.6632199,450100000.0,679996627.0639641
1137,1552,3,221167000.0,302156473.8407906,272405000.0,243721592.1048597,-51238000.0,31831328.289452553,26384000.0,31213586.542987593,0.0,5327110.281108025,26384000.0,28849471.25251133,3123000.0,-1945577.7896030415,23261000.0,27467871.406989407,3123000.0,3745715.135998672
1853,807,1,644700000.0,931444515.4375149,668700000.0,922540304.9278427,-24000000.0,74638448.30912109,11300000.0,47546565.67440939,30400000.0,116988274.00602916,40500000.0,143481104.24707285,-2900000.0,7605887.000083011,9300000.0,30155429.070447803,2000000.0,17391136.603961527
1607,1167,2,5733000000.0,5126829940.504559,4386600000.0,3922623085.0130177,1332700000.0,1224665954.0561497,508800000.0,446655921.0983836,1740100000.0,1849288915.4592586,2248900000.0,2292399737.4595976,201100000.0,162553007.62268287,328200000.0,293729399.4860611,180600000.0,152926521.61232197
497,722,1,3187469000.0,2835028540.050171,1581882073.387936,1459653615.0915508,1402929000.0,1009877474.9623883,12023000.0,-58554217.2470786,118303000.0,114910645.99948178,130326000.0,65796794.548798226,121116000.0,111133862.42667992,236940000.0,242269129.5075198,-224917000.0,-300823346.7545985
1789,567,1,160962000.0,174401121.05179667,136871000.0,290492879.79021096,14091000.0,-44991962.092318654,33234000.0,24832958.6659567,28516000.0,71464774.5328564,61750000.0,106428661.94148451,-4105000.0,-22332026.90173289,29699000.0,39519281.853287615,3535000.0,-14686323.187331077
1733,185,3,1070082000.0,1069697151.9019792,790095000.0,694771127.4820545,279987000.0,438449672.6448344,59499000.0,47567480.56058687,92514000.0,108404845.53550558,152013000.0,159377212.29398757,-6147000.0,-26494800.230891712,65646000.0,71614247.59280443,-6147000.0,-24046767.03221713
1735,511,2,55335000.0,116073931.07539332,11648000.0,6599165.673017502,43687000.0,105124096.31261434,13874000.0,18188844.62936915,0.0,16511795.50505243,13874000.0,32881659.510125704,364000.0,4710673.48599652,13510000.0,16070856.306285288,364000.0,2117988.323084101
1273,1200,4,8855100000.0,6769803723.964657,4468096700.788768,3042311700.307039,3543300000.0,3806752475.025644,468100000.0,292683994.46038634,2041800000.0,1436742232.2599955,2509900000.0,1817616484.6673074,256500000.0,172021174.83512807,211600000.0,150288904.88270697,256500000.0,142395089.57767868
226,37,1,1045317000.0,1050972825.6854343,491551000.0,422222357.78906757,553766000.0,640079933.6793904,49476000.0,44327971.63052133,27012000.0,-6715115.226151306,76488000.0,35293013.779159285,5569000.0,-12956977.753810301,43907000.0,47016599.6641616,5569000.0,-2688628.033640708
856,763,0,3335011000.0,2619223124.8562117,1532336000.0,1482027465.8330002,1376443773.6613572,1271571393.59843,158805000.0,106685130.96244693,458734000.0,408586630.3343861,617539000.0,516377583.09189457,82276000.0,36345002.5391096,26748000.0,24451439.352933314,132057000.0,82233691.6095134
610,53,0,50788000000.0,52786264933.56489,23543456582.29001,24737396030.791878,11845000000.0,13257586890.60674,1286000000.0,1617046560.0145597,484000000.0,651764327.1404588,1770000000.0,2290566908.225362,994000000.0,1363928211.2672107,146000000.0,2425787.308974296,1140000000.0,1614620772.7055798
434,1061,3,9209798000.0,10217008570.208166,3242862000.0,3371149264.2473755,3654836000.0,4180827903.8842945,758604000.0,939709100.4970628,-63000.0,53343777.203556255,758541000.0,983355632.587171,306700000.0,465363819.8314907,451904000.0,425735822.9819205,306700000.0,513973277.51514256
1765,1156,3,3861516000.0,5049116678.793146,3060094000.0,3166461027.633436,801422000.0,1927908502.1618876,246503000.0,238882974.30447763,543454000.0,533358293.53163743,789957000.0,760487381.4064491,-286586000.0,-271942634.43870276,130761000.0,160179288.59192127,115742000.0,78703685.71255754
667,494,4,3117800000.0,4449965778.835616,2444800000.0,2955500191.1819167,673000000.0,1520543265.6931477,86700000.0,147164229.6759814,411500000.0,702290432.8446404,498200000.0,824780267.1696069,-419900000.0,37466746.254765555,63400000.0,78975796.38751961,23300000.0,68188433.28846213
1194,1101,3,84073.0,18100628.903180122,2814055.0,78783780.91871753,-2729982.0,81032360.17363322,0.0,767835.6647538766,0.0,-8383546.639957737,0.0,-11230074.571721464,-647078.0,585739.5073469952,647078.0,1013090.1332760155,-647078.0,-245254.4685215978
626,1166,3,250689000.0,436757862.5765831,83024000.0,147965082.64265868,167665000.0,296841723.4567101,0.0,-8274346.998588577,33193000.0,34017285.52653824,33193000.0,22428570.77657091,-43672000.0,-49518491.386088975,43672000.0,36964995.35850476,-43672000.0,-45239342.35709289
1654,1147,2,2267553000.0,2346903313.4470677,1375272000.0,1508832740.064411,519294000.0,441676314.88515836,30179000.0,33745184.47496933,36686000.0,91550633.22271235,66865000.0,119904344.31453955,-15417000.0,3549419.4418570846,38864000.0,19483021.17838244,-8685000.0,14262163.296586841
288,49,4,2221575000.0,1639391476.98704,1034139000.0,523442121.56003886,1187436000.0,1063865834.3968121,131964000.0,86764537.68871148,106311000.0,233021641.43145508,188755000.0,264917877.2936521,3712000.0,-20796389.261579785,128252000.0,152877540.1448778,3712000.0,-66113002.456166044
1665,1302,2,555271000.0,558282719.0798819,273881000.0,435514659.51223105,281390000.0,172282599.65171605,77610000.0,116389134.90516768,73228000.0,60865160.139869615,150838000.0,167387813.76021153,6400000.0,-37952130.202323094,144438000.0,224358089.32621115,-66828000.0,-107968954.4210432
652,1419,1,1810200000.0,4110276916.0384426,1334200000.0,2363170318.5264606,472000000.0,2444799599.5566807,111400000.0,-181918505.46491954,439000000.0,1268897112.4733958,550400000.0,1137623834.054552,53300000.0,-9181413.188956358,43800000.0,84366083.05103493,67600000.0,-266284588.51595575
1078,133,0,339972000.0,218146199.98031038,145992000.0,92473013.74696723,193980000.0,108659779.04612038,800000.0,-55866568.24476342,85000.0,-23251822.624674477,885000.0,-82557749.02789068,-35502000.0,-85923859.90707985,45899000.0,28861741.600506563,-45099000.0,-84728309.84527013
778,612,1,992330000.0,1340856152.6764874,401273000.0,860094167.7951298,544681000.0,427138969.8636857,417282000.0,396691468.16845965,0.0,19211817.304018542,417282000.0,404631281.7084354,5536000.0,-10988750.703375135,411746000.0,427448089.87019855,5536000.0,-30756621.701738875
29,1181,3,600271000.0,528350825.14880085,137438000.0,304071789.3609355,462833000.0,172608112.60633782,73869000.0,92163884.04969051,24421000.0,6144126.787914071,98290000.0,68281593.76141742,-8089000.0,31311287.60203301,81958000.0,78932869.76558551,-8089000.0,13231014.284105416
854,1207,2,47193000.0,27473590.81374395,31000000.0,430020.1124500632,16193000.0,42312596.5504283,4954000.0,4604031.166540898,3898000.0,16270867.576258827,8852000.0,20484263.440562867,-615000.0,-3252985.204084156,5569000.0,8099709.615547255,-615000.0,-3495678.4490061854
1423,816,2,150549000.0,89454106.12424648,163792000.0,228348679.727035,16674000.0,-108686872.99463362,28323000.0,-4472682.658179589,6429000.0,-11827725.145062093,34752000.0,-17638293.26527156,-13758000.0,-59726979.84550421,21733000.0,18456407.116827153,6590000.0,-22929089.775006466
1406,969,0,62996000.0,52737524.059731126,12638000.0,7709230.868031979,50358000.0,48195368.00643131,9919000.0,10664253.183000274,5920000.0,16627054.555887401,13543000.0,25166376.906426102,1979000.0,2342349.0023818696,7940000.0,9624013.777870737,1979000.0,1040239.4051295463
1624,531,2,56415000000.0,54610743000.14559,26707757359.48695,26691214322.491604,20622000000.0,20905829670.06218,4258000000.0,3786852393.475548,2744000000.0,2476562080.503422,7002000000.0,6249416064.981207,471000000.0,121941342.41394225,1302000000.0,1381995500.1146433,2956000000.0,2404856893.3609056
926,830,3,572995000.0,843746041.7752537,271264937.13018215,379326882.27908814,210105000.0,166476998.29288408,-46109000.0,189834281.03199294,111142000.0,86209323.72926643,65033000.0,265437714.29624155,53448000.0,118081901.25221838,184993000.0,169155352.30166003,-231102000.0,20678928.730333358
1324,95,3,11156646.0,1891829.3491069078,14063458.0,11344562.791578054,-2906812.0,16565023.601923525,-483256.0,2868647.445495434,692752.0,4264117.0731010735,209496.0,5908462.719701976,-2378023.0,-2210314.27342109,1407493.0,995346.7343647853,-1890749.0,1873300.711131176
809,1354,0,746651000.0,913598862.2799383,563281000.0,577937506.3014834,350347808.70326334,423182257.02550536,20268000.0,13856152.365635712,132273000.0,223994724.73000404,152541000.0,241930424.34934375,1482000.0,-8817880.177634938,18377000.0,15579670.021080319,1891000.0,-1723517.6554447412
492,430,3,203605000.0,388593438.9035473,164863000.0,271199811.1932542,38742000.0,130537431.38893604,38308000.0,51295827.26349676,13284000.0,19578955.29484636,51592000.0,64746797.90010464,8585000.0,23198509.147476666,22801000.0,21859661.81395943,15507000.0,29436165.4495378
383,866,3,35610551.0,13089537.060076177,44852933.0,16964015.998723477,-9242382.0,-10602281.593773484,3037874.0,80532.73166749626,5691278.0,-6171299.663572572,8729152.0,-8686951.579848602,-7028283.0,-4829849.917384831,15757435.0,15603860.021174889,-12719561.0,-15523327.289506882
1250,881,3,4596600000.0,-6113513061.204787,2319347415.031524,-2866111034.6739697,3466600000.0,-570782817.7428223,2555100000.0,1787136443.3269253,3033000000.0,2306306102.9047737,5588100000.0,4060256710.685506,1174900000.0,873831132.9259298,1380200000.0,999354685.19205,1174900000.0,787781758.1348755
229,593,0,3802385000.0,4106416426.262996,2636965000.0,2801860502.4459662,1165420000.0,1318110952.3691883,157645000.0,143097102.6848181,488142000.0,439072873.7235826,645787000.0,576140400.8179026,66824000.0,60224066.98882934,83253000.0,62764194.06208436,74392000.0,80332908.6227336
1531,255,3,12852000.0,6613213.80658865,5815000.0,-3922241.391344011,7037000.0,42987738.97835523,1838000.0,5329937.090714119,1427000.0,6468669.725886039,400000.0,10401697.443010047,-1116000.0,-157076.35043742135,2954000.0,2759263.9490319863,-1116000.0,2570673.141682612
1035,339,4,11747000000.0,12195027758.218876,7158000000.0,5119988050.2875,4503000000.0,7141803924.474705,770000000.0,852648482.2651894,1424000000.0,1262068867.722423,2194000000.0,2057658769.391889,154000000.0,478190349.17088234,2040000000.0,2286370974.9733977,-1270000000.0,-1433722492.7082095
1774,956,3,7236206.0,-52938017.44315803,4913744.0,-98802347.33313936,2190428.0,16592696.539797693,634746.0,4797122.647188604,2326079.0,-95106.918750491,2960825.0,168957.35264219344,-234151.0,-1155896.7508762823,886442.0,-6120190.290281087,-251696.0,10917312.937470127
868,535,3,6411000000.0,8381767446.382467,3370100000.0,4769747173.985647,3176144611.7201624,3544133583.6054173,371800000.0,480935000.04843175,637000000.0,719410417.6870468,1008800000.0,1180939437.38047,180100000.0,260232044.143049,166200000.0,159123193.88366875,205600000.0,321811806.1647627
1391,704,4,345836000.0,225567634.11534107,48837000.0,-42430881.253094554,296999000.0,323274250.67687386,3870000.0,-7080994.207326539,113328000.0,121436078.28048408,116752000.0,116667442.71256089,297000.0,-5870267.718428101,3573000.0,7322311.800248466,297000.0,-14403306.007574547
1734,1505,0,20108000.0,15666563.469142318,9068000.0,10272754.16745323,11040000.0,8848948.0760338,3847000.0,5355752.174087234,661000.0,13764303.106956612,4508000.0,18968726.81740763,-4126000.0,-2737249.5813738303,7973000.0,10287239.408577159,-4126000.0,-4931487.23448992
1416,203,0,1564856000.0,1732712749.4198189,1122858000.0,1293647695.200956,416354000.0,448501285.74260074,276207000.0,299268632.813534,-11227000.0,-37932504.25568394,264980000.0,245614453.32371932,5657000.0,-6438020.459500708,270550000.0,293329884.809428,5657000.0,5938748.004105974
352,651,2,1125373000.0,1075378885.716733,521681703.6382896,483786719.20335066,29987000.0,316292963.6092721,142411000.0,160162726.95200968,-42080000.0,-338013833.15695316,100331000.0,-168932656.94198686,17283000.0,21235463.81453416,125128000.0,154066913.48450685,17283000.0,6095813.467501873
135,788,0,630871000.0,541232315.6479746,398464000.0,333830404.5004649,232407000.0,195235631.42012066,80823000.0,97427633.92824677,413091000.0,437648702.6249713,493914000.0,507582113.19281983,-14453000.0,7481086.363917364,95276000.0,83178308.04131445,-14453000.0,14249325.886932477
1338,248,0,123668000.0,223929114.5630433,40963000.0,78609372.16379026,50285000.0,105640964.9624883,29188000.0,17662911.253209017,11108000.0,77265449.30420628,40296000.0,97676182.0388619,-25553000.0,-8228895.38445027,35508000.0,23850039.93491596,-6320000.0,-6187128.681707043
1076,1427,3,34865437.0,211302082.5976624,19085704.0,123760835.61840647,15779733.0,197604312.99558765,0.0,11388420.454063587,1198.0,27788027.33620418,1198.0,84273368.98695655,-6520186.0,-3918106.633821486,6520186.0,10720799.910495058,-6520186.0,667620.5435690023
1426,322,1,1275550000.0,1684170647.2708573,1504271000.0,1511842853.149824,-228721000.0,163367892.31141317,-35238000.0,24432718.769574583,59168000.0,65970203.8713847,23930000.0,94509785.18836483,6621000.0,-22900175.355747063,102745000.0,92106890.39666738,-137983000.0,-67674171.6270931
2023,1459,1,151712000.0,72829394.92534065,195428000.0,197177662.6674309,28605000.0,-25790168.380505383,11588000.0,-6521793.826873712,43977000.0,51951288.612274356,55565000.0,43532038.70828065,-8864000.0,-12096342.857546251,20452000.0,10617242.694133766,-8864000.0,-17139036.521007717
1219,392,1,1812825000.0,2040189430.9847615,1134969000.0,1285669745.0460827,677856000.0,879027433.90093,53184000.0,57275133.787769005,120142000.0,180726778.3606414,173326000.0,238466114.56299087,31929000.0,40569552.21996383,16945000.0,28661513.16163428,36239000.0,28613620.626134396
201,1176,3,-1450776000.0,-5959342823.870997,-894261000.0,-3725706460.3127694,-556515000.0,-461988622.53044033,162740000.0,194559511.98033404,213058000.0,267491483.1831619,375798000.0,483508353.35285085,-31210000.0,-158720143.50743508,193950000.0,283600951.15141034,-31210000.0,-89041439.17107537
580,557,1,526507000.0,1608397529.4746814,370554000.0,715244088.8670979,155953000.0,1146887129.5371413,66328000.0,78842440.977662,107226000.0,228165985.6635214,173554000.0,294329159.9155918,-7923000.0,-12321938.553690251,69543000.0,74424726.58209002,-3215000.0,4417714.395572135
268,347,1,3089123000.0,2135320901.7415614,1300561000.0,507735381.57774323,1788562000.0,1737660399.6136966,286131000.0,272767182.0105586,850247000.0,597979649.7638518,1136378000.0,896759784.7190198,205227000.0,149503045.9095918,1010678000.0,1001076781.3700894,-724547000.0,-728309599.3595312
484,186,2,2026392000.0,958511263.6237562,773709000.0,-362301434.47274196,1259138837.126244,2426604790.687356,36270000.0,29111856.47963643,906000.0,-860192090.8325956,37176000.0,-810509771.467083,-286393000.0,-248495997.33985046,341823000.0,291166295.7066059,-305553000.0,-262054439.22696733
1169,1441,4,59798486.0,54758032.17952144,24561228.0,-7694600.638237894,24680354.49630476,61782879.72789538,-143441.0,265283.7659109384,231837.0,22530262.263365455,88396.0,24034684.230476692,-6239976.0,-3028480.9161835313,6096535.0,1495497.0295546576,-6239976.0,-1230213.263643289
595,928,1,269960000.0,179763258.81225526,370356000.0,355389554.5557492,-100396000.0,-193869585.87106836,29296000.0,28544277.417144015,911000.0,43150168.891173184,30207000.0,71323442.2348414,-31260000.0,-47505329.845063284,67269000.0,81888581.25958806,-37973000.0,-53344303.84244434
1664,124,4,1411497000.0,1540084393.0020514,713457000.0,833317480.6886449,667698000.0,721105236.5639479,123110000.0,129877074.8569921,21917000.0,61940140.36581434,145027000.0,190742711.3164635,16171000.0,27752209.886354595,124278000.0,127302179.1460634,-1168000.0,2574895.7109290473
1737,66,2,1068388000.0,3077971618.2519217,793168000.0,891935276.5926014,275220000.0,2890940365.289217,1125000.0,40565310.4537623,126961000.0,231712014.5769308,114574000.0,227929866.77191782,-123332000.0,-34081749.03819165,124457000.0,79469685.11901602,-123332000.0,-38904374.66525385
1105,365,3,736494000.0,748893069.0798312,390655000.0,347977908.13819957,345839000.0,558020798.7324138,107458000.0,87637061.62158945,77264000.0,57260045.94400877,184722000.0,150284976.137156,-21496000.0,-52187626.1580426,128954000.0,139306233.52257454,-21496000.0,-51669171.900984645
366,1577,3,1026034000.0,1001195210.4458902,544592518.5648394,500286603.6340505,829659000.0,850107931.041954,179923000.0,185635998.61949053,-1664000.0,-5887377.732339714,178259000.0,177892699.17470604,43073000.0,45280205.3759863,136850000.0,142349230.1764563,43073000.0,43286768.44303472
847,1228,1,2995900000.0,3785695195.958248,1720300000.0,2800246599.08424,1275600000.0,910033762.3768666,234800000.0,342005157.6475151,244100000.0,363990198.041833,478900000.0,684001236.8754573,25200000.0,127164133.97010817,209600000.0,262049309.36743522,25200000.0,79955848.28008011
1604,1550,0,700529000.0,694072136.8252476,363632000.0,350660965.50893664,335762000.0,308644483.9214586,46249000.0,31364018.236839175,72678000.0,42463699.18291256,118927000.0,74761399.44236544,-13197000.0,-48347817.073837794,59446000.0,67835754.22819793,-13197000.0,-36471735.99135882
579,836,2,5913288000.0,9579080944.252098,5639252000.0,8255822628.084877,274036000.0,3003408726.00543,470311000.0,558630250.4197328,1040995000.0,1229499644.041225,1511306000.0,1684455013.1516135,65962000.0,195265680.38783085,404349000.0,428116221.4614408,65962000.0,130514028.95829003
874,483,0,232365000.0,94901496.46681333,164743000.0,90737267.38725412,67622000.0,5486785.8230777085,43176000.0,45778035.04721387,202053000.0,213045218.85580784,245229000.0,242126088.7515753,9035000.0,5137830.680803373,31930000.0,36635263.542112716,11246000.0,9142771.505101185
193,587,1,24556000.0,50644686.8778342,5997000.0,24902309.127732158,18559000.0,61401598.43213408,-561000.0,1277471.020923555,1648000.0,837465.280656483,1087000.0,43346.37681667507,-8770000.0,-5043681.087531717,3225000.0,4928875.376649737,-3786000.0,-3651404.355726433
680,400,3,7852974.0,-815679.7945128679,8726749.0,-1431019.814764738,-873775.0,34742014.756875396,1562860.0,4215006.295724086,0.0,2641366.928422924,1562860.0,5557215.821149096,-1603437.0,-359490.55852969084,3166297.0,2101642.0108260363,-1603437.0,2113364.284898542
702,135,3,52606000.0,38544709.25207418,31088000.0,26664728.223353714,21518000.0,61912131.60588983,2202000.0,4022585.8819045722,21569000.0,21758578.028851643,23771000.0,24444998.321200915,-1737000.0,-1118910.563910977,2889000.0,2353115.961877629,-687000.0,1669469.920027459
499,946,3,641605000.0,563821376.017589,98505000.0,105972089.85992768,543100000.0,468919637.8383627,35752000.0,38016364.88242365,3063000.0,-2592062.2347501107,38815000.0,34366054.21112009,-5995000.0,-8946273.216826646,24767000.0,28046158.639719404,10985000.0,9970206.242704686
277,1389,1,428119000.0,514640755.7298675,200385000.0,290070263.6006124,227734000.0,378759887.15896815,32734000.0,31052416.743384533,3693000.0,133322849.85200414,36427000.0,158398155.4020842,-31432000.0,-52880553.243033275,67859000.0,72571295.17860207,-35125000.0,-41518878.43521807
1540,1192,2,1748597000.0,1717590893.8628216,773677579.6790999,728449537.87759,871968000.0,804158399.0557053,88936000.0,91957903.29318812,314131000.0,331381182.5065549,403067000.0,421855278.0203594,36520000.0,33107466.10100501,38806000.0,43984905.35550735,50130000.0,47972997.93768105
40,25,4,-12646800000.0,-4822600920.971935,-10176700000.0,-5774247716.430807,-2456100000.0,-508679855.62875915,244400000.0,137661251.5822608,496400000.0,-1179988976.4879062,740800000.0,-1072969770.3559192,16300000.0,-765834110.8553244,228100000.0,587563203.5503218,16300000.0,-449901951.96806437
109,770,3,1646711000.0,374953218.1039946,1388441000.0,641738297.1180828,258270000.0,-15335811.011977494,48094000.0,-32302982.330848962,144654000.0,253013276.4930781,147710000.0,213422266.34288245,-42502000.0,-105322432.97959,79586000.0,63915194.073706806,-31492000.0,-96218176.40455507
111,120,3,632540000.0,604727653.7094319,270366000.0,212340737.2404958,362174000.0,398212330.3468816,197077000.0,147707974.53103507,14622000.0,16088969.886366418,211699000.0,164510012.15035418,-57776000.0,-11695775.613397777,97890000.0,102900479.89795434,99187000.0,44807494.63308115
662,1070,4,156269000.0,170850662.23610926,70363000.0,90152590.31600893,85906000.0,116375273.93680711,19503000.0,24561026.309917986,30881000.0,51150290.92227168,50384000.0,75705470.93433936,3657000.0,10621926.831523446,15846000.0,14591828.186159633,3657000.0,9969198.123758826
1749,1565,0,12875300000.0,11937606938.473507,6095371591.431398,5475412976.246923,1810000000.0,1004943037.1466802,1227700000.0,1215243439.293187,4400600000.0,4460535552.575662,5628300000.0,5656347377.290938,478400000.0,372477399.52387816,749300000.0,857135551.6739025,478400000.0,358107887.6192845
340,218,0,441781000.0,601950850.5642319,86587000.0,250220912.64874774,355194000.0,357655207.9781358,97393000.0,108512357.75112215,44971000.0,63201121.77624013,142364000.0,160965187.4439909,9954000.0,8476030.970872443,87439000.0,105666169.30736491,9954000.0,2846188.4437573794
811,645,3,1903960000.0,2263013302.097063,1118147333.3250542,1718826325.88781,464992000.0,651991799.3802315,314173000.0,216644229.25718287,381360000.0,233286823.42287138,695533000.0,437403713.52157813,49703000.0,-22845619.809399933,262823000.0,288209612.75665104,51350000.0,-71565383.49946815
1016,1065,4,413017000.0,239780411.88222694,156380700.0672279,167481430.07809052,290614000.0,55812255.128002584,164000.0,236095.0849173963,0.0,1061889.308949748,164000.0,-3060420.4780952036,-47612000.0,-53050196.556790024,47776000.0,55660787.84492671,-47612000.0,-55424692.76000896
1696,313,0,6459000000.0,6576495710.610979,3814000000.0,4005771851.915052,2645000000.0,2560900606.264349,417000000.0,370145598.97183454,1137000000.0,1239659490.6893022,1554000000.0,1593755363.3919995,109000000.0,92243563.96081729,308000000.0,247921012.74811393,109000000.0,122224586.22372097
200,1570,0,6683800000.0,6772903721.723091,2530688381.1304083,2643736185.6293206,4153111618.869592,4109993575.2438245,363300000.0,382576656.9738211,268000000.0,362710400.4898738,631300000.0,756376025.7471943,83300000.0,68291025.61266582,257700000.0,308391464.29323226,105600000.0,74185192.68058927
1994,1519,1,165094000.0,121737821.49874932,70482000.0,64604821.71004188,94612000.0,96194766.36309485,17629000.0,16560965.82136318,13074000.0,1159969.2782321945,30703000.0,16163305.60398449,1152000.0,-1454153.6652073055,16477000.0,19005392.39565866,1152000.0,-2444426.574295745
735,1256,3,8604673.0,-4490549.071829557,2338502.0,-6722111.428855002,6266171.0,36926699.27709824,1119391.0,4251981.367417976,1576117.0,3762717.458640434,2695508.0,6756718.956411853,23726.0,1860101.9636213742,1095665.0,-64020.15205639601,23726.0,4316001.519474879
1160,1073,1,30395557000.0,22374697346.77854,16133181687.752192,10747910537.460524,6297705000.0,5487144546.656407,3044686000.0,2546641488.324827,6751495000.0,6081843425.469014,9796181000.0,8604276579.110441,692314000.0,656281060.3450338,2352372000.0,1876324964.216464,692314000.0,670316524.108368
2018,626,2,764077821.0,766397617.8709941,149164973.0,85450392.1573723,540969385.0,724384866.5334883,20737462.0,4936503.024591364,3810639.0,-4928354.281090874,24548101.0,-5381085.040416956,-1942729.0,-10337043.98338274,26490830.0,12330656.052594088,-5753368.0,-7394153.02800245
597,747,1,19932000000.0,22100554476.272713,15924000000.0,17262523135.758274,3938000000.0,5167116378.687094,677000000.0,776632531.9773816,2894000000.0,3060723811.0533085,3571000000.0,3804539053.6907406,325000000.0,516133354.7043424,132000000.0,109292092.61411525,545000000.0,667340439.3632662
1089,1172,2,114455000.0,96864193.21647435,66800000.0,35983269.400502324,47655000.0,68174255.70706075,-324000.0,342251.50042875856,692000.0,13166854.61925563,368000.0,11173773.759781286,-4444000.0,-6836076.154060087,6127000.0,11134107.086544435,-6451000.0,-10791855.586115457
1635,985,4,123009000000.0,56179703093.36809,61047097858.95223,38146634397.73339,24132000000.0,11371345895.713308,3661000000.0,771469222.0614448,846000000.0,6168916492.009331,4507000000.0,7610048353.234483,401000000.0,-1526929522.3240817,5487000000.0,5476158802.875224,-1826000000.0,-4704689580.813779
394,774,4,1472222000.0,430157906.33956575,444895000.0,-85499320.83586442,1027327000.0,670607729.616519,423804000.0,365366720.61948925,0.0,-326111897.76276124,423804000.0,80674218.94664256,44683000.0,-1203963.5488382094,379121000.0,378975200.18764883,44683000.0,-13608479.568158932
176,623,0,1707972000.0,1648807459.5443811,826699000.0,757262077.7451434,881273000.0,861632053.126739,161237000.0,164731687.65496495,18721000.0,-11958291.733140275,179958000.0,149684240.79097778,-38330000.0,8375756.022172622,218288000.0,160156514.45361978,-57051000.0,4575173.201344993
958,54,4,140348000.0,218738517.01514697,22627000.0,-23461692.279623806,117721000.0,269957820.6779354,18849000.0,32407347.206054144,19797000.0,7993893.1392695885,38646000.0,35219121.96170568,5179000.0,25209091.576965906,24028000.0,13731868.625014238,-5179000.0,18675478.581040435
651,168,0,68862000000.0,71371817865.1738,37281000000.0,36822991949.1863,30258000000.0,34360469034.58538,682000000.0,931444242.1207173,1405000000.0,1545750052.4009583,2087000000.0,2486468202.691252,938000000.0,652788885.7127441,2969000000.0,2838113665.34128,-2287000000.0,-1906669423.2205625
648,804,4,484306000.0,445568392.1499238,160149000.0,160146854.49426484,324110000.0,313807225.724182,35935000.0,37728635.86784463,49919000.0,69110797.41445208,85854000.0,106626903.78508006,8224000.0,11306122.01974485,26558000.0,28735470.696459148,9377000.0,8993165.171385918
1124,1359,0,263629355.0,243759036.55532646,139827658.8984726,130143530.58172315,106790041.0,111098738.53391817,4718481.0,10625171.94927001,-3354938.0,18015340.010636672,1363543.0,27584865.67244088,2345966.0,6205644.893438611,2372515.0,6774855.446109563,2345966.0,3850316.5031604283
1983,117,1,22654400000.0,23070641497.729702,10023579681.929111,11165538635.232569,12050300000.0,12324876563.029362,409600000.0,687674261.4227309,3138700000.0,3620505267.1401043,3548300000.0,4268359134.283214,145800000.0,457973642.0230674,119900000.0,311409346.92172706,289700000.0,376264914.5010034
1330,92,1,55695000.0,174578623.7946322,80300000.0,41443796.03710377,-24605000.0,13679790.292783916,-33328000.0,-26268083.723230056,45694000.0,29079665.924071997,12366000.0,1451594.4806149602,-48025000.0,-32946347.833809346,14697000.0,2786025.1975623816,-48025000.0,-29054108.92079272
445,1035,4,33248145.0,100602118.26559174,21743057.0,92831508.74179476,11505088.0,23246307.40770459,1461398.0,10470974.96650076,569502.0,-19518377.448792905,2030900.0,70045554.55640246,-12979193.0,11731713.497325141,15010093.0,11456143.10293474,-13548695.0,-985168.1364334868
908,796,2,19900000000.0,18055428047.714977,10348000000.0,8862159047.676895,9552000000.0,7997083811.560023,2649000000.0,2366819511.7657967,0.0,-606421236.7167432,2649000000.0,1700435914.0663118,467000000.0,253749805.01230925,2182000000.0,1938699783.5742924,467000000.0,428119728.1915021
1585,1569,1,2485319000.0,2332789334.813396,1254039550.5762374,1198436286.4744332,1849463000.0,1666070232.4898477,775144000.0,716134213.5122058,0.0,-77304857.0168,775144000.0,640317825.465749,128435000.0,114299636.83328314,646709000.0,612743157.2728778,128435000.0,103391056.23932791
643,514,4,959084000.0,925297162.1508262,491986000.0,420172281.89304966,395838334.6316486,443814032.78835535,56609000.0,43387443.22892089,47928000.0,67724241.96303678,104537000.0,111988343.10970998,-22287000.0,-25718302.025972474,141301000.0,138076734.59032708,-84692000.0,-94689291.36140567
1240,875,4,1657157000.0,1606142651.1042788,2335507000.0,2483795161.205527,-678350000.0,5266467.626669288,-96698000.0,243655249.4167458,98929000.0,252690027.00019568,2231000.0,467518005.2365369,-125632000.0,69343570.35927221,312618000.0,369554137.97510433,-409316000.0,-125898888.55835779
64,162,1,1590600000.0,1803573136.9420786,748600000.0,928648626.2832371,842000000.0,730953221.5776534,59700000.0,96152251.73120669,141700000.0,166621112.30650184,201400000.0,263839959.69305214,13800000.0,26522856.281180985,37700000.0,44560870.312270224,22000000.0,51591381.418936245
1027,30,4,919607000.0,846720740.5188532,266509000.0,255310221.4073965,653098000.0,565587353.0513518,68886000.0,65117358.51054564,19532000.0,-1174783.304335474,84131000.0,54602073.174782835,-18050000.0,-17697816.442255013,86936000.0,80341469.10398307,-18050000.0,-15224110.593437023
1034,40,3,121754701.0,1034552690.9005454,28424394.0,411879189.7387079,93330307.0,665840723.9291589,1406469.0,-7014946.744545296,-1378985.0,-29898176.411190473,27484.0,-32851060.744549558,-14928443.0,-115337849.48292197,16334912.0,106165124.27825154,-14928443.0,-113180071.02279665
802,915,4,12973000000.0,28080027112.903423,6013807636.489885,10565031919.390776,6537000000.0,11849742651.592417,82000000.0,2043796731.78015,545000000.0,-317805098.6522439,627000000.0,988187270.2690538,7000000.0,1917003617.8412294,46000000.0,242556914.60367015,36000000.0,1801239817.1764727
981,1226,3,613608000.0,648403806.8393835,391072000.0,534755731.7846557,222536000.0,62671178.64279264,1437000.0,-16923888.690132856,10955000.0,-41773556.43865409,12392000.0,-61627632.68359849,-84729000.0,-93818684.02653918,40703000.0,21018414.358584423,-39266000.0,-37942303.04871669
1046,288,0,102303000.0,164089102.55923808,104192000.0,149906689.0422179,-1889000.0,11925962.133309424,12811000.0,21357498.02607022,42439000.0,87416021.174778,55250000.0,104240994.05069931,700000.0,11793913.987463308,12111000.0,18802502.757802594,700000.0,2554995.268267736
581,47,1,1023085000.0,2728015907.7699485,937155000.0,1506199479.5083194,85930000.0,1187760557.0050774,87759000.0,104798061.21194322,257840000.0,399871006.1100481,345599000.0,499499334.688377,-36941000.0,-106180331.80015545,111965000.0,185376711.6675643,-24206000.0,-80578650.45562077
1033,857,2,822101000.0,1179940635.546593,260505000.0,395692047.58699226,561596000.0,966379089.9296813,113425000.0,120543943.34925419,-8261000.0,-7426687.859024528,105164000.0,104208697.75043643,25956000.0,1739412.7593718618,87469000.0,112848319.90535825,25956000.0,7695623.4438962415
1908,1229,0,972779000.0,1203265813.121625,674585000.0,888361078.6318681,298194000.0,348390399.4696866,81122000.0,61922707.581687294,33069000.0,-16587056.237216786,114191000.0,51237188.82233578,-12742000.0,-19081776.022103645,93864000.0,75877996.70671065,-12742000.0,-13955289.12502338
1486,192,1,505122000.0,474608295.47144735,329765000.0,382906391.09214187,175357000.0,73820704.59618221,66862000.0,67464339.14124663,-15726000.0,-89521411.99772887,51136000.0,-26891702.287632793,-8784000.0,10849721.76220015,75646000.0,60531833.14917928,-8784000.0,6932505.992067067
640,1052,2,420505000.0,232618398.42627352,230508000.0,167090509.8974286,189997000.0,70137171.38922101,53603000.0,43912427.685904555,71511000.0,65671010.41452399,125114000.0,108067415.03783539,16734000.0,9330908.596157353,36869000.0,25636598.304665476,16734000.0,18275829.381239243
1988,109,4,216274000000.0,214528693301.68713,73401000000.0,61081778056.05699,142873000000.0,155556563994.3271,27936000000.0,24344160376.311737,6210000000.0,3555932771.144822,34146000000.0,28552931230.94772,13748000000.0,8988098568.101528,20398000000.0,22337348170.381016,7538000000.0,2006812205.930725
469,957,2,122531000000.0,206093816897.4509,74517000000.0,158230299173.1366,57494689417.43809,75747731659.48294,11370000000.0,19849140604.11832,10501000000.0,35240619618.544464,21871000000.0,55469300847.260445,5767000000.0,9363139357.843826,5604000000.0,12195027166.268518,5766000000.0,7654113437.849825
606,348,0,5723214000.0,7183989077.091695,2776207000.0,4396895623.407656,2947007000.0,2652668586.2555327,448941000.0,503377120.0995197,516900000.0,447192036.71958977,865197000.0,729736859.5991845,78214000.0,89253734.6849747,370727000.0,538000925.7259412,78214000.0,-34623805.62641983
1877,1199,0,689227000.0,688792607.5090433,562767000.0,488671057.63313496,126460000.0,220680822.4027818,40662000.0,46490600.69775635,11086000.0,27701655.512494065,47740000.0,79606079.8001902,-28335000.0,-1378137.9900949635,68997000.0,43584872.166422315,-28335000.0,2905728.531334117
1148,882,2,600857000.0,730889052.9800568,331349000.0,477253726.6281183,269508000.0,374619680.28233916,50595000.0,68642837.20114982,6532000.0,1610536.1147312205,57127000.0,78832178.66297157,-62120000.0,-22139938.21631158,83188000.0,75942444.08895478,-32593000.0,-7299606.887804678
1653,1255,4,56794000.0,-61121192.13568318,12682000.0,-103981445.68337017,44112000.0,63455771.24760905,25087000.0,5892815.6384084225,14791000.0,32529876.155707274,39878000.0,41341254.278819405,-4627000.0,-25168046.544194467,44505000.0,34964579.847592816,-19418000.0,-29071764.20918391
1205,855,3,3747000.0,128994025.24054754,4407000.0,-93801554.10111237,-660000.0,146369955.71765697,-1515000.0,6588688.071784303,1515000.0,6623659.3565342985,0.0,9672302.851720944,-2598000.0,-8066788.270473913,1083000.0,7211162.514751516,-2598000.0,-622474.4429667173
1612,1189,0,3505835000.0,2864641722.489462,1860807256.214476,1443488641.4265025,1470074000.0,1116440407.1752896,601953000.0,549599754.8158635,626097000.0,694080076.0770125,1228050000.0,1231276510.6746314,88554000.0,37874568.29935408,475916000.0,416459403.8335154,126037000.0,133140350.98234776
1894,1003,1,203011000.0,82832472.74629378,255300000.0,230648396.88063872,-52289000.0,-78155394.43154871,8409000.0,-1572601.2291247174,25579000.0,-25317966.285450235,33988000.0,-22295361.016518608,-8212000.0,-19271881.48896575,15533000.0,7350128.728257254,-7124000.0,-8922729.957382351
458,809,4,3126495000.0,4051044683.4025884,2137404000.0,2522883236.0702534,989091000.0,1408877766.940177,70679000.0,102931954.44383344,930828000.0,1013669428.9363469,1001507000.0,1084413438.8437169,21039000.0,24025593.666829318,49640000.0,38217159.887357995,21039000.0,64714794.55647605
782,397,1,36175654.0,36705561.292186856,19187381.496044576,17947022.262888134,18868678.0,58153998.830251575,22295962.0,17313178.278805513,2274626.0,-7727175.0644374825,24570588.0,7986428.666078061,-1191082.0,-2083444.0349412952,23487044.0,19313665.416560713,-1191082.0,-2000487.1377554368
21,379,4,3642433000.0,4406940936.432294,1611617055.0351417,2573299218.1523714,2307595000.0,1326740043.3314037,392263000.0,473727388.34370464,1442178000.0,1750700348.9696681,1834441000.0,2127161620.1404734,185633000.0,315557531.64474916,1648808000.0,1713736912.4312048,-1256545000.0,-1240009524.0874977
323,157,1,102171000.0,40644564.30994868,80142000.0,82780216.56743827,22029000.0,-13128780.21581471,11994000.0,3723478.562676724,1280000.0,-329277.7483897656,12084000.0,1273063.2584718615,-8453000.0,-9215638.117790656,20447000.0,18079315.858761553,-8453000.0,-14355837.296085052
1847,1509,1,11562769000.0,8277287941.472353,8634392000.0,5899799181.081144,2928377000.0,2018903865.5530496,696915000.0,584583972.6754391,4617768000.0,3990271725.50434,5314683000.0,4580682297.975394,87484000.0,-127423768.83041899,6096071000.0,5726543999.344555,-5399156000.0,-5141960026.669114
1304,551,2,1061958000.0,1101717602.863103,603583000.0,567631152.567092,275904000.0,395900823.09089756,75380000.0,70955207.5140796,85007000.0,133621745.16432293,160387000.0,199640727.62919325,19279000.0,-16485032.78345079,56101000.0,76072833.12911841,19279000.0,-5117625.615038337
1031,1104,0,1709464000.0,1339901198.6178634,792444897.6724385,546284608.2945683,917019102.3275616,725291094.3361607,-50089000.0,-12047855.975343563,206500000.0,306501261.9855002,156411000.0,299166614.0985925,62554000.0,57926118.888240635,32611000.0,43952415.313307166,-82700000.0,-56000271.28865046
1109,1568,2,1182200000.0,2072643030.360774,559672263.5892134,848815697.7969794,993300000.0,1803060954.1709266,77500000.0,90095920.489667,102700000.0,282171755.7789202,175100000.0,378459968.36462843,21600000.0,7799212.290538885,55900000.0,118558530.16466641,21600000.0,-28462609.67499872
1483,767,1,15318000000.0,-479374082.1121576,8995872209.433592,3453760709.934759,2835000000.0,-7879610110.780572,2220000000.0,1815574960.111004,7363000000.0,5922753552.427727,9583000000.0,7802295867.80608,348000000.0,277601880.5310462,1879000000.0,1790459160.8538818,341000000.0,25115799.257124074
739,273,0,2898416000.0,375406144.30908537,2080781000.0,146694311.99831787,476998000.0,31032236.213778228,19746000.0,19108021.31126454,-19746000.0,-12821857.848401908,0.0,10029310.013307795,-16089000.0,-5308506.6653164355,35835000.0,25855999.612475164,-16089000.0,-6747978.301210577
1565,772,1,37777000.0,120173672.66298157,8088000.0,57839851.2931878,29689000.0,135439921.34621644,1942000.0,6185765.744019423,1878000.0,-3840877.641302351,3820000.0,589637.6487381607,-3377000.0,-4953573.676546873,5319000.0,12399109.433629356,-3377000.0,-6213343.689610242
1547,1485,0,350115000.0,822302030.5289048,124447000.0,327984259.0291679,144501356.0121529,417371914.4030822,23341000.0,29902825.513560303,74465000.0,109200485.77385278,97806000.0,149818146.70463943,1273000.0,-3847087.72283563,21144000.0,38397722.23229545,2197000.0,-8494896.718735136
1772,45,3,60756000.0,51463419.8511911,14120000.0,14286363.23980537,46636000.0,73585053.71741682,39398000.0,50803339.4669148,0.0,2350329.5613548663,39398000.0,51353349.02271136,1277000.0,3809074.1367818266,38121000.0,43962427.10908211,1277000.0,6840912.35783316
396,51,2,2329417000.0,2263942162.0157957,1103945000.0,1076410635.762113,1225472000.0,1164307483.5683618,201803000.0,172589035.33397907,84310000.0,-18154277.242326364,286113000.0,158002047.33460012,4458000.0,-67039067.98692052,134794000.0,221957062.25414732,67009000.0,-49368026.920168355
370,1084,0,322707000.0,377981275.9299749,203952000.0,252056592.62700933,133189378.04611006,146319850.7348944,59563000.0,62654171.89328334,32549000.0,57973627.04895658,92112000.0,119330554.37200992,2829000.0,5114495.424940536,56734000.0,60137351.307145834,2829000.0,2516820.5861375183
1387,101,2,16986396.0,-69157785.77852356,28398941.0,-21416698.298950076,7976898.609990532,56782098.04726356,-2992.0,-1643446.9242888764,2987192.0,-5440818.527462114,2984200.0,-7294994.718311384,-2823081.0,-10302752.316486564,2820089.0,-7448742.027751908,-2823081.0,5805295.103463193
1633,1572,3,5507733.0,-31459766.94188285,3754986.0,-25952358.670968533,1752747.0,-9420127.587402314,77969.0,-6631421.749583349,690.0,-12634792.821322475,78659.0,-22579971.503695786,-1288944.0,-20737.345270857215,1288944.0,-778976.2011609897,-1210975.0,-5852445.548421817
1459,961,3,2951779000.0,6625499878.351963,1733504809.66769,3079208176.539303,-705417000.0,2977072119.5293274,103159000.0,223540554.7312011,95357000.0,98423895.93616731,198516000.0,302481187.98557943,63542000.0,174249644.8315131,39617000.0,61215736.85793156,63542000.0,162324817.8732702
447,490,3,1389340000.0,1482027741.680355,870172000.0,860223478.683284,518687000.0,676330691.7152787,122910000.0,143703708.88207436,509918000.0,550710399.4923077,632828000.0,689136067.5092477,77637000.0,85187903.44916804,35836000.0,50003321.84565425,87074000.0,93700387.03642054
1342,874,0,670100000.0,635656899.4116448,96919000.0,126858814.48059046,573181000.0,541922651.5802863,45369000.0,47419681.33188544,10723000.0,-101738738.77934974,56092000.0,-62013113.62403023,-44376000.0,-51558155.50850322,100468000.0,102808848.56310268,-55099000.0,-55389167.23121713
1101,1581,3,796235000.0,691118861.4475213,203741000.0,142467442.13347653,463390000.0,491333723.9378922,475000.0,15297588.288260072,0.0,4542157.207815139,475000.0,10812646.568309858,-25797000.0,-15075545.735252662,26272000.0,23929948.582945418,-25797000.0,-8632360.29468481
1559,473,0,243654000.0,682659302.3205199,108112000.0,375994264.22691494,135542000.0,400701868.801507,37230000.0,56856088.280797526,3845000.0,22359523.975460086,4798000.0,46755459.49677471,-21869000.0,-1343708.6576924692,59099000.0,76752715.23543335,-21869000.0,-19896626.95463618
1859,730,3,63057347.0,365401826.612248,37031977.76980746,170228377.1982214,50373559.0,314455284.9055846,5114390.0,11555965.946469635,9540399.0,1663069.756576769,14654789.0,10343582.677633822,3126608.0,4212878.708805604,1987782.0,2735449.7475069687,3126608.0,8820516.198963288
625,1451,4,2120798000.0,1551652371.9674811,1472395000.0,1359364391.1923103,648403000.0,225822921.0499346,67913000.0,39242062.507651314,30767000.0,175425090.39334977,98680000.0,228202911.47055268,-9629000.0,-41550804.00798082,77542000.0,96321919.3056595,-9629000.0,-57079856.798007846
1728,887,2,706517000.0,191687814.46531987,905805000.0,632530340.6575017,-199288000.0,-496615422.0752257,73709000.0,105247475.07047589,16853000.0,101571167.09442611,90562000.0,230324872.5080771,38915000.0,68855027.43081048,34794000.0,49451726.81602815,38915000.0,55795748.25444772
1404,1236,3,76126346.0,23018878.05659163,61120101.0,50464740.79334867,15006245.0,13540402.409786552,2282652.0,6350748.25714726,31006950.0,22541964.865970857,33289602.0,27812822.612755418,-2890968.0,2402461.7342070695,5173620.0,1862568.8151546493,-2890968.0,4488179.441993054
1515,995,4,156303000.0,17328554.563874245,83901000.0,32849873.263201833,72402000.0,8298295.275642514,17689000.0,3250144.223468058,41469000.0,42841497.23547444,59158000.0,48492152.97083211,-2517000.0,-12662272.624517169,20206000.0,19135774.07224798,-2517000.0,-15885629.848779522
1800,1468,2,3271200000.0,2152098412.1245375,1447362713.447565,1642902121.1570501,-21400000.0,-1546863498.7487478,31300000.0,108762717.50697091,847700000.0,1212739419.632181,879000000.0,1316247653.6785483,-16400000.0,-48494471.793294825,66600000.0,36142416.34554318,-35300000.0,72620301.1614281
4,1221,3,7361000.0,-18494390.23394525,2671000.0,-11303881.21208483,4573903.262590003,23432936.352653384,349000.0,2705632.373527333,109000.0,2753360.268048255,458000.0,4201606.628734291,-670000.0,322582.9394256659,1019000.0,228141.46493647248,-670000.0,2477490.9085913356
1400,723,0,-4860602000.0,-957847430.2205441,-990657000.0,-1462081646.8762603,-3869945000.0,414389480.1352291,193881000.0,293723016.52784896,378009000.0,654081344.1174635,571890000.0,841505014.6790903,36078000.0,60327178.36499551,124685000.0,218881379.6246374,69196000.0,74841636.90321201
617,843,0,5475000000.0,5740751002.658808,4861300000.0,4939618881.42882,613700000.0,797277222.9567647,130600000.0,154391063.35288167,1421300000.0,1365866675.2843993,1551900000.0,1503545266.7858908,23900000.0,24980241.236678567,81800000.0,92454853.72955826,48800000.0,61936209.62332302
570,1066,3,9643000.0,-19954642.882999897,6164000.0,-14046754.014775038,3479000.0,27212469.345249474,1843000.0,4631485.234404795,2246000.0,4412124.160729347,4089000.0,7732216.747397602,-437000.0,2498302.2302446924,2240000.0,1318909.8455606177,-397000.0,3312575.388844669
2015,1416,4,12012800000.0,7630421182.000959,6608200000.0,3433010046.6052003,4911800000.0,3321876652.6151657,457000000.0,530298631.9347121,316800000.0,-415109130.33779943,773800000.0,54988309.645032465,145800000.0,41761399.75768368,203500000.0,261155366.28050378,253500000.0,269143265.6542096
576,1219,0,6644800000.0,7216896936.986493,3248100000.0,3612132313.2456994,2786600000.0,2933173873.4259825,345800000.0,348723365.57895833,33000000.0,146773448.47829834,378800000.0,492642419.2185508,36000000.0,39299335.21873901,342800000.0,504285583.6479205,3000000.0,-155562218.06896216
1397,690,3,136174000.0,98183173.63090736,62163000.0,34219733.741796106,72304000.0,33519466.124735117,10072000.0,12491207.558481183,-3712000.0,-11595744.231372956,6360000.0,-1977330.5461827368,-12604000.0,-14254649.968913477,22676000.0,22052557.711397927,-12604000.0,-9561350.152916262
1134,1554,1,160043000.0,133830035.34932649,101422000.0,99571627.81550306,58621000.0,82143749.95068434,15202000.0,11494384.981841851,-14386000.0,18328516.54286878,816000.0,35656208.04032245,-14398000.0,-22783506.985750094,29600000.0,31429435.346837282,-14398000.0,-19935050.36499566
188,568,0,9282000.0,2365774.421219468,3493000.0,2636158.938806474,5789000.0,4334668.686710656,355000.0,3472931.260955259,552000.0,14181899.095541138,907000.0,17018196.65204659,-972000.0,764290.552092012,1327000.0,3847347.622725345,-972000.0,-374416.3617700916
488,1306,3,16124000000.0,4859022973.2526045,13383000000.0,6880495527.729616,2741000000.0,-2149563474.0799513,5251000000.0,3547926305.549823,4961000000.0,3262689297.2100763,9233000000.0,6371935767.748904,1583000000.0,1185553079.7007456,3668000000.0,2495108280.175655,1583000000.0,1052818025.3741696
1211,717,1,1601068000.0,1991762407.8186476,1081707000.0,1128070524.9162366,519361000.0,899781669.9933071,248876000.0,294633768.6394578,-34521000.0,-120011487.77467895,214355000.0,175958292.24984014,19006000.0,59924399.04319524,229870000.0,230900560.78905138,19006000.0,63733207.85040637
1580,265,3,779622000.0,1008859197.2389083,153452000.0,322256148.6032157,626170000.0,722860857.265078,134561000.0,131800809.88351913,57608000.0,43731003.50691818,192169000.0,167146190.89579418,56917000.0,45776084.98071382,77644000.0,86285895.5423916,56917000.0,45514914.341128
1533,896,3,4162272000.0,3953292063.1719217,862254000.0,1058397327.2905712,3299439000.0,2913487184.0786796,357871000.0,326538268.26528805,794265000.0,761525910.5200287,1152136000.0,1070932584.7240018,114028000.0,78405582.78552435,194829000.0,222356160.8678748,163042000.0,104182107.39741313
818,1094,0,13900400000.0,12956051351.641384,12204100000.0,11813268048.250383,7319729781.089915,6194796023.072363,78200000.0,-242293806.29962665,235100000.0,209694168.58035427,313300000.0,-53820317.55280155,174900000.0,-164897306.36778152,116600000.0,121659879.84336524,-38400000.0,-363953686.1429925
50,1165,4,594022000.0,483088807.00735986,132343000.0,132978275.05554342,461679000.0,308207574.96201473,121956000.0,106939179.641066,1645000.0,-18265954.35419289,123601000.0,90503578.73730554,31177000.0,31614874.598166727,45262000.0,41960908.608578295,76694000.0,64978271.032488145
590,762,1,1341960000.0,1266608617.5343285,666970000.0,685108287.8380862,674990000.0,409657848.8452319,55930000.0,29941026.082959924,179410000.0,166965845.62993976,235340000.0,190706911.98301518,23760000.0,2834696.218918003,32290000.0,23738734.608368523,23640000.0,6202291.474591032
377,386,2,52901000.0,18793220.707624674,24522965.98920461,-2354510.1768777966,33404000.0,16488511.730852038,-1183000.0,2137375.851028852,24144000.0,21321289.66026351,22961000.0,24229156.411764033,-5692000.0,-4853473.706405844,28653000.0,24567939.46960306,-29836000.0,-22430563.618574005
1953,841,2,877565000.0,1541001547.8637972,1336553000.0,1529111958.9660354,-475192000.0,516644141.9864827,522812000.0,565732202.2656946,-345617000.0,-220917272.85992318,177195000.0,319032982.1230947,31868000.0,38378053.388141,490944000.0,543681384.4074845,31868000.0,22050817.858210035
1018,588,0,26568400000.0,26678223903.034904,13080400000.0,13269735304.434017,13246000000.0,13362179695.386534,1346200000.0,1188578905.7531052,1952200000.0,1761635308.7173479,3298400000.0,2973523483.6243196,592200000.0,345205598.79455304,746800000.0,900886882.6047503,599400000.0,287692023.1483519
709,1406,4,2933971000.0,3391047308.9541717,2618511000.0,2559761829.6908064,315460000.0,749321956.3665323,65062000.0,34548508.984431416,2191000.0,339029994.24973273,67253000.0,380433742.78914243,-143265000.0,-168280346.56744725,69951000.0,78483840.2730237,-4889000.0,-43935331.28859227
1121,444,4,27828200000.0,25180936717.897137,13810622382.415062,12907918116.635586,7212400000.0,5832334977.097411,821300000.0,836107461.946372,181300000.0,-455930016.250644,1002600000.0,411036866.8533311,233000000.0,191307767.57790652,794400000.0,1062043472.142076,26900000.0,-225936010.19570285
1026,1548,2,2788943000.0,3326820071.315734,2662320000.0,2933492770.898779,126623000.0,669810183.9654781,299166000.0,334764999.3568798,0.0,305005691.7768846,299166000.0,650069671.3094938,-281667000.0,-52490588.7774225,580833000.0,364856979.5676152,-281667000.0,-30091980.21073578
1015,1603,3,2489159000.0,2140937612.7482586,1954765000.0,1579608550.646821,488897000.0,193961376.1002623,294443000.0,256636742.58833632,370069000.0,305819393.67673576,636496000.0,530511272.73265207,64600000.0,38916702.888964705,229652000.0,210904010.80549508,64791000.0,45732731.78284136
1575,877,2,11961066.0,42883573.41884369,1068497.0,-20098378.637598813,10892569.0,90797797.52759652,611174.0,-2121863.9356343225,0.0,7305081.855590139,611174.0,5774696.743899301,-1146685.0,-1954141.553938372,1757859.0,706270.8621044978,-1146685.0,-2828134.797738633
826,1602,1,93941000000.0,90868309836.63766,39446000000.0,35052098763.89652,53466000000.0,54067590668.70486,4178000000.0,3991264792.518093,15656000000.0,23824737632.69475,18582000000.0,27761113297.158627,1764000000.0,1803796725.635907,2414000000.0,2745854321.139674,1764000000.0,1245410471.378418
463,1286,3,32097000000.0,36253903925.17076,20419000000.0,23465831477.890675,10658000000.0,12829483909.515583,2071000000.0,2276401412.0100446,6360000000.0,6195294111.250385,8431000000.0,8352883667.519417,950000000.0,1093573995.6861107,831000000.0,790539165.792891,1240000000.0,1485862246.2171535
1660,1418,2,6578196.0,-11231994.348706484,4441488.0,-79810000.33659172,2465776.0,31116139.365739495,2008368.0,-11113620.519223899,923641.0,16882992.376291428,2932009.0,29172094.44651988,-1328968.0,-15246155.93200504,3337336.0,9891245.066264074,-1328968.0,-21004865.585487776
700,507,1,1658042000.0,2004804963.0637484,1223260000.0,1244569865.4383836,434782000.0,675818811.99371,207698000.0,182661276.47067034,674127000.0,653073752.5381571,881825000.0,844519291.861763,25549000.0,6359724.343911134,179614000.0,178154477.50974828,28084000.0,4506798.96092185
402,429,4,9094896.0,36492052.947639465,13593163.0,146930617.6517227,-4498267.0,-111486259.55198812,-928960.0,900612.8049008846,1115703.0,-5549258.472159868,186743.0,-1389583.7742788792,-5136642.0,-9265782.137237342,4207682.0,15475287.687714577,-5136642.0,-14574674.88281314
591,82,1,16788482.0,210257887.3022377,821758.0,50167231.12553668,15966723.0,262586182.37372273,906228.0,-20967625.639167733,333325.0,59098830.64876282,1239553.0,46227416.03324593,-1096396.0,-20895842.508745395,2002625.0,-3993876.330329463,-1096397.0,-16973749.308838423
412,70,3,1678241000.0,1515491112.2168245,730813000.0,669260389.5076438,947428000.0,672269768.2827406,62311000.0,48446590.17982758,89643000.0,103201731.8469071,127553000.0,126939824.27620183,-24195000.0,-29205483.603833437,86506000.0,80597809.00866857,-24195000.0,-32151218.828840602
26,311,2,1363308942.0,1871156877.051961,629855415.0,882006773.9383773,733453527.0,876716685.8154124,93681798.0,84152759.24045366,0.0,-14842101.141780287,93681798.0,63620535.042089306,39573525.0,41043721.69238199,54108273.0,45502275.95795657,39573525.0,38650483.282497235
205,1574,1,15264467000.0,16185598402.09156,7226441209.924589,7720568924.589195,3059451000.0,3682267062.89338,592816000.0,692541980.731243,378076000.0,628587009.970665,970892000.0,1335682400.7948594,444977000.0,494647483.921916,147839000.0,236427986.3042167,444977000.0,456113994.42702705
699,653,0,65987000.0,53023927.863719225,35279000.0,25455916.745807767,30708000.0,33429000.550301045,5319000.0,10193450.508027427,28050000.0,40343295.91244611,33369000.0,49697999.39396497,1124000.0,5489230.608785743,4195000.0,7033460.542225108,1124000.0,3159989.965802299
550,570,3,31945000000.0,24105326358.672745,26424000000.0,20437374788.009045,5506000000.0,5097211787.800206,1191000000.0,788179412.613582,2895000000.0,2155750838.571163,4086000000.0,2829082371.942176,834000000.0,-278946899.1195079,357000000.0,663448411.3677833,834000000.0,124731001.2457977
140,1503,2,2655001000.0,3070267294.356672,1989549000.0,2110267724.1769612,665452000.0,996645317.280107,67554000.0,-182962520.6747872,403267000.0,654687608.5584205,470821000.0,471468294.9280106,-3426000.0,-136579896.6429196,30096000.0,4453301.411037877,37458000.0,-187415822.08582586
2004,1217,2,9403000.0,-8107978.295178652,5511000.0,-23908684.788074434,3892000.0,30158689.251390368,-48000.0,1170092.367804192,1387000.0,13350946.66402973,1339000.0,13615128.413452193,-903000.0,-1691278.186870438,855000.0,3171876.291211106,-903000.0,-2001783.9234067155
28,1347,2,551232000.0,353594849.0267422,628224000.0,401878219.8479897,-138322000.0,-369190756.6544812,23716000.0,38416388.86357942,12709000.0,23349510.922289997,36425000.0,67178883.19480877,7478000.0,12218024.883566987,48579000.0,52541904.81118486,-24863000.0,-14125515.947605444
844,937,2,435750000.0,436375748.31675774,62826000.0,37569876.17422408,372924000.0,367635080.7131811,28152000.0,26372534.479562335,49267000.0,46404965.1137092,77419000.0,72257228.96904613,143000.0,-12335752.631238285,28009000.0,43015049.40118387,143000.0,-16642514.921621284
967,1131,3,367699000.0,253172903.20667833,382822000.0,173382359.99819016,-15123000.0,166636090.00954512,310000.0,117720642.61809035,0.0,13432883.483644087,310000.0,135019414.46498144,-47413000.0,33081033.824992776,47723000.0,91577257.6730046,-47413000.0,26143384.94508633
433,733,0,3810682000.0,2485180926.6093445,2050315000.0,1019344476.5584843,1303319000.0,861354613.44676,110314000.0,44533120.387745656,71850000.0,-95707931.95457843,148990000.0,-93418926.75447184,11661000.0,-119041537.00877504,98653000.0,100903931.21761851,11661000.0,-56370810.82987319
228,1025,4,2333529000.0,2028550514.9545465,1032484368.2283514,1162501522.213122,1202771000.0,680661567.1992861,71236000.0,52543994.59470139,490990000.0,573725296.3587202,562226000.0,638595153.3752944,19517000.0,51079180.028894864,46091000.0,82291408.07078405,25145000.0,-29747413.47608233
1855,611,2,20737275.0,176556868.2469501,10788720.0,134320093.27424046,10368036.0,184288062.93270046,562564.0,32675384.53656777,77061.0,-27293266.107315436,87201.0,34284362.51226953,-4142505.0,-3493201.7019727873,4705069.0,32313565.829940267,-4142505.0,361818.70662778616
776,1431,4,386844000.0,449176173.13862,412960000.0,490138444.0028702,-26116000.0,-13697457.812903017,16927000.0,29200803.05644879,91131000.0,120202811.16422758,108058000.0,148053494.34963423,-813000.0,9105416.004526874,13060000.0,16288684.494169496,3867000.0,12912118.562279686
839,958,1,6911775000.0,6714917285.123428,5109042000.0,4975008377.080326,1802733000.0,908960721.4547821,225256000.0,248247887.98239896,195092000.0,241097228.09363875,420348000.0,491779395.30765545,132530000.0,161426313.3701254,92726000.0,133778517.48923245,132530000.0,114469370.49316591
793,948,1,2883631000.0,9305360114.687418,1772390000.0,5863510717.049582,1110345000.0,3424546297.4612455,319055000.0,462508144.5087315,1257690000.0,1175412968.860431,1576745000.0,1710618384.3615055,38222000.0,3349097.5194903724,280833000.0,426753151.38565093,38222000.0,35754993.12308154
820,1092,2,133032000.0,-43726513.013477564,232711000.0,167008036.20596197,-16246000.0,-180449700.81037354,12296000.0,-6143628.122390166,62277000.0,74244770.79345828,74573000.0,68166673.648509,-14749000.0,-13830323.683163667,89322000.0,106106289.91677836,-77026000.0,-112249918.03916821
2016,686,2,296638000.0,236581543.25887012,208509000.0,159626583.31627822,88129000.0,90023702.506073,7319000.0,14541762.816996243,0.0,7245822.088206608,7319000.0,26796974.372424647,-46633000.0,-22638547.29967034,53952000.0,34590189.98985933,-46633000.0,-20048427.172862872
1438,59,4,38809000.0,625969665.0301808,43090000.0,294779645.1304554,-4281000.0,352253995.98815215,7318000.0,-14595095.029809415,25818000.0,15881579.849212691,33136000.0,-5043559.937530175,-933000.0,-42109966.601811886,8251000.0,30074154.241994884,-933000.0,-44669249.271804005
866,1372,1,2376172000.0,2258619960.7909126,1870972000.0,2101072043.397393,486613000.0,148201309.43379745,-5214000.0,105417415.56163016,182832000.0,168740465.73370603,304976000.0,296773422.4643729,-103708000.0,-40959614.78395355,98494000.0,127992053.22312747,-103708000.0,-22574637.661497712
689,125,3,3719784000.0,5115774120.938973,3332984000.0,3978054044.6834464,286813000.0,1018304337.0086967,2618169000.0,2704372099.7777934,-531777000.0,-366512553.7681182,2086392000.0,2307158025.5526257,44074000.0,266765243.4427079,2574095000.0,2437297694.7962985,44074000.0,267074404.98149544
919,847,1,1537935000.0,1531695304.9747906,1281456000.0,1220861273.3700085,256479000.0,188907062.3972063,229699000.0,165476156.4002222,0.0,38889531.80102156,229699000.0,197339222.82015237,-26947000.0,-127688478.65930066,256646000.0,284378969.7945935,-26947000.0,-118902813.3943713
