epiphany24262/financial-performance-prediction/results/oof/m1_ridge_history_raw.csv
Id,group_id,fold,actual_Q0_TOTAL_ASSETS,pred_Q0_TOTAL_ASSETS,actual_Q0_TOTAL_LIABILITIES,pred_Q0_TOTAL_LIABILITIES,actual_Q0_TOTAL_STOCKHOLDERS_EQUITY,pred_Q0_TOTAL_STOCKHOLDERS_EQUITY,actual_Q0_GROSS_PROFIT,pred_Q0_GROSS_PROFIT,actual_Q0_COST_OF_REVENUES,pred_Q0_COST_OF_REVENUES,actual_Q0_REVENUES,pred_Q0_REVENUES,actual_Q0_OPERATING_INCOME,pred_Q0_OPERATING_INCOME,actual_Q0_OPERATING_EXPENSES,pred_Q0_OPERATING_EXPENSES,actual_Q0_EBITDA,pred_Q0_EBITDA
196,1119,4,1192950000.0,1173143557.904641,1055816000.0,1012177846.4844166,137134000.0,177660357.7205284,25598000.0,42795658.70789801,61899000.0,109000389.09030548,42992000.0,106143561.36607881,15222000.0,24244166.67323383,10383000.0,13100359.142961495,15215000.0,29695299.564936884
1568,556,2,1219954000.0,1144260420.1002748,835046000.0,853093288.114772,384908000.0,140325962.93701753,111786000.0,144468004.97552451,217796000.0,176716341.6036867,329582000.0,309903963.53609776,28908000.0,53531955.10576973,85522000.0,76967103.09355053,26264000.0,67500901.88197386
1218,1577,0,-135820000000.0,-92360748547.11964,-37972000000.0,-71650561248.75269,-97848000000.0,-38634515868.80593,-435000000.0,-3311583961.3644147,4445000000.0,3285776743.392011,4010000000.0,-1560793819.6112678,-1472000000.0,-4553322952.459193,219000000.0,927845537.1615708,-654000000.0,-4239429498.5259852
23,1062,1,83298000.0,-141848574.82674694,16040000.0,-105883252.76528692,-31633000.0,-121184673.50116804,494000.0,-6906194.318532079,3339000.0,23590085.970330596,3833000.0,23182654.016424045,-12348000.0,-26556622.97653338,12842000.0,21464845.36586713,-12348000.0,-28371039.684399333
783,805,3,148546000.0,457814630.4564793,56555000.0,82490241.28275901,91991000.0,456122972.4678974,1761000.0,116779690.75861143,-2375000.0,-73150454.60357264,-614000.0,44112105.82393672,-10098000.0,93488710.98227575,11859000.0,-5012131.619038761,-10098000.0,121791822.37765032
1251,822,1,7304300000.0,8018389383.4698105,2451900000.0,3218766837.2093387,4830200000.0,4865397773.939547,578200000.0,706277680.8423111,581100000.0,729285326.8394542,1159300000.0,1417133209.0244832,245200000.0,207481100.16649526,333000000.0,485856374.49528503,245200000.0,220421306.34702775
1224,228,0,1976905000.0,1987653884.7942197,699909000.0,736804122.1030402,1276996000.0,1288440040.5199752,53993000.0,86055453.3577027,315825000.0,246102794.59843388,369818000.0,326279842.7614462,-1572000.0,18943410.936787274,371390000.0,390304999.8904053,-317397000.0,-304249546.5327027
1410,1451,2,2097274000.0,3278286920.6828218,1132234000.0,2117726387.248901,965931000.0,1552910190.030108,70481000.0,202334315.471307,291052000.0,656013971.6896309,361533000.0,886103328.5975002,58709000.0,270262999.36913246,11772000.0,-3829032.7479029894,58709000.0,206163348.21921068
529,34,4,31183000.0,21421211.4450866,15926000.0,5480504.594557792,15257000.0,47477190.08523449,2456000.0,3218250.957294494,2151000.0,5587861.825615517,4607000.0,8164523.320952147,-2931000.0,-1952256.5588599257,5387000.0,5836249.680746235,-2931000.0,-2617998.7234514505
730,909,4,978523000.0,1616179948.5930367,851196000.0,991343183.0927737,-94184000.0,-410844793.8184409,24321000.0,-52607867.60420011,137937000.0,570865893.3915998,162258000.0,547985102.3550395,-764000.0,-32540563.476881813,25085000.0,5570899.842969507,-764000.0,-58178767.44716941
1590,1344,4,27253000.0,-73805279.07185924,14465193.072010836,26543488.87419352,12787806.927989164,45891652.773231775,-17000.0,19923260.20377431,17493000.0,47967331.68572975,17476000.0,67161349.88939273,1196000.0,11866231.833694916,138000.0,3008246.8866132423,-155000.0,16915013.31716131
367,268,0,798398000.0,1354549009.8493223,795372000.0,1134118523.4165397,3026000.0,-1589008.825940162,37121000.0,-15222897.602390014,256160000.0,277728626.85108453,293281000.0,265941006.25834405,10257000.0,-124843326.2198471,26864000.0,116802832.10258138,10257000.0,-132025729.70497136
636,839,4,1059052000.0,1087964443.7022676,883921000.0,823031935.0740083,175131000.0,-77648416.19939733,91945000.0,136392616.05703816,202788000.0,359086843.0420904,235132000.0,429072913.3530789,-287000.0,15505822.303664818,84957000.0,111343220.74493694,6988000.0,25049395.31210143
1270,1065,3,11069000000.0,11723719423.01469,5919000000.0,6234765348.825468,5105000000.0,5468701013.523674,727000000.0,761242628.0498381,1752000000.0,1729620599.943979,2479000000.0,2463133280.775566,462000000.0,560708642.8613927,265000000.0,207121468.72631997,462000000.0,554121159.3235189
102,712,1,12331000.0,135679994.24140632,10875000.0,116161865.55588996,1456000.0,-43977888.73329893,1472000.0,-13383979.181962669,1968000.0,12093445.796185331,3440000.0,77911037.62748462,-4166000.0,-12410573.296067884,5638000.0,2511434.6821822524,-4166000.0,-15895413.864144927
1658,812,1,180372000.0,82877250.44369763,121221000.0,122785346.93842977,30642000.0,-63670274.981435895,18014000.0,24503929.26958902,31653000.0,18477405.467418544,49667000.0,43062003.660805665,-11599000.0,9974932.425922673,29613000.0,20757200.28037212,-11599000.0,3746728.9892168213
6,356,2,2319806000.0,1432178954.2986844,1534495000.0,1035095025.2465339,785311000.0,354749086.3106344,376397000.0,272101649.901381,415254000.0,386134786.7528658,791651000.0,667233411.4709809,93430000.0,56961731.8149999,288680000.0,222713577.40836653,87717000.0,49388072.49301392
1147,318,0,19295025.0,-5134950.499230862,28370931.0,1799957.8579062223,-13369686.0,8193904.008350581,2067435.0,5311158.961610764,4847499.0,15725586.432227284,6914934.0,17806490.881721728,-1108124.0,4090631.2593856063,3175559.0,583874.3172043264,-1108124.0,4727284.644406137
114,141,2,3549408000.0,3169633365.0447097,2109262000.0,1476292354.865816,1440146000.0,1575333014.6131449,264579000.0,294357832.6196649,494402000.0,505272829.2577588,758981000.0,808494296.7637899,58594000.0,94058126.99539123,205985000.0,196642387.89274538,58594000.0,97715444.72691973
139,890,3,331401784.0,373205715.8265812,56254670.0,43296603.15374923,275147114.0,218414499.90150738,17982150.0,-13834676.05859229,0.0,-38772948.79050392,17982150.0,-52939169.202572644,-40215832.0,-72694475.28042102,58197982.0,69514674.32081465,-40215832.0,-83349350.37940684
411,956,2,5533000.0,1090749.4940220118,4648000.0,4434423.7577803135,885000.0,34475863.887051046,-1669000.0,2197941.9024474844,2438000.0,1500086.9068088457,769000.0,3536738.414464757,-6339000.0,-3503497.1144982455,4670000.0,3965325.247880742,-6339000.0,-1767383.3454335583
681,18,1,36550000000.0,38563684763.694916,16943241279.095451,17069354740.359173,15250000000.0,17500436192.339165,577000000.0,309734365.2512463,3467000000.0,2840445506.759322,4044000000.0,3076887161.276341,714000000.0,315119335.9420767,627000000.0,654752559.926326,-50000000.0,-345018194.6750815
1671,1574,4,100449000.0,182064812.20347202,141057000.0,225756162.05559725,-40608000.0,-120636317.11350691,-171000.0,4146089.5072819404,512000.0,9432136.675640807,341000.0,48528265.266696736,-48297000.0,-40647915.64064112,24344000.0,18262808.43691197,-24515000.0,-14116718.92962984
500,1524,4,10599934.0,624741.8532954454,26203416.0,13788475.591493964,-15603482.0,15097476.207613736,-6219.0,2925014.899394408,193120.0,2798085.0970160086,186901.0,4820704.665519476,-1076399.0,1686208.0755753182,1070180.0,1464840.540825829,-1076399.0,1460174.3585688155
1203,855,3,13322000.0,-163589047.78258252,67881000.0,-10133298.948796093,8277888.77383834,-106920401.08758712,3223000.0,-9367408.95088587,1889000.0,-27990419.496782213,5112000.0,-22078606.37087381,-3552000.0,-46835126.27163329,8664000.0,17583475.48684766,-5441000.0,-26950884.43773334
180,1091,2,635001000.0,-966602506.0094597,115305000.0,-114002602.7295925,502273000.0,-1106027996.2590666,21465000.0,-81803027.968024,40457000.0,-183506563.76472306,61922000.0,-246561876.07531345,-143360000.0,-257932571.2817244,205282000.0,221107306.38272968,-183817000.0,-302910334.35075396
1960,1407,1,2672864000.0,2906262566.8828583,288913000.0,415391964.3070066,2383951000.0,2538217045.793238,132902000.0,142717208.23106974,168499000.0,249874795.84179792,301401000.0,389998792.5514454,55706000.0,100775154.07888755,77196000.0,51060866.160953306,55706000.0,91656342.07011652
356,219,4,8388335000.0,9116402247.169075,5163154000.0,5603457722.625239,3225181000.0,3530106762.6397753,313343000.0,333138215.0412968,687959000.0,863882396.7563192,1001302000.0,1206327331.781675,116260000.0,208845922.60349682,85661000.0,28927159.07556788,227682000.0,304211055.96572936
1646,1209,4,1563399000.0,1525843046.731615,1445358000.0,1351992118.5003638,-136248000.0,137375231.778823,72333000.0,161283567.30132902,116682000.0,276430669.7759632,189015000.0,441512171.6932213,23506000.0,80497559.72866812,11423000.0,38182602.99960694,60910000.0,123100964.30172199
1793,1494,4,320019000.0,156417969.44492227,126984000.0,129194633.42115891,193035000.0,94789121.90000147,177377000.0,232947519.7499158,58492000.0,145584700.5282213,235869000.0,377501528.07220227,25509000.0,42114070.3094094,151868000.0,190316958.13030112,25509000.0,42630561.61961503
235,903,0,0.0,-8955921.833480239,0.0,-15775057.508259356,-804876.0,25290093.227710962,0.0,2878490.014483519,0.0,15019532.294214647,0.0,16478910.326750055,-14550.0,4451212.861856798,14550.0,-1863038.4027353004,-14550.0,4741528.41721846
1668,520,3,267194000.0,336104204.67221385,175308000.0,193779022.62468642,91886000.0,172280365.31985605,5103000.0,2032375.4823383912,0.0,9648175.004397813,5103000.0,9024322.370949775,-32762000.0,-31846335.129157916,37865000.0,32620331.77727848,-32762000.0,-30587956.294939823
1456,719,4,2249377000.0,2071303708.233643,1923326000.0,1980566426.7412333,326519000.0,189353821.0678141,-76300000.0,-96211034.36714302,416103000.0,356696331.02700955,339803000.0,253871825.6921293,34941000.0,8030545.699953303,184914000.0,180907578.16435516,-261214000.0,-277118612.53149796
1291,57,1,396890000.0,780235894.728678,107071000.0,53212596.31907898,289819000.0,688460714.0913118,52569000.0,67040681.407069966,13634000.0,50110361.30158985,66203000.0,109070764.02778542,8375000.0,1170926.381188347,57828000.0,72971855.96747929,-5259000.0,-5931174.560409483
1376,344,4,7827000.0,-28392712.17297566,4744000.0,-37743297.23872495,3083000.0,37724536.31714398,1288000.0,-3387309.5162345544,867000.0,15859369.165454345,2155000.0,13939920.869535133,-3880000.0,-8427417.619741108,5168000.0,5550177.149172485,-3880000.0,-8937486.66540676
1702,1482,1,11990000.0,-29906865.365897417,3030000.0,-21934997.45238453,8960000.0,3248034.9090682566,1480000.0,5967918.05612579,3017000.0,1094792.2126553208,4497000.0,3255048.724209994,-944000.0,3506164.385706125,2424000.0,-1428025.1626238152,-944000.0,7395943.2187495455
1591,331,2,7472874.0,28685910.401831508,3243445.0,95315431.00744721,4067990.0,-22096147.262971133,3065804.0,-25703631.643684536,0.0,35591330.209909886,3065804.0,7217390.340456545,-21884.0,-29001846.745563474,3087688.0,13163643.665962912,-21884.0,-38867275.309647776
647,1582,1,2182494000.0,2606311197.9363155,2467501000.0,2442772237.8064137,-484456000.0,-58104074.77222514,389190000.0,427732743.5010473,141172000.0,130993940.4351279,531030000.0,541153348.0161809,-54175000.0,-48817120.375781216,443365000.0,465605855.1828312,-54175000.0,-37873111.681784324
100,1589,2,12166000.0,572831012.8215585,2892000.0,372278879.6860635,9274000.0,337382753.7995602,5000.0,25048166.63678001,54000.0,62734812.30662105,59000.0,108455380.67285815,-3433000.0,14997036.465671927,3433000.0,13847634.023369025,-3428000.0,11200532.613410782
507,336,2,189783000.0,117965627.90797144,45792000.0,27101422.67424184,143991000.0,78151730.78047979,2372000.0,-490502.70136484504,0.0,12161580.779966537,2372000.0,10749900.402614102,-18270000.0,-23445009.57674708,20642000.0,22588150.325162657,-18270000.0,-23078653.026527856
547,1095,3,1072653000.0,2089218029.290858,455367000.0,836299071.6640058,617286000.0,1501003499.5796528,134998000.0,222208952.3554197,27783000.0,125282019.94959868,163452000.0,366398189.26155263,5489000.0,121366490.83238067,129509000.0,132688408.7367687,5489000.0,89520543.61865093
457,886,2,665104000.0,969108636.9044051,575531000.0,611288479.9855883,89573000.0,373735331.50347453,30803000.0,47195749.74420119,19437000.0,39242864.64774985,50240000.0,86803243.49831636,10357000.0,24474828.397345193,22017000.0,12773276.064418394,8786000.0,34422473.67978255
560,670,3,1900367000.0,-2399586340.4317474,289037000.0,186636636.82039544,1613343000.0,-3167546399.824121,45433000.0,71271174.04232796,413911000.0,398992333.32244474,459344000.0,525801748.5552256,-6757000.0,172703362.34450975,52246000.0,-52186458.88519864,-6813000.0,123457632.92752732
1402,905,3,88944000.0,96630493.74780822,45361000.0,49673026.46519381,43583000.0,73611874.91378793,0.0,-4338428.571061701,45000.0,9796778.198254842,45000.0,5169628.585812181,-14351000.0,-18134353.354394443,14351000.0,16462065.576420508,-14351000.0,-20800494.147481907
1274,1040,3,5390785000.0,5269697879.520052,4083098000.0,4058358132.724137,1050686000.0,1119304566.8269773,352054000.0,450138715.8201319,284900000.0,309373075.7526387,636954000.0,748805538.6040441,120850000.0,187989658.26539892,187232000.0,188034771.00301602,164822000.0,262103944.81711558
799,197,1,18535000.0,-65320328.295724034,13748000.0,-25040032.72690648,4787000.0,-46319304.52991241,2839000.0,8400506.921479963,7502000.0,28757929.83629313,10341000.0,33556950.94925975,-2229000.0,-2697940.3632251276,3071000.0,7607212.547919847,-232000.0,793294.3735600878
1436,782,1,13281300000.0,14254969678.655306,5777300000.0,6696793705.848114,7484300000.0,7422488181.348911,1030700000.0,1108565329.4334924,1150100000.0,1181089652.060003,2180800000.0,2254192383.8814993,687000000.0,580531880.4161193,343700000.0,510391941.89337116,687000000.0,598173387.5401218
1518,137,1,108681735.0,99467588.11547297,9192190.0,-10658678.527290523,67531550.37365061,80071906.09689245,2201326.0,2828785.475867808,255772.0,12683591.526725978,2457098.0,13351440.699311018,-8935951.0,-6184090.049577583,11137277.0,7513218.722144119,-8935951.0,-4684433.2462763805
211,1313,0,189692000.0,188310295.70602006,90178000.0,66800755.47261649,99514000.0,134240130.85226876,-4411000.0,-4703.9484898895025,24963000.0,48734776.84012371,20552000.0,48733728.467045724,-10000000.0,-1867974.6820836104,5589000.0,2094047.4326179326,-10000000.0,-2098751.3811080884
1542,188,0,230878000.0,266627741.28937012,57278000.0,98600537.84687364,173600000.0,211484464.01568982,26973000.0,31337822.291393057,7041000.0,17888692.310278587,34014000.0,47305156.4933143,-11169000.0,-6526078.712516758,38142000.0,37512442.59504217,-11169000.0,-6174620.303649403
1496,602,1,73773000.0,70764952.6325823,50819000.0,39707738.34897721,38847689.64492722,43752912.44409202,5428000.0,11502769.131193273,22481000.0,16702048.324031288,27909000.0,27662314.80299139,-1778000.0,4438200.074286641,7206000.0,3973598.4974545985,-1778000.0,7529170.633738592
1891,1386,2,1582767000.0,1155132403.491756,680421000.0,600249909.7561013,880211000.0,458614054.27028424,56683000.0,30631654.558943823,17637000.0,-45795059.606970854,74320000.0,-13732055.734802768,-5119000.0,-31811094.41783793,35279000.0,31128919.220798306,21404000.0,-497264.6618546378
362,63,0,5641000.0,-2571344.749642253,5200000.0,-10384929.631416798,-3859000.0,22491891.824858278,1192000.0,3736345.971100524,781000.0,15066557.691843191,1973000.0,17332547.200930893,-97000.0,4667689.99579188,2070000.0,-457687.9446498826,-878000.0,4194033.9157500844
605,600,3,3208196000.0,2102941334.7857618,2133043000.0,1310857423.923778,1075153000.0,301179506.14240783,625972000.0,438671706.1896427,1066275000.0,899258878.0604686,1692247000.0,1323952473.6113217,91616000.0,-70940010.18484661,497965000.0,360496614.02684873,128007000.0,78175092.16279289
384,240,3,13057000.0,1168797141.5177917,4943774.229094189,413626275.0686717,10949000.0,893600176.5305111,7944000.0,-11960173.136880048,0.0,37981066.62509442,7944000.0,28937167.34053076,1997000.0,9614338.882757738,5947000.0,-13622505.226398207,1997000.0,1662332.0895184558
438,681,2,5973000000.0,6831816843.802263,4408000000.0,4545243045.560172,1554000000.0,2812203342.547061,244000000.0,361588020.90585756,1526000000.0,1845819402.4943328,1770000000.0,2246768876.3379297,147000000.0,164860208.86146837,127000000.0,171108587.07876766,117000000.0,190479433.827089
1761,1233,0,589088000.0,606314052.1196574,253950000.0,276824249.11889595,335138000.0,346434287.46490544,19294000.0,25688563.922554497,99428000.0,103399205.95766503,118722000.0,126532628.23138686,9057000.0,12867486.43107951,10237000.0,14259525.372033678,9057000.0,11429038.550520541
403,509,4,21286772.0,19199884.751610637,1383236.0,-5365476.1417530775,19903536.0,52986446.62502837,781782.0,2724457.865629893,421382.0,6740761.184273532,1203164.0,8587131.458139583,-1960898.0,23996.871458297595,2742680.0,3582038.428993523,-1960898.0,-857580.5633633845
388,1329,4,3445920.0,-151009562.8189056,1859560.0,54347880.04621914,1616914.0883314284,-28234154.098923802,2970901.0,-5210063.079912774,569508.0,-11602029.701769583,805185.0,-15550436.216626257,2437201.0,-8767506.041297125,533700.0,4691534.886394225,2437201.0,-9901597.966306731
1452,1493,0,328158000.0,334081212.56661654,124250521.82515822,135475419.6399275,270486000.0,292259155.5716352,24944000.0,27116127.0039636,16521000.0,21593407.300017074,41465000.0,45920034.449320965,-7674000.0,-4060870.9416106497,24827000.0,23344156.032294687,117000.0,3771970.971668613
1876,217,1,2498305.0,-51216584.55085719,2997402.0,-24406595.707226098,-3454854.0,-22372895.929732263,467340.0,5436834.475369059,346611.0,-5906510.8282978125,813951.0,-1273483.4728596807,-114631.0,5698523.366629021,581971.0,2108157.6717457324,-114631.0,3328676.803623304
757,180,3,1288046000.0,1378950506.0693536,649920845.9604261,700205075.0027812,889849000.0,979937394.0051475,105384000.0,95258488.8080326,285360000.0,292511041.1662709,390744000.0,384229396.57142895,53190000.0,39359921.465440765,52194000.0,60061045.49773302,53190000.0,35197443.310299866
660,425,3,600057000.0,593700050.8044001,369915000.0,348828490.857645,225443000.0,243601995.6881706,43121000.0,37446441.52467665,106269000.0,95766928.3919613,149390000.0,133154241.14489606,7853000.0,2344846.020451545,30439000.0,30128266.939057574,12682000.0,7318174.585619358
197,250,3,538955000.0,762145141.552168,291671000.0,221139578.04951423,247284000.0,742083872.9124258,-14193000.0,22025610.873480234,14235000.0,5168641.400453322,42000.0,76244406.24619782,-51845000.0,-16600264.855201242,37652000.0,39649436.014030114,-51845000.0,-17623825.140549798
93,807,1,25334074.0,10503491.798954308,18917048.0,6982649.712226093,5501613.0,8673454.79269424,-536032.0,6662288.295505717,4501393.0,2685734.5952924564,3965361.0,7336958.501716673,-2975120.0,1631533.9059015745,2439088.0,5096660.975636072,-2975120.0,1565627.3198696114
472,555,3,1934400000.0,2264492027.461125,855887268.5537325,1029763273.2766236,957200000.0,1014972562.9967713,84000000.0,137925579.63383391,375600000.0,438856223.81229955,459600000.0,570056850.0175375,30800000.0,88673851.28641355,59000000.0,54147405.7317359,25000000.0,83778173.90209848
1345,974,4,102973000.0,66718488.11652464,162948000.0,178452702.98629206,-346214000.0,-551980861.9475139,-13037000.0,7676900.802574623,25768000.0,86936731.30664822,12731000.0,143489151.06910866,-23219000.0,-1831168.3838081472,35950000.0,34246298.22417231,-48987000.0,-26569397.421597496
1672,1178,0,2501300000.0,2819416423.68773,1075500000.0,1344996013.8517733,1407900000.0,1483614407.6708882,99600000.0,120191595.08979614,151100000.0,279476904.418999,250700000.0,399179630.2193194,31900000.0,-6032691.734190213,67700000.0,127609548.65692788,31900000.0,-7417953.567131721
521,196,2,27910000000.0,37958557799.82073,24392000000.0,33924374000.695667,14058781786.346067,13146716795.727995,1525000000.0,1199235161.3935156,6421000000.0,5543957598.4193,7946000000.0,6568648580.645911,561000000.0,445356653.01107216,638000000.0,150405477.85318834,887000000.0,1048829683.5403329
1143,374,4,105238000.0,102454833.111889,42240000.0,29128980.531086296,62998000.0,104323682.28891702,8572000.0,10529027.261835303,322000.0,43103377.98952058,8894000.0,49633949.5208177,2218000.0,8690069.98891586,6354000.0,6493622.453740515,2218000.0,4035404.8080951124
502,643,0,2010176000.0,2104604640.0636606,889414829.379791,955034280.2541765,1057656000.0,1079746612.7117891,113627000.0,125956410.50501633,250202000.0,305759450.0845275,363829000.0,425412973.3078559,44531000.0,43332508.914363556,69096000.0,82777615.50961125,44531000.0,43178794.99540502
319,277,1,15154000000.0,14624285479.556654,5534200000.0,5543889007.242102,9554000000.0,9251419213.686218,739300000.0,655974912.9594173,999600000.0,981008856.4008964,1738900000.0,1622098305.574264,318400000.0,309145287.94216156,315200000.0,191030206.38257423,424100000.0,464944706.57684183
471,1421,2,346507000.0,391910742.57028407,100361000.0,138751185.48806354,246146000.0,249811485.54485774,14398000.0,6820959.788963854,62502000.0,73006806.13461462,72480000.0,73385708.14563684,4926000.0,-3487325.7761679636,9472000.0,11404430.50166621,4926000.0,-4583470.712702625
1756,928,0,229309000.0,73942520.63617647,190264000.0,85171790.328533,-44269000.0,-100081925.19005299,9225000.0,11396965.537854522,52669000.0,92788435.26877274,61894000.0,103861389.73158717,1401000.0,12724133.319633005,7511000.0,-4503202.7261623815,1714000.0,15900168.264016569
848,613,0,101740000.0,-49519603.2196331,28463000.0,-56977572.68003094,50734000.0,20356626.78968951,29850000.0,7825849.654346384,12745000.0,15940861.828336572,40857000.0,25279494.03835146,2689000.0,-4371489.105707802,27161000.0,12243999.718886822,2689000.0,-4418150.064540713
1310,607,1,9582645000.0,8850919865.628485,3280269000.0,2562640697.495644,6302376000.0,6263477941.041542,376175000.0,209316519.89614293,424915000.0,598861096.2573676,801090000.0,821362877.1324878,272965000.0,109724327.03785391,103421000.0,102840905.18965136,272754000.0,106475614.70649135
202,502,1,609678000.0,658745079.80014,288631252.1743736,331404042.28216,366720000.0,375607319.4176387,84451000.0,82125352.83598146,21802000.0,39543996.271717854,106253000.0,118838550.01607402,5683000.0,-1229268.7247511053,78768000.0,86625147.51608223,5683000.0,-4499794.6801008275
1444,124,4,43441700000.0,43465711058.19052,21559314449.01792,21512217285.847794,21882385550.98208,21603309095.738377,1370000000.0,1283472302.6534257,587400000.0,278835552.0563936,1957400000.0,1595324297.3179686,472000000.0,350158321.66572773,1485400000.0,1540417234.0330744,-115400000.0,-256944931.37964922
1578,1121,2,1146353000.0,1064406051.0824358,752649000.0,833908503.4036868,393704000.0,157744993.90166932,95229000.0,84865261.72344403,32092000.0,102186510.11473311,127321000.0,184674475.84165817,-58245000.0,-48360067.69314854,153474000.0,135190589.1756049,-58245000.0,-50325327.4521613
451,840,3,796771.0,104729541.80875003,1072746.0,24318513.7377609,-275975.0,172831258.65613204,205707.0,-23907629.417464532,158335.0,15432880.909090623,364042.0,-13529179.766389877,-168127.0,-20187090.218283795,373834.0,-11754928.390625961,-168127.0,-12152701.026838286
35,1605,2,9069035000.0,8202266201.540764,2563480000.0,2241450266.157915,6505555000.0,5297846384.861532,942419000.0,877726716.5586936,522866000.0,776860334.8942375,1285548000.0,1476978912.5388002,602695000.0,509847428.94307613,339724000.0,414460001.8826977,602695000.0,463266714.6759954
237,1328,0,48924605000.0,47553819355.68448,25766652000.0,24932106345.06691,22441501000.0,23270570975.468952,1560160000.0,1406091945.6764586,915531000.0,868778827.6960301,2475691000.0,2302655997.896491,558196000.0,64868587.65161183,1001964000.0,1239835359.8781087,558196000.0,166256585.79835206
917,299,4,514281000.0,-225072549.71019948,309957000.0,46092125.31714374,198004000.0,-122168420.19140434,106985000.0,35495271.14031681,149052000.0,52236311.84836154,309744000.0,119122881.22821572,62399000.0,-643882.3449282348,44586000.0,35988141.48662763,62399000.0,-492870.3463106416
558,1592,4,17876000000.0,29191928761.492207,4077000000.0,5629954279.268664,13799000000.0,22702604213.716885,-917000000.0,-957360280.5733688,1453000000.0,2427843850.0816226,536000000.0,1322964465.9020884,-1774000000.0,-2627322786.721132,857000000.0,1833986758.02254,-1774000000.0,-2791347038.595911
73,1398,0,218354000.0,207050379.15061873,62021000.0,64617879.38374722,156333000.0,123770338.73139822,-143000.0,-2384171.379352607,848000.0,9209906.399814151,705000.0,5423718.246364757,-31577000.0,-21958348.624306966,40859000.0,31292896.70319755,-41002000.0,-33677068.08255041
532,116,2,2268100000.0,2530897153.4739223,1627400000.0,2097896922.18854,640700000.0,57854257.95166317,78400000.0,156181378.66141832,665200000.0,791472582.43086,743600000.0,939433855.296499,19100000.0,121744542.81307258,724500000.0,853219428.2181901,-646100000.0,-697038049.5567719
986,1241,2,49117000.0,-87471574.648399,7104000.0,-7675030.855229378,42013000.0,-77368874.01971322,1616000.0,-4377696.182100967,3273000.0,2534688.355776298,4889000.0,333409.87806496024,-1489000.0,-10009997.313366022,3105000.0,4600259.46038866,-1489000.0,-8977955.642489962
252,13,2,12822000.0,3119407.8967864513,1624000.0,-7706728.254303575,11198000.0,56365021.16657424,0.0,596919.8299978301,0.0,3527552.1351035624,0.0,4532411.629633188,-1983000.0,-3932052.8466785937,1983000.0,2317893.2808197737,-1983000.0,-1720973.4508222495
982,352,1,543788000.0,451917362.6076007,205894547.02387,157487606.98380047,402777000.0,396347698.6058307,1944000.0,-5264514.40987163,0.0,-33841224.13573734,1944000.0,-41111059.93781644,-51279000.0,-61457458.73833733,53223000.0,58137764.35703596,-51279000.0,-63402278.76690774
1947,1444,4,16965000000.0,10889867801.689423,7506269391.549871,6299468462.210467,7744800000.0,1505177849.6888576,1329900000.0,1474792528.9138079,1175700000.0,1089587000.0016499,2505600000.0,2468131749.5174503,1069200000.0,1088015654.556577,32700000.0,322161164.82903016,1297200000.0,1152631364.084777
1206,430,3,29788000.0,27745880.745977998,27907000.0,21146685.744072556,1881000.0,40623851.56745112,0.0,-2873449.214528598,3452000.0,-198391.01072799787,3452000.0,-3120758.068782091,-23801000.0,-22311120.622311965,23801000.0,16226546.875325538,-23801000.0,-19099996.08985382
542,123,0,39315010.0,-40298683.87436712,15768167.0,-38151646.186091185,23791305.0,99636324.61121029,7600979.0,-16281134.031005718,41810204.0,71049927.46424025,49411183.0,55506220.46718492,-1588725.0,-27248503.56142433,9189704.0,5650716.273349866,-1588725.0,-21931850.304355945
15,385,3,184728000.0,341015754.5235342,40367000.0,159098077.93741778,144361000.0,278032608.26253265,0.0,-2973881.647522837,8094000.0,-4980986.48412025,8094000.0,31228148.276790358,-23114000.0,-38454128.735168695,23114000.0,35465240.52295504,-23114000.0,-38439122.17047755
1754,1014,4,5014090000.0,5414183613.978436,2606263000.0,2871427316.5110884,2407827000.0,2538056349.016809,420690000.0,446882522.3153304,905430000.0,879669956.4270389,1326120000.0,1306360934.172367,237492000.0,245030478.47315186,183198000.0,206663746.28419277,237492000.0,240218776.03113812
1448,316,2,3543460000.0,3635972882.1305766,2602227000.0,2517263707.291738,941233000.0,846858657.9433502,443568000.0,591612829.4946277,134292000.0,96341799.17688215,414603000.0,549753071.0527438,14363000.0,244782159.5064441,429205000.0,311898850.7874224,14363000.0,279713978.7072034
459,80,3,747087000.0,694611682.0719312,79688000.0,60163542.84248674,667399000.0,622373110.5085241,34565000.0,26559257.633640397,22203000.0,25510875.142914087,57261000.0,50707825.39729262,-16306000.0,-14050587.718597753,50871000.0,46197406.79249376,-16306000.0,-19638149.15885306
1505,982,1,4578121000.0,6248332129.895729,2310023301.364386,913952207.9616492,2489780000.0,5288722247.246723,2190001000.0,2321822552.438704,-1465670000.0,353838333.90655625,724331000.0,2713692193.3458166,216069000.0,-123198953.10270856,1973932000.0,2435884590.7198143,216069000.0,-114062038.28110549
1613,267,1,11895943000.0,-6808964445.520828,3479745000.0,3785664793.5751524,8416198000.0,-9654630787.03083,335683000.0,-945386130.1212459,296441000.0,-1813384953.2793164,632124000.0,-2079382541.852498,90949000.0,-753209866.4097204,201199000.0,56494505.92386841,134484000.0,-1001880636.0451179
1214,941,2,1059300000.0,1326204018.1953778,513000000.0,614599373.7648032,545000000.0,726986222.9351226,132000000.0,149991519.38412172,172700000.0,280787481.9182148,304700000.0,413715170.2297768,34700000.0,58158238.82575555,88200000.0,84476531.7540982,43800000.0,65514987.630023256
454,977,1,11204065000.0,5529389763.779495,4242197120.938668,3426162803.9781365,3489373000.0,-1093457479.4794836,480702000.0,610561610.9998684,457696000.0,732570620.696882,938398000.0,1321658098.5931926,172392000.0,488590790.9908567,308310000.0,221377090.95444292,172392000.0,389184520.04542434
1392,303,0,531121000.0,535850018.4869344,248900000.0,262176774.72460604,282221000.0,286659198.26055515,62379000.0,70055204.42659885,135419000.0,154562107.57506624,197798000.0,221951866.28037703,18703000.0,18850416.722616356,43698000.0,51457980.60333804,18681000.0,18597223.823260516
1519,1560,3,961035000.0,800951293.5307121,1381722000.0,1041646259.4770334,-420687000.0,465863615.7913285,271111000.0,217299034.26392847,201537000.0,268003266.5551319,472648000.0,508755174.30593705,5387000.0,-36681646.039603665,265724000.0,255833629.00257152,5387000.0,-38534594.738643244
1060,1032,1,3194462000.0,3164685525.776916,1643299000.0,1685799625.7762947,1512215000.0,1397389290.1587296,817744000.0,841080502.5694346,0.0,-27534388.690698266,817744000.0,810051801.0137858,37900000.0,60678423.416368395,779844000.0,786704156.2969322,37900000.0,54376346.27250212
1100,1277,1,6042273.0,-40727433.11845577,3627261.0,-22866863.68585509,2415012.0,-16827373.595409155,0.0,2892185.202068776,0.0,-4449695.424002364,0.0,-2609775.1028397083,-1829562.0,1694322.2144605005,1829562.0,2081030.084720239,-1829562.0,811155.1173484605
203,261,2,76266906.0,48190432.34807837,57438990.0,43121987.48796037,40912361.81482647,59442238.7641049,9146097.0,11057659.840717021,0.0,-5985298.827689996,9146097.0,5499168.004376978,-2633902.0,-3182299.726357162,11779999.0,12719971.725926276,-2633902.0,-1662311.885209526
1493,405,3,-3532973000.0,-2594896617.366213,-2747133000.0,-406361511.3147651,-773571000.0,-1549361969.9454541,87737000.0,78359651.85266872,40236000.0,482054237.91173047,103187000.0,502775200.57336515,7123000.0,-84338755.85084224,80614000.0,192359352.88459402,7123000.0,-113999701.03192517
543,9,3,846734000.0,-1402059067.7288632,635659000.0,162669349.87994307,69332000.0,-2157952036.5120077,204774000.0,553978174.1842573,-13024000.0,-476923719.2497419,191750000.0,367342915.5011063,-52860000.0,-211665659.93358546,257634000.0,540195229.0652239,-52860000.0,13782945.119032651
1966,415,3,1354514000.0,1501896487.0520945,675720000.0,574706458.5976069,319291000.0,469833694.4013034,-16558000.0,1956689.4989831522,64132000.0,86322936.65841207,47574000.0,91835802.16660868,22229000.0,17700944.95559223,13428000.0,23041106.612875994,-29986000.0,-21084417.113892507
1802,888,0,270533000.0,354803112.9512362,240046000.0,284228522.4709157,30487000.0,111330590.51311025,26052000.0,42266749.50934833,12454000.0,44829842.342031665,38506000.0,84397455.80072345,-21038000.0,464512.27763287676,47090000.0,43594298.9405663,-21038000.0,-1327549.431218265
1372,500,3,583783000.0,985838145.4306911,717382000.0,964537922.6732697,-133599000.0,49490527.753632605,41865000.0,34346801.50015998,32703000.0,42196953.72419044,74568000.0,75641601.21134862,-32006000.0,-41614984.00734207,48224000.0,55746860.49018431,-6359000.0,-21400058.990024026
1325,678,0,534446.0,-10944043.060399413,9794849.0,-8734814.23784995,-9132038.0,17088226.90452251,6264.0,2555579.2708015367,3881.0,15095984.577713646,10145.0,16342764.564169534,-961868.0,3764461.5412116377,972013.0,-1519487.7855617478,-965749.0,4075067.056362978
1504,581,2,106308000.0,106593536.8506847,29369000.0,33786841.857171506,76939000.0,118196669.30250238,15630000.0,17327411.90892495,0.0,10451594.092519997,15630000.0,27375709.30058825,-23899000.0,-4727977.196670452,39529000.0,21347683.881203227,-23899000.0,-4020271.9722785824
1347,435,3,369031000.0,1600243824.053064,216722530.1814524,633415380.4350542,188777000.0,1157054547.4335494,45044000.0,41732677.60993575,42173000.0,35644678.72709473,87217000.0,70097425.88548353,-3804000.0,-2814123.8779466758,48848000.0,35107182.642157406,-3804000.0,6625494.967778411
1492,360,3,327784000.0,244251834.69040233,323919000.0,259762073.13850284,3865000.0,15839702.025108635,33496000.0,24807136.982740153,8201000.0,9974144.169114888,41697000.0,34527499.31447059,-4913000.0,-23649549.80131508,37287000.0,37275874.77433081,-3791000.0,-12468737.791590385
1107,1471,2,85658000000.0,41385147456.7747,88335000000.0,50316671672.09344,-2772000000.0,-24935789679.94227,5387000000.0,2213620608.3838434,14002000000.0,12954264004.713469,16935000000.0,12621598335.085865,1165000000.0,-2034378340.4179049,4222000000.0,3595722635.2198696,1165000000.0,-1382102026.836058
1336,16,4,898860000.0,864643677.4865611,527877640.3036609,534917511.18056506,360528000.0,280979522.5284627,68259000.0,79662270.70422876,42065000.0,-19517034.228031147,110324000.0,61461432.51371765,-1325000.0,-11504750.498299172,69584000.0,69799773.35644598,-1325000.0,9862497.347783025
599,1259,4,50546000.0,37926162.89782882,5959000.0,2249404.8379797935,44587000.0,53633667.091909856,1989000.0,3598494.614145972,1909000.0,9007222.562934633,3898000.0,11329123.538957044,-1895000.0,-1237813.672932949,3884000.0,6515493.56547685,-1895000.0,-2916998.951330643
117,1466,2,939056000.0,962313314.1223354,419590000.0,430442088.2436482,517473000.0,637683339.8733474,90527000.0,119528776.09209925,120216000.0,115520552.31901233,210268000.0,230728399.51566353,61012000.0,79027416.71959674,29515000.0,45621750.50582803,61012000.0,73907025.58627108
1825,1105,3,20027115000.0,19450561680.391876,12952737000.0,12484609066.156235,5611108000.0,5205560975.252979,32786000.0,105527520.61622861,283742000.0,135749875.8110981,316528000.0,314640476.7770873,-1347477000.0,-258544455.26907104,1910658000.0,808564867.3791469,-1877872000.0,-703037346.7629169
1507,930,3,124094000.0,225712612.80342883,18130000.0,35249464.55312097,105964000.0,236915667.77386355,830000.0,1446503.272798583,0.0,15351828.992320888,830000.0,16544686.486825868,-5787000.0,-7323691.430948339,6617000.0,10767717.557886094,-5787000.0,-9321214.28508716
321,688,0,68675000.0,108598061.01784563,40331082.646745786,62933907.45139578,53645000.0,47000778.53208727,10938000.0,6715436.783053346,6604000.0,16195453.48936494,17542000.0,30454115.195457302,880000.0,-6071099.279180513,10058000.0,12073711.825620472,880000.0,-5358275.042567469
1482,964,4,1833700000.0,1787579275.0428867,811331929.4597701,864924046.044027,482900000.0,411177612.4916782,110200000.0,127860115.87781489,356000000.0,330131634.54680693,466200000.0,450341989.0838397,45700000.0,78103115.60509855,55600000.0,56833905.49985852,54600000.0,71026210.37795646
508,608,0,62515472.0,82753504.12020147,29595817.732691668,31909904.255725324,21861273.0,73094090.82921559,7032458.0,9740525.77759549,11256239.0,23806652.113098904,18288697.0,32099113.484822765,-1564350.0,4901377.648965908,8596808.0,7168332.7162900865,-1564350.0,2572193.0613050796
1411,715,3,33859785.0,56961988.435984254,6178818.0,-16317470.93884468,27680967.0,124438963.96890661,-63384.0,-804956.9035743102,87873.0,7775340.479481373,24489.0,7065916.44249779,-2675666.0,-6986656.7102344725,2612282.0,5743788.721424714,-2675666.0,-6548745.624998738
718,899,4,770792000.0,961964392.129755,581187000.0,757954551.0796753,188503000.0,135133999.0539565,456709000.0,453992978.3222982,0.0,-115721088.31846985,456709000.0,340333287.2406934,-29756000.0,-22797707.54482752,486465000.0,493760326.35088956,-29756000.0,-39767348.02859106
1865,42,1,4753100000.0,5004326811.572042,2691038000.0,3118939071.8946123,2062062000.0,1999994074.7760744,383135000.0,438036577.35818446,0.0,-93478933.06137091,383135000.0,341726041.2106201,126771000.0,73541986.41193019,256364000.0,365192084.9851086,126771000.0,72844492.37307532
710,971,2,9330700000.0,5271029137.691912,4987700000.0,2808344296.173888,4343000000.0,409709764.3623841,590200000.0,545327470.8822911,367100000.0,663974278.4108305,444000000.0,756756926.0658023,121300000.0,-26449207.70424072,468900000.0,510879983.7419015,121300000.0,34447487.14038853
285,867,1,1797231000.0,1333837456.7273042,1568932000.0,1793478424.6935482,228299000.0,-437767099.4338795,143030000.0,94583991.05110341,0.0,129308031.95912649,143030000.0,223496408.96832645,-113543000.0,-138377468.74558008,256573000.0,241792220.87331674,-113543000.0,-147208229.82221332
1609,632,1,90048000.0,360017631.75221395,45436321.63528667,91846029.62689614,37547000.0,242923107.78304976,2482000.0,-5301277.301948726,9262000.0,2382517.0894863866,11744000.0,-7810336.681567371,1360000.0,-7030484.49720405,2815000.0,-4911663.871177547,-333000.0,-389613.4307710873
1814,1285,3,190817000.0,159682554.87237346,91955000.0,41841862.79222083,118567925.39840196,166500193.52631524,16838000.0,14317155.316576693,21962000.0,26988788.904103495,38800000.0,40680789.53268704,3292000.0,-2348344.6354682306,13546000.0,16324519.723439164,3292000.0,-2007364.4068622151
720,1550,3,24930824.0,-15249370.668548942,6278564.0,-27500609.072107792,18652260.0,62329368.6067746,7866761.0,6028260.029134981,20382092.0,28029430.201390497,28248853.0,33538697.02257186,1448213.0,-3540472.1512128515,6418548.0,9184456.41672416,1448213.0,-3156196.387588877
1707,403,0,6071000000.0,1042135791.5854188,14261000000.0,10761456838.305397,-8190000000.0,-13795359987.732553,1287000000.0,1016613405.7575424,421000000.0,425030810.08143467,1708000000.0,1422103092.1064415,613000000.0,572006489.9290049,1095000000.0,744576148.0867009,192000000.0,272037257.67084146
485,1126,2,5768300000.0,5892387478.722641,3017800000.0,3076213057.0408416,2739100000.0,2843760992.563327,487400000.0,489116766.04338473,888400000.0,956891758.2822071,1375800000.0,1425895058.685684,276300000.0,259336834.56376314,211100000.0,245389680.52142534,276300000.0,243727085.52195972
1364,820,3,3486179000.0,3936905903.5232778,1927467000.0,1908319415.1227858,1501742000.0,1845091752.3508291,315111000.0,276942122.0402216,669472000.0,693924883.0435567,949217000.0,951218242.0660441,-24190000.0,118000663.11963066,194277000.0,183270116.35377568,120834000.0,93672005.68644506
1943,1443,0,496042000.0,556755508.2225522,349488000.0,371347542.1146197,146554000.0,211019176.31376976,33924000.0,40891350.43506774,212763000.0,232923136.76027447,246687000.0,272601255.4361948,12448000.0,24260523.05505098,21476000.0,15075439.213572167,12448000.0,25815911.22149532
708,1395,3,1713800000.0,1927146816.8886094,864747334.9608463,952966148.0005229,585500000.0,821007446.284369,141400000.0,103205094.31633294,205900000.0,209292819.70034957,347300000.0,303210756.30271536,100200000.0,68219631.10350315,64600000.0,79272710.59809989,76800000.0,23932383.71823346
1795,402,1,5817000.0,-40574099.030073404,1413000.0,-19275605.53875959,5436000.0,-15711868.92760247,5000.0,4115218.9723939374,0.0,-3766057.404884532,5000.0,-672937.4128006846,-3525000.0,993247.3087295089,3530000.0,3498927.643040195,-3525000.0,616291.3293536846
1196,399,4,4180537.0,-100993622.50217044,13379601.0,-6855590.171289563,-9199064.0,-68322339.4025726,1107842.0,1567329.1464771852,974711.0,-12984726.33580171,2069845.0,-12811586.182485163,-2577294.0,-1828120.2560104579,3685136.0,-1152562.2840573937,-2577294.0,2719891.4305348247
1785,1101,2,6656000000.0,13944110021.301262,2127000000.0,5161809465.859234,4529000000.0,11391447103.68635,386000000.0,1001902804.2613294,110000000.0,956651037.079804,496000000.0,1622288850.4329593,-53000000.0,311678400.10436654,439000000.0,682086444.7817376,-53000000.0,319816359.4795916
1117,258,0,191593000.0,80403102.1714449,250675000.0,147464892.28007773,89973054.63642293,84404325.89074439,28173000.0,24696356.238435626,35245000.0,39062974.2079639,63418000.0,63728666.032311864,-6852000.0,-6409600.589947833,35025000.0,29858568.563682858,-6852000.0,-5162212.325247515
611,576,2,69753000.0,51000144.99535179,24624000.0,146518856.1096539,45129000.0,-94256036.85280937,4333000.0,-7295756.169038773,3937000.0,7812038.220714167,8270000.0,-2274005.2734472007,-17948000.0,-31765058.423956964,22281000.0,23808553.394288547,-17948000.0,-31104309.56332774
1037,1217,1,12798100000.0,13707080285.943216,7698700000.0,8011925919.903608,5099400000.0,5647967787.036743,578600000.0,445984840.39854646,1141600000.0,1200690126.6870894,1720200000.0,1620464883.5269098,210200000.0,-8105739.309787929,368400000.0,400421164.6180145,210200000.0,45563675.78053212
1049,72,1,41718000.0,18270002.505979955,16883000.0,18342026.176812053,24835000.0,2416469.35224095,4472000.0,13087021.522825621,-7000.0,5889845.586318221,4465000.0,17130503.539151147,467000.0,6334165.301385485,4005000.0,8249692.520359471,467000.0,4837329.002466109
181,703,0,2175066000.0,2125786077.8339536,720018000.0,760230720.7062517,1455048000.0,921700455.114629,262895000.0,311396084.38758564,0.0,-101287002.00568148,262895000.0,197438783.3804791,-74357000.0,-14759796.936498897,337252000.0,369917567.0531434,-74357000.0,-58521482.66555793
1530,350,3,432444000.0,436067888.8734095,58115000.0,56105613.487852514,374329000.0,374337104.36034006,30953000.0,26426248.96677291,9019000.0,2248880.5510889925,39972000.0,29884970.122153968,-4508000.0,-15233650.21288611,35461000.0,39631118.671198055,-4508000.0,-13204869.704424914
1172,1288,0,1951144000.0,2165867375.526878,976648000.0,1140898312.84127,828149000.0,792007650.6192927,81471000.0,-17575046.98547999,811299000.0,911883166.5564733,892770000.0,887932007.3082758,21174000.0,-66920708.90188602,35340000.0,16642452.090957697,46131000.0,-34217499.07643777
1844,591,2,5184000.0,-71810052.2115103,33317000.0,-55774303.16273397,2568262.933576247,-6466698.689383447,28000.0,-11459759.497706167,1138000.0,-26137871.316248268,1166000.0,-19207627.67529379,-1174000.0,-14781882.68946497,1202000.0,-2495566.204300612,-1174000.0,-8964193.293405876
937,1025,3,30042800000.0,31541089459.22359,15158963259.867964,15613388718.17796,10331300000.0,11771593365.99213,1541600000.0,1682394092.0152879,2284300000.0,2149002442.0867434,3825900000.0,3788419812.125756,727800000.0,802939946.2178704,402100000.0,389480322.98861754,1139500000.0,1292913769.0266724
1319,64,4,3143366000.0,3523831047.4790382,724791000.0,880577324.8489256,1686216654.8151803,1935953249.702619,293240000.0,195726371.70630634,0.0,-7565791.86363177,293240000.0,184917928.04860765,242794000.0,134866085.2946438,50446000.0,76233051.52096725,242794000.0,119493320.18533936
785,477,1,2558318838.0,2664593247.224933,289865031.0,252173332.58236715,2268453807.0,2390183867.64407,191440633.0,195722021.0664388,384407857.0,427510963.20898694,575848490.0,616636385.5346498,122416529.0,141604612.0158242,69024104.0,49814525.47046684,122416529.0,145907495.59597194
534,1553,0,355784000.0,490923651.78993607,359982000.0,405462820.6545957,21035000.0,89753098.09102398,21274000.0,41137934.98760609,23247000.0,70158833.23023945,43857000.0,108922566.19395784,-2501000.0,12697090.113128355,23775000.0,28363245.444613278,-2501000.0,12774689.542992504
1073,476,2,107571000000.0,131389400846.38025,49865975585.04998,61358732089.57085,57705024414.95002,77975362837.42322,4680000000.0,-1505357150.0653148,16059000000.0,20823893251.398792,20739000000.0,19005621306.701992,2233000000.0,-1311914922.2599828,234000000.0,1791193531.6173847,4446000000.0,-3296550681.6827397
871,1269,4,357016000.0,426302239.3841787,134021000.0,167351741.0970648,222995000.0,266206355.50822946,10859000.0,8619220.54209673,60424000.0,69472280.09185216,71283000.0,76477826.0898809,4410000.0,2836002.554864453,6449000.0,8118559.1144166365,4410000.0,500661.42768033035
145,789,4,10492900000.0,11473947798.601162,4642648635.342979,5230956481.845977,7724300000.0,7729586016.393007,1077000000.0,1303675149.3113117,2546000000.0,2982343151.415278,3623000000.0,4266679967.6454964,389500000.0,603292187.9086188,626900000.0,672169129.8020978,450100000.0,631506019.5092139
1137,1457,1,221167000.0,255531386.00556517,272405000.0,248647595.32863045,-51238000.0,14979656.546007872,26384000.0,35341094.953548096,0.0,-5777331.385677367,26384000.0,23165667.08376591,3123000.0,-1538297.9999420699,23261000.0,36582478.65705674,3123000.0,-1241383.7035086728
1853,892,1,644700000.0,979089297.7942103,668700000.0,993374548.2502335,-24000000.0,19112746.269336283,11300000.0,70155980.90768753,30400000.0,116830704.9120444,40500000.0,163817830.19109952,-2900000.0,39071747.887933135,9300000.0,39257604.96540806,2000000.0,30898375.942279354
1607,1187,1,5733000000.0,4866642298.94985,4386600000.0,3738266511.463551,1332700000.0,1020402697.8736354,508800000.0,448021961.75510687,1740100000.0,1878931553.7802632,2248900000.0,2313691609.547678,201100000.0,169166482.23029143,328200000.0,285144833.5063343,180600000.0,162877128.24877214
497,794,4,3187469000.0,3310413841.0771866,1581882073.387936,1715481777.3175948,1402929000.0,1403275931.4883218,12023000.0,4731721.612235032,118303000.0,183034843.53865674,130326000.0,175801593.70273665,121116000.0,149657223.77797174,236940000.0,280912321.471182,-224917000.0,-276180599.8589463
1789,378,0,160962000.0,-23813064.201992035,136871000.0,18013201.2204659,14091000.0,-142142219.7404142,33234000.0,13342595.42210694,28516000.0,29560604.07997456,61750000.0,45398908.06921442,-4105000.0,-35283325.36682871,29699000.0,34923629.69350722,3535000.0,-21581034.27140059
1733,1536,2,1070082000.0,1012434678.7060567,790095000.0,690894139.7385964,279987000.0,364684975.14125437,59499000.0,43080813.19071829,92514000.0,125742574.28387438,152013000.0,175770004.97657323,-6147000.0,-24974791.93634338,65646000.0,70120552.15307023,-6147000.0,-27039738.96235248
1735,1438,0,55335000.0,97557422.71501064,11648000.0,10187968.166430354,43687000.0,93897698.38680631,13874000.0,22202788.629492655,0.0,15490735.67453742,13874000.0,35174594.38121938,364000.0,9109773.99380072,13510000.0,13229045.920037687,364000.0,8973742.709454596
1273,234,4,8855100000.0,7888344731.026196,4468096700.788768,4745521999.554691,3543300000.0,2950341538.572497,468100000.0,485003942.36904186,2041800000.0,1616742477.598454,2509900000.0,2145545075.3231611,256500000.0,280110163.1993246,211600000.0,186038053.00705418,256500000.0,298965889.3619863
226,900,3,1045317000.0,959398522.9857235,491551000.0,382320231.75666857,553766000.0,546589201.0380452,49476000.0,51855778.966958195,27012000.0,11919111.177329939,76488000.0,54359251.92002389,5569000.0,-2215777.319173784,43907000.0,46484691.004364856,5569000.0,5371087.962593731
856,950,3,3335011000.0,2970884529.210813,1532336000.0,1614537535.1749403,1376443773.6613572,1647564540.7818131,158805000.0,158528452.51897746,458734000.0,518310208.9834019,617539000.0,684471095.3764452,82276000.0,66185733.84401028,26748000.0,31275545.64144975,132057000.0,127252906.87752813
610,1027,1,50788000000.0,52861241620.89617,23543456582.29001,23892028980.773514,11845000000.0,14411873080.895681,1286000000.0,1468602405.7033038,484000000.0,946975749.7224569,1770000000.0,2402621924.2871637,994000000.0,1035602825.2794138,146000000.0,265712831.16353858,1140000000.0,1202889574.5397635
434,784,4,9209798000.0,13857549195.02948,3242862000.0,5148758921.749039,3654836000.0,6583587306.238172,758604000.0,1089043291.7074459,-63000.0,121795929.79043835,758541000.0,1194304616.484211,306700000.0,570347374.8613427,451904000.0,481434871.56449777,306700000.0,607608420.1429483
1765,676,2,3861516000.0,4410098871.301821,3060094000.0,2787032912.875693,801422000.0,1582556181.889955,246503000.0,320384763.1029076,543454000.0,460732506.17083967,789957000.0,771210855.1986922,-286586000.0,-193912962.509323,130761000.0,145658042.87169984,115742000.0,174726720.23120743
667,1311,2,3117800000.0,4213797623.383882,2444800000.0,2840349155.7049465,673000000.0,1184192609.5851984,86700000.0,150197813.36708122,411500000.0,621182368.1022164,498200000.0,738457654.3263807,-419900000.0,22477983.642956022,63400000.0,78066202.50254504,23300000.0,72131610.8645362
1194,1323,0,84073.0,36894779.937191606,2814055.0,67683072.83291185,-2729982.0,51619970.59892869,0.0,-1027084.8386602625,0.0,13493183.220653653,0.0,10942509.502613947,-647078.0,3333016.2479893006,647078.0,-4993051.644795537,-647078.0,3965966.806135048
626,969,4,250689000.0,454601908.87693584,83024000.0,129388110.93053174,167665000.0,330876350.5100363,0.0,-7355851.05523742,33193000.0,58205595.527265385,33193000.0,44389529.12148097,-43672000.0,-49504113.98629817,43672000.0,37695949.47596251,-43672000.0,-45051800.53119974
1654,675,3,2267553000.0,2174988527.9625387,1375272000.0,1442929267.5820992,519294000.0,419859314.86422724,30179000.0,43834699.587637335,36686000.0,76999744.44282189,66865000.0,111388194.3496196,-15417000.0,1733184.0827680202,38864000.0,52523770.221185975,-8685000.0,-8689070.633548219
288,444,4,2221575000.0,1615542341.2696462,1034139000.0,770810578.2942343,1187436000.0,891899970.4437836,131964000.0,129523132.13292056,106311000.0,189689822.86145929,188755000.0,266213814.22219026,3712000.0,15948545.989758987,128252000.0,122041847.78730385,3712000.0,7481284.34561659
1665,633,0,555271000.0,664292149.993321,273881000.0,411156360.0323488,281390000.0,293103282.20823216,77610000.0,80568384.42924473,73228000.0,77080686.11381613,150838000.0,147326975.19408482,6400000.0,-61905825.522592485,144438000.0,219586686.1556564,-66828000.0,-139018301.72641212
652,1061,2,1810200000.0,4804048722.863512,1334200000.0,2598723741.3216424,472000000.0,3137954591.92494,111400000.0,-74419185.92351049,439000000.0,957576510.5725893,550400000.0,878668247.6918858,53300000.0,41504522.65959899,43800000.0,112315384.73532683,67600000.0,-186734570.65883684
1078,508,0,339972000.0,329564413.9029599,145992000.0,243551530.75753975,193980000.0,75504323.9965434,800000.0,-50729541.47986624,85000.0,-25352555.334904533,885000.0,-81063663.5707261,-35502000.0,-98958482.5540953,45899000.0,53555457.03425926,-45099000.0,-104284998.51412569
778,4,2,992330000.0,1440051572.8185568,401273000.0,789859133.003988,544681000.0,417365474.4151325,417282000.0,414423244.11713094,0.0,62624691.38727913,417282000.0,460797780.23573786,5536000.0,25335915.40455626,411746000.0,426444632.8046565,5536000.0,-12021388.687525753
29,1129,4,600271000.0,87595560.37129134,137438000.0,78515458.69393918,462833000.0,106936501.33605932,73869000.0,78624940.6916101,24421000.0,-145757204.26255688,98290000.0,-82195751.35019788,-8089000.0,24938128.640936725,81958000.0,76007255.77566332,-8089000.0,2617684.915946994
854,1361,2,47193000.0,38974492.42699814,31000000.0,31170198.636050224,16193000.0,55715487.18898472,4954000.0,4931101.127040975,3898000.0,4729962.9738670895,8852000.0,10183312.751830563,-615000.0,-3804878.4649447594,5569000.0,6681153.833232328,-615000.0,-1750052.7061916324
1423,1432,1,150549000.0,62744277.29952252,163792000.0,189584100.17330122,16674000.0,-104590330.18881941,28323000.0,-526258.709369421,6429000.0,-23261363.51344405,34752000.0,-26614670.610630482,-13758000.0,-60165291.1895134,21733000.0,20005314.79339903,6590000.0,-20531573.502768505
1406,626,2,62996000.0,32779963.85756004,12638000.0,13120815.894600868,50358000.0,67682740.43621764,9919000.0,9146681.889206182,5920000.0,6170408.814640964,13543000.0,14191536.75827787,1979000.0,-558120.1257850465,7940000.0,7835106.022222318,1979000.0,1311575.8669835515
1624,39,4,56415000000.0,54452562634.327965,26707757359.48695,25312362528.6482,20622000000.0,21114468689.355827,4258000000.0,3883149817.9772916,2744000000.0,3213750394.0796266,7002000000.0,7167752498.573885,471000000.0,238379203.33990914,1302000000.0,1458719599.0321574,2956000000.0,2424430218.945133
926,747,1,572995000.0,1104944891.4849546,271264937.13018215,419937611.615196,210105000.0,643890620.6725585,-46109000.0,206389152.18703958,111142000.0,79459779.63515332,65033000.0,269307474.3293541,53448000.0,121380523.74732158,184993000.0,181689809.64087638,-231102000.0,24699342.54616347
1324,523,0,11156646.0,-4700154.421963692,14063458.0,-7013916.144412577,-2906812.0,11680830.403899252,-483256.0,939141.379156515,692752.0,13417014.495049287,209496.0,12547572.52621153,-2378023.0,-509402.77982509136,1407493.0,-696499.8396757543,-1890749.0,1635641.218831879
809,1220,3,746651000.0,1255330763.4591494,563281000.0,701596354.2888534,350347808.70326334,648038669.8821716,20268000.0,24203976.426928364,132273000.0,187046553.4893212,152541000.0,211920002.09799296,1482000.0,3565574.047621008,18377000.0,9810723.187296867,1891000.0,14393253.239631835
492,1190,3,203605000.0,285507759.9794848,164863000.0,238500983.69158852,38742000.0,49361255.545182586,38308000.0,26044299.365525935,13284000.0,7214601.972005457,51592000.0,30201330.585546173,8585000.0,738771.5758653786,22801000.0,15744527.159343146,15507000.0,10299772.206183054
383,92,1,35610551.0,-105729099.98547947,44852933.0,33614005.461211264,-9242382.0,-122805252.46866015,3037874.0,-7604316.00554803,5691278.0,-7033928.908839226,8729152.0,-14897796.670410454,-7028283.0,-3985216.12491893,15757435.0,4776561.866969317,-12719561.0,-12380877.872517424
1250,1564,4,4596600000.0,-1321732869.9504385,2319347415.031524,-168452590.78080845,3466600000.0,1425731810.3999968,2555100000.0,2263027717.770786,3033000000.0,2579571549.0241795,5588100000.0,4601703808.717937,1174900000.0,1231537732.155707,1380200000.0,998710001.829797,1174900000.0,1264317715.9409885
229,23,1,3802385000.0,3819878322.4426913,2636965000.0,2529260637.5349813,1165420000.0,1305173110.1075397,157645000.0,142710219.8761738,488142000.0,442401908.01960856,645787000.0,580897402.0945234,66824000.0,67213590.23216674,83253000.0,45385959.08075842,74392000.0,97324260.79541527
1531,1500,3,12852000.0,31420621.835457444,5815000.0,-8089693.795163512,7037000.0,81810689.18100086,1838000.0,331063.0255421251,1427000.0,9290000.902705126,400000.0,9083847.251874015,-1116000.0,-7351274.282419058,2954000.0,6465162.448124327,-1116000.0,-6134099.422581896
1035,1501,2,11747000000.0,14154523832.553045,7158000000.0,5303656184.704559,4503000000.0,7535353569.11904,770000000.0,1045133661.2889729,1424000000.0,2685489993.258471,2194000000.0,3692861603.000449,154000000.0,867471734.467383,2040000000.0,1747782172.5737698,-1270000000.0,-702648511.2847971
1774,999,4,7236206.0,-34443411.14736587,4913744.0,15028837.337138265,2190428.0,58965190.50521125,634746.0,6784651.3953666985,2326079.0,-29588572.227012813,2960825.0,-23957286.757298216,-234151.0,-4203760.469865214,886442.0,556558.2574123517,-251696.0,6228093.137954559
868,173,0,6411000000.0,7936300208.91409,3370100000.0,4482720815.734964,3176144611.7201624,3434379391.6340904,371800000.0,462659784.1960733,637000000.0,879377897.5145293,1008800000.0,1330489525.7820954,180100000.0,215426654.71527588,166200000.0,190659207.40813223,205600000.0,272000576.78794044
1391,87,1,345836000.0,195989667.94639367,48837000.0,-22659567.831267297,296999000.0,222446624.2181022,3870000.0,-3618165.749468155,113328000.0,105284865.03746977,116752000.0,103254844.99990568,297000.0,-4474806.385197368,3573000.0,5975497.69207333,297000.0,-9593663.441541526
1734,908,0,20108000.0,8333044.146753192,9068000.0,-4754934.774739563,11040000.0,34916704.446450114,3847000.0,5644327.464598857,661000.0,13981671.843959503,4508000.0,18746170.56208781,-4126000.0,-80273.11968799494,7973000.0,6443307.519064896,-4126000.0,-798980.0544663526
1416,557,1,1564856000.0,1531162905.6988628,1122858000.0,1303378373.2132685,416354000.0,235268268.5308797,276207000.0,263690534.41982803,-11227000.0,-53341686.81524852,264980000.0,203473981.66755208,5657000.0,-18451129.75903453,270550000.0,284975544.28332824,5657000.0,-21285009.86350003
352,965,3,1125373000.0,1924355320.1670828,521681703.6382896,1036325755.6520464,29987000.0,735556137.5999497,142411000.0,162945357.64467707,-42080000.0,-217368539.84391922,100331000.0,-79704774.20660207,17283000.0,86296432.66267659,125128000.0,154052293.70545024,17283000.0,8893063.939227462
135,107,1,630871000.0,776384272.1971645,398464000.0,453505464.42159104,232407000.0,311629245.4305393,80823000.0,108132121.26299933,413091000.0,461035749.3498678,493914000.0,539794166.801851,-14453000.0,17164459.614289634,95276000.0,87120512.479863,-14453000.0,21011608.783136327
1338,943,0,123668000.0,502593758.1146072,40963000.0,191899332.17609453,50285000.0,308405592.2622905,29188000.0,29164300.723279938,11108000.0,91500413.14852679,40296000.0,111424299.74144217,-25553000.0,-6832020.620852788,35508000.0,23740382.49824344,-6320000.0,5423918.225036251
1076,247,1,34865437.0,155664457.12480116,19085704.0,83680938.51087558,15779733.0,75126014.44758452,0.0,22706911.200995244,1198.0,47886215.188634604,1198.0,115755586.52971557,-6520186.0,16597430.473651402,6520186.0,4215128.800421715,-6520186.0,18491782.40057352
1426,223,0,1275550000.0,889628117.7544717,1504271000.0,1124750698.758553,-228721000.0,-377769106.9487883,-35238000.0,-80407434.63484155,59168000.0,65279041.9158652,23930000.0,-3499009.7989148647,6621000.0,-89887825.99716176,102745000.0,119887024.40887137,-137983000.0,-200294459.0437135
2023,1260,3,151712000.0,88551197.91043723,195428000.0,180123671.52914783,28605000.0,-45141234.00027752,11588000.0,-14487745.923460849,43977000.0,-13743153.547449768,55565000.0,-35389846.058961526,-8864000.0,-24117215.962139502,20452000.0,10635678.739829965,-8864000.0,-25123424.66329047
1219,351,2,1812825000.0,2138470583.8015065,1134969000.0,1376917186.4979525,677856000.0,1017560825.0498198,53184000.0,66038108.269288346,120142000.0,172316652.1261654,173326000.0,244218402.428075,31929000.0,47890063.529156,16945000.0,18951377.535654645,36239000.0,47086730.73363349
201,868,0,-1450776000.0,-6239388101.66856,-894261000.0,-3827540256.4707346,-556515000.0,-1402337437.366096,162740000.0,149659701.28062028,213058000.0,433273088.7478098,375798000.0,598559162.7672341,-31210000.0,-172486964.35191315,193950000.0,266679748.2206265,-31210000.0,-117020046.94000593
580,455,3,526507000.0,669095643.9866215,370554000.0,382229584.1511088,155953000.0,477421388.0886971,66328000.0,19732468.392444335,107226000.0,109537978.30538897,173554000.0,132612339.92706023,-7923000.0,-47465963.57358388,69543000.0,55772826.98463455,-3215000.0,-36040358.59219012
268,550,3,3089123000.0,3437105025.470728,1300561000.0,1551943393.5926042,1788562000.0,2147707197.0572634,286131000.0,352465426.5252249,850247000.0,832074106.5266827,1136378000.0,1180329331.3832603,205227000.0,205562842.5139473,1010678000.0,1038939818.6804543,-724547000.0,-686474392.1552292
484,1474,4,2026392000.0,1651625342.4596558,773709000.0,-72879378.19635934,1259138837.126244,2360767061.8806252,36270000.0,76548021.30637604,906000.0,-807765743.8498021,37176000.0,-783881047.0436649,-286393000.0,-173787341.6630871,341823000.0,197371774.1671413,-305553000.0,-120823752.8607669
1169,319,4,59798486.0,64874613.87490159,24561228.0,-6142735.317574501,24680354.49630476,78124050.39749348,-143441.0,-7020431.542758614,231837.0,15102415.459501037,88396.0,7950285.431580365,-6239976.0,-8516597.44115429,6096535.0,2404126.0299896747,-6239976.0,-9424557.572747998
595,1472,1,269960000.0,252228888.47589827,370356000.0,392245844.0238857,-100396000.0,-161105591.41177213,29296000.0,33564626.32383515,911000.0,60259477.21448095,30207000.0,90126988.71388865,-31260000.0,-49332227.162927516,67269000.0,91765302.76644117,-37973000.0,-58200676.4426059
1664,644,4,1411497000.0,1444638488.9244194,713457000.0,787570965.5156207,667698000.0,622620778.7732209,123110000.0,124235067.62224066,21917000.0,46754699.271731384,145027000.0,173558251.27667212,16171000.0,22618497.133933887,124278000.0,124390801.28147788,-1168000.0,-155733.65923695266
1737,775,3,1068388000.0,2664722243.9320965,793168000.0,1411268361.4466894,275220000.0,1984611436.2292087,1125000.0,7124945.565316319,126961000.0,275081745.72231084,114574000.0,284731951.269547,-123332000.0,6217543.362330405,124457000.0,105470990.98200482,-123332000.0,-98346045.41668841
1105,1008,0,736494000.0,523705276.0591514,390655000.0,291054898.22271913,345839000.0,303536061.40404576,107458000.0,90411085.73748122,77264000.0,45414962.14054588,184722000.0,143515721.0032274,-21496000.0,-44728401.61425849,128954000.0,145610587.92149374,-21496000.0,-55199502.18401268
366,1418,0,1026034000.0,1115919100.1973805,544592518.5648394,598680997.0599593,829659000.0,854805227.1653938,179923000.0,191781684.5001166,-1664000.0,23791248.92085093,178259000.0,214555180.1625505,43073000.0,53474522.55479736,136850000.0,142243997.17536348,43073000.0,49537687.32475285
847,803,0,2995900000.0,3418714958.362117,1720300000.0,2122598588.9712613,1275600000.0,1454056233.1594,234800000.0,279915173.1275523,244100000.0,149091948.74070805,478900000.0,397864981.4963425,25200000.0,-679723.1963602472,209600000.0,280461722.0449987,25200000.0,-546548.9174469821
1604,1535,3,700529000.0,850593854.0612435,363632000.0,375521039.862669,335762000.0,541944354.2249794,46249000.0,29517216.229425848,72678000.0,97196256.89541064,118927000.0,124737957.89436366,-13197000.0,-47849782.97653193,59446000.0,73015073.19931549,-13197000.0,-43497856.96988932
579,1274,4,5913288000.0,8736444695.239635,5639252000.0,7927959632.780481,274036000.0,1645576469.8496318,470311000.0,522881632.6435662,1040995000.0,1324464685.968532,1511306000.0,1785131090.6550267,65962000.0,223894516.99443513,404349000.0,449295555.82351124,65962000.0,73586076.82005306
874,1085,3,232365000.0,-60710019.07183945,164743000.0,72201579.80536461,67622000.0,-65342635.16218495,43176000.0,35576818.30115392,202053000.0,163782239.858303,245229000.0,197030974.02979517,9035000.0,-1957016.83144604,31930000.0,35409558.63008639,11246000.0,167259.67106784135
193,58,0,24556000.0,32917279.856213927,5997000.0,6166837.03599,18559000.0,39726193.28391275,-561000.0,-304385.75144878775,1648000.0,13291530.896835119,1087000.0,10978539.117801487,-8770000.0,-2815781.40849145,3225000.0,-494904.89893694967,-3786000.0,190519.1474878476
680,575,3,7852974.0,28707072.47499025,8726749.0,-5009818.1539976,-873775.0,76244597.69275546,1562860.0,-668914.0946561471,0.0,8704983.529301502,1562860.0,7536487.197365984,-1603437.0,-6925864.145268036,3166297.0,5837245.922381535,-1603437.0,-6506160.017037372
702,290,3,52606000.0,51052773.57774055,31088000.0,14074051.664882481,21518000.0,97253348.8323245,2202000.0,-1082752.2487920746,21569000.0,25005489.377682548,23771000.0,23299577.456738383,-1737000.0,-8445729.382519148,2889000.0,5691281.312426917,-687000.0,-6774033.56121867
499,1102,1,641605000.0,541735114.9407545,98505000.0,128505034.74119684,543100000.0,417310449.92613035,35752000.0,39732174.30093981,3063000.0,23714578.19330471,38815000.0,61917910.12452242,-5995000.0,-3902798.615556323,24767000.0,29779654.15512415,10985000.0,9952520.145815581
277,132,1,428119000.0,-123215058.53170145,200385000.0,117247558.25793621,227734000.0,-244812894.9378692,32734000.0,-22321436.46957314,3693000.0,47886056.583382905,36427000.0,36447015.84686893,-31432000.0,-79067472.01361084,67859000.0,74107771.68387808,-35125000.0,-96429208.15345131
1540,286,2,1748597000.0,1709609052.175103,773677579.6790999,714747670.8886943,871968000.0,882701509.2497702,88936000.0,77352098.13497622,314131000.0,355473356.48467946,403067000.0,432961662.12595826,36520000.0,13777676.400230194,38806000.0,50532695.04549331,50130000.0,26819403.08948277
40,143,0,-12646800000.0,-4005753357.812393,-10176700000.0,-1920935017.1375742,-2456100000.0,-2851256709.8751554,244400000.0,349120593.0569426,496400000.0,-735674172.5114769,740800000.0,-406734204.47231144,16300000.0,-474520619.9931944,228100000.0,676320601.8400307,16300000.0,-327200008.7830839
109,1566,2,1646711000.0,936137888.781348,1388441000.0,748871904.3717554,258270000.0,492484508.809156,48094000.0,4970353.3115196,144654000.0,425786574.2489048,147710000.0,426649424.2431902,-42502000.0,-72264671.91824658,79586000.0,81123639.08671165,-31492000.0,-76153285.77519286
111,128,0,632540000.0,662274437.7121063,270366000.0,282162405.178759,362174000.0,440066978.4245405,197077000.0,141357205.64317214,14622000.0,-5871627.432146192,211699000.0,138272323.759593,-57776000.0,-16202838.4603905,97890000.0,94228980.57524005,99187000.0,47128225.067931905
662,375,3,156269000.0,218058954.85110962,70363000.0,86829904.74945432,85906000.0,169883920.29268265,19503000.0,20525252.055792723,30881000.0,44975379.675878525,50384000.0,64936236.51354037,3657000.0,2463527.7022288796,15846000.0,16875414.64905718,3657000.0,3649837.4067358207
1749,621,2,12875300000.0,11117576454.186783,6095371591.431398,5620158914.286331,1810000000.0,232228061.89320183,1227700000.0,1118712594.802194,4400600000.0,4315753841.808162,5628300000.0,5411302964.54791,478400000.0,314657199.3201993,749300000.0,845234470.4436694,478400000.0,273478124.35852623
340,1018,0,441781000.0,447142663.4238033,86587000.0,151346188.73613876,355194000.0,315073570.78180784,97393000.0,108982422.58204493,44971000.0,37872060.320832625,142364000.0,135555491.75063968,9954000.0,16561069.993918657,87439000.0,98826563.1094023,9954000.0,10155859.472642267
811,86,2,1903960000.0,2497630297.6644673,1118147333.3250542,1241925739.1911016,464992000.0,1043898351.6268815,314173000.0,231661594.85955465,381360000.0,253878967.5858386,695533000.0,472014861.8725086,49703000.0,-10167219.363077579,262823000.0,234794878.07737473,51350000.0,-3133283.217821162
1016,70,3,413017000.0,277474395.8029527,156380700.0672279,135981539.1238985,290614000.0,147799133.02276176,164000.0,-4029260.6399469674,0.0,7353155.802196186,164000.0,2278582.257521853,-47612000.0,-62678712.80851717,47776000.0,63982684.92174484,-47612000.0,-68011945.56169155
1696,1024,4,6459000000.0,6727108882.766847,3814000000.0,4259917578.040631,2645000000.0,2427438474.595674,417000000.0,380644391.82392323,1137000000.0,1244023123.3051867,1554000000.0,1611364731.4121644,109000000.0,125548919.35933563,308000000.0,238218580.78930953,109000000.0,142425811.0346134
200,118,0,6683800000.0,6907702652.424014,2530688381.1304083,2685585983.071091,4153111618.869592,4174022681.2325096,363300000.0,354713203.13960034,268000000.0,264269751.66378704,631300000.0,623636888.6064498,83300000.0,34767789.27910484,257700000.0,287244387.10883045,105600000.0,67468816.03076991
1994,627,1,165094000.0,112345775.68231994,70482000.0,51051249.79558739,94612000.0,65786385.66029057,17629000.0,19930175.55740906,13074000.0,11354442.36150711,30703000.0,29445947.140139654,1152000.0,2140557.01490274,16477000.0,19373724.484381083,1152000.0,556451.0730279023
735,207,1,8604673.0,-29992335.862284303,2338502.0,-20650661.392430484,6266171.0,-5530685.614367753,1119391.0,6298465.3281786665,1576117.0,-1565890.097440146,2695508.0,3444066.3143782914,23726.0,5095300.734152686,1095665.0,1788287.69587484,23726.0,4510177.632303815
1160,1586,0,30395557000.0,23735423401.627422,16133181687.752192,12503715494.052006,6297705000.0,3924165301.653286,3044686000.0,2909653119.75485,6751495000.0,6269253740.305682,9796181000.0,9179699497.81141,692314000.0,924372437.6006261,2352372000.0,1957931722.8202004,692314000.0,951721396.9346468
2018,200,3,764077821.0,736370393.3692106,149164973.0,57862431.351803124,540969385.0,703940826.9834852,20737462.0,12996907.179465216,3810639.0,7277812.992780883,24548101.0,20695394.564648554,-1942729.0,-2270146.658736955,26490830.0,17313567.22319912,-5753368.0,-4316660.043733395
597,335,3,19932000000.0,22302635385.984577,15924000000.0,17271356091.098484,3938000000.0,5843357113.714245,677000000.0,848069685.0315475,2894000000.0,3151556914.6552362,3571000000.0,4004471411.9438815,325000000.0,596074535.6947417,132000000.0,154575582.57579333,545000000.0,693494102.4557569
1089,311,2,114455000.0,106290949.79903561,66800000.0,75248062.31596506,47655000.0,65915961.51309633,-324000.0,1455798.0586265996,692000.0,2229931.1624306263,368000.0,2559285.830860436,-4444000.0,-5584315.387833875,6127000.0,6421536.763352364,-6451000.0,-4965738.704726068
1635,384,4,123009000000.0,101020687107.90706,61047097858.95223,35935430774.0283,24132000000.0,56886015503.26784,3661000000.0,2106334866.3709972,846000000.0,6207359046.214883,4507000000.0,9223267679.480198,401000000.0,-369841846.2827828,5487000000.0,5322865639.515816,-1826000000.0,-3216530773.144821
394,1561,2,1472222000.0,513992124.17061555,444895000.0,47809910.15025309,1027327000.0,697475598.4142072,423804000.0,355593662.22754145,0.0,-327047141.87316513,423804000.0,65970019.48231629,44683000.0,4365772.268077241,379121000.0,384951442.53525984,44683000.0,-29357780.307718664
176,827,1,1707972000.0,1818577870.3123746,826699000.0,841155711.3293297,881273000.0,942049427.788878,161237000.0,178051870.04363826,18721000.0,24637555.205996376,179958000.0,192852616.43220288,-38330000.0,8925357.13765758,218288000.0,182264957.03991246,-57051000.0,-4213086.996274065
958,1401,2,140348000.0,191029361.6743493,22627000.0,-43276765.22355062,117721000.0,210162187.75973058,18849000.0,23766781.517481055,19797000.0,22776521.99140259,38646000.0,43198802.258597314,5179000.0,15930473.581696749,24028000.0,17432507.4147937,-5179000.0,6334274.102687003
651,759,4,68862000000.0,71256265789.70268,37281000000.0,37463475523.1684,30258000000.0,28903865052.728,682000000.0,1223374006.0072567,1405000000.0,3128017376.9388456,2087000000.0,4451684185.181559,938000000.0,1180608673.274352,2969000000.0,2425612908.5198016,-2287000000.0,-1202238902.512542
648,821,2,484306000.0,428116024.24595773,160149000.0,159840901.95680392,324110000.0,285709596.7781255,35935000.0,34305940.19806559,49919000.0,59508701.79243205,85854000.0,93640652.90112099,8224000.0,7768083.957769172,26558000.0,26502325.878720187,9377000.0,7803614.319345115
1124,1533,0,263629355.0,237726785.35775816,139827658.8984726,116927990.13568372,106790041.0,129242884.06310475,4718481.0,10164786.234675005,-3354938.0,19234466.52075237,1363543.0,27704014.08372225,2345966.0,8330139.057332849,2372515.0,2526690.501087278,2345966.0,7638095.733587416
1983,1255,3,22654400000.0,23241896803.327118,10023579681.929111,10794665101.70085,12050300000.0,13004469172.067709,409600000.0,765609659.9280365,3138700000.0,3301670273.652211,3548300000.0,3974296870.8125343,145800000.0,470222197.5464065,119900000.0,253866962.95333058,289700000.0,511742696.9747075
1330,697,1,55695000.0,328960666.5261563,80300000.0,45797921.67423895,-24605000.0,281776131.50421846,-33328000.0,-14785529.188548759,45694000.0,61852488.07727531,12366000.0,41703217.40997577,-48025000.0,-26285898.58377863,14697000.0,7544416.843837671,-48025000.0,-22329946.032386474
445,492,1,33248145.0,-32554894.361768723,21743057.0,-83117651.0626114,11505088.0,-165051515.42424148,1461398.0,990849.6875191182,569502.0,3527739.403482426,2030900.0,82662078.96884863,-12979193.0,-2362144.2011221587,15010093.0,8835670.004053645,-13548695.0,-7844820.316534536
908,1499,4,19900000000.0,16870120680.997334,10348000000.0,8265927801.14998,9552000000.0,8301853567.099861,2649000000.0,2534690444.741866,0.0,-131486749.49282512,2649000000.0,2425557411.4534388,467000000.0,450410823.2102963,2182000000.0,1881660979.8232794,467000000.0,653029464.9185907
1585,1050,3,2485319000.0,2661851220.8512983,1254039550.5762374,1364549759.855001,1849463000.0,1880502874.1872587,775144000.0,704532581.8689387,0.0,11086637.711547725,775144000.0,709186910.5311407,128435000.0,111292557.8906747,646709000.0,600076062.7410947,128435000.0,104456519.12784396
643,1128,0,959084000.0,983147592.5836151,491986000.0,499793640.42832404,395838334.6316486,467141639.1607207,56609000.0,45918082.17111728,47928000.0,60841920.28282197,104537000.0,107503831.09641032,-22287000.0,-29259566.915754855,141301000.0,143816435.7577039,-84692000.0,-97898353.58658671
1240,14,4,1657157000.0,2068918785.98579,2335507000.0,2587795561.094225,-678350000.0,-39025679.81403571,-96698000.0,231775826.71116,98929000.0,185470302.69307303,2231000.0,418802906.4190284,-125632000.0,-20241893.114221625,312618000.0,436070681.0549633,-409316000.0,-204294854.34380528
64,275,3,1590600000.0,1906630319.7449641,748600000.0,890755135.6063234,842000000.0,959850772.6318972,59700000.0,97682761.67354922,141700000.0,148627882.6867597,201400000.0,240220774.0459028,13800000.0,32492744.675567135,37700000.0,31473173.43523867,22000000.0,66209588.23831095
1027,1230,3,919607000.0,697993853.9454604,266509000.0,190087361.60783818,653098000.0,452239898.3408952,68886000.0,63974376.226996705,19532000.0,11073959.395057347,84131000.0,67045072.88718794,-18050000.0,-14705384.398061704,86936000.0,76928469.68612666,-18050000.0,-12954093.459129719
1034,198,0,121754701.0,585868877.5922353,28424394.0,192648405.54143816,93330307.0,301052061.8675697,1406469.0,-1083488.6349171922,-1378985.0,-65859454.77173059,27484.0,-69447704.99982074,-14928443.0,-109395271.40440567,16334912.0,113511838.7004756,-14928443.0,-114595327.3353934
802,1578,1,12973000000.0,26314576660.76844,6013807636.489885,12952413949.682974,6537000000.0,11930711073.611713,82000000.0,2035704012.8426738,545000000.0,1324455214.7857184,627000000.0,3038661883.121671,7000000.0,2297011729.66666,46000000.0,32030380.5190776,36000000.0,2003673632.3235939
981,1120,3,613608000.0,366295488.6074959,391072000.0,325215659.9724127,222536000.0,-24106889.01340002,1437000.0,-61870032.036863476,10955000.0,-18544948.61452294,12392000.0,-75780357.26086614,-84729000.0,-113979849.22610712,40703000.0,3865650.114134975,-39266000.0,-65735682.150997594
1046,343,0,102303000.0,52459167.33063531,104192000.0,61498184.068127096,-1889000.0,-31967866.522573113,12811000.0,11797742.856358401,42439000.0,67682266.77361274,55250000.0,78503692.9554415,700000.0,4087499.349733674,12111000.0,3419277.781466298,700000.0,8378465.07489185
581,848,0,1023085000.0,2234330353.684367,937155000.0,1616571683.8178463,85930000.0,416743250.0586786,87759000.0,27477126.692912944,257840000.0,360268096.01515764,345599000.0,381152956.73855954,-36941000.0,-143704134.68649453,111965000.0,178693441.0193149,-24206000.0,-151216314.32640195
1033,894,4,822101000.0,976224829.6883016,260505000.0,264427265.63232356,561596000.0,863024165.3539565,113425000.0,108348366.42749731,-8261000.0,-25177061.867788725,105164000.0,74291202.92825547,25956000.0,-13692025.690994758,87469000.0,121177591.63890868,25956000.0,-12829225.21141119
1908,1021,2,972779000.0,1248721826.826385,674585000.0,894089822.6587542,298194000.0,403631658.7952803,81122000.0,47317533.61871597,33069000.0,30476842.48944912,114191000.0,81432779.47993773,-12742000.0,-33238673.17421268,93864000.0,77078977.12753525,-12742000.0,-29761443.508819807
1486,183,0,505122000.0,533602695.63862187,329765000.0,355284751.11319524,175357000.0,169735947.63165972,66862000.0,72705686.71646181,-15726000.0,-70336811.20931706,51136000.0,-2039905.5757649094,-8784000.0,13008869.463379018,75646000.0,63007752.36965809,-8784000.0,9697934.346803468
640,736,2,420505000.0,325856780.0595641,230508000.0,204836375.56163728,189997000.0,157741583.093947,53603000.0,48636897.81269223,71511000.0,64625451.78581251,125114000.0,109981606.61628097,16734000.0,17580443.425263226,36869000.0,34817994.84053457,16734000.0,13818902.972157404
1988,338,0,216274000000.0,207414027563.03394,73401000000.0,67130188372.20394,142873000000.0,148843559577.1163,27936000000.0,25868435269.864437,6210000000.0,3623215923.0901456,34146000000.0,30171147359.53333,13748000000.0,10050735610.067446,20398000000.0,22411821749.582928,7538000000.0,3456613520.28153
469,991,2,122531000000.0,-82867633160.97083,74517000000.0,-13008015807.059713,57494689417.43809,-102507815453.15573,11370000000.0,176724918.27844465,10501000000.0,18225567857.540195,21871000000.0,16186221598.401886,5767000000.0,-10045619711.063566,5604000000.0,12068155565.813915,5766000000.0,-11891430647.535471
606,673,0,5723214000.0,993518800.6523681,2776207000.0,416592656.6824716,2947007000.0,-1679869254.941941,448941000.0,245791418.32359254,516900000.0,-92629994.38356046,865197000.0,6509903.757914871,78214000.0,-143097076.6384285,370727000.0,430617799.90036833,78214000.0,-184826381.57677418
1877,27,2,689227000.0,774652354.2447895,562767000.0,471806075.0656276,126460000.0,437618654.4901843,40662000.0,60489482.098045,11086000.0,42631292.36848684,47740000.0,106919840.77859509,-28335000.0,4943090.872496246,68997000.0,56325332.86803192,-28335000.0,4164149.23001277
1148,532,1,600857000.0,690543511.2430515,331349000.0,478980139.25160384,269508000.0,231162759.9612912,50595000.0,54627706.06714284,6532000.0,36342117.11782085,57127000.0,98373044.82546556,-62120000.0,-42096636.334415555,83188000.0,94775847.58817144,-32593000.0,-40148141.521028824
1653,1310,3,56794000.0,44073679.866280794,12682000.0,-49322766.692634046,44112000.0,154957593.8721868,25087000.0,16212456.047875717,14791000.0,33956660.11580272,39878000.0,52456719.762961835,-4627000.0,-9450843.752977367,44505000.0,32436705.83283169,-19418000.0,-16224249.784955664
1205,1096,2,3747000.0,234381921.06386346,4407000.0,-22659230.16541511,-660000.0,220360121.7160895,-1515000.0,5296399.482940629,1515000.0,2844639.323962074,0.0,317632.16883039474,-2598000.0,-6975838.641463819,1083000.0,4828762.396244064,-2598000.0,467637.08669629693
1612,76,2,3505835000.0,6002015370.109924,1860807256.214476,3727671450.2904906,1470074000.0,1955679467.9252872,601953000.0,713175480.1184386,626097000.0,1102215265.2606516,1228050000.0,1777116844.0489368,88554000.0,154481059.4810301,475916000.0,510470333.8912468,126037000.0,202705146.22719175
1894,1257,1,203011000.0,71943568.76818347,255300000.0,216351455.4011665,-52289000.0,-115897769.47145325,8409000.0,-13273738.110154442,25579000.0,-3350457.5503053814,33988000.0,-9717616.211008474,-8212000.0,-29691615.835052688,15533000.0,6378158.262107983,-7124000.0,-19651896.372262552
458,865,3,3126495000.0,4476869622.249451,2137404000.0,3072039067.7741566,989091000.0,1447240719.366448,70679000.0,140569760.28246188,930828000.0,828151161.5158467,1001507000.0,929602233.125277,21039000.0,49641165.51631144,49640000.0,64100775.54904112,21039000.0,76468984.73342147
782,1593,3,36175654.0,59125380.05407703,19187381.496044576,2619591.610166967,18868678.0,98699160.50144315,22295962.0,13321895.95220777,2274626.0,13770539.777858634,24570588.0,26867007.559222594,-1191082.0,-5983442.054815375,23487044.0,19704156.962159343,-1191082.0,-6382261.009951279
21,1011,2,3642433000.0,4606730925.822443,1611617055.0351417,2936783850.214005,2307595000.0,1628968654.4023767,392263000.0,636941794.0694873,1442178000.0,1807277868.134725,1834441000.0,2381204890.8383083,185633000.0,473604709.7174669,1648808000.0,1707624311.8731337,-1256545000.0,-1070682517.8036474
323,232,1,102171000.0,-52598932.761547565,80142000.0,67769725.04512137,22029000.0,-104479802.76325068,11994000.0,3291756.1476093307,1280000.0,-15507013.768960267,12084000.0,-13555510.19114162,-8453000.0,-5492390.02178959,20447000.0,9720224.64126204,-8453000.0,-6428468.493652798
1847,774,4,11562769000.0,11575918387.749645,8634392000.0,8243871238.168238,2928377000.0,3054004093.6335135,696915000.0,849832982.0708389,4617768000.0,3774272229.007291,5314683000.0,4559758544.912367,87484000.0,259049181.39930972,6096071000.0,5703843456.26952,-5399156000.0,-4854010474.19868
1304,960,3,1061958000.0,1126571685.4992173,603583000.0,561926107.074067,275904000.0,336154863.0304247,75380000.0,60752521.848637655,85007000.0,91419452.56270342,160387000.0,156479135.0860497,19279000.0,-10565207.855404478,56101000.0,63021730.34987261,19279000.0,-2269208.5012349263
1031,669,4,1709464000.0,1363826155.2907934,792444897.6724385,540611321.6213555,917019102.3275616,1023573167.6430173,-50089000.0,4156773.3634461537,206500000.0,244476188.165847,156411000.0,252502083.80771682,62554000.0,46539325.57832556,32611000.0,49583880.58930053,-82700000.0,-45427107.22585417
1109,313,0,1182200000.0,2122909092.762456,559672263.5892134,1058727750.022611,993300000.0,1924967668.1063688,77500000.0,138184912.58344805,102700000.0,196457042.99092302,175100000.0,341207100.0804417,21600000.0,-6781823.527351402,55900000.0,163013266.80953315,21600000.0,-24828354.226085044
1483,305,3,15318000000.0,-9196024750.010147,8995872209.433592,-3224392372.434362,2835000000.0,-11166904250.261765,2220000000.0,1398906041.3994927,7363000000.0,5939665761.512099,9583000000.0,7475909085.61427,348000000.0,205938414.5978915,1879000000.0,1217084426.176418,341000000.0,181821615.2230566
739,408,0,2898416000.0,311719602.543892,2080781000.0,66840424.454493135,476998000.0,53616186.20754093,19746000.0,18687358.65230913,-19746000.0,-7112561.235413043,0.0,14242035.84974061,-16089000.0,-2961850.7182574156,35835000.0,21808558.717630595,-16089000.0,-3121200.065321844
1565,386,2,37777000.0,91294416.5357632,8088000.0,-12018411.325137734,29689000.0,151835397.58355555,1942000.0,10258399.060060684,1878000.0,30848544.454671934,3820000.0,40781128.05360839,-3377000.0,5447364.564578224,5319000.0,6220203.60045135,-3377000.0,4038195.459609069
1547,329,4,350115000.0,937958047.7221339,124447000.0,251225490.0849992,144501356.0121529,326185701.8303464,23341000.0,5945057.609187052,74465000.0,151626894.84373733,97806000.0,161226702.4443966,1273000.0,1926662.4249399416,21144000.0,15077720.26000671,2197000.0,-9132662.650819194
1772,203,0,60756000.0,61378298.56316841,14120000.0,8583296.190771043,46636000.0,69563818.220781,39398000.0,49279596.25962933,0.0,14381194.398398988,39398000.0,61612438.15453273,1277000.0,5407543.962784792,38121000.0,43534139.68588918,1277000.0,5745456.573739844
396,883,0,2329417000.0,3868836908.547244,1103945000.0,1966476903.0325146,1225472000.0,2185358814.47797,201803000.0,297985663.6283851,84310000.0,2786523.6910471506,286113000.0,289258649.64621663,4458000.0,41975331.62721585,134794000.0,180850067.24104854,67009000.0,117135596.38733615
370,1540,3,322707000.0,376135726.2665927,203952000.0,233929638.34455878,133189378.04611006,189053197.03257206,59563000.0,58821740.46305586,32549000.0,45504341.92610499,92112000.0,102926573.38457103,2829000.0,-1147388.3706717384,56734000.0,59924565.12826678,2829000.0,-1102824.665210695
1387,213,0,16986396.0,-138070848.82564425,28398941.0,-79429448.5601933,7976898.609990532,86044119.75648153,-2992.0,-3811747.4848256484,2987192.0,7741126.556340056,2984200.0,8484218.982652366,-2823081.0,-24142055.133239415,2820089.0,3962583.5811898336,-2823081.0,-7774331.066015868
1633,1397,1,5507733.0,-119324116.29782772,3754986.0,14379689.287650228,1752747.0,-117851215.80195326,77969.0,-14104309.87186265,690.0,-14852350.657322928,78659.0,-29791395.95983793,-1288944.0,752486.5594913978,1288944.0,-11391416.864438504,-1210975.0,-2712893.0074242
1459,1488,0,2951779000.0,5024989305.886047,1733504809.66769,2939274783.2080636,-705417000.0,1779687966.5585318,103159000.0,234999271.53285015,95357000.0,29479462.968582556,198516000.0,284290707.89557016,63542000.0,175555361.44963378,39617000.0,96423139.77575573,63542000.0,138576131.75709403
447,948,0,1389340000.0,1482377541.6990712,870172000.0,911877614.396166,518687000.0,626937815.8809867,122910000.0,149686864.44905993,509918000.0,520717211.5003911,632828000.0,667334148.4420657,77637000.0,99788730.77441718,35836000.0,32145746.935525052,87074000.0,117541117.51353464
1342,1529,4,670100000.0,558361639.9776493,96919000.0,19161694.891690284,573181000.0,533827774.50145257,45369000.0,45182477.57372449,10723000.0,-53930136.77407831,56092000.0,-9375046.702887163,-44376000.0,-67029735.31826993,100468000.0,111225671.96395506,-55099000.0,-66043194.390230395
1101,802,1,796235000.0,523657429.874649,203741000.0,79678583.71960321,463390000.0,335269730.5882871,475000.0,827306.6178339571,0.0,-27350954.38617207,475000.0,-30420367.996436566,-25797000.0,-26882351.356278725,26272000.0,20608260.019377165,-25797000.0,-19780953.401543304
1559,864,4,243654000.0,705978205.4625969,108112000.0,348930410.7462173,135542000.0,386941692.75182366,37230000.0,47491291.600375965,3845000.0,72710106.98083681,4798000.0,89387796.44410111,-21869000.0,10632504.689305507,59099000.0,56255948.158878274,-21869000.0,-8764656.558501903
1859,1238,0,63057347.0,132075634.65116662,37031977.76980746,20994939.05686438,50373559.0,190099041.40044123,5114390.0,-3196999.2466334626,9540399.0,19282147.424690712,14654789.0,13160599.386730224,3126608.0,-7214004.337843282,1987782.0,22097.074336491525,3126608.0,-3219096.320970337
625,871,2,2120798000.0,2138333492.4560432,1472395000.0,1803546805.9841905,648403000.0,564430300.0484545,67913000.0,91466417.20412052,30767000.0,244970310.25001058,98680000.0,346326871.37060374,-9629000.0,19303589.127089143,77542000.0,91081328.23339814,-9629000.0,385088.9707218949
1728,482,1,706517000.0,541287072.3800293,905805000.0,631663881.8463115,-199288000.0,-71068556.34512624,73709000.0,97781245.3592351,16853000.0,49436820.58808088,90562000.0,155545330.44895065,38915000.0,36461168.912857585,34794000.0,61333291.148967266,38915000.0,36447954.21026788
1404,565,3,76126346.0,52483786.58672738,61120101.0,42869501.94485611,15006245.0,54425554.03596085,2282652.0,1989080.3123304993,31006950.0,29241831.217301026,33289602.0,31031441.19548118,-2890968.0,-4204904.204330476,5173620.0,6190003.59573707,-2890968.0,-4200923.283406244
1515,604,4,156303000.0,77371534.73357809,83901000.0,74909644.0045155,72402000.0,31445460.00823164,17689000.0,7130610.443121284,41469000.0,53056791.13980956,59158000.0,61624998.760428146,-2517000.0,-11330673.581262495,20206000.0,22023934.522576813,-2517000.0,-14893324.07945524
1800,67,1,3271200000.0,1796818769.065727,1447362713.447565,1308942989.6965904,-21400000.0,-1003686644.6062766,31300000.0,91167458.58102944,847700000.0,1200070444.4725301,879000000.0,1261147320.5267181,-16400000.0,-58730541.53903666,66600000.0,11350078.228609234,-35300000.0,79817380.35241958
4,992,1,7361000.0,-37505154.64581859,2671000.0,-18483747.801581204,4573903.262590003,-14951529.402491719,349000.0,5981654.513065293,109000.0,-2960013.1416386664,458000.0,1646626.282557249,-670000.0,4526209.157355072,1019000.0,2278194.6881032363,-670000.0,3703459.8249620274
1400,1108,0,-4860602000.0,-4849063628.760082,-990657000.0,-3920425676.6888113,-3869945000.0,-1252464018.8964078,193881000.0,76308282.9054636,378009000.0,261052063.93822366,571890000.0,276400333.0600094,36078000.0,-107106309.22328791,124685000.0,149851365.40956926,69196000.0,-73543082.50410566
617,961,2,5475000000.0,5807862776.996899,4861300000.0,5090068845.195461,613700000.0,726424947.4152083,130600000.0,153999763.63316253,1421300000.0,1461620594.9068246,1551900000.0,1604694804.5704715,23900000.0,22824919.16492567,81800000.0,96433613.38698182,48800000.0,57566150.24618058
570,257,1,9643000.0,-38982564.09960079,6164000.0,-18007755.7416687,3479000.0,-13665093.284677207,1843000.0,5855942.576466836,2246000.0,433095.4451995827,4089000.0,5457180.135026962,-437000.0,4566326.8219941165,2240000.0,3053730.6964570433,-397000.0,2802211.8800097285
2015,880,3,12012800000.0,8859539104.21978,6608200000.0,4361187267.26373,4911800000.0,3602360604.13099,457000000.0,651979240.3248672,316800000.0,-19959577.618238688,773800000.0,578644950.3401784,145800000.0,234047393.10859877,203500000.0,126496679.9537447,253500000.0,525482560.37112343
576,1076,2,6644800000.0,7005943163.505341,3248100000.0,3502060136.635208,2786600000.0,2756908460.4369874,345800000.0,276156385.5666983,33000000.0,94353097.26524936,378800000.0,363556020.88058084,36000000.0,-44341816.305448756,342800000.0,503902030.6554327,3000000.0,-227745645.08873475
1397,722,1,136174000.0,122106816.96182013,62163000.0,65921986.42016661,72304000.0,37396968.1386776,10072000.0,11573071.364811696,-3712000.0,-57528484.81885067,6360000.0,-49802282.352576405,-12604000.0,-16170951.443029314,22676000.0,21060810.737399083,-12604000.0,-9487739.372587416
1134,1495,3,160043000.0,192438236.36458302,101422000.0,90182200.08898574,58621000.0,144159683.36123717,15202000.0,5543260.83514832,-14386000.0,-2313256.8846804053,816000.0,4565212.197641894,-14398000.0,-27317997.88373235,29600000.0,34485236.90502495,-14398000.0,-28941976.06987634
188,487,1,9282000.0,-32152158.34207368,3493000.0,-16899931.893315434,5789000.0,-9768378.131444484,355000.0,5625465.271888271,552000.0,-1770262.7120769024,907000.0,2296670.517538756,-972000.0,3182922.080238709,1327000.0,2317712.57771457,-972000.0,3307752.6941736713
488,150,3,16124000000.0,3227055986.4902077,13383000000.0,6809384354.136919,2741000000.0,-5973000465.389299,5251000000.0,3639873911.612922,4961000000.0,3662017282.729697,9233000000.0,7027848296.624723,1583000000.0,1298579008.952277,3668000000.0,2240766030.4927754,1583000000.0,1399107881.1201465
1211,1554,4,1601068000.0,1925660041.8672385,1081707000.0,1106536894.1372752,519361000.0,819886628.546036,248876000.0,287712007.2657389,-34521000.0,-95645496.05036911,214355000.0,192838205.62543374,19006000.0,51645227.78365812,229870000.0,236910304.16458133,19006000.0,50801703.10115768
1580,1079,4,779622000.0,1065409578.6376517,153452000.0,330930778.2544985,626170000.0,753099716.0730157,134561000.0,135776981.33116147,57608000.0,74831583.50842741,192169000.0,199294578.09913683,56917000.0,51793245.2041455,77644000.0,87411492.13767463,56917000.0,48365489.19348691
1533,499,4,4162272000.0,3758615726.992876,862254000.0,826711851.958963,3299439000.0,2939581352.9361725,357871000.0,344662712.4989496,794265000.0,899100870.0014236,1152136000.0,1215455828.0126877,114028000.0,111850957.99168882,194829000.0,215421899.51216277,163042000.0,129240812.98678699
818,1555,3,13900400000.0,13959780528.43317,12204100000.0,11468957940.511765,7319729781.089915,8568900600.154621,78200000.0,6705862.994274862,235100000.0,417787010.1906603,313300000.0,437432252.52402645,174900000.0,44659578.533297256,116600000.0,137375616.30253065,-38400000.0,-130669753.30825575
50,579,4,594022000.0,417723376.66170585,132343000.0,109876632.78986818,461679000.0,214635334.29867977,121956000.0,106389702.88672723,1645000.0,-58968515.367761955,123601000.0,58834663.6668248,31177000.0,33724017.0619357,45262000.0,29581062.995027818,76694000.0,76808639.89169969
590,21,3,1341960000.0,1252712347.0922494,666970000.0,657050006.6939242,674990000.0,455743050.9039266,55930000.0,38048730.27282005,179410000.0,177107784.21311018,235340000.0,210958498.29107422,23760000.0,-1171614.5020015128,32290000.0,30552436.96969204,23640000.0,7496293.303128377
377,1125,3,52901000.0,79891863.98500586,24522965.98920461,22797919.263321698,33404000.0,80667305.36821294,-1183000.0,813346.1272117198,24144000.0,28901576.45854286,22961000.0,29597883.5342248,-5692000.0,-7976182.631736428,28653000.0,27154997.287564546,-29836000.0,-26341651.160352487
1953,549,4,877565000.0,1766226258.8295026,1336553000.0,1425641995.6216178,-475192000.0,605321050.1450716,522812000.0,480786121.8508692,-345617000.0,-73165805.874161,177195000.0,362261702.6323525,31868000.0,-37206985.74223099,490944000.0,534522189.3305921,31868000.0,-53736067.479723305
1018,1347,1,26568400000.0,25914505042.385765,13080400000.0,11979233469.251808,13246000000.0,13958985188.348673,1346200000.0,932371732.687006,1952200000.0,1896712341.0002856,3298400000.0,2862274574.753668,592200000.0,124571595.10986924,746800000.0,847824040.8085492,599400000.0,84547691.87845437
709,1365,3,2933971000.0,2696766859.079914,2618511000.0,2600489020.6585417,315460000.0,-137080141.2360142,65062000.0,25108755.44940865,2191000.0,-1735853.4260963835,67253000.0,47174384.892510235,-143265000.0,-124898959.20478675,69951000.0,7808536.90434663,-4889000.0,17300218.545062292
1121,1252,1,27828200000.0,24791771645.850773,13810622382.415062,12253661865.236471,7212400000.0,6615697717.621145,821300000.0,786462823.6779082,181300000.0,-220012381.37763414,1002600000.0,582976097.1167288,233000000.0,141700299.89780062,794400000.0,1027393378.6652315,26900000.0,-240930554.98732382
1026,769,4,2788943000.0,3283143170.367106,2662320000.0,2929422461.3468075,126623000.0,763296696.2758074,299166000.0,362184237.1979783,0.0,307621466.56752,299166000.0,678204866.2558743,-281667000.0,-24439210.782792952,580833000.0,381505691.5650832,-281667000.0,-19321454.36710497
1015,823,0,2489159000.0,2492962802.643159,1954765000.0,1984110883.4985645,488897000.0,291947238.38603497,294443000.0,287981870.44548476,370069000.0,324732987.20534176,636496000.0,583010532.9524171,64600000.0,38067546.79487783,229652000.0,261810374.7514356,64791000.0,26171495.694049235
1575,241,2,11961066.0,70810818.23790431,1068497.0,24680551.15783012,10892569.0,112546436.33826059,611174.0,2571067.559733078,0.0,726510.4681181582,611174.0,4617523.231112093,-1146685.0,2030937.4168429198,1757859.0,-694270.3216976449,-1146685.0,3265337.8814303866
826,242,1,93941000000.0,91762472209.24606,39446000000.0,34877487986.93159,53466000000.0,54051071471.77514,4178000000.0,3951906350.4643464,15656000000.0,21957220529.66027,18582000000.0,25824136985.273907,1764000000.0,1697798722.0565457,2414000000.0,2758171350.315117,1764000000.0,1193735000.1492329
463,1402,1,32097000000.0,38383501874.550995,20419000000.0,23446321472.785168,10658000000.0,14114462683.647978,2071000000.0,2357401864.4925117,6360000000.0,6646335041.250571,8431000000.0,8874005018.332476,950000000.0,1312487761.1371949,831000000.0,602305024.4259284,1240000000.0,1755096840.0665839
1660,25,4,6578196.0,157659917.09476703,4441488.0,42234007.35966107,2465776.0,58438350.90484439,2008368.0,10948114.399958272,923641.0,51060295.76668601,2932009.0,83358642.20432688,-1328968.0,3715679.449321963,3337336.0,6756265.145829685,-1328968.0,4191849.2541288733
700,526,2,1658042000.0,2250431049.710768,1223260000.0,1271056673.2848852,434782000.0,981222908.4625801,207698000.0,231739146.31678978,674127000.0,619249631.3896961,881825000.0,845986442.7621429,25549000.0,53600910.29051268,179614000.0,189906680.83140555,28084000.0,41832465.48538402
402,371,2,9094896.0,146472860.89620548,13593163.0,159950940.52298883,-4498267.0,41424802.43247953,-928960.0,-2517607.5888118446,1115703.0,-9982402.358435668,186743.0,-8094317.133532956,-5136642.0,-5239646.092115633,4207682.0,8171204.638809256,-5136642.0,-10688812.227621436
591,184,4,16788482.0,45819015.60260892,821758.0,-97234966.98187363,15966723.0,261524239.93167496,906228.0,-38956615.77794258,333325.0,21705887.30407031,1239553.0,-10777852.938622177,-1096396.0,-26944590.478345804,2002625.0,-16418193.790773958,-1096397.0,-22538421.98716849
412,923,0,1678241000.0,1518444476.5837321,730813000.0,703443031.6365092,947428000.0,705424950.3727345,62311000.0,61989257.7204638,89643000.0,74378748.44087328,127553000.0,112466626.65540764,-24195000.0,-28985995.815740827,86506000.0,106224125.27216631,-24195000.0,-44234867.55170273
26,1111,2,1363308942.0,1667545849.9905941,629855415.0,845315866.3792098,733453527.0,782155430.811746,93681798.0,66840385.34952925,0.0,-47058204.674767025,93681798.0,15682085.56495107,39573525.0,12081883.947344631,54108273.0,50888407.73555273,39573525.0,15951977.613976233
205,666,2,15264467000.0,15486422101.239483,7226441209.924589,7977887660.868305,3059451000.0,2914956431.420603,592816000.0,566954421.481447,378076000.0,327326315.31110424,970892000.0,904506112.8179483,444977000.0,362583664.82102925,147839000.0,176985654.4104926,444977000.0,389968767.07095444
699,1149,4,65987000.0,20674860.707399487,35279000.0,14207093.120081514,30708000.0,45912042.675147474,5319000.0,7012956.759163484,28050000.0,30044259.685377054,33369000.0,35771272.03305718,1124000.0,3481823.769239176,4195000.0,5592633.501398869,1124000.0,1420323.257764848
550,437,1,31945000000.0,20891686655.622578,26424000000.0,18094279094.795956,5506000000.0,1191638062.283958,1191000000.0,444995350.22389203,2895000000.0,2452461379.804841,4086000000.0,3059566185.392108,834000000.0,-586395607.4314191,357000000.0,875738091.2071474,834000000.0,-430742740.9832568
140,1473,0,2655001000.0,1523289072.8865514,1989549000.0,1033754716.4333365,665452000.0,149604331.22904113,67554000.0,-219301015.44526595,403267000.0,619233956.0588309,470821000.0,426233717.8403562,-3426000.0,-127772721.16829944,30096000.0,-65714042.4272102,37458000.0,-153586973.01805586
2004,877,1,9403000.0,-34181292.31416714,5511000.0,-17008682.90672493,3892000.0,-12975013.666015208,-48000.0,4584362.01880528,1387000.0,-2013412.2925440595,1339000.0,1254661.0480883569,-903000.0,3105212.5276244245,855000.0,1985008.6540490165,-903000.0,2599353.3647562275
28,31,3,551232000.0,327346965.97215724,628224000.0,431576929.3569869,-138322000.0,-464571009.54697824,23716000.0,26999232.586450472,12709000.0,17940115.22968352,36425000.0,49657637.51797847,7478000.0,9234742.069670074,48579000.0,30694302.76257074,-24863000.0,-3695070.176120069
844,288,0,435750000.0,456890230.590371,62826000.0,62008923.14538258,372924000.0,364443575.8317312,28152000.0,29765818.320933692,49267000.0,57917400.95270871,77419000.0,83228329.01220596,143000.0,-5630935.767347941,28009000.0,40746979.05958069,143000.0,-10981160.738647275
967,1117,1,367699000.0,180948058.61885864,382822000.0,189726755.01592728,-15123000.0,-10422937.90266186,310000.0,112078343.85311334,0.0,-62439863.05440962,310000.0,52294895.64354052,-47413000.0,18648095.619777486,47723000.0,97379259.55691522,-47413000.0,14699084.296198156
433,917,1,3810682000.0,3619413150.3336453,2050315000.0,1565180931.6146054,1303319000.0,1620899236.6729126,110314000.0,177169038.59552294,71850000.0,38579983.4079883,148990000.0,170868548.97275347,11661000.0,-22652690.025768504,98653000.0,150682805.04799354,11661000.0,26486233.547529347
228,131,2,2333529000.0,1656510446.2334898,1032484368.2283514,882864213.134682,1202771000.0,428023501.59237075,71236000.0,35541510.04376875,490990000.0,437059970.70191574,562226000.0,477323493.55789685,19517000.0,36382956.50606057,46091000.0,25263437.35032613,25145000.0,10278072.693442758
1855,1604,3,20737275.0,465684022.46547914,10788720.0,263799962.16643298,10368036.0,346409254.82702124,562564.0,36318993.89830932,77061.0,4622005.059524573,87201.0,60160221.995891035,-4142505.0,-10682038.446021102,4705069.0,45420667.43577541,-4142505.0,-9101673.537465828
776,654,4,386844000.0,376394014.14424896,412960000.0,427295927.6078814,-26116000.0,-21164625.900817484,16927000.0,18542203.187962346,91131000.0,108582384.7064972,108058000.0,125575344.02407989,-813000.0,-3326950.8282805663,13060000.0,19721666.04781322,3867000.0,-1179462.8598506544
839,662,1,6911775000.0,6419956386.440868,5109042000.0,4815581949.304203,1802733000.0,1486152390.419445,225256000.0,255846536.18770224,195092000.0,273209075.25646555,420348000.0,521380265.2785357,132530000.0,109327869.0248165,92726000.0,168930874.04688147,132530000.0,86915662.1408208
793,1426,2,2883631000.0,6218589947.849434,1772390000.0,4309769795.563929,1110345000.0,1451055213.8799763,319055000.0,248329381.1269207,1257690000.0,1653808630.5304317,1576745000.0,2051418725.2182963,38222000.0,-137788331.61971676,280833000.0,537834815.3107462,38222000.0,-289505434.1838253
820,1376,2,133032000.0,-148428798.92036748,232711000.0,175502272.8223026,-16246000.0,-237925154.61672372,12296000.0,-10135475.779591352,62277000.0,42437223.988604724,74573000.0,33861808.85855923,-14749000.0,-21307941.904386573,89322000.0,95763404.93873093,-77026000.0,-105898880.7183227
2016,162,1,296638000.0,412402629.55669427,208509000.0,213602019.27021182,88129000.0,216682168.61779332,7319000.0,20240133.33384028,0.0,56022.61517448723,7319000.0,16610775.803745508,-46633000.0,-24549763.336643867,53952000.0,42352160.22776562,-46633000.0,-22112026.893925376
1438,2,4,38809000.0,798175094.4583062,43090000.0,231859127.03130051,-4281000.0,613722766.8455597,7318000.0,23585447.001115136,25818000.0,96702801.65420802,33136000.0,117765953.68965268,-933000.0,13942422.050968349,8251000.0,6500009.292269975,-933000.0,17085437.70884553
866,365,1,2376172000.0,2707138200.090837,1870972000.0,2466008112.4493036,486613000.0,183664630.07828474,-5214000.0,76258929.8092866,182832000.0,89112558.69553292,304976000.0,181210032.00521907,-103708000.0,-90122631.17633517,98494000.0,151763494.902986,-103708000.0,-75504565.09369966
689,978,0,3719784000.0,5009116969.841997,3332984000.0,4275208709.383065,286813000.0,507604608.8171768,2618169000.0,2678044880.8404884,-531777000.0,-897543735.90634,2086392000.0,1763973581.0649033,44074000.0,172794317.83376038,2574095000.0,2492456057.0913486,44074000.0,185588823.74914098
919,362,1,1537935000.0,1531679885.853776,1281456000.0,1289716468.9583497,256479000.0,241599470.04564708,229699000.0,149423585.08379638,0.0,51075638.22354518,229699000.0,199554794.89038742,-26947000.0,-90617357.59195958,256646000.0,242528782.82829088,-26947000.0,-93105197.74449477
