epiphany24262/financial-performance-prediction/results/oof/m1_ridge_history_raw.csv
Id,group_id,fold,actual_Q0_TOTAL_ASSETS,pred_Q0_TOTAL_ASSETS,actual_Q0_TOTAL_LIABILITIES,pred_Q0_TOTAL_LIABILITIES,actual_Q0_TOTAL_STOCKHOLDERS_EQUITY,pred_Q0_TOTAL_STOCKHOLDERS_EQUITY,actual_Q0_GROSS_PROFIT,pred_Q0_GROSS_PROFIT,actual_Q0_COST_OF_REVENUES,pred_Q0_COST_OF_REVENUES,actual_Q0_REVENUES,pred_Q0_REVENUES,actual_Q0_OPERATING_INCOME,pred_Q0_OPERATING_INCOME,actual_Q0_OPERATING_EXPENSES,pred_Q0_OPERATING_EXPENSES,actual_Q0_EBITDA,pred_Q0_EBITDA
196,314,4,1192950000.0,1157775234.1691601,1055816000.0,1009796345.3797598,137134000.0,147397119.76854944,25598000.0,46439699.67324904,61899000.0,82772571.00150138,42992000.0,78563245.49531093,15222000.0,24909524.559179746,10383000.0,10551595.33006084,15215000.0,35888104.34318808
1568,1318,0,1219954000.0,1342636344.5290904,835046000.0,1078153471.984603,384908000.0,121769482.85891879,111786000.0,86099786.89678246,217796000.0,157698880.46238685,329582000.0,239085154.64553797,28908000.0,28610867.936540566,85522000.0,82972582.53336836,26264000.0,3127204.3634136766
1218,1523,0,-135820000000.0,-1740250763.321209,-37972000000.0,-14388912794.166605,-97848000000.0,20737711702.999847,-435000000.0,346823079.7194021,4445000000.0,11259130594.313229,4010000000.0,10062198530.755383,-1472000000.0,-2131554903.7424285,219000000.0,1832738859.6116147,-654000000.0,-1485915779.8922284
23,1421,2,83298000.0,-24146758.627858758,16040000.0,-11896512.843922555,-31633000.0,-59016893.43309921,494000.0,7904992.883990962,3339000.0,-33050655.06494055,3833000.0,-24161113.2251613,-12348000.0,-9686853.367111731,12842000.0,19728102.87277327,-12348000.0,-11823109.988782704
783,1306,2,148546000.0,123405127.21592176,56555000.0,-50257875.422432244,91991000.0,227904922.86808243,1761000.0,110745497.80371648,-2375000.0,-169994705.37943187,-614000.0,-63696203.769208044,-10098000.0,67632030.3535505,11859000.0,14412914.251542795,-10098000.0,96332583.55217344
1251,1292,1,7304300000.0,7622229958.260436,2451900000.0,3249209587.958163,4830200000.0,4397763361.087074,578200000.0,726141899.3161983,581100000.0,729020053.2146195,1159300000.0,1428892167.6422377,245200000.0,233850350.7378084,333000000.0,430847278.70823336,245200000.0,295294620.60796505
1224,1572,2,1976905000.0,2543078096.0276885,699909000.0,962475624.8183221,1276996000.0,1669862987.932816,53993000.0,109921919.85263583,315825000.0,221113075.72373694,369818000.0,314438409.7104425,-1572000.0,32339842.86247818,371390000.0,403541506.7072088,-317397000.0,-293619586.8545736
1410,638,0,2097274000.0,3013253562.14737,1132234000.0,1932531372.0604846,965931000.0,1097760294.396605,70481000.0,76780884.18012722,291052000.0,290870685.38282365,361533000.0,400273559.9738561,58709000.0,159942518.72267908,11772000.0,-281872.4227885008,58709000.0,77062756.60291602
529,10,4,31183000.0,50470526.250355124,15926000.0,-4829364.040890515,15257000.0,85652217.99139929,2456000.0,5335837.746164795,2151000.0,8315154.979847308,4607000.0,12014857.366102815,-2931000.0,-2563424.7606793554,5387000.0,5805233.270949043,-2931000.0,-469395.524784388
730,598,0,978523000.0,906383179.053108,851196000.0,694554879.7714655,-94184000.0,-735918779.9683774,24321000.0,-68228140.37789705,137937000.0,597411477.3814869,162258000.0,540123419.5896802,-764000.0,-38182714.56956783,25085000.0,66616402.4566993,-764000.0,-134844542.83459666
1590,740,3,27253000.0,-215309852.46915102,14465193.072010836,-82689173.04026079,12787806.927989164,-77453796.24909794,-17000.0,11055134.969264463,17493000.0,37508149.21404101,17476000.0,49369501.505583934,1196000.0,4314120.86910773,138000.0,1213464.3531635776,-155000.0,9841670.61610103
367,140,3,798398000.0,1382389636.5597358,795372000.0,828456692.3746057,3026000.0,378067288.0838038,37121000.0,-35894896.18336895,256160000.0,380788292.41258657,293281000.0,341394473.4530047,10257000.0,-123433743.6740117,26864000.0,77629496.72184628,10257000.0,-113524392.90521494
636,741,2,1059052000.0,567985676.0035486,883921000.0,720860476.246676,175131000.0,-419009817.5797523,91945000.0,168714513.68112627,202788000.0,388566268.7160608,235132000.0,494726071.62805957,-287000.0,45526469.12432618,84957000.0,107636570.73239931,6988000.0,61077942.94872706
1270,1352,1,11069000000.0,12432947645.735607,5919000000.0,6522500250.115627,5105000000.0,5846379222.18277,727000000.0,803656450.5827415,1752000000.0,2039258351.7253733,2479000000.0,2831924052.209168,462000000.0,624127111.1425906,265000000.0,138248859.42021775,462000000.0,665407591.1625223
102,263,0,12331000.0,112181766.00219595,10875000.0,103867472.92099017,1456000.0,-33883801.989091754,1472000.0,-17003128.637740433,1968000.0,-17963959.978622444,3440000.0,36810648.06359942,-4166000.0,-13767675.11831104,5638000.0,3802390.2856940106,-4166000.0,-20805518.923434954
1658,1092,1,180372000.0,6990499.039943397,121221000.0,104159277.03206003,30642000.0,-121115459.44020951,18014000.0,16090473.57481546,31653000.0,15107189.493918363,49667000.0,32511371.633101657,-11599000.0,-692269.0541305454,29613000.0,19213483.779711172,-11599000.0,-3123010.2048955853
6,33,0,2319806000.0,2506234825.6695156,1534495000.0,1826255007.737079,785311000.0,697523678.1186674,376397000.0,297663830.4585054,415254000.0,485176519.193168,791651000.0,788532292.7495736,93430000.0,86319566.42206348,288680000.0,279030082.21681124,87717000.0,18633748.241694078
1147,1055,3,19295025.0,61231801.16688192,28370931.0,20795533.1919868,-13369686.0,51474911.73092911,2067435.0,9711856.084853008,4847499.0,14339305.039758816,6914934.0,21018736.829865992,-1108124.0,3008957.15825456,3175559.0,4718198.56768617,-1108124.0,4993657.517166674
114,1011,2,3549408000.0,3473542735.8041954,2109262000.0,1923679278.3898544,1440146000.0,1374306829.7293665,264579000.0,324514698.60656935,494402000.0,508545816.62837535,758981000.0,839040919.8722829,58594000.0,144165942.663845,205985000.0,166406764.00780246,58594000.0,158107934.59876636
139,1334,4,331401784.0,101197256.39098692,56254670.0,10443753.093799353,275147114.0,-81596700.97088641,17982150.0,-25019281.28777258,0.0,-74278310.9297258,17982150.0,-76730608.71706545,-40215832.0,-68429514.49722141,58197982.0,61582274.3079762,-40215832.0,-86601555.59574881
411,814,4,5533000.0,18392596.887392044,4648000.0,-11225711.236883163,885000.0,55449579.11950904,-1669000.0,2931415.075907305,2438000.0,6469986.55972556,769000.0,7873150.461223468,-6339000.0,-3982661.6429990623,4670000.0,5381160.472314268,-6339000.0,-2449745.3964070454
681,761,2,36550000000.0,41816702567.55563,16943241279.095451,19016876403.369595,15250000000.0,18896282886.275055,577000000.0,477222277.7071697,3467000000.0,2455941275.8759947,4044000000.0,2822079490.0037103,714000000.0,524726721.9316779,627000000.0,675259472.6259785,-50000000.0,-198037194.91880718
1671,696,2,100449000.0,151234760.69384217,141057000.0,157738220.92801833,-40608000.0,-41412189.24492267,-171000.0,-13000592.770813659,512000.0,-42217623.21261464,341000.0,-31120724.44103864,-48297000.0,-50592601.20638704,24344000.0,26484226.78598921,-24515000.0,-39484819.55680326
500,1236,2,10599934.0,-63489725.06625342,26203416.0,-1840015.8393924832,-15603482.0,-50520157.31328893,-6219.0,7550405.984741796,193120.0,11231250.758772999,186901.0,18426406.044935234,-1076399.0,6597381.634582398,1070180.0,-313316.0183930248,-1076399.0,7863722.003134491
1203,449,4,13322000.0,105528261.9957726,67881000.0,155618176.1301163,8277888.77383834,120734332.00124536,3223000.0,-25403237.589942135,1889000.0,69001370.15230575,5112000.0,50092070.29386335,-3552000.0,-49428288.92382738,8664000.0,5273343.779666603,-5441000.0,-30676581.36960886
180,11,3,635001000.0,101868472.34562361,115305000.0,575300898.5243285,502273000.0,-397830122.9992418,21465000.0,-23717803.284401104,40457000.0,133568087.06490593,61922000.0,124796639.99404252,-143360000.0,-155797631.81351134,205282000.0,172629715.99551338,-183817000.0,-196347519.27991575
1960,1026,2,2672864000.0,2937358902.9996233,288913000.0,371788923.2794595,2383951000.0,2594614138.608688,132902000.0,99748277.89984536,168499000.0,245200957.98121035,301401000.0,362537204.4846034,55706000.0,71995330.53700095,77196000.0,51733046.07975249,55706000.0,48015231.82009291
356,863,0,8388335000.0,8935146037.2849,5163154000.0,5422324268.273867,3225181000.0,3489191196.7508564,313343000.0,299528503.12032145,687959000.0,840245868.6450632,1001302000.0,1136480626.354993,116260000.0,170974026.58449495,85661000.0,-2594203.75258027,227682000.0,302122706.872902
1646,1578,1,1563399000.0,1191687937.252169,1445358000.0,1115518779.4867654,-136248000.0,7079098.536603302,72333000.0,114627526.59030809,116682000.0,415628835.0445167,189015000.0,536392933.4239792,23506000.0,54171868.26537943,11423000.0,48887366.43691426,60910000.0,65740160.15339403
1793,1064,4,320019000.0,269191512.196421,126984000.0,121501440.81488967,193035000.0,251324117.75879362,177377000.0,241668928.673721,58492000.0,170591312.2115682,235869000.0,412339560.3949506,25509000.0,52380370.912978165,151868000.0,193860326.4269629,25509000.0,47808602.24675838
235,94,4,0.0,17412577.62852955,0.0,-15892129.042669713,-804876.0,67566204.28026998,0.0,3562847.7269212753,0.0,9630802.297449775,0.0,11830115.938814163,-14550.0,37720.02641789615,14550.0,1695201.83522591,-14550.0,1867645.8916952908
1668,245,3,267194000.0,326942503.205677,175308000.0,227355210.0636026,91886000.0,107090131.18168604,5103000.0,7770279.603125945,0.0,11397184.376209844,5103000.0,17073309.988825887,-32762000.0,-28257305.32091665,37865000.0,30481608.91865935,-32762000.0,-22711329.31553357
1456,1010,3,2249377000.0,2229652673.979348,1923326000.0,2063831298.7032092,326519000.0,250297194.98438406,-76300000.0,-94651836.51146242,416103000.0,435018183.4756317,339803000.0,335931596.691973,34941000.0,-840762.4451821353,184914000.0,201017626.5432518,-261214000.0,-295669463.0547142
1291,1021,2,396890000.0,721728286.858448,107071000.0,172040334.17781463,289819000.0,549314003.8702192,52569000.0,53198390.41759599,13634000.0,40366611.79152105,66203000.0,90164477.39151385,8375000.0,-15801680.156083116,57828000.0,77888010.49217245,-5259000.0,-24689620.074576933
1376,1176,2,7827000.0,-76023436.87273061,4744000.0,-59376802.86426026,3083000.0,19117419.925231814,1288000.0,4609826.374661893,867000.0,27599176.02731415,2155000.0,34640838.92647402,-3880000.0,-2185965.1583722667,5168000.0,4682224.938415736,-3880000.0,-72398.5637541525
1702,1493,0,11990000.0,27882380.176736474,3030000.0,11776519.635257483,8960000.0,79526035.40673715,1480000.0,2272206.4370468184,3017000.0,-3630743.5355009194,4497000.0,-2683571.0970870256,-944000.0,-2665840.0765023623,2424000.0,3060326.001980044,-944000.0,-788119.5649337089
1591,1286,2,7472874.0,-38525837.1522603,3243445.0,37868065.68635446,4067990.0,68069016.07553515,3065804.0,-63818857.07523678,0.0,-19528157.29833382,3065804.0,-79262690.28701255,-21884.0,-51316700.68304799,3087688.0,4471599.838376753,-21884.0,-68290456.91361383
647,1028,0,2182494000.0,1865743724.403786,2467501000.0,2078039170.669623,-484456000.0,-524970779.4182528,389190000.0,383588015.48282325,141172000.0,118846121.20178725,531030000.0,500959906.1039443,-54175000.0,-65654304.34675556,443365000.0,441267842.8924352,-54175000.0,-57679827.409612045
100,1407,1,12166000.0,507235849.1019868,2892000.0,351307082.0068389,9274000.0,163516111.836299,5000.0,9342826.879684366,54000.0,51419586.60238564,59000.0,89838900.3848609,-3433000.0,12146560.912998693,3433000.0,3151165.4586091265,-3428000.0,6191661.421075508
507,447,1,189783000.0,132021619.10375947,45792000.0,41583515.29094058,143991000.0,107022233.43372834,2372000.0,554647.5143862367,0.0,10074823.154138165,2372000.0,8549336.453543156,-18270000.0,-24468192.228151947,20642000.0,17871623.041551314,-18270000.0,-17316975.527164917
547,960,3,1072653000.0,1838435848.1660903,455367000.0,829139011.8948958,617286000.0,996262327.475887,134998000.0,218417449.68464583,27783000.0,169657458.3639176,163452000.0,400896557.0333921,5489000.0,105989769.21129805,129509000.0,152118012.02963164,5489000.0,66299437.65501404
457,632,1,665104000.0,910572055.0145532,575531000.0,631792509.4875865,89573000.0,301548755.4015997,30803000.0,28852737.746132497,19437000.0,28998107.052846547,50240000.0,60633245.121468075,10357000.0,14173933.23106644,22017000.0,12620692.697569232,8786000.0,16232045.04856344
560,618,0,1900367000.0,1613121314.764201,289037000.0,1189890036.5812294,1613343000.0,34018092.242032826,45433000.0,267462550.43934909,413911000.0,425868963.4859822,459344000.0,727070392.4306136,-6757000.0,311127371.33544034,52246000.0,-57066592.7177522,-6813000.0,324529143.1571004
1402,1560,4,88944000.0,75811743.16647601,45361000.0,45106092.1789279,43583000.0,52102113.172148615,0.0,-1018168.4525479972,45000.0,15690430.123084655,45000.0,13472614.229998514,-14351000.0,-13545622.559781466,14351000.0,12099211.591953658,-14351000.0,-13117380.044501789
1274,683,0,5390785000.0,5281375782.905313,4083098000.0,4004863773.064417,1050686000.0,958557063.8486365,352054000.0,405374458.4556904,284900000.0,327749939.80897546,636954000.0,741026559.9315027,120850000.0,134072816.87149231,187232000.0,168454610.72092474,164822000.0,236919847.73476598
799,1475,3,18535000.0,-43553973.105730176,13748000.0,-25263114.91863662,4787000.0,8677061.677382588,2839000.0,4157219.070247926,7502000.0,21172437.496941656,10341000.0,24826227.755697936,-2229000.0,-5185889.418269312,3071000.0,2755877.256646529,-232000.0,1401341.8136012591
1436,366,2,13281300000.0,14595792802.147991,5777300000.0,6561698280.242266,7484300000.0,7718508367.968303,1030700000.0,1139163057.335366,1150100000.0,1195327329.8086054,2180800000.0,2262265636.6649523,687000000.0,633939285.6273029,343700000.0,479758706.23473465,687000000.0,659404351.1006335
1518,564,4,108681735.0,181849392.45895886,9192190.0,19831852.63637668,67531550.37365061,176325462.88798475,2201326.0,3832313.737334244,255772.0,18085425.433530856,2457098.0,20189192.359707683,-8935951.0,-8103362.511948897,11137277.0,9825242.11165855,-8935951.0,-5992928.3743243925
211,1245,3,189692000.0,204222461.36903167,90178000.0,60042750.66516429,99514000.0,154652793.64417765,-4411000.0,1298764.442867659,24963000.0,37254024.29700338,20552000.0,38220296.389251515,-10000000.0,-5915372.857065415,5589000.0,3396574.560645029,-10000000.0,-2097810.1177775464
1542,539,4,230878000.0,308703406.0148772,57278000.0,75335235.32785383,173600000.0,284102332.4714396,26973000.0,30985165.78377921,7041000.0,13377491.341289166,34014000.0,41781079.870084465,-11169000.0,-9710827.567046387,38142000.0,38703700.135752276,-11169000.0,-7718534.351973189
1496,129,4,73773000.0,83297032.9987812,50819000.0,32288967.884046078,38847689.64492722,90692273.74656042,5428000.0,7030238.690258101,22481000.0,21323099.991441675,27909000.0,28549472.948924102,-1778000.0,-2694164.683390614,7206000.0,4270779.409497,-1778000.0,2759459.280761007
1891,794,4,1582767000.0,1415157622.5305986,680421000.0,664164617.9907517,880211000.0,689475470.1009998,56683000.0,50258996.75326632,17637000.0,4703949.148898438,74320000.0,56072914.27491819,-5119000.0,-22411899.4867483,35279000.0,52488109.847331196,21404000.0,-2229113.094065126
362,1155,3,5641000.0,43001076.57398236,5200000.0,-179064.07332080603,-3859000.0,56290154.432282776,1192000.0,6249045.5733444095,781000.0,11023192.095752805,1973000.0,16214705.423344627,-97000.0,2152002.2803631574,2070000.0,2809574.493593313,-878000.0,3439471.079750945
605,905,3,3208196000.0,1770484360.8972166,2133043000.0,1216363836.6460729,1075153000.0,208843577.21784532,625972000.0,466008688.9944724,1066275000.0,812140628.636611,1692247000.0,1282820281.663906,91616000.0,-35635097.60496521,497965000.0,395929114.46466225,128007000.0,70079574.5298099
384,713,0,13057000.0,211425308.58723062,4943774.229094189,13083441.771089077,10949000.0,138753411.70832393,7944000.0,646137.7958205193,0.0,16089179.789145898,7944000.0,28290824.88752479,1997000.0,13258504.1736895,5947000.0,-16813908.609871812,1997000.0,17460046.4056921
438,1575,4,5973000000.0,5148819712.151438,4408000000.0,3751251838.0169086,1554000000.0,1382012005.1336243,244000000.0,220711889.65116552,1526000000.0,1566233200.577657,1770000000.0,1810404209.9785204,147000000.0,73560011.11344203,127000000.0,24842166.978406556,117000000.0,195869722.6727586
1761,738,0,589088000.0,671109122.1955594,253950000.0,314716509.02724564,335138000.0,379188789.44513404,19294000.0,26888432.66905058,99428000.0,101226610.19809292,118722000.0,127609950.34028758,9057000.0,13476321.42820242,10237000.0,18112535.447115473,9057000.0,8775897.221934661
403,525,3,21286772.0,74925081.87017679,1383236.0,4875900.533064842,19903536.0,91453239.5216817,781782.0,7180982.82241746,421382.0,12487475.011479232,1203164.0,18571942.41555129,-1960898.0,1233928.6116827657,2742680.0,4156920.860300727,-1960898.0,3024061.9621165614
388,1349,4,3445920.0,-113722045.53912032,1859560.0,-9408125.625697255,1616914.0883314284,43391407.58213085,2970901.0,7321930.71979133,569508.0,-8012959.329210542,805185.0,1868274.798207283,2437201.0,4992412.293470465,533700.0,-1267966.294491604,2437201.0,8589897.014282841
1452,124,4,328158000.0,327723947.6213681,124250521.82515822,130820490.88128102,270486000.0,280139917.90578663,24944000.0,22990840.384611554,16521000.0,21664414.95528394,41465000.0,41484347.34922798,-7674000.0,-7207646.883640708,24827000.0,20854520.556918934,117000.0,2136319.827692507
1876,412,1,2498305.0,-75197347.05816555,2997402.0,-28710428.234476686,-3454854.0,-35046393.668979704,467340.0,-4216099.550431624,346611.0,-1941913.265138113,813951.0,-5371224.981244251,-114631.0,-3336853.3308416037,581971.0,2824732.071057722,-114631.0,-7040831.621489201
757,651,2,1288046000.0,1346557325.9443917,649920845.9604261,699046632.1350595,889849000.0,906207517.3641764,105384000.0,98859282.17787345,285360000.0,304711929.0402689,390744000.0,400884543.63847727,53190000.0,47660449.732269965,52194000.0,56677667.31683752,53190000.0,42181614.86103567
660,226,2,600057000.0,544852064.8418462,369915000.0,352823446.04061496,225443000.0,178818497.4899724,43121000.0,41877679.85918161,106269000.0,106937619.70939343,149390000.0,146373997.0399384,7853000.0,8316166.603046935,30439000.0,30417968.465683267,12682000.0,11459711.393498039
197,709,4,538955000.0,1381736028.5034459,291671000.0,380612735.30967766,247284000.0,1041696552.9417466,-14193000.0,99245308.11005604,14235000.0,127465725.21641575,42000.0,266794897.5489483,-51845000.0,68017724.17084439,37652000.0,40118898.58732483,-51845000.0,59126409.52273085
93,962,1,25334074.0,-9363071.07749337,18917048.0,7262938.086070836,5501613.0,-6712169.812101126,-536032.0,-2280703.308834389,4501393.0,5341822.401953002,3965361.0,3073749.2173811495,-2975120.0,-7257526.78999681,2439088.0,6404522.203842327,-2975120.0,-8685225.512676602
472,1463,0,1934400000.0,2375480770.2061276,855887268.5537325,1019011401.748842,957200000.0,1057693571.7319542,84000000.0,132492230.75166272,375600000.0,481264104.1973616,459600000.0,603885401.9613912,30800000.0,86245162.94463743,59000000.0,43897798.31146778,25000000.0,88594432.44019488
1345,573,0,102973000.0,-241107749.90375125,162948000.0,31093069.024984717,-346214000.0,-723199095.1660794,-13037000.0,-16594592.83291439,25768000.0,71658480.45902434,12731000.0,92295351.24278004,-23219000.0,-11183124.441430798,35950000.0,8563479.21113547,-48987000.0,-25158072.044050165
1672,351,2,2501300000.0,2379049995.9890766,1075500000.0,1170481684.9186614,1407900000.0,1083395320.0756207,99600000.0,83666723.47584476,151100000.0,256809659.51045075,250700000.0,346274277.712396,31900000.0,-14867073.17583236,67700000.0,99784965.00508823,31900000.0,-16118241.529243793
521,298,0,27910000000.0,33127609312.52411,24392000000.0,30300839288.84079,14058781786.346067,10574093295.99023,1525000000.0,509331734.1386671,6421000000.0,3743194583.9094186,7946000000.0,4267344864.6854434,561000000.0,-124993152.52429865,638000000.0,194674187.26180816,887000000.0,314657546.87685835
1143,519,4,105238000.0,-20572491.17908907,42240000.0,-83650419.96044856,62998000.0,72702429.16003302,8572000.0,9094054.815840356,322000.0,9850415.78129789,8894000.0,16724094.886223182,2218000.0,2499317.926735183,6354000.0,6208611.633709125,2218000.0,2885443.1821311414
502,1365,3,2010176000.0,1936359090.7602525,889414829.379791,918121157.7953835,1057656000.0,946704869.0682043,113627000.0,117240731.59881893,250202000.0,251518209.183228,363829000.0,365281204.03729427,44531000.0,37566402.81411584,69096000.0,74753049.13966116,44531000.0,42487682.45915768
319,621,2,15154000000.0,15399425135.683455,5534200000.0,5644842635.257599,9554000000.0,10277909539.377676,739300000.0,584846319.9039509,999600000.0,817482067.8738968,1738900000.0,1396996172.4736423,318400000.0,219123189.55060545,315200000.0,282968118.24812603,424100000.0,301878201.65582514
471,516,2,346507000.0,293923471.2528763,100361000.0,120345290.38057709,246146000.0,160091419.94219154,14398000.0,11324271.426137734,62502000.0,77023278.96054319,72480000.0,82082726.62807615,4926000.0,5799564.69959235,9472000.0,9897444.307692356,4926000.0,1426827.1184450649
1756,421,2,229309000.0,49470824.30528563,190264000.0,135713154.96394205,-44269000.0,-164145021.36715603,9225000.0,13548849.850370552,52669000.0,85206660.4761011,61894000.0,100601567.01803112,1401000.0,7272778.322438611,7511000.0,743565.8804064244,1714000.0,12805283.969963856
848,415,3,101740000.0,135394333.87189215,28463000.0,-12252073.388091922,50734000.0,97660625.14220199,29850000.0,13955622.704696216,12745000.0,8431504.46905091,40857000.0,15619491.19978568,2689000.0,-6645929.261299871,27161000.0,24467508.409138218,2689000.0,-10511885.704442156
1310,660,3,9582645000.0,8327075618.015627,3280269000.0,2117790013.3419662,6302376000.0,5918636006.204831,376175000.0,186958362.97626483,424915000.0,560241856.059232,801090000.0,761234134.9482989,272965000.0,152063610.39323458,103421000.0,21077593.863139816,272754000.0,165880769.11312482
202,496,2,609678000.0,610500136.5001929,288631252.1743736,306455634.72817755,366720000.0,380443513.54780614,84451000.0,82000880.7497156,21802000.0,46240478.355134614,106253000.0,125807373.3877678,5683000.0,911079.7830188582,78768000.0,80917410.02862415,5683000.0,1083470.721091127
1444,1250,3,43441700000.0,42139920885.63478,21559314449.01792,21306175030.997417,21882385550.98208,19626480949.993004,1370000000.0,852496724.9688008,587400000.0,545392403.2318819,1957400000.0,1416541258.32619,472000000.0,265384342.94467568,1485400000.0,1511658352.2176695,-115400000.0,-659161627.2488635
1578,687,1,1146353000.0,1221750959.0582361,752649000.0,957029105.6142076,393704000.0,263564154.12703958,95229000.0,101898732.6692474,32092000.0,103249466.82663268,127321000.0,196792503.9274188,-58245000.0,-37973374.48894535,153474000.0,151615591.70251468,-58245000.0,-49716859.03326698
451,1036,2,796771.0,54632496.86193067,1072746.0,43392516.96785876,-275975.0,98486286.92412004,205707.0,-28256117.038829505,158335.0,16931614.703745127,364042.0,-18603492.33733587,-168127.0,-26005326.674671613,373834.0,-1236129.8997386321,-168127.0,-27019987.139091272
35,1172,1,9069035000.0,9678299329.101791,2563480000.0,3130142823.0267262,6505555000.0,6475298909.332692,942419000.0,1009226092.9334996,522866000.0,803584635.6625276,1285548000.0,1622932584.3606558,602695000.0,595373261.4436585,339724000.0,425992313.8245103,602695000.0,583233779.1089889
237,194,4,48924605000.0,45552608847.38914,25766652000.0,23711184349.604164,22441501000.0,20854275530.2883,1560160000.0,1470814242.2875636,915531000.0,973698043.1674247,2475691000.0,2524941155.963364,558196000.0,313568390.0276031,1001964000.0,865454089.7031311,558196000.0,605360152.5844302
917,1116,2,514281000.0,261648.80931258202,309957000.0,149843542.04314616,198004000.0,93953975.72125843,106985000.0,46909233.70242897,149052000.0,76877835.49152498,309744000.0,149344155.48845658,62399000.0,6001261.497931985,44586000.0,37016075.06005213,62399000.0,9893158.642376559
558,251,2,17876000000.0,40961217348.46402,4077000000.0,15851934417.443937,13799000000.0,27974815082.588814,-917000000.0,-35417238.641557336,1453000000.0,1722907181.0847774,536000000.0,1192846573.9395385,-1774000000.0,-1457056511.612354,857000000.0,1831944130.8593616,-1774000000.0,-1867361369.5009224
73,532,1,218354000.0,161665792.90537518,62021000.0,45627419.334735274,156333000.0,124686806.89303876,-143000.0,-9822700.1436482,848000.0,2319881.0513198096,705000.0,-7671540.334090427,-31577000.0,-26165296.88522246,40859000.0,24008240.67805276,-41002000.0,-33830940.8217008
532,205,3,2268100000.0,2806043883.7004976,1627400000.0,2162859852.3462358,640700000.0,469972461.7267121,78400000.0,190844720.43969277,665200000.0,815116205.2981509,743600000.0,975933708.6514943,19100000.0,124793419.03803107,724500000.0,828652420.6321654,-646100000.0,-637807700.1924725
986,275,3,49117000.0,4360235.069397211,7104000.0,-3268299.1786563993,42013000.0,16511461.20295462,1616000.0,-649243.0299029574,3273000.0,10432550.298737414,4889000.0,9543497.860404775,-1489000.0,-6135815.756444234,3105000.0,3653804.516860716,-1489000.0,-4303047.546763837
252,1030,3,12822000.0,34141375.053611994,1624000.0,-14994159.386646867,11198000.0,64392503.88955325,0.0,2869003.7365736812,0.0,10621693.023978285,0.0,12571713.557586044,-1983000.0,-2366659.775125634,1983000.0,2754477.3224912956,-1983000.0,114526.41408221284
982,1392,1,543788000.0,527100618.4595975,205894547.02387,193374965.50413337,402777000.0,431093090.553844,1944000.0,2551477.4645582736,0.0,-10910069.081549903,1944000.0,-8201309.238085836,-51279000.0,-46517170.06592323,53223000.0,49661617.04178338,-51279000.0,-47110139.577224776
1947,616,2,16965000000.0,9167009807.058159,7506269391.549871,4728183171.599638,7744800000.0,-1032878224.6204131,1329900000.0,1425672400.181198,1175700000.0,1080236137.9407246,2505600000.0,2485815109.4694724,1069200000.0,1162968668.5926254,32700000.0,63042412.64039318,1297200000.0,1362629987.5408041
1206,918,0,29788000.0,96165279.93759513,27907000.0,58533589.760560036,1881000.0,47606903.771208346,0.0,-8623949.175676279,3452000.0,4025121.7123400895,3452000.0,-3323275.500811115,-23801000.0,-18785131.63530679,23801000.0,9977954.65302042,-23801000.0,-18601903.82869716
542,1191,2,39315010.0,-55557124.03017604,15768167.0,-74052353.14623553,23791305.0,133707872.94682914,7600979.0,-18222444.41149997,41810204.0,90797635.33855882,49411183.0,74708490.09431976,-1588725.0,-24833801.62026055,9189704.0,14526636.23697079,-1588725.0,-32749080.648470987
15,899,4,184728000.0,134049651.39628607,40367000.0,142485726.51642287,144361000.0,15447618.62672019,0.0,-8683585.174369492,8094000.0,28876863.284090396,8094000.0,78013940.0487462,-23114000.0,-36928894.49858437,23114000.0,32754842.870617725,-23114000.0,-41438428.04498734
1754,856,2,5014090000.0,5230565018.0083,2606263000.0,2805068394.100041,2407827000.0,2281541657.7909975,420690000.0,448223185.688152,905430000.0,893676905.3454162,1326120000.0,1325490844.2908196,237492000.0,250403048.8865628,183198000.0,200542009.05203083,237492000.0,247681176.63612118
1448,1495,3,3543460000.0,2445405062.225438,2602227000.0,1962627440.9799485,941233000.0,-172153414.89999288,443568000.0,521808051.92315906,134292000.0,168064420.22894967,414603000.0,616450528.3388369,14363000.0,224659275.28808844,429205000.0,295367967.89306056,14363000.0,226440084.03009784
459,1563,1,747087000.0,771839745.8766968,79688000.0,101022989.7027292,667399000.0,678339949.3940989,34565000.0,26835158.909907967,22203000.0,29987599.05015318,57261000.0,52625470.43454145,-16306000.0,-10253148.671880934,50871000.0,41860464.8001848,-16306000.0,-15025305.890276628
1505,8,3,4578121000.0,2289565874.7044225,2310023301.364386,350225647.5762985,2489780000.0,1444498092.8007464,2190001000.0,2174972871.3995,-1465670000.0,-1700657166.4504375,724331000.0,443420659.5454359,216069000.0,-446376691.2156822,1973932000.0,2498272412.408853,216069000.0,-323299541.0093519
1613,399,4,11895943000.0,-11210638060.590511,3479745000.0,1575884590.7166717,8416198000.0,-18608648953.294235,335683000.0,-10459473.087051302,296441000.0,-2717961397.134573,632124000.0,-1966766814.76818,90949000.0,156461866.3626094,201199000.0,-74289288.37622629,134484000.0,63829815.28917753
1214,1410,3,1059300000.0,1087765741.011885,513000000.0,509516260.85027784,545000000.0,529128974.7666756,132000000.0,129183386.14091529,172700000.0,211746835.0792511,304700000.0,333597973.6202536,34700000.0,45701524.2283027,88200000.0,83883162.11003888,43800000.0,45300224.03087631
454,235,3,11204065000.0,8455702916.852741,4242197120.938668,3971836602.3674455,3489373000.0,-378409852.3248447,480702000.0,684394385.4649254,457696000.0,299993345.8347414,938398000.0,906740409.7030852,172392000.0,476217814.1013787,308310000.0,223116741.99867055,172392000.0,461277643.4662551
1392,34,4,531121000.0,509444533.6514325,248900000.0,272919797.5403306,282221000.0,290294464.92870206,62379000.0,69036315.8304241,135419000.0,142016088.9724273,197798000.0,207913394.48703742,18703000.0,13956590.35965567,43698000.0,53435584.267030746,18681000.0,15600731.56339334
1519,1545,4,961035000.0,1839904336.049207,1381722000.0,1441095424.6982648,-420687000.0,1193082964.7067995,271111000.0,278748028.78257763,201537000.0,345207375.1517391,472648000.0,628824063.35264,5387000.0,12551801.013234437,265724000.0,255690371.858929,5387000.0,23057656.92364882
1060,432,1,3194462000.0,3454207347.1624107,1643299000.0,1821845866.1753025,1512215000.0,1601078102.347766,817744000.0,856197167.7282727,0.0,-67394851.36066712,817744000.0,777952545.1837317,37900000.0,78189610.7527341,779844000.0,786007431.0334592,37900000.0,70189736.69481444
1100,895,3,6042273.0,56733210.47909701,3627261.0,-1464131.8949293494,2415012.0,71813367.72770068,0.0,5528993.971732192,0.0,8990742.373631887,0.0,13157876.256551772,-1829562.0,1120038.163359104,1829562.0,2858422.2609944567,-1829562.0,2670571.710737588
203,426,2,76266906.0,22586293.341753125,57438990.0,31212841.1811803,40912361.81482647,10502129.228702158,9146097.0,20310310.099234305,0.0,7708387.228617059,9146097.0,26466505.558243886,-2633902.0,7192941.708275214,11779999.0,13548730.863252357,-2633902.0,6761579.235981677
1493,1399,4,-3532973000.0,-3385296462.3809586,-2747133000.0,-688901992.0298493,-773571000.0,-2176747843.0384364,87737000.0,87769705.5700047,40236000.0,578619307.7795577,103187000.0,568119659.842223,7123000.0,-44318247.924453355,80614000.0,159118806.60397476,7123000.0,-71349101.0339701
543,815,3,846734000.0,-2988609440.5668073,635659000.0,-685556547.900381,69332000.0,-2892873707.8040977,204774000.0,182158829.18611202,-13024000.0,-35958451.43556991,191750000.0,474006567.4212802,-52860000.0,-221616061.37907365,257634000.0,439415832.9301871,-52860000.0,-257257003.7440764
1966,624,4,1354514000.0,1582062589.3707201,675720000.0,565687140.7898257,319291000.0,474835315.4655622,-16558000.0,-10684954.552427664,64132000.0,73304049.33259237,47574000.0,74620117.56387037,22229000.0,-5974691.498588225,13428000.0,43988939.18909197,-29986000.0,-54673893.74151975
1802,437,1,270533000.0,348565250.0943085,240046000.0,296952819.7817466,30487000.0,59578646.68072722,26052000.0,38856040.743383944,12454000.0,43074298.5240905,38506000.0,79613830.25806329,-21038000.0,-3379666.2625345364,47090000.0,43833492.973125264,-21038000.0,-4977452.229741174
1372,1341,2,583783000.0,758105178.8272209,717382000.0,884733490.8113734,-133599000.0,-133993285.21662593,41865000.0,22401685.100341447,32703000.0,17050928.986623906,74568000.0,37570727.27669766,-32006000.0,-56510714.87078411,48224000.0,62300347.47524444,-6359000.0,-39898662.374903
1325,1439,4,534446.0,13055674.552333832,9794849.0,-11362371.344763696,-9132038.0,60419919.134340405,6264.0,2971252.7498859763,3881.0,9457718.7465414,10145.0,11119566.40825513,-961868.0,-1037637.5206650151,972013.0,1970762.7149013951,-965749.0,1000490.0349845178
1504,1241,2,106308000.0,46945366.070664346,29369000.0,5942469.663659871,76939000.0,55848274.81576952,15630000.0,18687210.83582129,0.0,12750901.095006455,15630000.0,31575734.583915316,-23899000.0,-1171461.145539401,39529000.0,19044051.8717064,-23899000.0,-356841.03588542156
1347,1518,0,369031000.0,370894786.3084959,216722530.1814524,149835883.83570978,188777000.0,230948863.0298974,45044000.0,47876269.67923702,42173000.0,-17406901.378315717,87217000.0,39501926.794190116,-3804000.0,15497363.732428588,48848000.0,18998823.739719328,-3804000.0,28877445.939517274
1492,872,1,327784000.0,233189935.9545058,323919000.0,286247698.5248661,3865000.0,-38146681.40499437,33496000.0,26585064.908985287,8201000.0,2841134.4344085297,41697000.0,28563893.906061657,-4913000.0,-18496827.812182754,37287000.0,32851052.751146175,-3791000.0,-6265987.8421606505
1107,1504,4,85658000000.0,129753952387.62196,88335000000.0,97653961368.08464,-2772000000.0,18973319966.944115,5387000000.0,1028526886.0239058,14002000000.0,19878856281.465694,16935000000.0,16911007971.911463,1165000000.0,-4372356344.214667,4222000000.0,6659073458.793045,1165000000.0,-5630546572.769132
1336,431,2,898860000.0,906574238.5437999,527877640.3036609,534094887.6600063,360528000.0,256303075.5128047,68259000.0,88499638.9281759,42065000.0,-32970287.59767232,110324000.0,51475282.31869834,-1325000.0,6709906.581731666,69584000.0,67936643.588454,-1325000.0,20562995.339721575
599,1357,1,50546000.0,3615806.3803768754,5959000.0,3106974.843622625,44587000.0,8286064.904089108,1989000.0,1209598.5535429567,1909000.0,3520463.5490111504,3898000.0,3909360.9682564586,-1895000.0,-4558756.977612727,3884000.0,7653897.409877837,-1895000.0,-6444298.856334772
117,630,3,939056000.0,948092578.0568734,419590000.0,389555004.93325424,517473000.0,604408636.7367111,90527000.0,116055484.38888106,120216000.0,112749941.40410659,210268000.0,223916850.99263555,61012000.0,82428202.19283034,29515000.0,36966039.264118396,61012000.0,79089445.12476261
1825,1520,3,20027115000.0,18224212560.13661,12952737000.0,11553644317.703161,5611108000.0,4881840296.47328,32786000.0,-188097205.89024168,283742000.0,399644965.52012163,316528000.0,301006523.3484562,-1347477000.0,-460231970.05904984,1910658000.0,833424946.8544173,-1877872000.0,-1021522152.744659
1507,300,3,124094000.0,216609474.17255414,18130000.0,39828682.72579497,105964000.0,191930111.70740068,830000.0,10892154.583395235,0.0,13727510.96168508,830000.0,24015015.6394435,-5787000.0,1990549.635465682,6617000.0,5800629.102000326,-5787000.0,5091525.481394722
321,587,1,68675000.0,188531701.89860642,40331082.646745786,137744963.82689828,53645000.0,80650191.80564412,10938000.0,10126619.669796348,6604000.0,18702001.448803917,17542000.0,39528438.78755316,880000.0,-8201296.808515685,10058000.0,17907188.051029988,880000.0,-7780568.3812335115
1482,433,0,1833700000.0,1938175342.220686,811331929.4597701,879145924.2633514,482900000.0,541870399.0998144,110200000.0,112973810.18444362,356000000.0,343146192.1454395,466200000.0,448039675.45639384,45700000.0,75898193.19754247,55600000.0,50304977.31267112,54600000.0,62668832.871772185
508,1187,1,62515472.0,15585327.80234158,29595817.732691668,15131469.459106147,21861273.0,905400.0522032678,7032458.0,7292002.126194738,11256239.0,11072568.330611367,18288697.0,17728438.32217834,-1564350.0,1637798.2204322834,8596808.0,9767652.212975092,-1564350.0,-2475650.0867802873
1411,610,3,33859785.0,66155720.93090129,6178818.0,-12702249.920915425,27680967.0,111600577.2664538,-63384.0,5845942.489693381,87873.0,7207596.836638074,24489.0,12328495.440010458,-2675666.0,-206900.23769823648,2612282.0,3336639.4398449287,-2675666.0,2509303.0498483013
718,1603,3,770792000.0,980406758.5907902,581187000.0,795698854.0519336,188503000.0,112028177.50720465,456709000.0,461849264.2546326,0.0,17833505.073315144,456709000.0,480215233.25315475,-29756000.0,6010879.5902889045,486465000.0,473901115.7999036,-29756000.0,-12051851.545271046
1865,1457,1,4753100000.0,5317602706.631628,2691038000.0,3297949764.1183147,2062062000.0,2163288338.6362615,383135000.0,449208871.63095915,0.0,-138056019.8282205,383135000.0,296025510.2379178,126771000.0,89426128.13154484,256364000.0,398295930.3310634,126771000.0,50912941.29989611
710,1426,2,9330700000.0,4611640362.901709,4987700000.0,3576271663.808621,4343000000.0,-345162219.5481756,590200000.0,729142522.3361521,367100000.0,824687688.2202586,444000000.0,1139940388.3261938,121300000.0,142484738.3370824,468900000.0,492278180.0669037,121300000.0,236864342.2692491
285,985,3,1797231000.0,722789979.2427363,1568932000.0,1607077383.502792,228299000.0,-592229677.2300588,143030000.0,101121271.14990523,0.0,13463493.852424107,143030000.0,139442731.37804735,-113543000.0,-156398018.50802583,256573000.0,253251939.10027298,-113543000.0,-152130667.95036826
1609,179,4,90048000.0,631287319.5191575,45436321.63528667,247960689.36991158,37547000.0,437161059.9828805,2482000.0,2360770.866791278,9262000.0,65871149.65297126,11744000.0,59797839.02125453,1360000.0,-17657210.331143513,2815000.0,18561753.726095773,-333000.0,-16200982.859304486
1814,1095,3,190817000.0,191177819.2013532,91955000.0,56531788.56396437,118567925.39840196,158001706.02546066,16838000.0,19064343.597441033,21962000.0,31170822.41121035,38800000.0,49293190.69750936,3292000.0,4052942.6916412343,13546000.0,13191399.714385636,3292000.0,5872943.883055244
720,50,3,24930824.0,-3141497.6138973236,6278564.0,-12969216.474231958,18652260.0,44992281.73505172,7866761.0,13890683.694060817,20382092.0,28143788.622335292,28248853.0,40810986.42967147,1448213.0,3840081.206142297,6418548.0,7467257.191239014,1448213.0,6423426.502821701
1707,149,4,6071000000.0,3379674696.5612855,14261000000.0,13694980786.151102,-8190000000.0,-12500290735.60741,1287000000.0,1281215156.5553877,421000000.0,271764246.5270783,1708000000.0,1546990939.003577,613000000.0,582652070.5639259,1095000000.0,863435586.7111901,192000000.0,417779569.8442009
485,1443,0,5768300000.0,5615556910.024744,3017800000.0,2879668241.066624,2739100000.0,2702195363.9937124,487400000.0,507607408.277284,888400000.0,953600387.3306328,1375800000.0,1448710626.943509,276300000.0,286495405.153847,211100000.0,219852330.09733477,276300000.0,287755078.1799492
1364,1252,1,3486179000.0,3554968071.7656198,1927467000.0,1851071958.6092174,1501742000.0,1543010828.8884916,315111000.0,317250703.90463674,669472000.0,493786259.66058373,949217000.0,818197987.6308099,-24190000.0,101926248.44376278,194277000.0,208610869.0699146,120834000.0,108639834.83472234
1943,1464,4,496042000.0,516885217.3588544,349488000.0,323901470.3990702,146554000.0,223237126.93461567,33924000.0,30501461.631972134,212763000.0,227275854.70405585,246687000.0,255764408.5499239,12448000.0,8233408.485944498,21476000.0,20638829.30206808,12448000.0,9862632.329904031
708,512,1,1713800000.0,1914535309.0740125,864747334.9608463,813139150.5156918,585500000.0,812195103.9946411,141400000.0,124327763.86159264,205900000.0,193005130.73613462,347300000.0,304260114.3672807,100200000.0,72595810.21334054,64600000.0,79150728.13800706,76800000.0,45177035.72358564
1795,256,2,5817000.0,-70225679.69679105,1413000.0,-28587723.035936654,5436000.0,-29606376.87934807,5000.0,3217408.5097284466,0.0,10545534.229083516,5000.0,13618901.01379726,-3525000.0,682723.5077924323,3530000.0,1877566.2288068384,-3525000.0,1339842.2809212282
1196,860,3,4180537.0,41984130.69367945,13379601.0,35230807.85953075,-9199064.0,29996386.49287516,1107842.0,1424687.0476468503,974711.0,4445381.970735919,2069845.0,2375663.396288246,-2577294.0,-8613009.042278145,3685136.0,9641674.168824606,-2577294.0,-8216987.121177889
1785,368,0,6656000000.0,7250125199.708397,2127000000.0,1684794167.1319404,4529000000.0,4441026250.739019,386000000.0,683471616.4328846,110000000.0,-541137160.6026185,496000000.0,-192987230.9009771,-53000000.0,107450636.26677492,439000000.0,110110186.53709996,-53000000.0,573361429.8957851
1117,1482,1,191593000.0,107928650.85881782,250675000.0,113045542.84191957,89973054.63642293,152118227.5215634,28173000.0,19757861.120402932,35245000.0,17700353.91877301,63418000.0,40493112.937792435,-6852000.0,-17962122.67461088,35025000.0,41613212.97892937,-6852000.0,-21855351.858526222
611,528,0,69753000.0,166501234.56704676,24624000.0,90965422.89234766,45129000.0,7420689.548710942,4333000.0,-734346.1631075144,3937000.0,518742.51096636616,8270000.0,-4201808.0851851255,-17948000.0,-22623997.50408426,22281000.0,22218053.351504218,-17948000.0,-22952399.514612116
1037,1096,2,12798100000.0,13929292551.410244,7698700000.0,8615294937.680553,5099400000.0,4907691146.659301,578600000.0,547325218.5045037,1141600000.0,1054228875.7906467,1720200000.0,1584855614.009183,210200000.0,129222670.89840382,368400000.0,341035732.1582668,210200000.0,206289486.3462369
1049,1368,0,41718000.0,67902585.34964615,16883000.0,38568276.37603456,24835000.0,61874580.61839935,4472000.0,7436665.51043256,-7000.0,3398727.4056971725,4465000.0,11317245.363099083,467000.0,-113819.62443339545,4005000.0,10136502.888548486,467000.0,-2699837.378116401
181,192,1,2175066000.0,2226260453.2061152,720018000.0,721567512.4608513,1455048000.0,1436653921.6870275,262895000.0,327523107.3972853,0.0,20424278.887237012,262895000.0,348554199.7189622,-74357000.0,-2182855.4352769554,337252000.0,340092866.3986699,-74357000.0,-12569759.001384392
1530,1427,1,432444000.0,432123565.34924376,58115000.0,136002550.71887273,374329000.0,292884969.23894954,30953000.0,21736097.60954745,9019000.0,-1415659.639793355,39972000.0,17418673.651885673,-4508000.0,-17987498.80937871,35461000.0,43435246.10732037,-4508000.0,-21699148.497772783
1172,703,0,1951144000.0,2015294457.697859,976648000.0,1034165455.0010886,828149000.0,636953760.1079998,81471000.0,3532482.580365479,811299000.0,881637671.0548114,892770000.0,878971093.6491766,21174000.0,-29592329.213361308,35340000.0,-13113700.23457133,46131000.0,16646182.81493618
1844,177,1,5184000.0,-191176020.6588143,33317000.0,-66208931.53647685,2568262.933576247,-116548398.60861975,28000.0,-10170850.755944833,1138000.0,-48531553.26160473,1166000.0,-33742966.99752577,-1174000.0,-18474533.643912256,1202000.0,-262684.1587441191,-1174000.0,-9908166.597200561
937,1211,2,30042800000.0,30535721766.40269,15158963259.867964,15117810868.432148,10331300000.0,11292135876.30664,1541600000.0,1637522506.0670478,2284300000.0,1834601509.9310327,3825900000.0,3444039640.1946115,727800000.0,770847961.2243916,402100000.0,417067806.3893407,1139500000.0,1220454699.6777074
1319,819,4,3143366000.0,3419319138.6689157,724791000.0,743180131.5856149,1686216654.8151803,1960000480.897571,293240000.0,189951976.00399685,0.0,3588050.9678347856,293240000.0,194248525.4288083,242794000.0,124739804.05163668,50446000.0,67710628.58520742,242794000.0,122241347.41878933
785,508,0,2558318838.0,2796488647.8684363,289865031.0,385870486.58776164,2268453807.0,2339022506.615259,191440633.0,196184315.41859013,384407857.0,396665081.9641975,575848490.0,582964946.9983549,122416529.0,159167912.13443834,69024104.0,43635733.444972016,122416529.0,152548581.97361815
534,742,1,355784000.0,343909383.29302865,359982000.0,335619708.6351768,21035000.0,29179607.552545786,21274000.0,19651305.41730119,23247000.0,55473421.5836795,43857000.0,79025548.33653007,-2501000.0,-9571742.81668014,23775000.0,22711060.683468778,-2501000.0,-3059755.266167547
1073,970,3,107571000000.0,76928452387.7962,49865975585.04998,43050584274.23229,57705024414.95002,30770269481.747654,4680000000.0,-6109292120.327262,16059000000.0,13182613462.067398,20739000000.0,8004611015.820139,2233000000.0,-2898853439.757105,234000000.0,-558801707.7602818,4446000000.0,-5550490412.566928
871,1115,3,357016000.0,437153570.3332928,134021000.0,155331414.06110343,222995000.0,276985652.0280008,10859000.0,10698665.962286457,60424000.0,66228239.02120115,71283000.0,75139418.07189259,4410000.0,2442073.761891627,6449000.0,6936203.849613778,4410000.0,3762462.1126725418
145,1561,3,10492900000.0,10966779708.046028,4642648635.342979,4993827816.851507,7724300000.0,7592557838.413846,1077000000.0,1293570058.5297413,2546000000.0,2714260736.3542614,3623000000.0,3982138286.7839956,389500000.0,556545264.3440249,626900000.0,695099861.0521095,450100000.0,598470197.477632
1137,1231,2,221167000.0,270336970.35302967,272405000.0,275022369.1873485,-51238000.0,-25446370.208807737,26384000.0,31087470.51633779,0.0,8883864.397428157,26384000.0,40254723.897743374,3123000.0,-2818351.3867181363,23261000.0,30301778.126491643,3123000.0,785692.3898458965
1853,1087,1,644700000.0,798344005.5383089,668700000.0,920595871.9825451,-24000000.0,-75632969.57755879,11300000.0,45533207.79038299,30400000.0,128487046.20244211,40500000.0,156637700.826544,-2900000.0,9119004.700978901,9300000.0,39863728.064324275,2000000.0,5669479.726058984
1607,435,3,5733000000.0,5113517997.192776,4386600000.0,4117914361.873428,1332700000.0,1162938782.3985953,508800000.0,453200116.0084583,1740100000.0,1772210918.1438484,2248900000.0,2222731623.901784,201100000.0,154563618.5139551,328200000.0,324285040.46837014,180600000.0,128915075.5400879
497,361,2,3187469000.0,3037679502.8990607,1581882073.387936,1639359992.6270802,1402929000.0,1083458992.407845,12023000.0,6589857.890399568,118303000.0,190834450.37134868,130326000.0,189400568.84897387,121116000.0,149855571.648495,236940000.0,249825750.1554313,-224917000.0,-243235892.26503202
1789,988,0,160962000.0,185811664.91406608,136871000.0,177402655.21732873,14091000.0,-15558323.573376179,33234000.0,13092102.211245593,28516000.0,27220608.49194227,61750000.0,42982071.97254228,-4105000.0,-25970910.718902644,29699000.0,30638440.666694783,3535000.0,-17546338.455449652
1733,155,3,1070082000.0,1049820515.4343238,790095000.0,727430540.0943706,279987000.0,418839073.08281475,59499000.0,47220717.3635029,92514000.0,98931196.11137891,152013000.0,148205763.48082104,-6147000.0,-21430733.767324626,65646000.0,61865036.10687515,-6147000.0,-14644318.743372496
1735,42,1,55335000.0,58407792.807629526,11648000.0,-887223.3080422878,43687000.0,68586996.23341142,13874000.0,15178503.868782386,0.0,-1348742.1712549757,13874000.0,13857854.882452697,364000.0,867154.5979716936,13510000.0,13903076.92262483,364000.0,1275426.9461577027
1273,370,3,8855100000.0,7963510926.410044,4468096700.788768,3967178278.787922,3543300000.0,3470677623.3524647,468100000.0,374341857.9965435,2041800000.0,1997255019.24434,2509900000.0,2382123976.9928827,256500000.0,239442711.57469586,211600000.0,103912778.47833325,256500000.0,270429079.51820946
226,1510,3,1045317000.0,1007710305.1071103,491551000.0,431133163.65602744,553766000.0,546234840.8909469,49476000.0,48623993.37237199,27012000.0,20755765.468082666,76488000.0,61812762.912281804,5569000.0,-3082028.43086261,43907000.0,42123590.64729607,5569000.0,6500402.725075718
856,682,1,3335011000.0,1961977176.5863726,1532336000.0,1084163899.3692966,1376443773.6613572,917751895.1056856,158805000.0,77725413.91676326,458734000.0,393701091.4554055,617539000.0,492547923.3174354,82276000.0,24831570.215791415,26748000.0,11614627.913196892,132057000.0,66110786.00356676
610,1489,4,50788000000.0,53332554946.5975,23543456582.29001,24793095365.361412,11845000000.0,13459490695.314415,1286000000.0,1683559785.1222913,484000000.0,637179860.9214509,1770000000.0,2294775635.137072,994000000.0,1226062986.2853465,146000000.0,256829428.75824133,1140000000.0,1426730356.364048
434,1542,2,9209798000.0,13963799751.20099,3242862000.0,4972619349.866531,3654836000.0,6627174477.364639,758604000.0,978216712.5157526,-63000.0,-48835640.87484096,758541000.0,869243993.6819787,306700000.0,448321367.9470759,451904000.0,429579546.99318665,306700000.0,548637165.5225658
1765,981,2,3861516000.0,4655457780.242868,3060094000.0,2935357682.592901,801422000.0,1923273688.8171387,246503000.0,104382118.87816703,543454000.0,256370578.28162432,789957000.0,358183894.53257096,-286586000.0,-435175742.6144133,130761000.0,167017331.9197186,115742000.0,-62635213.04155188
667,231,2,3117800000.0,5178680657.375691,2444800000.0,3297675050.7514205,673000000.0,1913882874.656575,86700000.0,157785315.58080608,411500000.0,587479225.6557186,498200000.0,694062975.8813093,-419900000.0,16821656.46135006,63400000.0,77275553.99002253,23300000.0,80509761.59078336
1194,1588,3,84073.0,25772731.58585131,2814055.0,95925617.55400419,-2729982.0,-23801989.934102237,0.0,-4139653.6833552346,0.0,-19409831.078850374,0.0,-31462039.628863126,-647078.0,-6246918.652741954,647078.0,-3512965.8803407326,-647078.0,-626687.8030145974
626,281,2,250689000.0,434586205.50315154,83024000.0,153506478.1058199,167665000.0,226460004.92633057,0.0,15889835.985705115,33193000.0,84343216.21475711,33193000.0,92471772.57025954,-43672000.0,-28028452.71445656,43672000.0,39439400.8298418,-43672000.0,-23549564.844136983
1654,95,3,2267553000.0,2387066004.9768157,1375272000.0,1464570950.127388,519294000.0,634769598.923209,30179000.0,33978478.06133398,36686000.0,35852088.249386966,66865000.0,59402910.05723596,-15417000.0,-10474088.928206433,38864000.0,27983411.11929207,-8685000.0,5995066.942041554
288,1008,0,2221575000.0,1849074617.190901,1034139000.0,851015426.2865747,1187436000.0,1011249458.6187319,131964000.0,133451008.3659462,106311000.0,279316015.3020586,188755000.0,337482579.7112838,3712000.0,12227600.163320098,128252000.0,130277162.44725874,3712000.0,3173845.9186875466
1665,605,3,555271000.0,230276624.42936194,273881000.0,342813120.28084964,281390000.0,-117020047.93973583,77610000.0,60722732.62566656,73228000.0,13827914.709252205,150838000.0,73804405.65568389,6400000.0,-75245452.18673034,144438000.0,210058317.30161968,-66828000.0,-149335584.6759535
652,935,3,1810200000.0,3649752264.4979277,1334200000.0,2155553695.2479877,472000000.0,2119679972.5110874,111400000.0,-117550064.23752263,439000000.0,603603752.6223145,550400000.0,463329269.6631966,53300000.0,-30396289.66632209,43800000.0,84434325.00292331,67600000.0,-201984389.24044567
1078,46,2,339972000.0,4291209.964098096,145992000.0,-7239003.707919955,193980000.0,11444806.729440242,800000.0,-53462024.73161225,85000.0,-23497811.870575964,885000.0,-83240743.29458553,-35502000.0,-87497583.55371423,45899000.0,33462296.303572007,-45099000.0,-86924321.0351845
778,1331,2,992330000.0,1379683561.636344,401273000.0,848825237.75235,544681000.0,364872563.7141716,417282000.0,438255113.99988085,0.0,13873302.524586754,417282000.0,430856820.21566623,5536000.0,48326905.01393494,411746000.0,431464611.2377707,5536000.0,6790502.762109911
29,1129,4,600271000.0,140852811.7750196,137438000.0,86753792.3941276,462833000.0,-33924683.769143224,73869000.0,80570956.74910894,24421000.0,-112892984.08934936,98290000.0,-48786256.31211811,-8089000.0,10587977.420341697,81958000.0,83571324.57036829,-8089000.0,-3000367.8212594967
854,464,4,47193000.0,61393421.08183527,31000000.0,15400499.164204001,16193000.0,83086938.12191024,4954000.0,6104321.450276114,3898000.0,10768805.911299445,8852000.0,15815519.956002474,-615000.0,-2897345.3991247094,5569000.0,6490905.760036901,-615000.0,-386584.3097608788
1423,1344,4,150549000.0,156228411.4838432,163792000.0,207255794.95964837,16674000.0,-21986916.96321535,28323000.0,6413625.303936049,6429000.0,-19047034.238842145,34752000.0,-15820934.605929345,-13758000.0,-54140816.99230433,21733000.0,18258766.026096642,6590000.0,-11845140.72216077
1406,183,0,62996000.0,74019923.06652135,12638000.0,25759617.6322456,50358000.0,94120251.70215672,9919000.0,8926868.882494908,5920000.0,2500483.5488274563,13543000.0,11252096.467034139,1979000.0,-880871.4069616785,7940000.0,12444100.286248967,1979000.0,-3517231.4037545035
1624,411,2,56415000000.0,56953166904.10443,26707757359.48695,27417756191.636616,20622000000.0,22487377192.29589,4258000000.0,4019856274.610956,2744000000.0,2788561982.659742,7002000000.0,6850047698.270507,471000000.0,261137435.13479385,1302000000.0,1495324601.268114,2956000000.0,2524531673.342844
926,211,2,572995000.0,705158688.3195429,271264937.13018215,469918502.29073584,210105000.0,-41040916.14548427,-46109000.0,200471083.29811144,111142000.0,-60629298.97199301,65033000.0,128389667.38788205,53448000.0,121003533.41865395,184993000.0,154197011.45032457,-231102000.0,46274071.84778645
1324,186,2,11156646.0,-61837052.902505755,14063458.0,-14745630.957666337,-2906812.0,-37562201.715174705,-483256.0,4947784.093110092,692752.0,10829032.497251065,209496.0,14744322.951877773,-2378023.0,309858.6652142252,1407493.0,1348260.9294322506,-1890749.0,3599523.163677523
809,491,2,746651000.0,1126876165.0300193,563281000.0,647544677.931529,350347808.70326334,552661159.9486076,20268000.0,15591987.90261985,132273000.0,196647373.8843562,152541000.0,213462434.199782,1482000.0,-11692065.765082214,18377000.0,22312372.423620254,1891000.0,-6720384.521000439
492,346,2,203605000.0,206467784.6202476,164863000.0,276158823.7134166,38742000.0,-89286237.83563721,38308000.0,41235337.246117175,13284000.0,34305296.54941026,51592000.0,74192511.59322965,8585000.0,14845912.846386328,22801000.0,12586706.605282687,15507000.0,28648630.640834205
383,831,2,35610551.0,-31164036.987272024,44852933.0,34060453.10988724,-9242382.0,-34524982.03584021,3037874.0,-6627606.181398347,5691278.0,-1206815.2069929,8729152.0,-7563348.919683069,-7028283.0,-7901251.805265152,15757435.0,10551747.106380694,-12719561.0,-17179353.287779372
1250,12,2,4596600000.0,-2856279277.7832093,2319347415.031524,-1026287082.8625402,3466600000.0,389875579.8237581,2555100000.0,2305440422.7410374,3033000000.0,2694981746.3136225,5588100000.0,4858226855.735974,1174900000.0,1247286831.5182643,1380200000.0,1040635719.5025507,1174900000.0,1264804703.2384853
229,649,4,3802385000.0,4085555630.6510425,2636965000.0,2733266697.6924057,1165420000.0,1443698386.2246714,157645000.0,136741844.68395662,488142000.0,456372815.6681649,645787000.0,585679950.0815015,66824000.0,47039652.469205424,83253000.0,61302522.11227949,74392000.0,75439322.57167715
1531,264,4,12852000.0,33373259.043143153,5815000.0,-4946335.539332926,7037000.0,73073419.931492,1838000.0,5649312.404119283,1427000.0,13832369.061608942,400000.0,18216128.782964483,-1116000.0,-694329.2555262432,2954000.0,4197648.1623532325,-1116000.0,1451664.2417659555
1035,1424,4,11747000000.0,10745090241.495289,7158000000.0,5988442556.346674,4503000000.0,3625855205.681187,770000000.0,1001092778.0447443,1424000000.0,1051822691.6250296,2194000000.0,1979826928.153179,154000000.0,730513008.1776816,2040000000.0,1815645195.7381644,-1270000000.0,-814552417.693422
1774,1335,3,7236206.0,7450506.127433181,4913744.0,-11265811.93705833,2190428.0,15417403.481802523,634746.0,-1542589.026346691,2326079.0,1222303.7359249517,2960825.0,-5644010.693084732,-234151.0,-14449748.383660182,886442.0,-3426481.204719484,-251696.0,1883892.1783727207
868,1093,0,6411000000.0,8488754632.5762825,3370100000.0,4977144370.854298,3176144611.7201624,3873105580.5982814,371800000.0,522060760.6441675,637000000.0,871817079.1014978,1008800000.0,1379654901.316956,180100000.0,278319444.3889825,166200000.0,193364890.32789785,205600000.0,328695870.3162697
1391,1232,1,345836000.0,165848706.79280907,48837000.0,-23478925.23262137,296999000.0,209271806.64245805,3870000.0,-16820087.399279878,113328000.0,97181445.16922124,116752000.0,81008676.2099392,297000.0,-13397479.947287355,3573000.0,2043931.0024096817,297000.0,-18864018.401689433
1734,577,1,20108000.0,-38795570.711420655,9068000.0,-17903087.28823811,11040000.0,-9172852.406861097,3847000.0,943821.85338182,661000.0,892562.4702005032,4508000.0,2487028.38887313,-4126000.0,-7654846.1602947,7973000.0,9897277.180603527,-4126000.0,-8953455.327221552
1416,1268,0,1564856000.0,1632336339.412928,1122858000.0,1174745190.0861278,416354000.0,254322095.85643715,276207000.0,273445659.59789944,-11227000.0,-21646153.424971223,264980000.0,241743305.56924894,5657000.0,14152161.372049186,270550000.0,256698733.8046021,5657000.0,16746925.793297268
352,288,0,1125373000.0,1173233778.7248964,521681703.6382896,666999086.777975,29987000.0,345409164.0017748,142411000.0,120199221.8330639,-42080000.0,-326475962.11277795,100331000.0,-216352541.08112013,17283000.0,10413941.348132854,125128000.0,170317668.7998836,17283000.0,-50118446.96682078
135,561,2,630871000.0,826469751.3809512,398464000.0,516053724.0744759,232407000.0,397467499.22370696,80823000.0,106730646.83253908,413091000.0,444356294.3095362,493914000.0,525357914.8980956,-14453000.0,15091398.917337842,95276000.0,90511841.13765076,-14453000.0,16218805.69488794
1338,659,4,123668000.0,632650960.7746465,40963000.0,311301654.9537261,50285000.0,425517221.4884678,29188000.0,52790188.73716374,11108000.0,102652886.10609584,40296000.0,149122249.11417478,-25553000.0,22735866.97894665,35508000.0,25091699.832311396,-6320000.0,27698488.90485216
1076,444,4,34865437.0,216521706.215761,19085704.0,68823215.86402991,15779733.0,249097828.0173613,0.0,11220240.583705004,1198.0,55284475.70988895,1198.0,112605531.95292436,-6520186.0,154381.43004289642,6520186.0,4938929.714108996,-6520186.0,6281310.869595902
1426,1104,4,1275550000.0,1461210231.3851027,1504271000.0,1534450409.9028997,-228721000.0,-154743754.962233,-35238000.0,7024489.338976588,59168000.0,21200821.66867325,23930000.0,37689785.94932104,6621000.0,-53212499.19030397,102745000.0,122623006.35719442,-137983000.0,-115598517.01821804
2023,1321,2,151712000.0,104379172.88537318,195428000.0,206481552.36566055,28605000.0,-2191739.9859597683,11588000.0,-4870413.811903663,43977000.0,41786498.75561235,55565000.0,34118804.78133591,-8864000.0,-10646496.98787517,20452000.0,8130066.695789762,-8864000.0,-13000480.507693807
1219,102,1,1812825000.0,2263676993.566879,1134969000.0,1402332420.6814194,677856000.0,863722000.9441276,53184000.0,68186048.89555131,120142000.0,181121999.58492193,173326000.0,253163944.7863788,31929000.0,46571629.33041466,16945000.0,29104898.194525316,36239000.0,39081150.70102591
201,633,0,-1450776000.0,-5559632860.504687,-894261000.0,-3342960874.2390122,-556515000.0,-1215181764.0092878,162740000.0,208167437.32640922,213058000.0,539154477.1982884,375798000.0,766834530.1720153,-31210000.0,-55315335.068124495,193950000.0,252803182.07669407,-31210000.0,-44635744.75028516
580,782,1,526507000.0,1015166220.3468852,370554000.0,560989341.0313525,155953000.0,504959686.20913696,66328000.0,8177034.538220324,107226000.0,161979802.02776608,173554000.0,168811744.70310277,-7923000.0,-57493376.90321286,69543000.0,63381821.85860276,-3215000.0,-55204787.32038232
268,1214,4,3089123000.0,2096075296.6506715,1300561000.0,767223578.9975164,1788562000.0,1445540584.6370175,286131000.0,329125934.36856675,850247000.0,576080605.2267525,1136378000.0,926822634.9711757,205227000.0,185587729.88832092,1010678000.0,1049734499.8228533,-724547000.0,-720608565.4542867
484,1597,4,2026392000.0,-106634963.2176975,773709000.0,-483497465.2326741,1259138837.126244,753610962.5822425,36270000.0,67415973.47142404,906000.0,-878735072.5307447,37176000.0,-803024281.6515633,-286393000.0,-181264331.04014695,341823000.0,213750930.68740693,-305553000.0,-146334957.21598518
1169,141,2,59798486.0,1232914.929964304,24561228.0,-30722549.301215053,24680354.49630476,39896854.932116985,-143441.0,-2887115.252476901,231837.0,18832200.785171166,88396.0,16378783.25204739,-6239976.0,-6170023.952375306,6096535.0,2203700.2277816013,-6239976.0,-5090815.480258835
595,745,3,269960000.0,164846116.21722293,370356000.0,342142943.4159833,-100396000.0,-180010518.3674175,29296000.0,25670417.715829164,911000.0,-8966062.489777632,30207000.0,17341074.42033887,-31260000.0,-50275818.249860436,67269000.0,75576026.08336726,-37973000.0,-49905608.36753821
1664,134,4,1411497000.0,1541605357.3500595,713457000.0,835172275.7680395,667698000.0,698798163.4440663,123110000.0,124466928.54701938,21917000.0,27822958.107791822,145027000.0,147549565.89718518,16171000.0,20548176.2237793,124278000.0,120267030.51980293,-1168000.0,4199898.027216312
1737,1476,2,1068388000.0,2404821968.6594276,793168000.0,1048796146.6214737,275220000.0,2137679976.6447837,1125000.0,143476876.88504127,126961000.0,437899069.98227775,114574000.0,540815907.7663794,-123332000.0,118274133.57277429,124457000.0,78511712.3910839,-123332000.0,64965164.49395659
1105,754,4,736494000.0,550338933.9724257,390655000.0,361329568.2582925,345839000.0,372160588.0058759,107458000.0,99925181.00496829,77264000.0,79914828.701549,184722000.0,185226397.03410602,-21496000.0,-35073507.88824586,128954000.0,142391681.8006882,-21496000.0,-42466500.795719884
366,1105,3,1026034000.0,997772582.0932839,544592518.5648394,497231334.26271576,829659000.0,826612941.1762104,179923000.0,181141987.238831,-1664000.0,696354.6791877635,178259000.0,180148581.25408706,43073000.0,51079867.01339109,136850000.0,132067042.36404732,43073000.0,49074944.874783725
847,1594,2,2995900000.0,2293599194.3895245,1720300000.0,1551668634.7610476,1275600000.0,613576403.5443646,234800000.0,268679768.91971815,244100000.0,252564015.29931462,478900000.0,524109690.5775577,25200000.0,36825147.473134495,209600000.0,252438573.06709477,25200000.0,16241195.852623131
1604,937,1,700529000.0,1213099359.022606,363632000.0,312553295.0017338,335762000.0,886807587.6394899,46249000.0,29709353.808842998,72678000.0,51360718.567190945,118927000.0,71589599.66653039,-13197000.0,-62065853.335710876,59446000.0,72195235.04365654,-13197000.0,-42485881.23481344
579,168,0,5913288000.0,7437280306.63317,5639252000.0,6953647765.946619,274036000.0,1467826994.5355422,470311000.0,595291409.0336406,1040995000.0,1102072625.8656573,1511306000.0,1623093561.246747,65962000.0,266913896.41959554,404349000.0,487252684.0313578,65962000.0,108038725.00228164
874,482,1,232365000.0,84582488.10897309,164743000.0,126540023.65140536,67622000.0,-26335310.747354224,43176000.0,38079892.146008626,202053000.0,191519621.06806827,245229000.0,210868046.113503,9035000.0,2744475.7203286877,31930000.0,32076244.41466172,11246000.0,6003647.731346973
193,38,0,24556000.0,48045971.260837376,5997000.0,24478403.400904477,18559000.0,64410577.30929986,-561000.0,-2028564.2369801328,1648000.0,4628674.556069564,1087000.0,3257260.6562977433,-8770000.0,-7754923.459703285,3225000.0,6348488.087900072,-3786000.0,-8377052.32488067
680,820,3,7852974.0,37309670.550715804,8726749.0,-944524.1084942818,-873775.0,55530515.67334673,1562860.0,6402120.733235903,0.0,10255926.370806027,1562860.0,15769092.643726394,-1603437.0,660114.9277898341,3166297.0,3584154.3803977966,-1603437.0,2817966.3528379626
702,1325,3,52606000.0,29189758.121322513,31088000.0,3912064.294116378,21518000.0,42103559.96170887,2202000.0,2217582.8013323173,21569000.0,27439026.482231215,23771000.0,28911785.868205473,-1737000.0,-3429028.9423325714,2889000.0,3354496.0753300413,-687000.0,-1136913.2739978693
499,967,1,641605000.0,505361181.3242429,98505000.0,111542694.42599717,543100000.0,400748757.05466145,35752000.0,35078233.84323369,3063000.0,28663270.227177892,38815000.0,63610927.31127436,-5995000.0,-7522846.381010836,24767000.0,24924051.23402067,10985000.0,10154182.609213172
277,961,2,428119000.0,159895901.03384882,200385000.0,-7147035.525945604,227734000.0,133820794.85350217,32734000.0,1859671.4821067154,3693000.0,53891131.59941378,36427000.0,54820982.81214063,-31432000.0,-57717244.97836973,67859000.0,62073027.81337464,-35125000.0,-60213356.33126801
1540,700,3,1748597000.0,1687744896.5315123,773677579.6790999,655251828.7371063,871968000.0,951356591.95293,88936000.0,78677001.07050169,314131000.0,333590479.0753198,403067000.0,415291653.18297815,36520000.0,18931281.145469006,38806000.0,44330171.16233322,50130000.0,34346829.90816826
40,1512,1,-12646800000.0,-7130669315.925313,-10176700000.0,-5068261974.095112,-2456100000.0,-382951104.26430666,244400000.0,144058372.17093742,496400000.0,-1475538589.8620133,740800000.0,-1214857106.0457578,16300000.0,-741779119.7496419,228100000.0,599843842.5400162,16300000.0,-455785470.3690814
109,958,0,1646711000.0,1218911391.277101,1388441000.0,833383210.8117522,258270000.0,343777260.0060985,48094000.0,28739357.55009176,144654000.0,471178391.86799246,147710000.0,482946457.60389847,-42502000.0,18393663.756844904,79586000.0,1647731.0979608074,-31492000.0,27091626.452130675
111,1108,0,632540000.0,626690233.8317368,270366000.0,264677723.87436944,362174000.0,380866307.115147,197077000.0,157173380.76883984,14622000.0,16506500.620189503,211699000.0,174413711.02508783,-57776000.0,2969190.490694741,97890000.0,87157675.45072763,99187000.0,70015705.31811187
662,285,3,156269000.0,217315636.19894564,70363000.0,87872726.49547309,85906000.0,142379521.1795352,19503000.0,25143241.052648365,30881000.0,45701828.87918408,50384000.0,69770927.72313643,3657000.0,8144211.0787442485,15846000.0,14896428.19413469,3657000.0,10246812.858513512
1749,1091,2,12875300000.0,13281638592.367947,6095371591.431398,6328904057.541044,1810000000.0,1545561420.803697,1227700000.0,1202390216.9321537,4400600000.0,4400571927.820287,5628300000.0,5549916844.887265,478400000.0,358713289.16546243,749300000.0,876387317.736694,478400000.0,326002899.1954604
340,1347,1,441781000.0,500974403.7589922,86587000.0,205495251.96790212,355194000.0,293793405.2633601,97393000.0,112926915.53891526,44971000.0,53973595.969474755,142364000.0,157576537.53776568,9954000.0,15998742.40202402,87439000.0,96458270.57548861,9954000.0,16468644.963426812
811,109,4,1903960000.0,2074628970.5750334,1118147333.3250542,663526495.6709086,464992000.0,1574454663.446356,314173000.0,68785008.67889632,381360000.0,172417739.24270034,695533000.0,257001164.4766095,49703000.0,-224245437.48515034,262823000.0,384194939.60470253,51350000.0,-315409930.925806
1016,567,1,413017000.0,290551888.1343818,156380700.0672279,276384667.5993363,290614000.0,57252268.702292964,164000.0,-4335347.7244518995,0.0,-13346086.100391224,164000.0,-22773396.660217345,-47612000.0,-61034856.69849168,47776000.0,59788346.118322186,-47612000.0,-64123693.842774
1696,268,0,6459000000.0,6621835474.933277,3814000000.0,4025803317.735286,2645000000.0,2428063764.4724526,417000000.0,406210882.8422505,1137000000.0,1337572548.552768,1554000000.0,1737889797.2156882,109000000.0,161349684.9774046,308000000.0,226135165.97230825,109000000.0,180075716.86994237
200,763,0,6683800000.0,6911685911.024809,2530688381.1304083,2715182754.4697995,4153111618.869592,4052236339.8789554,363300000.0,377733618.5618274,268000000.0,376555775.3672556,631300000.0,765389409.4194859,83300000.0,99003057.98046307,257700000.0,288660059.00326514,105600000.0,89073559.55856211
1994,1188,0,165094000.0,176029295.28589737,70482000.0,82224995.6350056,94612000.0,135172738.5885532,17629000.0,17067445.473655213,13074000.0,12587914.280288968,30703000.0,29637410.57147263,1152000.0,-1455871.9366637943,16477000.0,22569926.747037034,1152000.0,-5502481.273382295
735,352,1,8604673.0,-44568299.78655863,2338502.0,-19278584.63657987,6266171.0,-15154341.719270274,1119391.0,-1947278.375480041,1576117.0,-1541617.0513401162,2695508.0,-3397975.5186544955,23726.0,-3524778.747891213,1095665.0,2049350.7687198892,23726.0,-3996629.1441997793
1160,1540,4,30395557000.0,23507608588.12895,16133181687.752192,11804373959.236082,6297705000.0,6965117366.32775,3044686000.0,2784745148.345294,6751495000.0,6477720893.070948,9796181000.0,9160589315.453106,692314000.0,886163153.5355499,2352372000.0,1659362182.4496331,692314000.0,1125382965.8956628
2018,841,2,764077821.0,606027230.4941744,149164973.0,18939174.163286626,540969385.0,607984833.3159137,20737462.0,-4664121.650567688,3810639.0,-25313581.174102716,24548101.0,-29311004.085709557,-1942729.0,-10965835.849956864,26490830.0,8304726.941343762,-5753368.0,-12968848.59191176
597,1362,1,19932000000.0,22854741071.14473,15924000000.0,17281499226.219933,3938000000.0,5348840406.2415285,677000000.0,829513834.6997447,2894000000.0,3394760235.8560867,3571000000.0,4200504018.4969664,325000000.0,522546340.3609623,132000000.0,167948461.92171684,545000000.0,661565372.7780272
1089,365,3,114455000.0,135014786.95718902,66800000.0,67235553.35423374,47655000.0,84703391.77856708,-324000.0,8211516.373389423,692000.0,12056847.433486663,368000.0,19174697.527350605,-4444000.0,168183.4893849094,6127000.0,8504949.494427241,-6451000.0,-293433.1210379754
1635,1058,0,123009000000.0,69634379794.14917,61047097858.95223,17575227594.73348,24132000000.0,51295800775.94145,3661000000.0,1748335613.6487746,846000000.0,7712060300.024745,4507000000.0,9738739536.706041,401000000.0,-2242733649.9447517,5487000000.0,3920264744.3902626,-1826000000.0,-2171929130.741477
394,898,0,1472222000.0,1046001519.4626472,444895000.0,255636672.20019066,1027327000.0,1186728848.4849591,423804000.0,416739192.62551785,0.0,-284322477.82545924,423804000.0,162840386.9016049,44683000.0,41570974.51224363,379121000.0,398954240.79429847,44683000.0,17784951.831218757
176,1342,1,1707972000.0,1757015798.8660893,826699000.0,834678999.2820997,881273000.0,901126714.7757466,161237000.0,172219303.4190753,18721000.0,658971.7897719294,179958000.0,162655800.60774583,-38330000.0,11994177.389879812,218288000.0,169926239.10340613,-57051000.0,2293064.3156692977
958,1209,4,140348000.0,108629761.77897638,22627000.0,-100197618.62998831,117721000.0,169278647.68825912,18849000.0,32654862.072280914,19797000.0,16256258.69840779,38646000.0,44192748.83065309,5179000.0,26099764.253366992,24028000.0,11357631.017372385,-5179000.0,21297231.054908425
651,1103,0,68862000000.0,70933795502.6215,37281000000.0,37396959124.16029,30258000000.0,30331033894.4716,682000000.0,1278302650.1738544,1405000000.0,1856971333.7285845,2087000000.0,3076794716.9206104,938000000.0,795063531.3853352,2969000000.0,2563125416.573547,-2287000000.0,-1284822766.3996887
648,1099,4,484306000.0,446002828.3463518,160149000.0,142884860.38601267,324110000.0,323292305.76123357,35935000.0,34402451.0816033,49919000.0,61810149.29903514,85854000.0,94942652.1623808,8224000.0,5977252.385005094,26558000.0,27349620.56067232,9377000.0,7052830.520930931
1124,928,0,263629355.0,241293458.21850038,139827658.8984726,130409352.83207753,106790041.0,152225865.31492156,4718481.0,7529430.368426211,-3354938.0,3235927.450226564,1363543.0,11430101.210497566,2345966.0,664788.4168266729,2372515.0,7956613.532463774,2345966.0,-427183.1640380183
1983,736,2,22654400000.0,24085537445.412052,10023579681.929111,10917120784.89178,12050300000.0,13381063266.6278,409600000.0,731318833.2371345,3138700000.0,3336733968.33062,3548300000.0,3995757956.97449,145800000.0,531597006.806285,119900000.0,135433482.3477141,289700000.0,595885350.8894224
1330,241,2,55695000.0,102122848.91137046,80300000.0,81369521.75119048,-24605000.0,-2393567.5943279862,-33328000.0,-31255658.52312672,45694000.0,20639743.582223944,12366000.0,-8006328.972711891,-48025000.0,-39319213.52531214,14697000.0,10928955.563163191,-48025000.0,-42184614.086290225
445,395,3,33248145.0,238705851.66615117,21743057.0,148919916.26925606,11505088.0,25204144.202267706,1461398.0,18554192.00126636,569502.0,6679556.980681136,2030900.0,90167728.77305709,-12979193.0,1707884.2397221515,15010093.0,7086885.47856316,-13548695.0,11467306.522703076
908,1449,4,19900000000.0,21967569031.70236,10348000000.0,11434934243.696499,9552000000.0,9680583631.583828,2649000000.0,2823206188.0417786,0.0,290224844.74456716,2649000000.0,3067954752.3782864,467000000.0,812516305.0431231,2182000000.0,1887572577.0962918,467000000.0,935633610.9454914
1585,674,4,2485319000.0,2338495794.786278,1254039550.5762374,1137210098.2826269,1849463000.0,1760494503.1191902,775144000.0,715724844.656031,0.0,-74975490.22724643,775144000.0,642111880.1228613,128435000.0,131525857.74484672,646709000.0,599033023.6645869,128435000.0,116691820.99144486
643,1569,0,959084000.0,1022698581.792726,491986000.0,515603570.94963515,395838334.6316486,432487931.6638695,56609000.0,56765038.25458288,47928000.0,77892294.98241666,104537000.0,131187507.74399124,-22287000.0,-3738958.767210369,141301000.0,134518565.72890422,-84692000.0,-77753527.47432148
1240,1570,4,1657157000.0,479697737.84441125,2335507000.0,2263132282.283607,-678350000.0,-470672509.641503,-96698000.0,216173237.68948942,98929000.0,-23738298.77695471,2231000.0,191086913.53394648,-125632000.0,1303801.7099322975,312618000.0,394938254.43166864,-409316000.0,-178765016.74218035
64,427,1,1590600000.0,1739641219.149665,748600000.0,909831864.7348486,842000000.0,850298856.085229,59700000.0,98618276.16909006,141700000.0,170150353.46647602,201400000.0,271234218.0421775,13800000.0,31043216.934076063,37700000.0,50199966.466222554,22000000.0,48418309.70286753
1027,658,0,919607000.0,902069690.6483884,266509000.0,283154871.3798128,653098000.0,604381158.8482764,68886000.0,75355028.3771148,19532000.0,15066864.650611624,84131000.0,78565714.68629839,-18050000.0,-4568229.648273575,86936000.0,78356599.87625211,-18050000.0,-3001571.499137611
1034,320,3,121754701.0,595763373.3259301,28424394.0,203696214.57104614,93330307.0,372422549.1507366,1406469.0,4177111.96036312,-1378985.0,-74353874.80935213,27484.0,-67367867.87899151,-14928443.0,-194911580.9390069,16334912.0,201824884.80039418,-14928443.0,-197647772.8400316
802,514,4,12973000000.0,24198813684.68639,6013807636.489885,7353422671.888117,6537000000.0,12140965994.25816,82000000.0,1313808310.6985734,545000000.0,771100962.3038249,627000000.0,1862218965.257861,7000000.0,1332556567.7259982,46000000.0,12922926.206937969,36000000.0,1300885384.491627
981,945,3,613608000.0,552288640.1762857,391072000.0,491298673.3673628,222536000.0,-5828599.347100079,1437000.0,-143817770.01245272,10955000.0,-101105536.48367767,12392000.0,-246919869.98690385,-84729000.0,-180763393.64794713,40703000.0,-2569058.4372590557,-39266000.0,-141248711.57519263
1046,867,1,102303000.0,288291436.15790325,104192000.0,111199029.06337792,-1889000.0,182392001.0446874,12811000.0,19132011.63284036,42439000.0,83220233.68220107,55250000.0,97526771.0658254,700000.0,5887993.850469789,12111000.0,15285917.45628234,700000.0,3846094.1765582277
581,454,4,1023085000.0,2805442986.9532623,937155000.0,1465270507.2014234,85930000.0,1518105616.4118154,87759000.0,-5187046.4716754705,257840000.0,323537819.8577838,345599000.0,309558975.01424193,-36941000.0,-238068141.7117234,111965000.0,241532240.77630207,-24206000.0,-246719287.24797654
1033,472,1,822101000.0,1131344694.6751313,260505000.0,433633769.3828236,561596000.0,720515151.4038152,113425000.0,120271395.11770968,-8261000.0,-22574536.864974868,105164000.0,89412900.9990014,25956000.0,3434315.6363768326,87469000.0,115705852.94010656,25956000.0,4565542.177603227
1908,1238,0,972779000.0,1249019141.5201278,674585000.0,865655804.0035636,298194000.0,377412342.6407044,81122000.0,73040117.0108777,33069000.0,11626533.660226204,114191000.0,87205368.3511804,-12742000.0,-11545791.02854751,93864000.0,84876307.98413204,-12742000.0,-11836190.973254625
1486,904,4,505122000.0,439046163.86336935,329765000.0,364610494.70625436,175357000.0,90073834.41793081,66862000.0,66721859.57054409,-15726000.0,-77210916.0736103,51136000.0,-12681660.94793138,-8784000.0,350621.95221045334,75646000.0,64179494.817890145,-8784000.0,2542364.7526537906
640,990,3,420505000.0,308892146.2559644,230508000.0,145902012.70807743,189997000.0,120836226.51156344,53603000.0,33963316.36734946,71511000.0,60552279.918156,125114000.0,87862834.48014931,16734000.0,602716.436350503,36869000.0,30184616.659823954,16734000.0,3778699.707525354
1988,706,2,216274000000.0,212417128306.3459,73401000000.0,63692565693.88599,142873000000.0,156268109188.2817,27936000000.0,25165000887.70529,6210000000.0,3870017403.7931247,34146000000.0,29655701294.5294,13748000000.0,10034047318.588266,20398000000.0,22111781168.862705,7538000000.0,3053219718.8425756
469,262,1,122531000000.0,117244203460.44142,74517000000.0,75064597365.11108,57494689417.43809,11107222411.251846,11370000000.0,12944540034.93536,10501000000.0,37039490833.29049,21871000000.0,50032281502.248314,5767000000.0,6632900756.095731,5604000000.0,7614704307.062758,5766000000.0,5329835727.872565
606,1374,4,5723214000.0,-3195374061.9783554,2776207000.0,615188467.8068883,2947007000.0,-5354050114.353047,448941000.0,249529538.097898,516900000.0,161017538.0625553,865197000.0,345700578.3395492,78214000.0,33501443.81911459,370727000.0,267604821.8233878,78214000.0,-18075283.725488722
1877,1138,0,689227000.0,499297702.336907,562767000.0,302944850.5998029,126460000.0,349059004.9786853,40662000.0,53764750.264272705,11086000.0,30391176.310135804,47740000.0,92048856.46031806,-28335000.0,603173.3993744068,68997000.0,47024970.78269436,-28335000.0,6739779.481577795
1148,1255,3,600857000.0,586087072.2601919,331349000.0,383311972.1890617,269508000.0,205167731.31194824,50595000.0,22643670.710875444,6532000.0,-53440911.83600268,57127000.0,-28705248.735777855,-62120000.0,-55602219.88009037,83188000.0,77581140.47304724,-32593000.0,-54937469.7621718
1653,1150,3,56794000.0,84412823.95986998,12682000.0,-13165639.38980949,44112000.0,90953548.19722936,25087000.0,18997368.609609105,14791000.0,13474146.756835766,39878000.0,32361753.180384994,-4627000.0,-8538500.480238128,44505000.0,26498684.38367258,-19418000.0,-7501315.774063531
1205,743,0,3747000.0,60030737.5320732,4407000.0,50318265.09050715,-660000.0,21318502.611877024,-1515000.0,11986238.265990246,1515000.0,13190029.807936553,0.0,21337974.97387796,-2598000.0,-3733500.9090229413,1083000.0,10722206.19418516,-2598000.0,1264032.0718045887
1612,891,2,3505835000.0,5274721427.653637,1860807256.214476,3028669750.676434,1470074000.0,1402137806.2816517,601953000.0,671853088.9661083,626097000.0,904810499.3440282,1228050000.0,1534300454.34197,88554000.0,53934451.54502611,475916000.0,478298035.29879504,126037000.0,193555053.6673139
1894,1039,4,203011000.0,-118870095.6845063,255300000.0,205569924.76800662,-52289000.0,-237642451.86803067,8409000.0,2529644.6765043214,25579000.0,-62271359.610009566,33988000.0,-43835766.35309592,-8212000.0,-20329770.50339443,15533000.0,6704351.999580376,-7124000.0,-4174707.323076183
458,712,1,3126495000.0,4510273361.415197,2137404000.0,2805396657.7749486,989091000.0,1533041807.0817313,70679000.0,141246374.87641886,930828000.0,1023305960.1662985,1001507000.0,1107199571.6787338,21039000.0,66476496.16396733,49640000.0,29017732.084017314,21039000.0,112228642.79240152
782,165,3,36175654.0,73144460.33111262,19187381.496044576,12022005.862758875,18868678.0,82057767.34861365,22295962.0,20488097.31999295,2274626.0,13119526.694310986,24570588.0,32863931.488411084,-1191082.0,871253.37996274,23487044.0,17805172.66646897,-1191082.0,2682924.653523855
21,232,1,3642433000.0,6438263526.886493,1611617055.0351417,3754453654.9004946,2307595000.0,2732512230.664375,392263000.0,529380625.54814154,1442178000.0,1895940105.4749365,1834441000.0,2322201772.077759,185633000.0,321327733.82420444,1648808000.0,1722067121.317228,-1256545000.0,-1192686495.7690883
323,342,1,102171000.0,26729962.831967115,80142000.0,120055269.81525177,22029000.0,-78328360.36171484,11994000.0,8783734.119230665,1280000.0,-35080503.888774544,12084000.0,-30183517.295770407,-8453000.0,-3539038.632193476,20447000.0,12043139.934035279,-8453000.0,-3259405.8148044264
1847,1419,4,11562769000.0,9783189422.941849,8634392000.0,6797639792.88673,2928377000.0,2049634108.5521984,696915000.0,816518228.7661104,4617768000.0,3955531099.063224,5314683000.0,4751474661.146702,87484000.0,276219096.90406126,6096071000.0,5662379369.609325,-5399156000.0,-4845861140.84322
1304,989,4,1061958000.0,1168027962.9336057,603583000.0,585464107.4823363,275904000.0,436163505.04600346,75380000.0,74781733.01772703,85007000.0,131384612.44509718,160387000.0,206963219.49390048,19279000.0,-11980263.966528852,56101000.0,87006803.47077578,19279000.0,-12225070.453048654
1031,77,1,1709464000.0,1012845528.4839828,792444897.6724385,502120758.7403375,917019102.3275616,524568537.04181385,-50089000.0,-71251217.97820747,206500000.0,172560890.4096577,156411000.0,113324573.98701906,62554000.0,72631.80326814158,32611000.0,32516040.39163905,-82700000.0,-103767258.36984658
1109,1048,0,1182200000.0,1156035493.0104709,559672263.5892134,437665038.6001103,993300000.0,1309919702.6520462,77500000.0,61927416.63267487,102700000.0,127770508.32964993,175100000.0,211170599.70319954,21600000.0,-32397240.13912064,55900000.0,127227030.6456396,21600000.0,-65299614.01296509
1483,1507,1,15318000000.0,2539638877.999225,8995872209.433592,4127509612.237535,2835000000.0,-6311198978.4202175,2220000000.0,2258096594.3554254,7363000000.0,7142490109.3175535,9583000000.0,9472385801.325003,348000000.0,881858680.2170997,1879000000.0,1436121764.9674542,341000000.0,821974829.3879676
739,1417,1,2898416000.0,286326524.8081057,2080781000.0,113033094.89230242,476998000.0,-19741210.261803687,19746000.0,11976247.536787566,-19746000.0,-23143474.292196594,0.0,-8913215.628485799,-16089000.0,-14340562.358702736,35835000.0,30205455.506196614,-16089000.0,-18229207.969408922
1565,1261,2,37777000.0,-14019816.184911251,8088000.0,-7429273.69590801,29689000.0,16661087.972406447,1942000.0,11304522.52555988,1878000.0,20322974.506311692,3820000.0,32409556.61868217,-3377000.0,4593951.87114137,5319000.0,9872816.693735361,-3377000.0,1431705.831824232
1547,48,0,350115000.0,805857010.1624384,124447000.0,243378983.6679994,144501356.0121529,-18160211.325604677,23341000.0,-3250043.8846418858,74465000.0,56210352.45486481,97806000.0,65538462.6627054,1273000.0,-18584929.677023426,21144000.0,8117056.698696509,2197000.0,-11367100.58333863
1772,61,2,60756000.0,-3432662.857298374,14120000.0,-10238459.493328512,46636000.0,17719235.87734294,39398000.0,51795261.63512322,0.0,14725659.833783686,39398000.0,65343821.24286268,1277000.0,6197048.581110636,38121000.0,44333833.25896058,1277000.0,7461428.37616233
396,1484,4,2329417000.0,3368562124.3796916,1103945000.0,1431134121.0433013,1225472000.0,1859226107.8628857,201803000.0,251001733.47944802,84310000.0,-6148327.83336328,286113000.0,249231769.8895779,4458000.0,-18733014.76285284,134794000.0,216098037.59150472,67009000.0,34903695.8879435
370,1128,0,322707000.0,417849038.73038673,203952000.0,284493661.37380826,133189378.04611006,176836233.87703183,59563000.0,62423676.22197321,32549000.0,48272338.64209124,92112000.0,110302073.6568075,2829000.0,4225772.2377081495,56734000.0,61098372.98411645,2829000.0,1325303.2378563788
1387,362,1,16986396.0,144383844.63636827,28398941.0,45903719.04967433,7976898.609990532,133726978.84537926,-2992.0,-5196103.854347773,2987192.0,-39256610.9516962,2984200.0,-49774537.8916783,-2823081.0,-15776523.767091922,2820089.0,-978486.9922407791,-2823081.0,-4217616.862106884
1633,1474,4,5507733.0,-53243059.71545696,3754986.0,-4884161.696561813,1752747.0,-24807106.400529385,77969.0,-2740955.068146184,690.0,26688758.160725825,78659.0,23189162.46171409,-1288944.0,9481817.110331718,1288944.0,-7567579.657145336,-1210975.0,4826624.58899904
1459,843,0,2951779000.0,1457997112.8284135,1733504809.66769,695554948.3655176,-705417000.0,490524799.1440623,103159000.0,74433251.01328534,95357000.0,34016969.45414214,198516000.0,166776731.7225424,63542000.0,3283541.7577924933,39617000.0,84640617.9384498,63542000.0,-10207366.925163992
447,15,2,1389340000.0,1475229803.0886521,870172000.0,929175704.5441645,518687000.0,577512428.2060697,122910000.0,147875448.9656024,509918000.0,516756620.0616952,632828000.0,661017711.1515746,77637000.0,95579347.82740745,35836000.0,35511216.27111714,87074000.0,112364232.69448501
1342,527,1,670100000.0,576961683.423637,96919000.0,283144372.77931756,573181000.0,330979190.14887977,45369000.0,56593072.875205405,10723000.0,-93162355.37623341,56092000.0,-40462487.792206615,-44376000.0,-28156412.29631783,100468000.0,71138603.20471752,-55099000.0,-14545530.329511894
1101,1050,3,796235000.0,712523392.9011052,203741000.0,88263048.14916766,463390000.0,625560407.8209057,475000.0,9884330.010871045,0.0,6774534.482051149,475000.0,8875938.642644376,-25797000.0,-21281191.821144573,26272000.0,22426791.63631016,-25797000.0,-12542461.625439195
1559,148,0,243654000.0,555183734.8029159,108112000.0,305369929.0580747,135542000.0,344461508.2991442,37230000.0,43850461.62801369,3845000.0,29497362.236356907,4798000.0,44893673.75392159,-21869000.0,3791055.518294623,59099000.0,61443366.685637385,-21869000.0,-17592905.057623908
1859,83,0,63057347.0,58999053.26856041,37031977.76980746,1625552.542522788,50373559.0,104470137.89491856,5114390.0,2535269.3542704172,9540399.0,11467165.911286512,14654789.0,13585920.582886383,3126608.0,4907671.420229316,1987782.0,-7296440.208858095,3126608.0,9831709.563128337
625,862,1,2120798000.0,688920370.1193395,1472395000.0,1065729632.1761813,648403000.0,-399659160.6579437,67913000.0,44287665.07240931,30767000.0,174654607.1274923,98680000.0,246358424.74102527,-9629000.0,5658169.277301974,77542000.0,89819884.51188833,-9629000.0,-45532219.43947883
1728,309,4,706517000.0,-327745321.8780329,905805000.0,419091189.1766938,-199288000.0,-882959365.8353755,73709000.0,63165388.73928976,16853000.0,-129687258.7152682,90562000.0,-45624291.88245392,38915000.0,17444718.049466196,34794000.0,19157221.124561228,38915000.0,44008167.61472814
1404,810,3,76126346.0,64849902.88089609,61120101.0,46271450.21249241,15006245.0,37735622.00459355,2282652.0,8193161.012205228,31006950.0,30657203.26622017,33289602.0,38092185.330908135,-2890968.0,2827264.218255982,5173620.0,3808775.892378062,-2890968.0,4384385.119827037
1515,939,4,156303000.0,115018692.67671746,83901000.0,38154381.186217785,72402000.0,138246030.29342228,17689000.0,4832893.189229265,41469000.0,47788859.00629822,59158000.0,50278460.63040408,-2517000.0,-16305259.48897491,20206000.0,22958153.610170465,-2517000.0,-18125260.420941267
1800,66,2,3271200000.0,2736419844.4054203,1447362713.447565,1567322952.9901795,-21400000.0,-795531346.86605,31300000.0,91231301.76548627,847700000.0,1138664913.3626873,879000000.0,1235458010.28504,-16400000.0,-101627756.01634948,66600000.0,28227466.013165228,-35300000.0,63003835.75232088
4,694,4,7361000.0,10388473.192139149,2671000.0,-16646116.909098566,4573903.262590003,59913204.72402468,349000.0,3392160.0752283186,109000.0,9217242.468339365,458000.0,11309872.840345353,-670000.0,-708759.0129776271,1019000.0,2364687.27098725,-670000.0,1027472.8042409904
1400,327,1,-4860602000.0,-5475304204.855223,-990657000.0,-2645814172.8327312,-3869945000.0,-2770218885.5381255,193881000.0,177557533.2101265,378009000.0,243271862.01667652,571890000.0,408947893.3630041,36078000.0,33688455.95416896,124685000.0,100810318.11506999,69196000.0,76747215.09505671
617,1153,0,5475000000.0,5537017794.638507,4861300000.0,4822813914.395903,613700000.0,593497842.8887465,130600000.0,103082914.58640279,1421300000.0,1391986049.3057878,1551900000.0,1488108038.190946,23900000.0,-31550672.013587233,81800000.0,100631072.1128338,48800000.0,2451842.4735691957
570,813,0,9643000.0,39758667.35291213,6164000.0,29325827.992301285,3479000.0,64113929.558389366,1843000.0,3541098.3459067754,2246000.0,1956010.5770859355,4089000.0,5982511.146269932,-437000.0,1755302.75891547,2240000.0,5582788.165041797,-397000.0,-2041689.8191355122
2015,17,2,12012800000.0,9004640282.120358,6608200000.0,4553750178.759098,4911800000.0,3575900381.276195,457000000.0,685028332.799207,316800000.0,-180813756.73887333,773800000.0,442755293.40088594,145800000.0,191988210.20002654,203500000.0,307044047.7783161,253500000.0,377984285.0208901
576,1047,1,6644800000.0,7165995666.554381,3248100000.0,3607393088.8349195,2786600000.0,2929132423.731586,345800000.0,348785515.0578714,33000000.0,67659117.7195394,378800000.0,410204649.6860518,36000000.0,10548483.186528858,342800000.0,502500508.4479665,3000000.0,-153714993.3900952
1397,68,0,136174000.0,155222622.63583648,62163000.0,97928486.8813068,72304000.0,95124915.32959616,10072000.0,12309037.899720129,-3712000.0,-54539884.575067416,6360000.0,-45878953.549449205,-12604000.0,-10571290.577595565,22676000.0,18386599.721335515,-12604000.0,-6077561.821615815
1134,1221,2,160043000.0,191093034.53312522,101422000.0,117026069.9562451,58621000.0,121162439.39687291,15202000.0,9736947.522757571,-14386000.0,2895500.4618485197,816000.0,14535759.835537598,-14398000.0,-22551902.72365628,29600000.0,34038875.17196248,-14398000.0,-24301927.649205226
188,196,2,9282000.0,-73545538.31040752,3493000.0,-22632476.175674617,5789000.0,-39883559.12109321,355000.0,6703533.256327592,552000.0,13427773.61079397,907000.0,19810941.267002113,-972000.0,6087372.945019901,1327000.0,-1328095.1628878713,-972000.0,8031628.419215132
488,145,3,16124000000.0,4533987831.176125,13383000000.0,7762846696.229315,2741000000.0,-3232963211.131917,5251000000.0,3893786543.9824553,4961000000.0,3544934028.842661,9233000000.0,7104057115.372339,1583000000.0,1301693054.357415,3668000000.0,2599113562.085179,1583000000.0,1294672981.8972797
1211,498,0,1601068000.0,1769826699.3897228,1081707000.0,1124244335.988705,519361000.0,686076606.6162639,248876000.0,297529653.3619416,-34521000.0,-105447504.28109996,214355000.0,198433004.58369714,19006000.0,58761199.548719935,229870000.0,233724281.06281975,19006000.0,63805372.29912165
1580,184,4,779622000.0,1099369675.7326918,153452000.0,356972652.6059579,626170000.0,756883794.4244105,134561000.0,133958714.72876544,57608000.0,68051774.26722245,192169000.0,195716085.9147231,56917000.0,38348458.711821795,77644000.0,92975061.89638934,56917000.0,40983652.832376175
1533,213,0,4162272000.0,4346271266.545964,862254000.0,1008032351.8401345,3299439000.0,3279263415.888511,357871000.0,343640810.7664451,794265000.0,939073946.3922836,1152136000.0,1256837358.6489105,114028000.0,117236609.65449025,194829000.0,240844044.08444253,163042000.0,102796766.68200302
818,583,0,13900400000.0,13820900755.26976,12204100000.0,11950999012.564812,7319729781.089915,8191092120.04369,78200000.0,320842675.9386199,235100000.0,476832602.63389117,313300000.0,767601792.9856652,174900000.0,323927288.65149194,116600000.0,114071112.59662227,-38400000.0,206771563.3420009
50,537,1,594022000.0,529656083.96918505,132343000.0,130799926.88532543,461679000.0,403897604.82063323,121956000.0,122604374.10540381,1645000.0,-28429574.141331818,123601000.0,102046579.92855996,31177000.0,38440053.29198623,45262000.0,36727938.02254223,76694000.0,85876436.08286163
590,1171,2,1341960000.0,1122730376.7978785,666970000.0,618856570.6287696,674990000.0,325751594.41637385,55930000.0,13073829.95447101,179410000.0,143246744.64179754,235340000.0,151382775.9025335,23760000.0,-14764239.488515677,32290000.0,30414550.198575236,23640000.0,-17340720.244104512
377,276,2,52901000.0,2160770.755625367,24522965.98920461,499991.3246510029,33404000.0,4140366.0343158245,-1183000.0,4775030.29281877,24144000.0,29407302.025553703,22961000.0,34761605.862385035,-5692000.0,554433.3206141614,28653000.0,22192117.202859625,-29836000.0,-17417086.910041206
1953,1136,2,877565000.0,1938379098.362297,1336553000.0,1910904092.2733366,-475192000.0,448479314.14088666,522812000.0,553788771.0809786,-345617000.0,17477672.535000183,177195000.0,543846910.9824685,31868000.0,53473827.973337285,490944000.0,523662913.9930676,31868000.0,30125857.08791039
1018,1253,0,26568400000.0,26124266130.88897,13080400000.0,13028032897.563625,13246000000.0,13018174172.977116,1346200000.0,1157061236.2251964,1952200000.0,2112971342.468342,3298400000.0,3296397088.150913,592200000.0,380674301.57730645,746800000.0,885105174.642602,599400000.0,271956061.5825956
709,868,0,2933971000.0,2804565739.146058,2618511000.0,2377206871.7728724,315460000.0,304792154.81489706,65062000.0,20001862.79357916,2191000.0,426222472.4561171,67253000.0,465926953.3013331,-143265000.0,-144317554.76935023,69951000.0,48622541.50053085,-4889000.0,-28620678.706952356
1121,747,1,27828200000.0,25519577212.978523,13810622382.415062,12952342436.865404,7212400000.0,6620255262.736799,821300000.0,871785467.4022596,181300000.0,-371999553.644864,1002600000.0,524206017.4013353,233000000.0,209994968.32128558,794400000.0,1134503734.638554,26900000.0,-262718267.23629534
1026,1037,1,2788943000.0,3298553844.037599,2662320000.0,2861459974.7410326,126623000.0,654056641.569776,299166000.0,354592711.5669258,0.0,324864959.95701194,299166000.0,689816764.7322086,-281667000.0,-17501770.83290895,580833000.0,367263187.62869245,-281667000.0,-12670476.061766265
1015,242,1,2489159000.0,2878744299.7429852,1954765000.0,2185053384.4812613,488897000.0,690295188.8176872,294443000.0,304533981.2947351,370069000.0,393710116.5123393,636496000.0,663140489.4603802,64600000.0,70395358.42351079,229652000.0,257263659.26122558,64791000.0,47270322.03350961
1575,208,0,11961066.0,43406737.645157635,1068497.0,18175102.595345616,10892569.0,76098006.11911896,611174.0,-1462009.858177185,0.0,-11050252.269377489,611174.0,-9717577.618426532,-1146685.0,-1390889.8811739106,1757859.0,2164864.4065523297,-1146685.0,-3626874.264730026
826,84,4,93941000000.0,84264512096.92729,39446000000.0,32849970501.595554,53466000000.0,49268846141.055595,4178000000.0,3818992187.042617,15656000000.0,20657262913.56058,18582000000.0,24335993864.923714,1764000000.0,1684986027.320262,2414000000.0,2725154583.4549866,1764000000.0,1093837603.5876482
463,901,2,32097000000.0,37469558074.42903,20419000000.0,22768993711.098824,10658000000.0,14486344937.364899,2071000000.0,2094468490.8859365,6360000000.0,5634301736.480844,8431000000.0,7496927433.748887,950000000.0,942959188.3048797,831000000.0,669212543.0101126,1240000000.0,1425255947.875824
1660,1497,1,6578196.0,-3724374.815346241,4441488.0,-34606449.546410024,2465776.0,11947608.093584672,2008368.0,-3630950.0438080505,923641.0,40181355.61763753,2932009.0,61247050.36745012,-1328968.0,-11498148.065074762,3337336.0,7624569.19930663,-1328968.0,-11255519.243114531
700,60,3,1658042000.0,1926721722.0211112,1223260000.0,1224928669.5524466,434782000.0,529560167.78940225,207698000.0,195041513.13498333,674127000.0,615690683.198896,881825000.0,793398086.5876881,25549000.0,27864478.246880293,179614000.0,174872403.8080027,28084000.0,20169109.326980203
402,1152,1,9094896.0,-220261268.01865244,13593163.0,79686170.74041629,-4498267.0,-325231700.53101724,-928960.0,-17074877.154668316,1115703.0,-17045587.785840496,186743.0,-20752322.978721768,-5136642.0,-27545016.317904774,4207682.0,3969197.4863938093,-5136642.0,-21044074.641062073
591,406,2,16788482.0,-65317156.004212976,821758.0,-97730628.75747818,15966723.0,170118035.60115165,906228.0,-40877089.16770902,333325.0,51327148.220398314,1239553.0,18720019.951125905,-1096396.0,-38043266.33222951,2002625.0,2178864.583161436,-1096397.0,-43055953.75087059
412,1415,3,1678241000.0,1436605204.37598,730813000.0,600919424.9194819,947428000.0,707545178.6467946,62311000.0,46585434.42906546,89643000.0,93382358.18068859,127553000.0,117972136.75288965,-24195000.0,-31346786.331388887,86506000.0,76207936.8368901,-24195000.0,-29622502.40782492
26,113,0,1363308942.0,1767677289.8826704,629855415.0,881332679.0712699,733453527.0,869495355.7029048,93681798.0,79225660.17886528,0.0,-20289002.85230247,93681798.0,59032274.2434217,39573525.0,22245173.014029853,54108273.0,53703789.22074023,39573525.0,25521870.958124556
205,526,2,15264467000.0,16549701171.583584,7226441209.924589,7801218876.638084,3059451000.0,4003471482.400763,592816000.0,653887389.5051594,378076000.0,610036603.4670829,970892000.0,1250044038.7339444,444977000.0,469778972.0930281,147839000.0,204303306.29870927,444977000.0,449584083.2064498
699,1263,0,65987000.0,76711961.67578149,35279000.0,48930605.54350206,30708000.0,80418579.61543757,5319000.0,5133094.669111218,28050000.0,19193620.008838814,33369000.0,26026954.323424324,1124000.0,-415159.5240082424,4195000.0,8536636.56033454,1124000.0,-3403541.8912238097
550,304,4,31945000000.0,17451126298.000553,26424000000.0,20114904626.471798,5506000000.0,198667933.46289682,1191000000.0,-247605395.00022703,2895000000.0,1174734176.6697521,4086000000.0,1088973378.8070881,834000000.0,-1283154928.394952,357000000.0,1263598633.8929012,834000000.0,-1511204028.893125
140,207,1,2655001000.0,2554356051.6917686,1989549000.0,1680394803.7022388,665452000.0,855431067.037706,67554000.0,-216079659.5183465,403267000.0,740839177.8206818,470821000.0,543244700.3496857,-3426000.0,-181701191.78113127,30096000.0,58514985.490736336,37458000.0,-274594645.00908357
2004,586,2,9403000.0,-68660334.89903486,5511000.0,-23419086.998413205,3892000.0,-33115258.432130873,-48000.0,5519025.494684324,1387000.0,12310147.819816029,1339000.0,17043388.56523402,-903000.0,4706590.60037387,855000.0,-662705.0773993582,-903000.0,6181730.572083332
28,456,2,551232000.0,563538273.921638,628224000.0,548858208.2577723,-138322000.0,-307884335.4161746,23716000.0,53089939.27765497,12709000.0,66086073.5840012,36425000.0,123709563.70645504,7478000.0,24901353.36527805,48579000.0,57881999.555277124,-24863000.0,-4792060.277622306
844,949,4,435750000.0,513459163.4409224,62826000.0,94054441.88123047,372924000.0,431190193.7122469,28152000.0,26772048.024364613,49267000.0,51048083.5038807,77419000.0,75509547.52878645,143000.0,-13460067.777298795,28009000.0,46467186.03741687,143000.0,-19695138.013052307
967,1059,4,367699000.0,243932100.3154708,382822000.0,103853971.96649984,-15123000.0,197522316.59470546,310000.0,109410737.96380237,0.0,-69944163.55400375,310000.0,44836162.99628387,-47413000.0,15111176.277954914,47723000.0,88029684.87997922,-47413000.0,21381053.08382295
433,1396,2,3810682000.0,2163235062.881928,2050315000.0,1130421971.2694068,1303319000.0,362731184.87748665,110314000.0,164468236.93631303,71850000.0,-28770045.101719603,148990000.0,104593631.15128334,11661000.0,1013483.3961275676,98653000.0,111671476.00573274,11661000.0,52796760.9305804
228,315,3,2333529000.0,2169091310.842599,1032484368.2283514,945267072.9017345,1202771000.0,975615736.7452865,71236000.0,43001798.90219761,490990000.0,508793486.0898521,562226000.0,553209098.4983497,19517000.0,30000558.896256648,46091000.0,50068843.84983046,25145000.0,-7067044.94763317
1855,735,3,20737275.0,393245473.4635373,10788720.0,290901649.2611212,10368036.0,173001440.60223398,562564.0,55810587.22824375,77061.0,5209936.559465863,87201.0,85237725.70883012,-4142505.0,5711755.964940419,4705069.0,46917615.47375311,-4142505.0,8892971.754490452
776,330,3,386844000.0,457626572.90850806,412960000.0,468118464.6088368,-26116000.0,865450.1328670084,16927000.0,21930417.96415389,91131000.0,107280445.09436645,108058000.0,128663397.38794422,-813000.0,-3013782.079256148,13060000.0,21711652.237017717,3867000.0,218765.72713599796
839,1420,3,6911775000.0,7293962070.659918,5109042000.0,5207055892.211809,1802733000.0,1879267560.7465878,225256000.0,286213194.81659734,195092000.0,106119467.24421649,420348000.0,376946538.92784476,132530000.0,159731545.46324357,92726000.0,85183684.39347956,132530000.0,201029510.42311797
793,1146,2,2883631000.0,4811163011.828764,1772390000.0,1667944581.7116396,1110345000.0,1673136579.477718,319055000.0,553508726.999665,1257690000.0,1590733097.8187566,1576745000.0,2224416244.9981966,38222000.0,86845313.23419845,280833000.0,440915384.3956898,38222000.0,112593342.60397643
820,846,2,133032000.0,-91894565.62465417,232711000.0,170870528.63840377,-16246000.0,-205095117.01625222,12296000.0,-5294917.139961228,62277000.0,40201535.97069386,74573000.0,33490588.390598133,-14749000.0,-18690445.871869978,89322000.0,91533609.26247138,-77026000.0,-96828526.40243295
2016,513,0,296638000.0,384128594.90626913,208509000.0,240445890.81159398,88129000.0,189408228.4630865,7319000.0,20324160.97184864,0.0,15625965.440016879,7319000.0,38007253.06779149,-46633000.0,-20235293.2706696,53952000.0,37732987.20207789,-46633000.0,-17408826.230229713
1438,1294,4,38809000.0,705357262.2873857,43090000.0,355317129.6644769,-4281000.0,420562496.5290491,7318000.0,11435028.888851434,25818000.0,102325735.24435106,33136000.0,109406425.95570087,-933000.0,-6106915.127549825,8251000.0,26589573.07409173,-933000.0,-15154544.185240317
866,229,1,2376172000.0,2768019490.1286488,1870972000.0,2527373555.9071994,486613000.0,129354109.09725729,-5214000.0,82506738.85513727,182832000.0,175795225.4667874,304976000.0,271884181.61299956,-103708000.0,-89564163.29086567,98494000.0,160430009.12267068,-103708000.0,-77923270.26753303
689,1207,1,3719784000.0,5800360751.385549,3332984000.0,4577852777.81958,286813000.0,1074128710.0560822,2618169000.0,2747278490.368137,-531777000.0,-686142348.2088183,2086392000.0,2021810685.6798782,44074000.0,235456888.78858143,2574095000.0,2470084351.68589,44074000.0,277194138.6822503
919,481,2,1537935000.0,1782633370.8459482,1281456000.0,1443732991.1960747,256479000.0,402065212.22509044,229699000.0,155668484.02387944,0.0,48732680.660671465,229699000.0,208379293.01039973,-26947000.0,-109330701.86368844,256646000.0,266311512.86592358,-26947000.0,-110643028.84204465
1827,890,3,1182488000.0,876457339.0437081,303489000.0,-75912485.41197509,759221000.0,585999571.7469766,56265000.0,21236121.061744437,333008000.0,338484483.90069246,251870000.0,198646651.77549052,16750000.0,-1860916.298129987,39515000.0,25446495.23509668,16750000.0,-4210374.173352418
