epiphany24262/financial-performance-prediction/results/oof/m2_hgb_history_raw.csv
Id,group_id,fold,actual_Q0_TOTAL_ASSETS,pred_Q0_TOTAL_ASSETS,actual_Q0_TOTAL_LIABILITIES,pred_Q0_TOTAL_LIABILITIES,actual_Q0_TOTAL_STOCKHOLDERS_EQUITY,pred_Q0_TOTAL_STOCKHOLDERS_EQUITY,actual_Q0_GROSS_PROFIT,pred_Q0_GROSS_PROFIT,actual_Q0_COST_OF_REVENUES,pred_Q0_COST_OF_REVENUES,actual_Q0_REVENUES,pred_Q0_REVENUES,actual_Q0_OPERATING_INCOME,pred_Q0_OPERATING_INCOME,actual_Q0_OPERATING_EXPENSES,pred_Q0_OPERATING_EXPENSES,actual_Q0_EBITDA,pred_Q0_EBITDA
196,314,4,1192950000.0,1172276357.8248496,1055816000.0,1096028803.1342273,137134000.0,143816881.68101105,25598000.0,38143480.41439947,61899000.0,47763345.323500186,42992000.0,54467429.82719632,15222000.0,19228259.893652458,10383000.0,14719641.6863679,15215000.0,8010515.688206786
1568,1318,0,1219954000.0,1128791264.1412363,835046000.0,935743246.4014381,384908000.0,-89025266.38970388,111786000.0,104541345.81743184,217796000.0,202242851.42779928,329582000.0,289540770.8257673,28908000.0,-4437667.8101213565,85522000.0,93078978.63334137,26264000.0,41394171.6061099
1218,1523,0,-135820000000.0,71872837258.95306,-37972000000.0,18740954454.151352,-97848000000.0,36036363780.15096,-435000000.0,1976582995.8570182,4445000000.0,7010354605.684356,4010000000.0,8869921963.447065,-1472000000.0,-231660604.42777178,219000000.0,161576437.59638688,-654000000.0,1491249661.6306274
23,1421,2,83298000.0,-28660615.7167454,16040000.0,28133330.27428268,-31633000.0,27631291.02016891,494000.0,46261303.00055315,3339000.0,65063251.724162735,3833000.0,162699756.47381085,-12348000.0,2009695.253830479,12842000.0,53699612.67848928,-12348000.0,9551915.655629635
783,1306,2,148546000.0,196489733.40538114,56555000.0,81358281.5837791,91991000.0,115931255.71696426,1761000.0,94323126.3131445,-2375000.0,-81825237.8383945,-614000.0,168092621.13501856,-10098000.0,24261544.099041793,11859000.0,52360758.86169512,-10098000.0,70425197.10845144
1251,1292,1,7304300000.0,7183190395.367472,2451900000.0,2758338521.5224257,4830200000.0,4656346115.83435,578200000.0,642910772.8449,581100000.0,639985754.7211204,1159300000.0,1014601290.5274432,245200000.0,225872466.9689916,333000000.0,386131649.13377285,245200000.0,247588663.25874147
1224,1572,2,1976905000.0,2910231365.1988163,699909000.0,705177676.422364,1276996000.0,1606630036.6241708,53993000.0,91587531.9317231,315825000.0,334776610.1992489,369818000.0,479590868.39453113,-1572000.0,24966253.09223881,371390000.0,366780583.0509313,-317397000.0,-126773894.33184476
1410,638,0,2097274000.0,2367254112.91826,1132234000.0,1231417621.0809097,965931000.0,986015420.0641054,70481000.0,135253166.38881359,291052000.0,309787868.61893785,361533000.0,427060043.03254896,58709000.0,97819595.53707713,11772000.0,-9291379.136163367,58709000.0,124270266.09782779
529,10,4,31183000.0,84180839.49934635,15926000.0,132201996.03204128,15257000.0,261820082.89056382,2456000.0,16983931.419908024,2151000.0,2087675.9450530217,4607000.0,577649.7594193569,-2931000.0,1333769.0539953806,5387000.0,5331107.236464366,-2931000.0,876227.165072647
730,598,0,978523000.0,1055349809.9319373,851196000.0,-604729432.8208871,-94184000.0,8348547.242121389,24321000.0,43117677.30324432,137937000.0,-670419100.4628472,162258000.0,135666924.9903597,-764000.0,-120456191.41610265,25085000.0,14737100.152895207,-764000.0,-11577682.214460278
1590,740,3,27253000.0,-61432261.501278624,14465193.072010836,676867576.0603061,12787806.927989164,192627918.5464194,-17000.0,41759812.958899215,17493000.0,23311942.606753152,17476000.0,20807780.224815015,1196000.0,10133615.390344849,138000.0,23517029.05881659,-155000.0,4773263.378003001
367,140,3,798398000.0,8614203299.350164,795372000.0,3748305639.4380927,3026000.0,2199164075.224427,37121000.0,71820225.93841036,256160000.0,449118472.1013706,293281000.0,373229002.64750147,10257000.0,-35405603.441792116,26864000.0,61867905.95160122,10257000.0,-20826254.323813207
636,741,2,1059052000.0,844489940.3877853,883921000.0,772157299.1944268,175131000.0,448111580.8179743,91945000.0,135360769.08608943,202788000.0,270725461.7383848,235132000.0,373063797.4462007,-287000.0,-11503746.777785938,84957000.0,129539471.53179291,6988000.0,28360688.32607797
1270,1352,1,11069000000.0,10527585533.545221,5919000000.0,6162050780.498913,5105000000.0,4473880921.334725,727000000.0,715784546.8538624,1752000000.0,1640154624.5674987,2479000000.0,2790803089.2802005,462000000.0,417240418.31862193,265000000.0,209076981.81661716,462000000.0,521810686.8634739
102,263,0,12331000.0,44429176.62912613,10875000.0,9727366.937805565,1456000.0,16132479.527958633,1472000.0,22465410.874942485,1968000.0,11148191.095939398,3440000.0,13471141.278761864,-4166000.0,-2433281.276635128,5638000.0,4248416.196233942,-4166000.0,29778179.70670644
1658,1092,1,180372000.0,175108129.47610816,121221000.0,186540204.85615152,30642000.0,85691905.17877357,18014000.0,18293022.39745065,31653000.0,91039528.61573587,49667000.0,48276934.29917667,-11599000.0,1965326.9609859595,29613000.0,16165694.54482836,-11599000.0,3834381.905269708
6,33,0,2319806000.0,2555314352.941846,1534495000.0,1593481880.8167794,785311000.0,732377369.8295292,376397000.0,349676867.0611399,415254000.0,201701447.3010465,791651000.0,674666544.0477616,93430000.0,84981206.69614702,288680000.0,272416017.9005539,87717000.0,88837892.89237294
1147,1055,3,19295025.0,-23697724.103678055,28370931.0,-13694338.509146903,-13369686.0,-12983953.65420802,2067435.0,39189538.9531509,4847499.0,2617712.069953799,6914934.0,5580326.24646656,-1108124.0,-476388.3847173761,3175559.0,23632760.54770228,-1108124.0,3660533.001512743
114,1011,2,3549408000.0,3721760568.523367,2109262000.0,2435698655.282304,1440146000.0,1596097788.7354727,264579000.0,278938393.7301043,494402000.0,474488452.9891323,758981000.0,786026677.5502232,58594000.0,77823686.17893916,205985000.0,234336523.43075556,58594000.0,46737144.041109
139,1334,4,331401784.0,696108719.3560375,56254670.0,63641275.48436686,275147114.0,387477138.81440675,17982150.0,32216667.852782555,0.0,3462422.809378342,17982150.0,31949668.87405743,-40215832.0,-23777995.517437126,58197982.0,60156582.13828673,-40215832.0,-25699915.609527342
411,814,4,5533000.0,1078508282.5950925,4648000.0,314303104.1517591,885000.0,509751344.6345442,-1669000.0,12307604.691944525,2438000.0,251088.96071124144,769000.0,-7421269.280234941,-6339000.0,992708.2028982883,4670000.0,3337998.9912948096,-6339000.0,634262.7480513577
681,761,2,36550000000.0,45165552620.47552,16943241279.095451,19266495836.80436,15250000000.0,18156659156.88907,577000000.0,599696596.3860732,3467000000.0,2341450845.9526467,4044000000.0,3371065794.036782,714000000.0,526279203.802571,627000000.0,1118817701.3708098,-50000000.0,221484816.36903894
1671,696,2,100449000.0,187519707.82146344,141057000.0,129005645.42423466,-40608000.0,39968963.5750563,-171000.0,47556048.514515266,512000.0,64197593.34076425,341000.0,162699756.47381085,-48297000.0,-36739663.81215389,24344000.0,65845338.789931834,-24515000.0,2146213.386358632
500,1236,2,10599934.0,311738620.9294173,26203416.0,62671128.63384902,-15603482.0,47859550.247420184,-6219.0,46261303.00055315,193120.0,63508314.00382537,186901.0,162699756.47381085,-1076399.0,9956928.052021887,1070180.0,44116028.93648595,-1076399.0,17272767.78121027
1203,449,4,13322000.0,339553725.1646234,67881000.0,98490842.64949092,8277888.77383834,-154247697.20903113,3223000.0,18672539.6472507,1889000.0,4631270.053484839,5112000.0,-15806217.850495748,-3552000.0,-1322834.1480100304,8664000.0,2232294.706417041,-5441000.0,-11942386.6471034
180,11,3,635001000.0,383556188.38196886,115305000.0,-10162053.41036298,502273000.0,-861329093.2101547,21465000.0,-17477497.329161584,40457000.0,56119353.7656301,61922000.0,64951058.61353047,-143360000.0,-187566414.24798208,205282000.0,323829746.6842173,-183817000.0,-130158323.16640195
1960,1026,2,2672864000.0,3419174756.075804,288913000.0,371311267.7979962,2383951000.0,2673884839.12416,132902000.0,142136864.45954406,168499000.0,262525799.51862186,301401000.0,490919961.38247746,55706000.0,97357262.89718835,77196000.0,122191808.08624,55706000.0,100793470.9840157
356,863,0,8388335000.0,8248024330.128628,5163154000.0,5268336019.947286,3225181000.0,3406282363.9719024,313343000.0,330815622.82891834,687959000.0,705014146.2806587,1001302000.0,1120549213.688478,116260000.0,221504943.563974,85661000.0,83026888.39536536,227682000.0,197030906.47601655
1646,1578,1,1563399000.0,1421471383.1880841,1445358000.0,1463131873.731676,-136248000.0,88751665.26267491,72333000.0,86649184.86310776,116682000.0,172116077.9180921,189015000.0,210506576.0654155,23506000.0,30087497.614602763,11423000.0,12105718.591523321,60910000.0,62817466.60188847
1793,1064,4,320019000.0,331140037.58677226,126984000.0,288569864.84825665,193035000.0,230140529.85436344,177377000.0,269140197.3775384,58492000.0,140589032.27812496,235869000.0,308298949.5687067,25509000.0,48154146.53361221,151868000.0,187228028.4807654,25509000.0,49242499.71298833
235,94,4,0.0,-55378699.59238378,0.0,-108191020.84042117,-804876.0,-43705960.976936236,0.0,15226343.573582277,0.0,-19117482.797457967,0.0,-16687386.410518944,-14550.0,4140315.122888737,14550.0,945415.2510166335,-14550.0,2731810.7014202164
1668,245,3,267194000.0,300765365.82266474,175308000.0,251216609.36155438,91886000.0,75214170.7836343,5103000.0,44838061.852345675,0.0,-3326437.2710876185,5103000.0,7724159.036065749,-32762000.0,-31525160.917125035,37865000.0,54483566.41550194,-32762000.0,-20020282.38678592
1456,1010,3,2249377000.0,1673392387.3874748,1923326000.0,4024656034.171365,326519000.0,-2226885260.86315,-76300000.0,-52862693.694126375,416103000.0,380800858.2944881,339803000.0,340154765.92008847,34941000.0,34199103.489681475,184914000.0,189410972.54392192,-261214000.0,-270432670.4964184
1291,1021,2,396890000.0,469754382.85793716,107071000.0,111493509.1244689,289819000.0,258747998.56873178,52569000.0,79427245.32496075,13634000.0,73457313.24116325,66203000.0,206241470.51024246,8375000.0,6825896.995511753,57828000.0,94621792.88255695,-5259000.0,7662784.262152238
1376,1176,2,7827000.0,45474238.66802274,4744000.0,23903941.699000183,3083000.0,9605443.609677816,1288000.0,46493365.24419961,867000.0,63685317.58429618,2155000.0,162699756.47381085,-3880000.0,7806665.941265606,5168000.0,47562727.215993255,-3880000.0,14260285.522071265
1702,1493,0,11990000.0,93458817.86907332,3030000.0,55414432.67404068,8960000.0,26109911.27052336,1480000.0,23460345.69648026,3017000.0,3451366.730314168,4497000.0,7307697.854092946,-944000.0,-619488.1918365796,2424000.0,3113145.2496016016,-944000.0,29778179.70670644
1591,1286,2,7472874.0,-6463008.7929412685,3243445.0,-36903911.36158796,4067990.0,8345143.694709175,3065804.0,44616182.154966824,0.0,63887678.37914575,3065804.0,162699756.47381085,-21884.0,9273856.437799945,3087688.0,43286826.98481815,-21884.0,16959430.24805395
647,1028,0,2182494000.0,1368448673.4095824,2467501000.0,2372356606.452528,-484456000.0,-246558131.66788766,389190000.0,376441735.6291237,141172000.0,142342708.6161984,531030000.0,408144420.3421908,-54175000.0,-14469538.264167048,443365000.0,336904707.669966,-54175000.0,-53252601.88672481
100,1407,1,12166000.0,129547077.72711253,2892000.0,90232306.32967517,9274000.0,33372445.574524272,5000.0,104728.90529946898,54000.0,68092946.63594562,59000.0,1010047.9995341816,-3433000.0,-3358259.299784739,3433000.0,13932642.218433188,-3428000.0,-412228.14561082213
507,447,1,189783000.0,89690879.4593697,45792000.0,69699787.51125985,143991000.0,138885772.94609487,2372000.0,4008449.532854479,0.0,68096556.66545911,2372000.0,4595061.287700661,-18270000.0,-21291382.51380198,20642000.0,-430088.54168756556,-18270000.0,-18247723.780896857
547,960,3,1072653000.0,5753263384.030035,455367000.0,2371387539.5718713,617286000.0,3561465046.4100356,134998000.0,151321574.53806898,27783000.0,35993088.329859056,163452000.0,169411235.66423473,5489000.0,-11158669.801459609,129509000.0,134916122.09356233,5489000.0,-4624587.78259898
457,632,1,665104000.0,664197263.1569234,575531000.0,626810629.541673,89573000.0,107892153.63824092,30803000.0,21851251.630949266,19437000.0,82356894.18468904,50240000.0,43619886.53661594,10357000.0,-3845261.439115896,22017000.0,19512398.40189934,8786000.0,4251927.22149796
560,618,0,1900367000.0,842199310.86976,289037000.0,279614157.78836334,1613343000.0,364870972.92650217,45433000.0,189013520.6780564,413911000.0,605160956.961661,459344000.0,608936557.2786379,-6757000.0,98275959.75723292,52246000.0,89927734.69278702,-6813000.0,126886019.76916872
1402,1560,4,88944000.0,79338771.50884534,45361000.0,28979336.837588314,43583000.0,33142315.83031551,0.0,15235178.023740724,45000.0,1783793.42673586,45000.0,3069387.102419184,-14351000.0,-9185546.482463345,14351000.0,15474648.959927393,-14351000.0,-7768111.0486822715
1274,683,0,5390785000.0,5027733064.0996895,4083098000.0,3881395607.7646484,1050686000.0,1088283473.4514346,352054000.0,358286586.01321965,284900000.0,334656131.4313572,636954000.0,745568620.4881651,120850000.0,126351395.05732049,187232000.0,196392517.08798063,164822000.0,146645193.86160097
799,1475,3,18535000.0,-36363892.43412505,13748000.0,42570970.18429987,4787000.0,2811470.388668758,2839000.0,42471041.6935561,7502000.0,47488846.64907367,10341000.0,17067112.83766938,-2229000.0,-2135978.2678703545,3071000.0,23717174.60775837,-232000.0,4206111.229029866
1436,366,2,13281300000.0,15519948001.642183,5777300000.0,4917548887.938281,7484300000.0,8360360744.798958,1030700000.0,949646498.6242635,1150100000.0,1245632490.714959,2180800000.0,2007953329.4696481,687000000.0,587233484.6598092,343700000.0,376430299.65537494,687000000.0,461994513.52926743
1518,564,4,108681735.0,116632669.18372905,9192190.0,21584233.236286115,67531550.37365061,88138237.20792395,2201326.0,15875058.004592571,255772.0,-2792263.985242561,2457098.0,-2484525.0780922985,-8935951.0,-5827924.420830604,11137277.0,11583953.684000341,-8935951.0,-1072202.9394278054
211,1245,3,189692000.0,48260897.72581957,90178000.0,-1779.7185985492433,99514000.0,382849209.07599413,-4411000.0,40451228.73606624,24963000.0,28240459.416949306,20552000.0,24774826.82709102,-10000000.0,-7199593.996292038,5589000.0,26098388.63936166,-10000000.0,2288152.831071252
1542,539,4,230878000.0,215543526.4110696,57278000.0,65279492.24910655,173600000.0,178962835.5213361,26973000.0,40446012.53006827,7041000.0,6612721.359141389,34014000.0,32602138.86436869,-11169000.0,-5571821.812344503,38142000.0,41416267.64742236,-11169000.0,-6758098.484077377
1496,129,4,73773000.0,-247091070.99965,50819000.0,-13097890.081571784,38847689.64492722,-177634368.0551716,5428000.0,19529631.172104876,22481000.0,19011226.701214153,27909000.0,28121408.595973663,-1778000.0,3819771.5559542207,7206000.0,12416225.781845191,-1778000.0,1305698.6512677334
1891,794,4,1582767000.0,1557889364.0564704,680421000.0,752687839.4549004,880211000.0,769135621.5610739,56683000.0,73487812.91438285,17637000.0,8181795.657634768,74320000.0,89325033.80809091,-5119000.0,-9416959.769229228,35279000.0,58157467.27711158,21404000.0,20022161.97022518
362,1155,3,5641000.0,-28977270.93897188,5200000.0,8157767.234671361,-3859000.0,-1374540.539425533,1192000.0,38859053.814001784,781000.0,1247123.2415438576,1973000.0,2604395.361123215,-97000.0,-715310.2766793966,2070000.0,23357688.531602036,-878000.0,3803973.6670644023
605,905,3,3208196000.0,5324729156.622949,2133043000.0,2509247286.3344197,1075153000.0,611247271.8770914,625972000.0,636899701.9024962,1066275000.0,1108327255.7480621,1692247000.0,1645201018.8929062,91616000.0,143405883.68176827,497965000.0,463832800.6691178,128007000.0,169448922.44250366
384,713,0,13057000.0,24673732.30068008,4943774.229094189,285091.87995829806,10949000.0,47453926.90580942,7944000.0,21653103.43632731,0.0,9039477.927870667,7944000.0,5194854.998535105,1997000.0,-845398.7425936084,5947000.0,1337044.4954062006,1997000.0,29235364.527165536
438,1575,4,5973000000.0,5782013515.177155,4408000000.0,4959505739.219284,1554000000.0,1740880945.1428962,244000000.0,218426479.24833003,1526000000.0,1311779096.7128978,1770000000.0,1650311924.676592,147000000.0,52323014.68622903,127000000.0,90472973.86738974,117000000.0,125090771.82496908
1761,738,0,589088000.0,661873443.4655665,253950000.0,265114443.23361504,335138000.0,349717246.77176756,19294000.0,47676744.85456419,99428000.0,103893896.05184817,118722000.0,130602632.60538487,9057000.0,9029684.703267697,10237000.0,13849705.347239975,9057000.0,38353614.08262778
403,525,3,21286772.0,-18400683.218915403,1383236.0,3897282.894441498,19903536.0,11922804.151361503,781782.0,38859053.814001784,421382.0,473097.2419930572,1203164.0,2640033.399244946,-1960898.0,-1573286.9525864015,2742680.0,23925248.99374039,-1960898.0,3726156.1672229823
388,1349,4,3445920.0,36962435.08740079,1859560.0,88482163.18293694,1616914.0883314284,-13991832.398158858,2970901.0,15732558.151889898,569508.0,4772368.356119962,805185.0,4562159.934391871,2437201.0,4783195.075784884,533700.0,1035638.8648847169,2437201.0,3390596.2169192038
1452,124,4,328158000.0,341873309.18082255,124250521.82515822,117939927.67892301,270486000.0,277885462.5149837,24944000.0,44417526.32908265,16521000.0,13720898.04357031,41465000.0,41759942.26524901,-7674000.0,2375496.2682662983,24827000.0,19879416.11005013,117000.0,7255363.059285518
1876,412,1,2498305.0,-168936097.59499687,2997402.0,90232306.32967517,-3454854.0,33900541.01242263,467340.0,1108227.6610202035,346611.0,68096556.66545911,813951.0,2244059.57213716,-114631.0,2299129.1341264523,581971.0,420837.92885528965,-114631.0,2962983.5237657996
757,651,2,1288046000.0,1149201149.1918428,649920845.9604261,588545806.3734581,889849000.0,903004948.7870588,105384000.0,128313238.73643814,285360000.0,307114605.8135526,390744000.0,476288620.3609884,53190000.0,47097613.566656336,52194000.0,91358688.81249076,53190000.0,47266179.95093394
660,226,2,600057000.0,618459695.6623744,369915000.0,348264323.15620154,225443000.0,244774311.62672558,43121000.0,79948666.58351003,106269000.0,138260861.9641304,149390000.0,266833577.03493544,7853000.0,18080517.76596149,30439000.0,66911307.64186714,12682000.0,22479583.65631004
197,709,4,538955000.0,-982149935.2526152,291671000.0,2693183.111333698,247284000.0,-209989689.8152132,-14193000.0,9715194.690566633,14235000.0,87330149.9533658,42000.0,78409827.78827974,-51845000.0,-50258178.06019237,37652000.0,38414903.01977534,-51845000.0,-39595023.448235154
93,962,1,25334074.0,31191795.22199569,18917048.0,97930990.56447323,5501613.0,36566848.969987,-536032.0,1255056.2322214004,4501393.0,71315014.08738168,3965361.0,2594105.7230840656,-2975120.0,-2354620.4279858433,2439088.0,22468267.82859379,-2975120.0,-219032.6551727679
472,1463,0,1934400000.0,2284129679.077677,855887268.5537325,995587909.8170847,957200000.0,992031781.78512,84000000.0,154614238.07234907,375600000.0,419892256.1807587,459600000.0,550632513.5836239,30800000.0,66007365.68464412,59000000.0,71496753.59658676,25000000.0,83037301.23663671
1345,573,0,102973000.0,423030942.2517491,162948000.0,305807272.8500685,-346214000.0,-32565828.79336968,-13037000.0,-20702023.532292884,25768000.0,3455227.973456898,12731000.0,-47227229.903733276,-23219000.0,-13443717.597370075,35950000.0,33433924.535489406,-48987000.0,4094145.773328304
1672,351,2,2501300000.0,2699144313.190129,1075500000.0,1215054762.1491337,1407900000.0,1445917343.282983,99600000.0,154987542.27099782,151100000.0,238682820.25730854,250700000.0,386428712.500948,31900000.0,16191467.608703574,67700000.0,142619413.32340005,31900000.0,16968356.643611126
521,298,0,27910000000.0,27010970487.783726,24392000000.0,18758827285.25301,14058781786.346067,3473640017.220395,1525000000.0,1042289690.0792657,6421000000.0,3842813384.5772104,7946000000.0,4373172104.231521,561000000.0,329541681.74890924,638000000.0,804363881.8942434,887000000.0,646300957.2075499
1143,519,4,105238000.0,-152551608.09716284,42240000.0,38078328.09110131,62998000.0,70250416.04355066,8572000.0,23407191.056759514,322000.0,-5935481.039399993,8894000.0,8793106.605685705,2218000.0,7399496.3534224555,6354000.0,4537107.097770825,2218000.0,5921314.3115047645
502,1365,3,2010176000.0,1986425319.9218082,889414829.379791,896861371.494749,1057656000.0,1023002754.3705178,113627000.0,157831705.72849038,250202000.0,256679212.43011644,363829000.0,393523519.9190284,44531000.0,39932018.229911946,69096000.0,83264214.30699001,44531000.0,49831859.68196696
319,621,2,15154000000.0,14810328489.572084,5534200000.0,4755491319.125805,9554000000.0,9838596254.143751,739300000.0,678746543.844727,999600000.0,1014137829.8768598,1738900000.0,1583624876.2565992,318400000.0,237594387.73587862,315200000.0,320262216.7524768,424100000.0,339176842.4691204
471,516,2,346507000.0,-51536203.48083848,100361000.0,-162635014.77356383,246146000.0,130383120.24722168,14398000.0,57460949.284569025,62502000.0,125493494.46744893,72480000.0,223255948.6429966,4926000.0,12759393.040096354,9472000.0,50743630.273155786,4926000.0,18334975.2940922
1756,421,2,229309000.0,135674497.50869986,190264000.0,219385921.55935577,-44269000.0,25663878.657370877,9225000.0,55735796.32544511,52669000.0,139909942.2503348,61894000.0,222805566.32576576,1401000.0,12057570.074639386,7511000.0,47120790.05617869,1714000.0,20555330.87973251
848,415,3,101740000.0,5925574.438793384,28463000.0,-1259605.336198431,50734000.0,-6785542.230621115,29850000.0,63799696.61037417,12745000.0,15820106.64459758,40857000.0,37577652.25754961,2689000.0,2103133.6582028577,27161000.0,42239384.065183006,2689000.0,5375258.463643834
1310,660,3,9582645000.0,9380417346.20039,3280269000.0,2935626963.8762984,6302376000.0,6570060669.35156,376175000.0,127771201.02431712,424915000.0,571909344.9750698,801090000.0,788591047.1090757,272965000.0,163813906.96225056,103421000.0,113041585.69016758,272754000.0,91480573.39809875
202,496,2,609678000.0,634821002.7651047,288631252.1743736,331244947.43558294,366720000.0,357014173.59736854,84451000.0,120377494.50551082,21802000.0,74928917.30517176,106253000.0,259327208.27328596,5683000.0,15842082.585394375,78768000.0,121734202.0842757,5683000.0,18249703.830152586
1444,1250,3,43441700000.0,23890447904.11336,21559314449.01792,5856534427.482166,21882385550.98208,22537304815.58879,1370000000.0,1173309069.7600124,587400000.0,426243601.74213994,1957400000.0,2208922149.7895117,472000000.0,489198889.9782996,1485400000.0,1545370314.324866,-115400000.0,-389046983.8642548
1578,687,1,1146353000.0,1164198270.5924065,752649000.0,759599417.2925453,393704000.0,482231652.6232905,95229000.0,106963194.37817362,32092000.0,102851528.70209669,127321000.0,132034897.35732567,-58245000.0,-55483577.91082857,153474000.0,147152074.61106548,-58245000.0,-48664785.53052212
451,1036,2,796771.0,41814027.2224032,1072746.0,-87346551.08901769,-275975.0,-50102827.17460733,205707.0,46261303.00055315,158335.0,63508314.00382537,364042.0,162699756.47381085,-168127.0,10500186.874756474,373834.0,42062043.47803099,-168127.0,17454130.31788999
35,1172,1,9069035000.0,7268767484.352891,2563480000.0,2218535678.609044,6505555000.0,5417941098.163447,942419000.0,847898209.4694542,522866000.0,643131203.0953145,1285548000.0,1011340823.8070674,602695000.0,610192647.5616628,339724000.0,359964122.47874135,602695000.0,495253045.29833794
237,194,4,48924605000.0,30454267556.491714,25766652000.0,15919617231.447481,22441501000.0,24125217454.982048,1560160000.0,945349945.8099388,915531000.0,-435025014.11669207,2475691000.0,1173999995.2541115,558196000.0,619904515.9071945,1001964000.0,608410162.8138313,558196000.0,475867319.3476514
917,1116,2,514281000.0,455562940.2581954,309957000.0,226602812.63579085,198004000.0,174215707.55122975,106985000.0,94057193.9037301,149052000.0,164214084.50000447,309744000.0,308660135.9486627,62399000.0,24186228.09168675,44586000.0,74233551.92197621,62399000.0,29772861.44160361
558,251,2,17876000000.0,-2880909052.4828887,4077000000.0,2252974085.584322,13799000000.0,-106649186.03279045,-917000000.0,-232966728.7034555,1453000000.0,758738296.1726029,536000000.0,238034021.00686076,-1774000000.0,-404661645.49917775,857000000.0,1287067644.2159784,-1774000000.0,-1563545968.2635126
73,532,1,218354000.0,177575846.88921535,62021000.0,135592874.52543283,156333000.0,257427223.3317376,-143000.0,-11329.269297029197,848000.0,68344724.011614,705000.0,1218717.3462307116,-31577000.0,-25504300.550705902,40859000.0,34307232.102100305,-41002000.0,-28411522.783818245
532,205,3,2268100000.0,1744848443.4641128,1627400000.0,1725960625.6669397,640700000.0,1459797542.9852257,78400000.0,79821563.70103894,665200000.0,815453072.4792545,743600000.0,956382646.994488,19100000.0,71700727.16478726,724500000.0,827904430.4075196,-646100000.0,-978976464.2783823
986,275,3,49117000.0,69992736.1843821,7104000.0,-22607369.470639177,42013000.0,-14373113.612291042,1616000.0,39318875.81396085,3273000.0,-238499.57907433953,4889000.0,4327664.821718427,-1489000.0,-1324243.5567917812,3105000.0,24359566.350324687,-1489000.0,3493428.9030604563
252,1030,3,12822000.0,97936184.00699392,1624000.0,42297329.60754153,11198000.0,-57375893.47055121,0.0,34464918.76828572,0.0,1755263.4132459396,0.0,757306.0046399705,-1983000.0,-3421756.8556159595,1983000.0,20431166.718742177,-1983000.0,925871.7536355755
982,1392,1,543788000.0,639408251.704794,205894547.02387,295018376.01500106,402777000.0,421470689.54806495,1944000.0,8336144.994572209,0.0,69233970.038654,1944000.0,11111473.327571686,-51279000.0,-60687390.66298699,53223000.0,94137312.08731335,-51279000.0,-48669537.4885374
1947,616,2,16965000000.0,21311301774.837097,7506269391.549871,6762980144.1924515,7744800000.0,8967723802.29246,1329900000.0,1018476400.8935014,1175700000.0,1258592594.776528,2505600000.0,2162748028.9252577,1069200000.0,994313952.7195172,32700000.0,56335671.32365316,1297200000.0,810238515.0327513
1206,918,0,29788000.0,128678415.38423665,27907000.0,44518209.976903,1881000.0,29932616.31775325,0.0,23504016.376253586,3452000.0,2016471.5858189822,3452000.0,5181152.320262266,-23801000.0,-16745560.536091518,23801000.0,19708909.740675416,-23801000.0,21535567.40384284
542,1191,2,39315010.0,-62480166.6041847,15768167.0,36243862.15703895,23791305.0,69184728.97668827,7600979.0,49219610.69756807,41810204.0,91115375.7364371,49411183.0,185572945.16143999,-1588725.0,9476355.009148646,9189704.0,48898440.20381026,-1588725.0,17272767.78121027
15,899,4,184728000.0,160657784.0252378,40367000.0,41419993.99330421,144361000.0,125812390.40729246,0.0,15579826.106914964,8094000.0,6796112.219275928,8094000.0,3712092.400829003,-23114000.0,-20740919.721483987,23114000.0,30832756.200225204,-23114000.0,-24927525.682173274
1754,856,2,5014090000.0,4726447987.571356,2606263000.0,2581038052.107033,2407827000.0,2543036007.3299823,420690000.0,433306972.0337436,905430000.0,843155652.8789299,1326120000.0,1341287049.658175,237492000.0,209271288.4725582,183198000.0,212498333.36378357,237492000.0,203919983.2423605
1448,1495,3,3543460000.0,7508954656.593319,2602227000.0,3044287023.6294894,941233000.0,2856107096.196106,443568000.0,414980258.7468644,134292000.0,192873872.96550956,414603000.0,430752906.8377669,14363000.0,-54455600.459837355,429205000.0,399276129.34025407,14363000.0,-89699176.25498402
459,1563,1,747087000.0,750941894.1644384,79688000.0,187566883.7984125,667399000.0,642220099.3703698,34565000.0,33053231.194603816,22203000.0,84145699.20295599,57261000.0,42612161.77989014,-16306000.0,-20955649.72584978,50871000.0,58535569.804800734,-16306000.0,-12573083.451032443
1505,8,3,4578121000.0,12454247772.433369,2310023301.364386,-1975916874.238266,2489780000.0,6934929378.6933155,2190001000.0,3011101357.4586887,-1465670000.0,-272170247.90549076,724331000.0,184008489.11925662,216069000.0,786814790.3101442,1973932000.0,3518359028.7271028,216069000.0,482277781.69190955
1613,399,4,11895943000.0,8458157874.416219,3479745000.0,3437812355.940274,8416198000.0,9338388879.353262,335683000.0,322978027.7541874,296441000.0,719413999.0639607,632124000.0,821912295.6582799,90949000.0,94456578.13596775,201199000.0,-303381377.90913975,134484000.0,156724712.5744166
1214,1410,3,1059300000.0,1106989780.9715881,513000000.0,536472343.53709924,545000000.0,557442489.207527,132000000.0,159085351.57244843,172700000.0,186147947.64407977,304700000.0,316247419.08394915,34700000.0,27032521.545609433,88200000.0,97302807.14394356,43800000.0,55261461.330075994
454,235,3,11204065000.0,10392221616.317938,4242197120.938668,4592007418.671428,3489373000.0,3683152735.050351,480702000.0,515673028.0599476,457696000.0,405989257.31961626,938398000.0,973464542.6039222,172392000.0,127610955.80815099,308310000.0,381281937.8378869,172392000.0,103404037.72530806
1392,34,4,531121000.0,522715018.1565148,248900000.0,265491101.0009246,282221000.0,271094924.43635935,62379000.0,78070271.97460976,135419000.0,137669466.49447936,197798000.0,193736776.99702996,18703000.0,18238375.31905884,43698000.0,55724925.3143923,18681000.0,20189423.127597023
1519,1545,4,961035000.0,398164102.5704698,1381722000.0,1533750502.6100335,-420687000.0,-1192469736.7491584,271111000.0,302599675.45328134,201537000.0,221455750.09240004,472648000.0,569321903.9956452,5387000.0,3118530.902223928,265724000.0,302877680.6274685,5387000.0,7436017.585734522
1060,432,1,3194462000.0,3270606383.236978,1643299000.0,1608089655.8625805,1512215000.0,1427558087.1840796,817744000.0,831718825.5438552,0.0,85083197.13525537,817744000.0,837863474.5367061,37900000.0,14187320.52292822,779844000.0,754146241.9494513,37900000.0,20368513.790807378
1100,895,3,6042273.0,-38036159.21872836,3627261.0,134847326.3388198,2415012.0,107650781.36406147,0.0,34464918.76828572,0.0,3492548.412269663,0.0,2217265.0943023027,-1829562.0,-1708117.4254924108,1829562.0,23357688.531602036,-1829562.0,3338598.1769202626
203,426,2,76266906.0,58762776.26030187,57438990.0,42561584.812976286,40912361.81482647,24973241.66185819,9146097.0,53197289.185549326,0.0,63241059.24441552,9146097.0,169241148.29873356,-2633902.0,9099821.537594054,11779999.0,50641132.39965231,-2633902.0,17272767.78121027
1493,1399,4,-3532973000.0,-17017660556.834024,-2747133000.0,-7985744467.005105,-773571000.0,-11956693949.716105,87737000.0,143801170.64254084,40236000.0,235926531.1530267,103187000.0,338479918.55326086,7123000.0,42153779.795272075,80614000.0,97735079.37090586,7123000.0,28891968.225224502
543,815,3,846734000.0,401047366.81222934,635659000.0,398692220.66004467,69332000.0,-123972689.57252255,204774000.0,271701318.579111,-13024000.0,96993381.88737343,191750000.0,72603312.63627763,-52860000.0,-72603602.94766694,257634000.0,319022809.25267315,-52860000.0,-155518655.8247528
1966,624,4,1354514000.0,-1849540733.621549,675720000.0,-210505358.35449252,319291000.0,-1833495346.018372,-16558000.0,-26950615.449225243,64132000.0,-207771548.05346084,47574000.0,-143796279.73824158,22229000.0,3752704.2237483617,13428000.0,25653522.2468494,-29986000.0,-27082264.360716183
1802,437,1,270533000.0,259982684.8243755,240046000.0,320421433.47388214,30487000.0,63513557.37141006,26052000.0,30418641.579031926,12454000.0,83331744.81433457,38506000.0,44903014.72595813,-21038000.0,-8992758.396059422,47090000.0,56192497.176962934,-21038000.0,-8166206.397327468
1372,1341,2,583783000.0,-41246554.5099898,717382000.0,752631772.170492,-133599000.0,-388932684.8618452,41865000.0,82772871.90933621,32703000.0,85954166.21156397,74568000.0,203052752.7068544,-32006000.0,-27323542.625278108,48224000.0,78763076.1952178,-6359000.0,6421595.91159352
1325,1439,4,534446.0,257451485.54272765,9794849.0,61864683.64277037,-9132038.0,99810909.3700886,6264.0,15319458.914186832,3881.0,1282595.7726633425,10145.0,420567.4638349951,-961868.0,3843567.5143734626,972013.0,1250595.34347959,-965749.0,2638236.483633
1504,1241,2,106308000.0,153640605.09989968,29369000.0,51919464.16955695,76939000.0,92293890.29286139,15630000.0,58110370.129211836,0.0,63598570.03783476,15630000.0,171222896.7002072,-23899000.0,3761537.8171050292,39529000.0,61557405.98077108,-23899000.0,13526156.216804542
1347,1518,0,369031000.0,465199298.9537175,216722530.1814524,264922043.60344756,188777000.0,203728842.54182148,45044000.0,99876441.80523357,42173000.0,62234460.23400651,87217000.0,129497715.71290301,-3804000.0,9371837.348573856,48848000.0,54634272.635009065,-3804000.0,33471275.97861781
1492,872,1,327784000.0,338747854.59053147,323919000.0,370590558.2820224,3865000.0,62253290.20330809,33496000.0,29103857.327888574,8201000.0,74237993.4100199,41697000.0,40981369.438858435,-4913000.0,-13120098.274019744,37287000.0,43236023.06930691,-3791000.0,-4839070.065422928
1107,1504,4,85658000000.0,38856680942.353355,88335000000.0,30074793040.70339,-2772000000.0,116731498.38855353,5387000000.0,8681853472.39338,14002000000.0,17568064482.94377,16935000000.0,24162063818.10859,1165000000.0,1539156700.3119786,4222000000.0,5583872959.062482,1165000000.0,1704080085.5286117
1336,431,2,898860000.0,775977916.4852885,527877640.3036609,571126479.2717985,360528000.0,337056680.27057755,68259000.0,115242806.94436605,42065000.0,105992211.66978069,110324000.0,256068729.84199113,-1325000.0,15950925.530707104,69584000.0,103323954.30624773,-1325000.0,21366611.95789528
599,1357,1,50546000.0,55765204.630631246,5959000.0,91641022.79741018,44587000.0,74927261.0600877,1989000.0,6088412.892947566,1909000.0,68771071.66332908,3898000.0,3379178.433985651,-1895000.0,34984.90564974971,3884000.0,5172168.4250770155,-1895000.0,2182739.3763679587
117,630,3,939056000.0,1117720085.2892478,419590000.0,396145861.60391134,517473000.0,489732767.0718558,90527000.0,127165859.53991571,120216000.0,121607265.29794772,210268000.0,233701676.57798654,61012000.0,48568437.656073794,29515000.0,50876775.96119086,61012000.0,71336123.61250311
1825,1520,3,20027115000.0,19817415102.30556,12952737000.0,10432329808.368666,5611108000.0,6132618670.283248,32786000.0,-42655829.37541996,283742000.0,284083957.74676293,316528000.0,500702393.535006,-1347477000.0,-317040663.5274212,1910658000.0,942884560.621287,-1877872000.0,-470211122.6983582
1507,300,3,124094000.0,77996336.60078308,18130000.0,44887814.37576659,105964000.0,95603647.5965273,830000.0,38971516.33431906,0.0,-334095.8359178596,830000.0,3111014.747889692,-5787000.0,-9781063.580296941,6617000.0,28366423.9641452,-5787000.0,3120010.507199479
321,587,1,68675000.0,72868752.90575235,40331082.646745786,120820526.30531777,53645000.0,82379270.31473832,10938000.0,10601624.62851397,6604000.0,72915072.752678,17542000.0,17496714.92349283,880000.0,1763797.917629238,10058000.0,9245120.336369606,880000.0,2985904.929608056
1482,433,0,1833700000.0,2149529827.991296,811331929.4597701,931684281.3574699,482900000.0,517834426.5594432,110200000.0,130563012.59327659,356000000.0,361703463.5261401,466200000.0,502755824.51284295,45700000.0,44634954.749583095,55600000.0,68372112.8319458,54600000.0,71096301.3291801
508,1187,1,62515472.0,79413496.34331463,29595817.732691668,115613299.20322657,21861273.0,48815360.80061828,7032458.0,3518927.716611595,11256239.0,92075752.8715139,18288697.0,8510204.922788994,-1564350.0,-2084828.9974922703,8596808.0,55658204.71261941,-1564350.0,1032124.2954208925
1411,610,3,33859785.0,232212709.1362216,6178818.0,187605912.22286975,27680967.0,84179999.10905458,-63384.0,38859053.814001784,87873.0,436459.9736310928,24489.0,533325.9537301114,-2675666.0,-2290743.7051086435,2612282.0,24175599.80349898,-2675666.0,2456419.9240092277
718,1603,3,770792000.0,901372593.4409127,581187000.0,472551577.34112704,188503000.0,220676996.2172023,456709000.0,472643532.66519105,0.0,-1410892.0310606458,456709000.0,479460934.9166062,-29756000.0,-21234717.52004546,486465000.0,500039533.0657196,-29756000.0,-17687979.818931114
1865,1457,1,4753100000.0,4771793906.607189,2691038000.0,2676362781.400778,2062062000.0,2081876030.5646632,383135000.0,439414178.0061369,0.0,64387979.21934061,383135000.0,395451685.4541666,126771000.0,128040115.15857537,256364000.0,302554666.59822685,126771000.0,87773647.47074445
710,1426,2,9330700000.0,10877422904.652723,4987700000.0,4893075539.875345,4343000000.0,4162394622.3684983,590200000.0,611015094.9214517,367100000.0,260429263.42434943,444000000.0,610580093.9471179,121300000.0,106129308.78321497,468900000.0,581087926.943862,121300000.0,142944119.18241718
285,985,3,1797231000.0,753375743.4690787,1568932000.0,1346031095.6886559,228299000.0,486625312.56943184,143030000.0,166432954.7977604,0.0,14589933.732639952,143030000.0,138519524.62988955,-113543000.0,-93866404.0785082,256573000.0,266266866.45410928,-113543000.0,-92163875.0527806
1609,179,4,90048000.0,593103847.8654844,45436321.63528667,733688711.5588788,37547000.0,68855887.4798155,2482000.0,16176695.418849446,9262000.0,67214546.93242157,11744000.0,-101335340.4879611,1360000.0,2711211.185142616,2815000.0,4105044.0564026977,-333000.0,-2728796.350940187
1814,1095,3,190817000.0,239849251.58816177,91955000.0,69672104.2448192,118567925.39840196,114363769.25024132,16838000.0,51061398.102059156,21962000.0,16554330.47862061,38800000.0,37373377.79188022,3292000.0,3240571.7226451524,13546000.0,30403930.197947215,3292000.0,8749066.352143219
720,50,3,24930824.0,127821849.35822399,6278564.0,-65971041.83364661,18652260.0,-48607937.49352549,7866761.0,41390120.46574953,20382092.0,7123967.023118896,28248853.0,15702599.446177583,1448213.0,3573259.8136634976,6418548.0,23691506.819806498,1448213.0,5039381.091835465
1707,149,4,6071000000.0,9315149117.611101,14261000000.0,15963975943.814215,-8190000000.0,-10991885340.488913,1287000000.0,1375911596.208249,421000000.0,403728903.7746423,1708000000.0,1641777615.0000465,613000000.0,608628698.4739568,1095000000.0,1261891373.3469021,192000000.0,266611642.29202685
485,1443,0,5768300000.0,6075396025.550239,3017800000.0,2958570543.9122524,2739100000.0,2703909088.9058204,487400000.0,505306987.8164463,888400000.0,895787053.6933339,1375800000.0,1479172197.1243677,276300000.0,214355389.95774943,211100000.0,212105743.7950995,276300000.0,244713989.41627464
1364,1252,1,3486179000.0,4078156357.7556744,1927467000.0,2092480504.6055818,1501742000.0,1526924772.260437,315111000.0,318535791.2839066,669472000.0,701971203.7832005,949217000.0,952790825.1926063,-24190000.0,114416353.91966824,194277000.0,200278742.51679698,120834000.0,108616220.19085418
1943,1464,4,496042000.0,425008291.91047937,349488000.0,349642152.7772497,146554000.0,116103615.3670985,33924000.0,52105123.034415506,212763000.0,201278439.30940408,246687000.0,257400008.29429647,12448000.0,16092817.74457781,21476000.0,16138519.326039081,12448000.0,17263788.581613746
708,512,1,1713800000.0,1804574199.5344594,864747334.9608463,955779460.2059542,585500000.0,669369597.196854,141400000.0,115262655.3136625,205900000.0,245561001.20114583,347300000.0,314678497.90307957,100200000.0,69352188.07583098,64600000.0,64528066.38260275,76800000.0,60416736.478561655
1795,256,2,5817000.0,30877435.022235088,1413000.0,8991437.806333296,5436000.0,23212947.69374181,5000.0,46261303.00055315,0.0,63197140.30520466,5000.0,162699756.47381085,-3525000.0,9273856.437799945,3530000.0,44828053.20848158,-3525000.0,16594087.458531104
1196,860,3,4180537.0,22967273.048925433,13379601.0,73254635.34432627,-9199064.0,-45905615.87089965,1107842.0,39632435.363185495,974711.0,1488717.7409162943,2069845.0,3248949.555604705,-2577294.0,-5239595.964837523,3685136.0,24450557.87155808,-2577294.0,1466907.600739526
1785,368,0,6656000000.0,4866790615.170591,2127000000.0,1498996118.0688963,4529000000.0,4346434693.282472,386000000.0,372811166.79169,110000000.0,82065333.02062985,496000000.0,282382932.6863506,-53000000.0,-44122543.99195602,439000000.0,1282491084.3777454,-53000000.0,-8562180.000885818
1117,1482,1,191593000.0,222920352.43056726,250675000.0,339060392.1765708,89973054.63642293,117351183.95047455,28173000.0,25070985.311537378,35245000.0,71932796.011349,63418000.0,62356164.270658456,-6852000.0,-10843846.35213398,35025000.0,40274377.31403479,-6852000.0,-8517815.931832742
611,528,0,69753000.0,216786454.52857828,24624000.0,121893511.46906291,45129000.0,125637814.24857827,4333000.0,24817994.41431856,3937000.0,7970635.782840236,8270000.0,15076440.36006184,-17948000.0,-22013765.98373851,22281000.0,25735587.632699795,-17948000.0,15866957.820484063
1037,1096,2,12798100000.0,13072836754.865372,7698700000.0,8572101289.980107,5099400000.0,5259417605.911381,578600000.0,579468142.0288017,1141600000.0,1188662395.2566597,1720200000.0,1671410508.5779455,210200000.0,64319278.617465876,368400000.0,412405641.90860873,210200000.0,182006431.9443157
1049,1368,0,41718000.0,134602502.6204945,16883000.0,83666511.38649538,24835000.0,50332087.362057514,4472000.0,25518484.910744816,-7000.0,103949625.97293851,4465000.0,8014629.962592533,467000.0,-370693.8348751033,4005000.0,13301456.261673797,467000.0,30247829.150696725
181,192,1,2175066000.0,2315607851.947407,720018000.0,784816897.3396169,1455048000.0,1476071008.2486076,262895000.0,233749146.3158401,0.0,87347960.56524976,262895000.0,273699410.83903354,-74357000.0,-42130386.21810198,337252000.0,296506601.22419757,-74357000.0,-34004038.45785087
1530,1427,1,432444000.0,464423163.88894975,58115000.0,148631460.37675846,374329000.0,418202888.3186356,30953000.0,30305422.91982668,9019000.0,76974975.05289657,39972000.0,39651926.091107585,-4508000.0,-7354198.166717826,35461000.0,38511074.12975547,-4508000.0,-7567368.2029684195
1172,703,0,1951144000.0,2140443188.3445504,976648000.0,738660865.0858632,828149000.0,715847024.2053416,81471000.0,59838368.739840336,811299000.0,865306755.8940332,892770000.0,901409209.6083394,21174000.0,-5358152.414331672,35340000.0,34186244.26978267,46131000.0,29469904.311504055
1844,177,1,5184000.0,406044475.7797822,33317000.0,87321017.87832995,2568262.933576247,63382337.43125796,28000.0,173043.85619156522,1138000.0,68263398.83375652,1166000.0,5502590.358031085,-1174000.0,-371055.3695858036,1202000.0,4967156.459977022,-1174000.0,843116.4676205334
937,1211,2,30042800000.0,30540695578.371418,15158963259.867964,15776639783.091341,10331300000.0,8805353557.007858,1541600000.0,1264270236.854185,2284300000.0,2021668845.6033442,3825900000.0,3301857236.890425,727800000.0,733226249.2034291,402100000.0,430562435.5913142,1139500000.0,727722492.8092387
1319,819,4,3143366000.0,2861540370.3068795,724791000.0,722180370.1501099,1686216654.8151803,1630941678.4665022,293240000.0,169118920.10861006,0.0,43921015.26353766,293240000.0,206561448.9512575,242794000.0,94483066.78845993,50446000.0,57065929.880265,242794000.0,98395876.74626726
785,508,0,2558318838.0,2477592910.6165133,289865031.0,431878238.08308816,2268453807.0,2489398721.1770053,191440633.0,218477461.91074204,384407857.0,365571906.4719082,575848490.0,495230747.50754476,122416529.0,102702635.27788281,69024104.0,54897919.66135164,122416529.0,133155631.14822778
534,742,1,355784000.0,349339518.65605164,359982000.0,394077575.3683819,21035000.0,19128434.72013739,21274000.0,24531304.742386788,23247000.0,85493192.23330694,43857000.0,38596432.754984595,-2501000.0,-23356254.39705986,23775000.0,47014464.46174667,-2501000.0,-17205873.03118812
1073,970,3,107571000000.0,134459719918.75298,49865975585.04998,101752321054.08733,57705024414.95002,35731161344.039925,4680000000.0,6635404171.671524,16059000000.0,22789379526.205837,20739000000.0,19855051346.139427,2233000000.0,3039413210.4805737,234000000.0,936883853.6888744,4446000000.0,5228587916.352822
871,1115,3,357016000.0,388975589.3754305,134021000.0,142515412.91726655,222995000.0,226567035.21250805,10859000.0,45292722.4941372,60424000.0,60206901.33294816,71283000.0,66884407.392729774,4410000.0,874114.7685525883,6449000.0,28341008.023847792,4410000.0,4451469.098455102
145,1561,3,10492900000.0,12175439054.750914,4642648635.342979,4171306877.8132415,7724300000.0,7442701292.873951,1077000000.0,1229370029.655435,2546000000.0,2375722548.850888,3623000000.0,3396358257.2697144,389500000.0,625042651.0037265,626900000.0,663153065.3455433,450100000.0,659581182.5094448
1137,1231,2,221167000.0,188083726.36272347,272405000.0,291325440.1067097,-51238000.0,-78091562.13396798,26384000.0,71229533.97125816,0.0,64345180.91810629,26384000.0,182636259.03080767,3123000.0,7391608.002185471,23261000.0,66962007.9890591,3123000.0,12910688.874955535
1853,1087,1,644700000.0,806022711.9492062,668700000.0,1081445958.0466597,-24000000.0,247549968.54400674,11300000.0,14956927.499534827,30400000.0,125278171.19155504,40500000.0,55494020.06866737,-2900000.0,9905390.50408589,9300000.0,3245115.5815793127,2000000.0,22599384.289629508
1607,435,3,5733000000.0,6009488304.943575,4386600000.0,3900223766.579449,1332700000.0,1860899745.4482596,508800000.0,492672405.88530415,1740100000.0,1585867351.5701365,2248900000.0,2380808551.919311,201100000.0,202059038.718488,328200000.0,319035571.59028107,180600000.0,154556904.46751922
497,361,2,3187469000.0,7526342787.693212,1581882073.387936,2087331313.9980025,1402929000.0,5857440995.479044,12023000.0,50471585.34220939,118303000.0,206195182.760871,130326000.0,300426532.0495025,121116000.0,85952492.91086286,236940000.0,262315114.3495438,-224917000.0,-139213041.171558
1789,988,0,160962000.0,102370823.90637736,136871000.0,112486217.28916852,14091000.0,41706188.5130286,33234000.0,48025782.38606523,28516000.0,21053808.259684492,61750000.0,51024746.07711488,-4105000.0,-18535861.31606889,29699000.0,38944903.81579829,3535000.0,29405655.21795019
1733,155,3,1070082000.0,1192840988.9321945,790095000.0,595479419.8126745,279987000.0,269333146.42989105,59499000.0,94243211.16530707,92514000.0,96869084.15286595,152013000.0,149098121.3747715,-6147000.0,-4733675.411118393,65646000.0,83834453.93037067,-6147000.0,1392808.0600508437
1735,42,1,55335000.0,111432845.69356665,11648000.0,95662698.33316103,43687000.0,71796621.63711269,13874000.0,12470381.086327553,0.0,119848246.2757192,13874000.0,10804551.250596115,364000.0,-4484495.8054122105,13510000.0,20286575.43559152,364000.0,-12534761.933618955
1273,370,3,8855100000.0,8257577530.681177,4468096700.788768,5061864399.715747,3543300000.0,4228153014.537164,468100000.0,423369693.3105886,2041800000.0,2646920986.480183,2509900000.0,2098223301.3380334,256500000.0,210464279.70325157,211600000.0,189074016.9382205,256500000.0,156967574.28890124
226,1510,3,1045317000.0,995005615.3969873,491551000.0,475794650.5076662,553766000.0,543942764.5617726,49476000.0,82773418.23601669,27012000.0,25300142.06724035,76488000.0,80871541.95891573,5569000.0,-973850.133738568,43907000.0,64707943.09920843,5569000.0,1303069.1692767483
856,682,1,3335011000.0,3199605202.4353814,1532336000.0,1464409117.1530228,1376443773.6613572,1283992704.14919,158805000.0,152568596.82488272,458734000.0,494766522.48925763,617539000.0,610989822.067549,82276000.0,52338288.57525409,26748000.0,30020644.75445028,132057000.0,126084632.16290662
610,1489,4,50788000000.0,31829773484.225365,23543456582.29001,13691662010.916515,11845000000.0,8421131803.273573,1286000000.0,785178526.9738358,484000000.0,-671416990.359197,1770000000.0,1721279847.9719732,994000000.0,810278060.8698277,146000000.0,-206209340.91489035,1140000000.0,846305407.7870104
434,1542,2,9209798000.0,8605462277.1921,3242862000.0,3036832375.163481,3654836000.0,3623944597.649216,758604000.0,599468965.409296,-63000.0,74622328.10011011,758541000.0,656429612.1907332,306700000.0,195568844.2836157,451904000.0,378095684.2652171,306700000.0,125465014.96452558
1765,981,2,3861516000.0,-2379496831.399993,3060094000.0,3221934139.052358,801422000.0,-1326956538.8064802,246503000.0,297745189.002522,543454000.0,322286062.4698474,789957000.0,888045003.215482,-286586000.0,-52471377.51665936,130761000.0,186839439.11774114,115742000.0,134068347.01675858
667,231,2,3117800000.0,3502886872.032732,2444800000.0,2448847050.772754,673000000.0,1205987164.2186375,86700000.0,171226169.4991115,411500000.0,562163631.9156134,498200000.0,697610106.6547998,-419900000.0,41337985.37743226,63400000.0,100574278.05644217,23300000.0,73767648.86846049
1194,1588,3,84073.0,-116257110.66428825,2814055.0,-66326524.5672283,-2729982.0,-158135495.39096183,0.0,38800866.398268215,0.0,1615490.120141721,0.0,2043409.212606517,-647078.0,-1610289.8592881288,647078.0,19472802.252088264,-647078.0,1141312.1696443371
626,281,2,250689000.0,226179984.2421399,83024000.0,30678589.304780953,167665000.0,361811717.7908302,0.0,43783753.02975316,33193000.0,91578751.18467617,33193000.0,190922748.88012123,-43672000.0,-23520736.38872014,43672000.0,77233924.57904755,-43672000.0,-8817078.291695781
1654,95,3,2267553000.0,2159975154.12929,1375272000.0,1169751907.8732584,519294000.0,680390954.0346019,30179000.0,93707130.36007968,36686000.0,77511843.31278782,66865000.0,110172998.3573916,-15417000.0,141253564.632014,38864000.0,49036207.52323769,-8685000.0,78717235.77290332
288,1008,0,2221575000.0,2246185077.282361,1034139000.0,933201092.200791,1187436000.0,1149844323.8007805,131964000.0,150769516.1137342,106311000.0,119601418.38527733,188755000.0,196552024.99122918,3712000.0,9397877.786264073,128252000.0,133020657.1592259,3712000.0,35858090.18677504
1665,605,3,555271000.0,-268367049.30374378,273881000.0,-940059053.4077343,281390000.0,326580326.71797997,77610000.0,102551458.83186041,73228000.0,88248579.51060775,150838000.0,156696028.2236422,6400000.0,-22452708.859118927,144438000.0,200394791.48581588,-66828000.0,-62381855.6404482
652,935,3,1810200000.0,2795896072.5489764,1334200000.0,1435761313.145521,472000000.0,-520331524.9901746,111400000.0,40836877.60792374,439000000.0,700563550.2474852,550400000.0,567103322.5789548,53300000.0,37988626.21646493,43800000.0,63073568.67258811,67600000.0,-236525204.6922353
1078,46,2,339972000.0,-108946459.41223429,145992000.0,31460907.566766746,193980000.0,-57245819.44873055,800000.0,56866492.41283147,85000.0,65780198.58519087,885000.0,168520811.06230226,-35502000.0,-29274614.696813866,45899000.0,105099326.31072594,-45099000.0,-8285257.073214887
778,1331,2,992330000.0,1378428090.5604217,401273000.0,392671860.97892314,544681000.0,438551347.0542424,417282000.0,417747471.4318554,0.0,64677428.20318365,417282000.0,479465650.83658993,5536000.0,43800996.06949976,411746000.0,352418835.4006707,5536000.0,14460291.521746522
29,1129,4,600271000.0,653397149.9020492,137438000.0,153808517.9061137,462833000.0,425282749.13224775,73869000.0,85595796.59711522,24421000.0,61792321.69014459,98290000.0,110353198.73252404,-8089000.0,2985515.03311837,81958000.0,76374046.56778896,-8089000.0,945267.1178353511
854,464,4,47193000.0,27173536.961905323,31000000.0,39208428.26800635,16193000.0,18585386.45322034,4954000.0,17864472.746117257,3898000.0,3656087.68319611,8852000.0,8135124.835182273,-615000.0,3810160.856996487,5569000.0,8232932.4754883265,-615000.0,2793082.3284878465
1423,1344,4,150549000.0,141167318.8765929,163792000.0,160804708.9986928,16674000.0,-5668854.883329702,28323000.0,25664329.402154353,6429000.0,3257310.637757184,34752000.0,42923967.445672676,-13758000.0,-30435798.843437783,21733000.0,28479444.39310922,6590000.0,-6756145.64783646
1406,183,0,62996000.0,144218077.66820624,12638000.0,37538063.6149841,50358000.0,73502700.69923848,9919000.0,30715460.952329297,5920000.0,7117605.780078779,13543000.0,16687808.154129189,1979000.0,-132730.50506732133,7940000.0,7260797.1445680475,1979000.0,30247829.150696725
1624,411,2,56415000000.0,46284969811.27577,26707757359.48695,17703495286.14368,20622000000.0,18816867256.8398,4258000000.0,4336375706.740233,2744000000.0,1861832693.5868645,7002000000.0,5218627862.05238,471000000.0,361072108.34445214,1302000000.0,2286863484.7350826,2956000000.0,3300174412.803733
926,211,2,572995000.0,-4851077045.944751,271264937.13018215,-1841506515.3448575,210105000.0,-1920747460.316767,-46109000.0,160346905.74345738,111142000.0,138876988.0882842,65033000.0,290109816.3966513,53448000.0,44168400.84438622,184993000.0,199216590.08263645,-231102000.0,-27549235.887554124
1324,186,2,11156646.0,78690304.60423233,14063458.0,96515902.63068685,-2906812.0,155442996.88774228,-483256.0,45889480.52748933,692752.0,63508314.00382537,209496.0,162699756.47381085,-2378023.0,8392331.983817799,1407493.0,44116028.93648595,-1890749.0,16503026.908830892
809,491,2,746651000.0,837440281.8705024,563281000.0,545405362.0483745,350347808.70326334,472923769.89203477,20268000.0,73309987.58015683,132273000.0,248243378.3608943,152541000.0,332239606.28029084,1482000.0,15165279.13548935,18377000.0,64002287.08882201,1891000.0,18918614.121653493
492,346,2,203605000.0,208203121.65986013,164863000.0,548645945.5337532,38742000.0,-55872184.6398035,38308000.0,74361803.43710133,13284000.0,73316042.69075382,51592000.0,197943370.6430422,8585000.0,12594699.459748816,22801000.0,59309356.36420098,15507000.0,26384221.22144162
383,831,2,35610551.0,15826519.204446018,44852933.0,-28985.239124024287,-9242382.0,-28204675.639693297,3037874.0,47788813.598768234,5691278.0,67574552.68210356,8729152.0,164784076.08186045,-7028283.0,4304771.443061229,15757435.0,57549723.74686602,-12719561.0,8729810.523752172
1250,12,2,4596600000.0,5299718804.673123,2319347415.031524,-180163411.3966312,3466600000.0,3969120239.339312,2555100000.0,1966039565.998888,3033000000.0,2348159862.7959385,5588100000.0,3462505061.726271,1174900000.0,973108738.8810972,1380200000.0,602859594.4370989,1174900000.0,693329484.7738682
229,649,4,3802385000.0,4039279874.437746,2636965000.0,2650410063.6169925,1165420000.0,1281810187.7325983,157645000.0,153637282.6643545,488142000.0,470081250.7317704,645787000.0,617823840.2469922,66824000.0,57911165.02347303,83253000.0,69819082.28424248,74392000.0,56462595.86654067
1531,264,4,12852000.0,17567335.229710706,5815000.0,15961786.891495379,7037000.0,-2589519.759196488,1838000.0,17037540.815849468,1427000.0,1918888.0888916682,400000.0,3872022.751668181,-1116000.0,4431579.889974911,2954000.0,2766113.488270434,-1116000.0,2489018.6880075787
1035,1424,4,11747000000.0,6228441412.611777,7158000000.0,5821142371.823212,4503000000.0,3496998927.2969666,770000000.0,504903506.07349813,1424000000.0,1576627505.8297446,2194000000.0,2518595868.266438,154000000.0,248833830.35733747,2040000000.0,2085513324.9695303,-1270000000.0,-1670724147.6400554
1774,1335,3,7236206.0,21782482.01059074,4913744.0,2109146.9713119725,2190428.0,-18339966.128629692,634746.0,38859053.814001784,2326079.0,2274585.997459274,2960825.0,2527608.126199131,-234151.0,-395693.4625888053,886442.0,23267063.20659395,-251696.0,4055363.8187729027
868,1093,0,6411000000.0,7557982633.40151,3370100000.0,4032676803.54388,3176144611.7201624,3284409782.302873,371800000.0,389921113.87432003,637000000.0,644369401.141502,1008800000.0,1137485560.0835633,180100000.0,143281548.63657057,166200000.0,184479017.64257798,205600000.0,172769095.87508312
1391,1232,1,345836000.0,1063425467.0798625,48837000.0,215921366.3289316,296999000.0,515059037.24887514,3870000.0,20269206.13072409,113328000.0,147644330.9159263,116752000.0,95285723.81258802,297000.0,-4796453.15508258,3573000.0,87962036.36236891,297000.0,-103954.91677996625
1734,577,1,20108000.0,13744314.100208286,9068000.0,90232306.32967517,11040000.0,36495240.60721123,3847000.0,2691693.2681637527,661000.0,68096556.66545911,4508000.0,4252251.375593457,-4126000.0,-3509435.9958969476,7973000.0,5930124.063255698,-4126000.0,-1621333.0902759722
1416,1268,0,1564856000.0,1577910355.5248976,1122858000.0,1254173139.622886,416354000.0,368188756.2293195,276207000.0,269173759.27174795,-11227000.0,41901358.520058155,264980000.0,242509395.74642086,5657000.0,9725173.933895553,270550000.0,280113235.41315633,5657000.0,33932269.053114615
352,288,0,1125373000.0,1287126099.544324,521681703.6382896,581729476.3485017,29987000.0,-249696433.5138151,142411000.0,167579708.63902366,-42080000.0,-124224406.7668221,100331000.0,140829922.16220427,17283000.0,43012794.24550078,125128000.0,84058227.0632099,17283000.0,72955209.0400398
135,561,2,630871000.0,710476072.732731,398464000.0,574442052.1675203,232407000.0,172488044.2407413,80823000.0,91828066.93786225,413091000.0,45881969.3824356,493914000.0,399242476.78802216,-14453000.0,18189962.405504275,95276000.0,93736381.37045856,-14453000.0,16893618.907682195
1338,659,4,123668000.0,15094662.34352661,40963000.0,86249651.60999987,50285000.0,8892650.446680428,29188000.0,45662334.84230789,11108000.0,29812409.02663863,40296000.0,52270729.542188704,-25553000.0,-4955004.125966295,35508000.0,29920862.13857614,-6320000.0,3192705.714533473
1076,444,4,34865437.0,584786401.2382455,19085704.0,212851494.89273944,15779733.0,325860549.85941815,0.0,15845657.222424839,1198.0,12104047.964551674,1198.0,6758707.033883354,-6520186.0,1347065.9260003115,6520186.0,11636768.59398714,-6520186.0,-874629.8775550964
1426,1104,4,1275550000.0,1410992631.4834144,1504271000.0,1073671307.2618188,-228721000.0,-1942187153.0108478,-35238000.0,15654439.451049693,59168000.0,-263955723.89454868,23930000.0,15368587.792934798,6621000.0,3075474.0096256277,102745000.0,132397493.56496589,-137983000.0,-25001300.429412596
2023,1321,2,151712000.0,169411280.76223716,195428000.0,208970573.5699402,28605000.0,58557210.152300306,11588000.0,48532583.574346416,43977000.0,91001604.01091194,55565000.0,184182462.63241652,-8864000.0,-2204126.660470514,20452000.0,58178173.943601064,-8864000.0,8035796.565768818
1219,102,1,1812825000.0,1729486732.9041405,1134969000.0,1156023548.3163939,677856000.0,628976868.2944856,53184000.0,79298144.1441693,120142000.0,181801510.96694002,173326000.0,185446847.52018073,31929000.0,29666473.21404595,16945000.0,17357212.02724166,36239000.0,52849415.665145606
201,633,0,-1450776000.0,-646885984.034577,-894261000.0,-2208470112.2709064,-556515000.0,-218032690.0343092,162740000.0,203794800.10697466,213058000.0,232056889.20304045,375798000.0,420317103.9494413,-31210000.0,-78273059.59402326,193950000.0,244093291.61245862,-31210000.0,-4746727.266094855
580,782,1,526507000.0,2216810266.050942,370554000.0,910259965.4718862,155953000.0,658102876.6095184,66328000.0,65305389.7754863,107226000.0,187909601.92830297,173554000.0,175115031.64096132,-7923000.0,12686826.45019044,69543000.0,58098210.38123734,-3215000.0,9147279.730317187
268,1214,4,3089123000.0,2859601858.1528687,1300561000.0,910131237.2020314,1788562000.0,2070206789.240957,286131000.0,313392751.9521139,850247000.0,878335356.3977131,1136378000.0,1287339880.8297763,205227000.0,138459358.99501863,1010678000.0,1117452911.8716578,-724547000.0,-670410481.044836
484,1597,4,2026392000.0,4250001937.3251734,773709000.0,617714967.2433128,1259138837.126244,3985713030.6352353,36270000.0,-16159730.809738921,906000.0,105292866.66624378,37176000.0,114030833.81805913,-286393000.0,-215946310.49446154,341823000.0,534623195.0160762,-305553000.0,-303558086.26130074
1169,141,2,59798486.0,167332853.15139672,24561228.0,31352472.262931913,24680354.49630476,158074429.40043643,-143441.0,46261303.00055315,231837.0,63508314.00382537,88396.0,162699756.47381085,-6239976.0,6768069.181094294,6096535.0,46926112.078451395,-6239976.0,14529161.186441524
595,745,3,269960000.0,247986437.4120914,370356000.0,340773902.6957408,-100396000.0,-81691850.5899822,29296000.0,54227551.04042143,911000.0,-8990258.7507318,30207000.0,22071040.424318522,-31260000.0,-40988225.582104586,67269000.0,84420761.80979261,-37973000.0,-35115033.277689606
1664,134,4,1411497000.0,1450262420.840899,713457000.0,690651727.0085661,667698000.0,646042583.5044405,123110000.0,133430147.91633883,21917000.0,20339795.03339374,145027000.0,150271529.70714912,16171000.0,17085733.759121764,124278000.0,129854549.6359369,-1168000.0,-1185674.357534961
1737,1476,2,1068388000.0,942761205.5074339,793168000.0,806178170.7410983,275220000.0,-7864844.288486581,1125000.0,67894200.02642806,126961000.0,130603891.9340849,114574000.0,259673451.8679638,-123332000.0,-48483152.364705965,124457000.0,126805370.4811238,-123332000.0,-39947645.35403992
1105,754,4,736494000.0,653305747.8203007,390655000.0,473811835.7923045,345839000.0,314963177.041214,107458000.0,113899485.4224934,77264000.0,70277800.76008703,184722000.0,168987927.6017397,-21496000.0,-23167798.60524664,128954000.0,126215367.82475297,-21496000.0,-14227798.68504938
366,1105,3,1026034000.0,1080819128.1890087,544592518.5648394,552801815.685278,829659000.0,800332306.1949377,179923000.0,214472425.04038578,-1664000.0,18483968.588540044,178259000.0,180942333.11609986,43073000.0,11552777.963640885,136850000.0,175901107.2590022,43073000.0,43274346.10003491
847,1594,2,2995900000.0,3273635762.247703,1720300000.0,1871650312.5629306,1275600000.0,1276472155.312176,234800000.0,274747066.3082646,244100000.0,242610195.05521765,478900000.0,586536657.259939,25200000.0,47992026.7466374,209600000.0,241308303.78510994,25200000.0,32158871.686890017
1604,937,1,700529000.0,745652084.1406555,363632000.0,426948622.06858045,335762000.0,341133358.5547136,46249000.0,41897553.31587289,72678000.0,130007327.18187459,118927000.0,106146762.72920008,-13197000.0,-17593626.005416952,59446000.0,77478173.86445118,-13197000.0,-21078472.53429208
579,168,0,5913288000.0,6925474684.945241,5639252000.0,5431899138.311006,274036000.0,-189772649.83390197,470311000.0,514668052.4334587,1040995000.0,922512120.6479789,1511306000.0,1512055633.594344,65962000.0,100958141.17011476,404349000.0,462820924.3725125,65962000.0,100332642.5134276
874,482,1,232365000.0,-16042238.491656413,164743000.0,192157748.79139325,67622000.0,133889336.03519186,43176000.0,135906711.98348117,202053000.0,125345116.35410404,245229000.0,139465669.47241905,9035000.0,-21543795.23436809,31930000.0,70033849.14432967,11246000.0,-9881741.992619568
193,38,0,24556000.0,67886729.47666962,5997000.0,19279898.927558478,18559000.0,32059883.14794475,-561000.0,23108972.836823616,1648000.0,-680492.3059107638,1087000.0,5277682.193041537,-8770000.0,-2817963.0081007727,3225000.0,-1137598.590309983,-3786000.0,29136281.37437584
680,820,3,7852974.0,18818958.2509759,8726749.0,13878055.672363661,-873775.0,63813445.66277414,1562860.0,38859053.814001784,0.0,-503987.60607304674,1562860.0,1155014.6965707974,-1603437.0,-1907600.238436307,3166297.0,18872174.23907903,-1603437.0,3197324.426197548
702,1325,3,52606000.0,59845556.9395126,31088000.0,28375016.34015211,21518000.0,35589002.66943456,2202000.0,39160871.39785834,21569000.0,17291528.190641485,23771000.0,15766847.536834406,-1737000.0,-4655469.110923883,2889000.0,24842712.752406936,-687000.0,2961899.036744398
499,967,1,641605000.0,683061437.3252273,98505000.0,193123858.81936157,543100000.0,563388126.178051,35752000.0,57715308.33084064,3063000.0,71830665.85763817,38815000.0,59626696.344564565,-5995000.0,3840976.79978074,24767000.0,33925852.118752755,10985000.0,26203094.866801705
277,961,2,428119000.0,276999941.7720156,200385000.0,225363173.9669938,227734000.0,-304236378.26377547,32734000.0,78799599.8516488,3693000.0,74654000.10778967,36427000.0,194496228.81873736,-31432000.0,-39059748.859016545,67859000.0,138812038.71608594,-35125000.0,-9985935.127194976
1540,700,3,1748597000.0,1609027169.1965857,773677579.6790999,760483785.7606544,871968000.0,761493110.952257,88936000.0,127597684.69602898,314131000.0,317014400.67127496,403067000.0,391218949.8213601,36520000.0,30378973.588700227,38806000.0,61911343.015158534,50130000.0,54028941.97814508
40,1512,1,-12646800000.0,-28303544686.795013,-10176700000.0,-12487524386.07805,-2456100000.0,-18277242332.83268,244400000.0,17060713.244434293,496400000.0,503977007.8215573,740800000.0,324898253.0656998,16300000.0,311297301.7834297,228100000.0,414713277.8988051,16300000.0,-207322124.41860726
109,958,0,1646711000.0,1290268059.866674,1388441000.0,884160302.382065,258270000.0,298372560.7274075,48094000.0,92964443.91838105,144654000.0,172157665.65894008,147710000.0,201986119.78587508,-42502000.0,-92418523.5024985,79586000.0,74192580.4358243,-31492000.0,-1136782.0633482656
111,1108,0,632540000.0,796790793.0976975,270366000.0,278640400.4756317,362174000.0,495684235.08540905,197077000.0,165353848.6763709,14622000.0,7375197.256196391,211699000.0,182130279.23038587,-57776000.0,-43751950.45897738,97890000.0,113249574.73250356,99187000.0,65450602.3158016
662,285,3,156269000.0,145662475.7223515,70363000.0,57543546.31348888,85906000.0,89891768.15925694,19503000.0,52713477.920441985,30881000.0,32813891.679613944,50384000.0,42405721.522070065,3657000.0,1378841.295817373,15846000.0,33450926.080367286,3657000.0,8077809.001431122
1749,1091,2,12875300000.0,2235348428.6282463,6095371591.431398,-5311612667.3917,1810000000.0,2953601.2736048345,1227700000.0,1047908116.5949303,4400600000.0,3610078762.3921175,5628300000.0,6033874153.780371,478400000.0,402824230.87856406,749300000.0,535973712.4631157,478400000.0,308450745.8759777
340,1347,1,441781000.0,438819700.79365623,86587000.0,172130977.50750935,355194000.0,339488714.9088378,97393000.0,103368946.40222022,44971000.0,108128658.62562998,142364000.0,146635563.9423981,9954000.0,1043674.7477408766,87439000.0,81355259.9513858,9954000.0,7218725.727496004
811,109,4,1903960000.0,649016347.642317,1118147333.3250542,1194806036.0422878,464992000.0,1018635473.8837537,314173000.0,363802110.1341123,381360000.0,497538150.80149406,695533000.0,788805374.702684,49703000.0,72423205.5179101,262823000.0,194550147.6734416,51350000.0,75330342.27551164
1016,567,1,413017000.0,380796166.1268299,156380700.0672279,254389026.85106298,290614000.0,315988836.92828727,164000.0,3882485.0781079596,0.0,68444301.78973575,164000.0,5814956.50498571,-47612000.0,-43474529.44405052,47776000.0,56692908.979467474,-47612000.0,-38398793.34782728
1696,268,0,6459000000.0,8160654958.939318,3814000000.0,3960503923.238994,2645000000.0,2656185273.775243,417000000.0,479116822.3676259,1137000000.0,1184495743.4371026,1554000000.0,1699139645.2518604,109000000.0,176194166.28116357,308000000.0,258643736.1059681,109000000.0,168303463.27290484
200,763,0,6683800000.0,7309816482.694303,2530688381.1304083,2706732250.5541224,4153111618.869592,3778192860.2964063,363300000.0,387749038.84409744,268000000.0,296483467.1529272,631300000.0,671019803.0263953,83300000.0,94134648.85049957,257700000.0,258949074.8267923,105600000.0,118431709.3484183
1994,1188,0,165094000.0,192169912.84577844,70482000.0,79590858.15903206,94612000.0,108517561.71580617,17629000.0,38038296.09140886,13074000.0,13743950.059026485,30703000.0,31629990.19674326,1152000.0,-421238.524649633,16477000.0,19851844.788207676,1152000.0,30247829.150696725
735,352,1,8604673.0,-2153181.20371048,2338502.0,90232306.32967517,6266171.0,34236014.171013184,1119391.0,960399.3301495867,1576117.0,68629579.21892434,2695508.0,1648403.5048486947,23726.0,837524.7516503371,1095665.0,5002641.149854748,23726.0,2655464.344702693
1160,1540,4,30395557000.0,38768609302.4931,16133181687.752192,26966809367.44912,6297705000.0,8461451650.73489,3044686000.0,3313384135.417116,6751495000.0,9287922692.466913,9796181000.0,14119065293.282927,692314000.0,1296379696.1427243,2352372000.0,2344973125.5813656,692314000.0,882256309.2587049
2018,841,2,764077821.0,709963151.3140638,149164973.0,206372200.0745477,540969385.0,547335463.6804658,20737462.0,64924283.07753778,3810639.0,68100884.1339594,24548101.0,183206318.7976973,-1942729.0,7537266.454540422,26490830.0,64300610.37258873,-5753368.0,12547951.10104944
597,1362,1,19932000000.0,19186479143.45184,15924000000.0,15921795525.377544,3938000000.0,3881116342.834912,677000000.0,658806489.4045354,2894000000.0,2802535017.38071,3571000000.0,3266648205.3489337,325000000.0,451500165.13583994,132000000.0,75947257.05164674,545000000.0,390321679.57314426
1089,365,3,114455000.0,126981648.00052065,66800000.0,100678521.63031116,47655000.0,60913911.20786093,-324000.0,37901734.26441857,692000.0,412282.79632753733,368000.0,1497777.5243234471,-4444000.0,-5524680.966153772,6127000.0,26718885.76720481,-6451000.0,636705.981791674
1635,1058,0,123009000000.0,65702754516.87205,61047097858.95223,43668745696.25082,24132000000.0,24449614684.353508,3661000000.0,5738104789.484584,846000000.0,2878060047.1866727,4507000000.0,9290142975.598303,401000000.0,1144308787.9254172,5487000000.0,7334111124.476309,-1826000000.0,-1228798666.1076138
394,898,0,1472222000.0,1770218557.7349308,444895000.0,481718768.4907661,1027327000.0,1229285308.1437435,423804000.0,403119593.0979948,0.0,44262090.19487614,423804000.0,475320390.50019807,44683000.0,12165162.834815415,379121000.0,364946581.0399264,44683000.0,51323176.68718791
176,1342,1,1707972000.0,1666650464.9152086,826699000.0,905116551.3424332,881273000.0,952705941.2390851,161237000.0,167750436.2835725,18721000.0,87809186.32216403,179958000.0,188966497.23473915,-38330000.0,15269349.686894307,218288000.0,174990072.21992242,-57051000.0,-6124771.608001211
958,1209,4,140348000.0,245477139.19912288,22627000.0,43860353.87184428,117721000.0,146759356.24469593,18849000.0,31424315.258824863,19797000.0,17015323.096088275,38646000.0,37830423.63561355,5179000.0,6103437.996475112,24028000.0,25736860.2012642,-5179000.0,-7999217.374225708
651,1103,0,68862000000.0,103379623816.98903,37281000000.0,61523755994.45899,30258000000.0,35959490196.64346,682000000.0,2095991028.493589,1405000000.0,2116874472.0947063,2087000000.0,5556160788.689512,938000000.0,992638963.4496096,2969000000.0,5061181677.852832,-2287000000.0,-1412841673.7097857
648,1099,4,484306000.0,429562853.6834659,160149000.0,182848659.61065894,324110000.0,320124436.19393003,35935000.0,51648699.44884681,49919000.0,45860418.00044669,85854000.0,98195580.93804802,8224000.0,14227365.491023298,26558000.0,24630644.435645517,9377000.0,13150003.853355432
1124,928,0,263629355.0,334266557.90002,139827658.8984726,164310813.64681366,106790041.0,124297702.92974944,4718481.0,25729488.709135685,-3354938.0,-31929622.08336586,1363543.0,8420045.001019217,2345966.0,4043255.460837822,2372515.0,13252303.51771332,2345966.0,30768777.1227832
1983,736,2,22654400000.0,28055438260.0887,10023579681.929111,12131995509.39382,12050300000.0,13628915625.184383,409600000.0,787487573.0289048,3138700000.0,3115774234.286859,3548300000.0,3325877623.353339,145800000.0,592738543.3473494,119900000.0,79782738.66223554,289700000.0,422293992.3967766
1330,241,2,55695000.0,4170821506.928625,80300000.0,817397297.6454551,-24605000.0,2189143562.2930946,-33328000.0,45921614.46054744,45694000.0,72268406.69674887,12366000.0,164758170.72665086,-48025000.0,-8461353.127704972,14697000.0,54410630.18477624,-48025000.0,1659020.8172493814
445,395,3,33248145.0,142916766.13424966,21743057.0,52863260.77846259,11505088.0,1158635.2552470788,1461398.0,38844067.60347898,569502.0,17469954.925824378,2030900.0,27700010.33657556,-12979193.0,-4601923.960046733,15010093.0,24367287.874183193,-13548695.0,3452621.9632683685
908,1449,4,19900000000.0,7618110510.636931,10348000000.0,6119165172.427889,9552000000.0,9018776900.739119,2649000000.0,1936102381.9101732,0.0,-237012369.73147854,2649000000.0,3767778525.534215,467000000.0,360245709.47502136,2182000000.0,2405034749.50177,467000000.0,405753723.6195095
1585,674,4,2485319000.0,2581794688.807499,1254039550.5762374,1123606268.8953414,1849463000.0,1998447154.8848908,775144000.0,626748380.4637389,0.0,19597344.947361253,775144000.0,643982014.7494397,128435000.0,75218562.79799134,646709000.0,668666836.23105,128435000.0,58490586.1368346
643,1569,0,959084000.0,1055826583.1405147,491986000.0,466215025.7392321,395838334.6316486,446012251.78863907,56609000.0,95634800.57750118,47928000.0,50401859.35206094,104537000.0,114743974.31996371,-22287000.0,-23080661.71352432,141301000.0,130196328.55611417,-84692000.0,-17992628.613725685
1240,1570,4,1657157000.0,-6360825444.064648,2335507000.0,2050473565.4738774,-678350000.0,-3681251949.528206,-96698000.0,212852255.5883101,98929000.0,162135641.36465958,2231000.0,496939778.20667213,-125632000.0,-164016874.99404883,312618000.0,883407084.6039236,-409316000.0,-298867832.317275
64,427,1,1590600000.0,1620480810.3187578,748600000.0,831348936.3694259,842000000.0,817817436.3136601,59700000.0,87934305.74289578,141700000.0,213350782.77572328,201400000.0,236041405.12345493,13800000.0,19218371.40387423,37700000.0,22712968.57490111,22000000.0,36650949.59442799
1027,658,0,919607000.0,965363857.9709125,266509000.0,327642170.33025914,653098000.0,631220184.4080621,68886000.0,88455435.56415726,19532000.0,19128506.268142473,84131000.0,86351793.07986586,-18050000.0,-20872279.48913376,86936000.0,77672107.57576244,-18050000.0,17418857.86257239
1034,320,3,121754701.0,2187878544.162235,28424394.0,847622524.2613695,93330307.0,904122309.4184989,1406469.0,49047758.52065922,-1378985.0,-2621595.194648937,27484.0,2367516.5641829143,-14928443.0,-312429230.9540815,16334912.0,183812522.37799126,-14928443.0,-244089242.1032666
802,514,4,12973000000.0,4484614010.558318,6013807636.489885,2523108282.467325,6537000000.0,12531154865.767443,82000000.0,113952255.46861002,545000000.0,-673782241.0661162,627000000.0,984397584.3513541,7000000.0,201067142.94990304,46000000.0,758814140.7146431,36000000.0,157871420.4691238
981,945,3,613608000.0,769304480.4750286,391072000.0,983217844.1575005,222536000.0,114591016.65550959,1437000.0,50631906.55928676,10955000.0,129553047.46105485,12392000.0,48527133.54668874,-84729000.0,-55218077.29623277,40703000.0,47531945.90724763,-39266000.0,-35481373.00361894
1046,867,1,102303000.0,106712093.83285254,104192000.0,179817269.57517815,-1889000.0,27484580.590331305,12811000.0,11401580.32764777,42439000.0,107667844.2926093,55250000.0,49852682.565841414,700000.0,209267.8364790288,12111000.0,12900800.241574958,700000.0,-1576204.613555659
581,454,4,1023085000.0,1883915385.8160434,937155000.0,1672019811.8643494,85930000.0,258141079.32040176,87759000.0,132882616.7276035,257840000.0,216113202.8439309,345599000.0,370918110.8862041,-36941000.0,-13583236.780765073,111965000.0,112847265.5331881,-24206000.0,31774636.063331004
1033,472,1,822101000.0,676386042.0390348,260505000.0,317128077.49009097,561596000.0,449825645.46585894,113425000.0,63276759.195764616,-8261000.0,66261140.69068048,105164000.0,70027810.26679549,25956000.0,-42469050.996171564,87469000.0,131651832.02103426,25956000.0,-29597861.778172478
1908,1238,0,972779000.0,1150838998.229277,674585000.0,886154177.9196533,298194000.0,296118177.939673,81122000.0,99908878.1615667,33069000.0,21511386.2277552,114191000.0,112677608.73739332,-12742000.0,-25172952.1021832,93864000.0,91516413.8626898,-12742000.0,12675124.332568277
1486,904,4,505122000.0,664723487.1829646,329765000.0,398897981.66613764,175357000.0,218805956.15361032,66862000.0,83078108.99710177,-15726000.0,169844610.0675282,51136000.0,68547114.47321542,-8784000.0,7285260.94383947,75646000.0,49051640.00563976,-8784000.0,1421024.4324794044
640,990,3,420505000.0,396132653.9918433,230508000.0,219244781.46650672,189997000.0,181053664.4468686,53603000.0,78552018.5677546,71511000.0,72973553.22038843,125114000.0,121866064.42351738,16734000.0,13274491.107374316,36869000.0,58043669.24612273,16734000.0,18414985.489044823
1988,706,2,216274000000.0,123020426376.74377,73401000000.0,60284329920.15479,142873000000.0,63578002226.03216,27936000000.0,10863831926.929657,6210000000.0,9810327840.920996,34146000000.0,21763026721.67055,13748000000.0,3025537236.9638247,20398000000.0,8573751487.59635,7538000000.0,3173790436.8898787
469,262,1,122531000000.0,-69991398514.01764,74517000000.0,6984642633.633249,57494689417.43809,-26688542258.228485,11370000000.0,13129422509.050016,10501000000.0,15239025444.77532,21871000000.0,19123756958.76311,5767000000.0,3154836902.836339,5604000000.0,8022046982.353015,5766000000.0,4359895465.200653
606,1374,4,5723214000.0,8668692831.918339,2776207000.0,4254460733.8760943,2947007000.0,7836582941.078032,448941000.0,550751906.1045942,516900000.0,644140660.3648627,865197000.0,1189980772.7235143,78214000.0,73164349.17435527,370727000.0,441671507.1273193,78214000.0,59965883.88770903
1877,1138,0,689227000.0,636198797.7775472,562767000.0,438852649.73619425,126460000.0,224054966.48077962,40662000.0,53114018.75882724,11086000.0,14377177.498853361,47740000.0,47860779.69968698,-28335000.0,-2606606.3415749883,68997000.0,35706072.856721856,-28335000.0,29539555.42308222
1148,1255,3,600857000.0,559543587.4593942,331349000.0,327891708.3715159,269508000.0,205279067.39308387,50595000.0,64404583.62807478,6532000.0,7026648.268899087,57127000.0,59465911.62126287,-62120000.0,-22148594.26079842,83188000.0,84253551.27915928,-32593000.0,-37413940.59621926
1653,1150,3,56794000.0,-18368495.236386143,12682000.0,-376107400.18721217,44112000.0,-47069090.16470224,25087000.0,52855888.69132832,14791000.0,1610410.8948352877,39878000.0,31067367.79579728,-4627000.0,-3735332.103832477,44505000.0,41150099.14107884,-19418000.0,-7793421.486217682
1205,743,0,3747000.0,205810097.91702947,4407000.0,61626399.994019136,-660000.0,28467203.218934245,-1515000.0,14100676.890045514,1515000.0,11107319.124276267,0.0,-4047287.24053092,-2598000.0,-2377141.0604427974,1083000.0,-3043994.2084280876,-2598000.0,29043105.058120374
1612,891,2,3505835000.0,2660234026.736155,1860807256.214476,1424102012.8197706,1470074000.0,345743323.6512166,601953000.0,685155403.3761224,626097000.0,752586578.1981156,1228050000.0,1393401429.7028308,88554000.0,38165185.919071555,475916000.0,589760515.9015894,126037000.0,101193262.8310551
1894,1039,4,203011000.0,146276022.12012112,255300000.0,244636763.9332814,-52289000.0,-90952198.50662167,8409000.0,20422096.424911555,25579000.0,26667602.808383957,33988000.0,39692048.52263201,-8212000.0,-4759499.8355499655,15533000.0,17171621.722992882,-7124000.0,-872514.2329421117
458,712,1,3126495000.0,3923716714.2779846,2137404000.0,2178528030.1004643,989091000.0,998072681.7840056,70679000.0,94109694.34104551,930828000.0,832261908.1367028,1001507000.0,940885587.3240976,21039000.0,26089123.030416757,49640000.0,75372357.53451662,21039000.0,47592315.18596879
782,165,3,36175654.0,24095786.655851923,19187381.496044576,13732435.059138466,18868678.0,16140135.754121562,22295962.0,50906414.524780616,2274626.0,3987683.303852281,24570588.0,11692619.709650958,-1191082.0,-3159770.426095999,23487044.0,36688727.04128367,-1191082.0,2606426.604631708
21,232,1,3642433000.0,9426797387.062372,1611617055.0351417,7979589298.434584,2307595000.0,3507995510.3318396,392263000.0,336877774.28020364,1442178000.0,1421841033.6134412,1834441000.0,2181265058.8943005,185633000.0,184771143.08491492,1648808000.0,1880669268.9050484,-1256545000.0,-1750327809.9565527
323,342,1,102171000.0,93814837.0923877,80142000.0,160844048.28776312,22029000.0,55424074.52738564,11994000.0,12071166.643624144,1280000.0,68629579.21892434,12084000.0,14414848.144250916,-8453000.0,-5947806.379518453,20447000.0,25118875.14119638,-8453000.0,-3636759.9871362112
1847,1419,4,11562769000.0,513981453.4700409,8634392000.0,4096756730.959825,2928377000.0,1080324132.1934044,696915000.0,1826685015.9571354,4617768000.0,2664271144.7610765,5314683000.0,4061146141.1126633,87484000.0,264510141.31135282,6096071000.0,8068811604.393295,-5399156000.0,-3082831948.9433417
1304,989,4,1061958000.0,1283784182.78293,603583000.0,682056564.6359106,275904000.0,407934633.7122572,75380000.0,59996677.52027405,85007000.0,89130289.77203722,160387000.0,154435650.72095075,19279000.0,2967012.3451120923,56101000.0,69688042.4109025,19279000.0,-1889784.53169451
1031,77,1,1709464000.0,1659204908.6758733,792444897.6724385,887205263.7957864,917019102.3275616,-727310023.6039238,-50089000.0,25614307.400432095,206500000.0,232901710.24978647,156411000.0,150895312.14006653,62554000.0,33103084.439099852,32611000.0,30548780.004929926,-82700000.0,-9963337.6963714
1109,1048,0,1182200000.0,1232998135.462323,559672263.5892134,520776293.6896854,993300000.0,1024926894.3507433,77500000.0,79720852.85101035,102700000.0,107515729.55679484,175100000.0,184454535.3643783,21600000.0,11646567.108188093,55900000.0,45792382.86204338,21600000.0,7299224.072699154
1483,1507,1,15318000000.0,13809594104.784922,8995872209.433592,9340169666.764357,2835000000.0,1547604721.4905922,2220000000.0,926117505.5951754,7363000000.0,11953196611.88707,9583000000.0,8752418034.819155,348000000.0,-415981414.27112633,1879000000.0,2481300507.7726383,341000000.0,332995874.47557455
739,1417,1,2898416000.0,590178015.6068777,2080781000.0,214999619.70246068,476998000.0,52856596.61586744,19746000.0,20129277.95970276,-19746000.0,72599011.00836891,0.0,5615758.830304862,-16089000.0,-19372793.841857146,35835000.0,80081111.71834008,-16089000.0,-8169151.094636482
1565,1261,2,37777000.0,94551266.98720902,8088000.0,22805788.93079724,29689000.0,41232628.241833076,1942000.0,47788813.598768234,1878000.0,64561993.283443786,3820000.0,163050975.3923914,-3377000.0,6704340.012886371,5319000.0,48252739.95191534,-3377000.0,13516896.912815828
1547,48,0,350115000.0,349457854.1937668,124447000.0,74220954.40783614,144501356.0121529,191462511.3205085,23341000.0,55791363.901821725,74465000.0,126699021.81553619,97806000.0,138669006.47943127,1273000.0,6705057.461025527,21144000.0,26773214.075123694,2197000.0,34892770.23823866
1772,61,2,60756000.0,101441436.94123793,14120000.0,44219112.42880399,46636000.0,41817856.724557385,39398000.0,84345840.8740133,0.0,63598570.03783476,39398000.0,197070263.6812005,1277000.0,11047222.616422374,38121000.0,76392258.77739002,1277000.0,17657596.219681688
396,1484,4,2329417000.0,1767770201.886908,1103945000.0,967078663.7694297,1225472000.0,804840744.6247195,201803000.0,201343359.07196325,84310000.0,20644204.314968504,286113000.0,275175693.5033322,4458000.0,38308918.78265655,134794000.0,117048803.003199,67009000.0,77821189.7830194
370,1128,0,322707000.0,417694603.94163334,203952000.0,224808943.5340228,133189378.04611006,141059947.34783986,59563000.0,80140355.6594807,32549000.0,42506180.592940815,92112000.0,105065436.19911,2829000.0,4019243.677012968,56734000.0,63084778.82623683,2829000.0,32760135.753886137
1387,362,1,16986396.0,-23200289.569152292,28398941.0,92170986.77617735,7976898.609990532,31588118.021586288,-2992.0,2106178.47684688,2987192.0,68238049.10986385,2984200.0,1825370.3733682213,-2823081.0,-3834041.6945034117,2820089.0,29817945.67118841,-2823081.0,-1575523.517858895
1633,1474,4,5507733.0,19041730.21267029,3754986.0,1079381.256976415,1752747.0,56380804.03565052,77969.0,15319458.914186832,690.0,3431844.3976319903,78659.0,3046471.886736734,-1288944.0,3956594.2909244816,1288944.0,1144265.6898043584,-1210975.0,2638236.483633
1459,843,0,2951779000.0,2479834585.3968854,1733504809.66769,1269046961.7488704,-705417000.0,-482573835.7453052,103159000.0,163093850.69121927,95357000.0,122658943.09743877,198516000.0,192810734.98689863,63542000.0,58766687.9406324,39617000.0,41400831.985136494,63542000.0,87215877.88347206
447,15,2,1389340000.0,1591729958.8946047,870172000.0,1036991583.8143611,518687000.0,642116296.1592882,122910000.0,156158171.3096262,509918000.0,557989496.4545563,632828000.0,673597817.000814,77637000.0,64065654.154775806,35836000.0,73787202.20609057,87074000.0,91699884.44697465
1342,527,1,670100000.0,857976058.4765848,96919000.0,243124975.00909936,573181000.0,562842909.5927647,45369000.0,44001390.7736288,10723000.0,79791918.16547818,56092000.0,48526862.313196234,-44376000.0,-44327827.163727626,100468000.0,97867502.08856224,-55099000.0,-38879545.27099195
1101,1050,3,796235000.0,791363513.1962044,203741000.0,330696440.705055,463390000.0,298327910.4867885,475000.0,40728998.40177613,0.0,6254993.096321918,475000.0,2127005.6525515714,-25797000.0,-14276537.972953077,26272000.0,35939772.563633904,-25797000.0,-15688675.630691806
1559,148,0,243654000.0,74367750.10342412,108112000.0,118397091.74690408,135542000.0,157598462.9922875,37230000.0,49568690.50935887,3845000.0,10843274.363279378,4798000.0,18505584.089103047,-21869000.0,-17549010.385955654,59099000.0,55544179.42404969,-21869000.0,18679108.739460234
1859,83,0,63057347.0,143476679.0267457,37031977.76980746,50957848.14144162,50373559.0,73390330.34952502,5114390.0,26363446.747596823,9540399.0,12171870.704488656,14654789.0,22860668.29557172,3126608.0,3433413.400457374,1987782.0,4277122.314514262,3126608.0,32675651.38391686
625,862,1,2120798000.0,2000618190.8918972,1472395000.0,1422213905.6278443,648403000.0,636148313.4739448,67913000.0,89732599.92552544,30767000.0,95623785.92106831,98680000.0,116208007.04235153,-9629000.0,5314654.05006091,77542000.0,74392436.13275558,-9629000.0,7234867.423791713
1728,309,4,706517000.0,874528628.3872827,905805000.0,1170965080.4614885,-199288000.0,-35409903.07565869,73709000.0,86344432.79763064,16853000.0,-273362.4647896082,90562000.0,93559975.1181606,38915000.0,45978054.56097584,34794000.0,40771969.908322215,38915000.0,43582117.37221149
1404,810,3,76126346.0,141841267.0174475,61120101.0,94566439.32762964,15006245.0,-25900253.326615825,2282652.0,39273333.918175615,31006950.0,11350897.603293052,33289602.0,16840622.881676048,-2890968.0,-2255924.0192320496,5173620.0,23819731.680785794,-2890968.0,3517226.4820704483
1515,939,4,156303000.0,39178367.681998804,83901000.0,58966204.17614486,72402000.0,73067149.81195036,17689000.0,24585670.568927765,41469000.0,39019648.8636588,59158000.0,47302386.810421295,-2517000.0,-4627216.460608052,20206000.0,23976079.366439104,-2517000.0,-8369138.528848964
1800,66,2,3271200000.0,975177515.2028729,1447362713.447565,1704490761.046738,-21400000.0,-2317848889.910903,31300000.0,47513536.3146383,847700000.0,958815166.1121564,879000000.0,983682155.319887,-16400000.0,-254969847.9370347,66600000.0,129515925.199529,-35300000.0,43304956.0153268
4,694,4,7361000.0,7402204.2146251425,2671000.0,29196385.906441376,4573903.262590003,-12594391.936580965,349000.0,15226343.573582277,109000.0,1378284.70207004,458000.0,3051259.417739761,-670000.0,3843567.5143734626,1019000.0,793262.4018131134,-670000.0,2638236.483633
1400,327,1,-4860602000.0,-11637954186.148884,-990657000.0,-9448881230.040348,-3869945000.0,-13154971295.568327,193881000.0,258215148.11790913,378009000.0,401788204.3594948,571890000.0,610841012.4422818,36078000.0,48321041.75058554,124685000.0,77861089.76738107,69196000.0,59634574.35176359
617,1153,0,5475000000.0,5265370548.213391,4861300000.0,4545649467.028195,613700000.0,66691461.25508612,130600000.0,178720771.4880812,1421300000.0,1429904384.2750723,1551900000.0,1582146587.1107552,23900000.0,78298486.46999843,81800000.0,97049554.82804649,48800000.0,109914618.14386477
570,813,0,9643000.0,92974247.07088949,6164000.0,31631263.59571451,3479000.0,16820534.92412619,1843000.0,23473082.193227462,2246000.0,4806786.470607363,4089000.0,6496018.132556282,-437000.0,1055736.7548739347,2240000.0,2820732.7806370226,-397000.0,30033101.277664904
2015,17,2,12012800000.0,10743130850.017023,6608200000.0,5253008336.673581,4911800000.0,3266284746.0312133,457000000.0,533643028.63434434,316800000.0,291010612.20330304,773800000.0,741699031.2731521,145800000.0,147043075.9994182,203500000.0,196678413.09179312,253500000.0,192886639.15401977
576,1047,1,6644800000.0,7350746033.996104,3248100000.0,3745617292.1565824,2786600000.0,2691103030.396952,345800000.0,313543843.5313689,33000000.0,239503927.0675108,378800000.0,500963842.9718508,36000000.0,65398461.65534702,342800000.0,426824486.8754933,3000000.0,-77717807.58996107
1397,68,0,136174000.0,264417239.17927587,62163000.0,139302536.93147835,72304000.0,86430304.83992162,10072000.0,33244525.61955539,-3712000.0,28648939.626488168,6360000.0,17396299.652005926,-12604000.0,-8890643.206662394,22676000.0,32896589.76986246,-12604000.0,24002334.056141872
1134,1221,2,160043000.0,185824504.01031122,101422000.0,109615719.37675641,58621000.0,75203513.30963345,15202000.0,53066295.008064575,-14386000.0,63719486.315557495,816000.0,167618752.08762857,-14398000.0,-8003500.443450445,29600000.0,71037730.30110867,-14398000.0,3807045.511660018
188,196,2,9282000.0,23793884.91035956,3493000.0,22089866.788072947,5789000.0,13238.231596632773,355000.0,46261303.00055315,552000.0,64494864.01464037,907000.0,162699756.47381085,-972000.0,9956928.052021887,1327000.0,44349236.29160662,-972000.0,17272767.78121027
488,145,3,16124000000.0,20654424265.37784,13383000000.0,16439167554.795506,2741000000.0,3720333843.088849,5251000000.0,2024011988.0073292,4961000000.0,3844504296.1624,9233000000.0,6736353569.864289,1583000000.0,959552890.9089472,3668000000.0,1888285503.7393517,1583000000.0,714672809.3188821
1211,498,0,1601068000.0,1796830899.1575212,1081707000.0,1159729528.5723035,519361000.0,578539538.2089227,248876000.0,257812421.13992104,-34521000.0,-58693915.95927928,214355000.0,244034921.16821092,19006000.0,31650400.630478155,229870000.0,218860175.31599423,19006000.0,51587565.58574586
1580,184,4,779622000.0,875202651.8760362,153452000.0,231351832.70387208,626170000.0,444059035.2544809,134561000.0,140270478.576161,57608000.0,67138100.99320224,192169000.0,163231547.6732766,56917000.0,49939497.7270314,77644000.0,66862998.99195531,56917000.0,61664121.85470873
1533,213,0,4162272000.0,4940730150.3230095,862254000.0,1056932180.5910746,3299439000.0,3264043169.111175,357871000.0,340929761.33173454,794265000.0,840789000.3080759,1152136000.0,1197350675.4861317,114028000.0,128702755.44525433,194829000.0,190507637.65979943,163042000.0,154539713.2290028
818,583,0,13900400000.0,13417493291.093124,12204100000.0,11390159260.376656,7319729781.089915,7645664192.051726,78200000.0,112863849.80718455,235100000.0,286656861.899985,313300000.0,1612461472.710658,174900000.0,131633600.85914984,116600000.0,232950090.68220887,-38400000.0,1101635.2266939578
50,537,1,594022000.0,565372995.1359359,132343000.0,154572338.3240584,461679000.0,504737768.89383215,121956000.0,106283970.90496919,1645000.0,72054882.0415553,123601000.0,97340312.33980036,31177000.0,34930348.964547366,45262000.0,38457995.41529046,76694000.0,60427964.02014095
590,1171,2,1341960000.0,1417047409.7292485,666970000.0,648847150.6479439,674990000.0,666126737.2416636,55930000.0,101165964.5512082,179410000.0,213828670.73939145,235340000.0,364487038.3128246,23760000.0,30697209.135374147,32290000.0,74913493.4620321,23640000.0,32561587.3595393
377,276,2,52901000.0,-1239268672.8964255,24522965.98920461,-40208934.63961238,33404000.0,-623339819.7218868,-1183000.0,47673759.59023023,24144000.0,76446364.74966836,22961000.0,171939186.3517065,-5692000.0,5808436.049340024,28653000.0,65530893.024559066,-29836000.0,1593576.3967200757
1953,1136,2,877565000.0,770384184.3670493,1336553000.0,1169125219.4929535,-475192000.0,-625525028.3966261,522812000.0,550105096.995597,-345617000.0,-510012576.4039667,177195000.0,327227807.61107534,31868000.0,12770324.339066718,490944000.0,477376996.19178987,31868000.0,-26900356.20474507
1018,1253,0,26568400000.0,27367847326.446877,13080400000.0,18385921600.23744,13246000000.0,8925604302.744293,1346200000.0,874189199.3789892,1952200000.0,2229757221.869588,3298400000.0,2682437012.884108,592200000.0,185551381.64590445,746800000.0,503507195.6499201,599400000.0,310005012.4821598
709,868,0,2933971000.0,2381120507.644728,2618511000.0,2180686157.511452,315460000.0,-25101165.837906912,65062000.0,44268837.02369417,2191000.0,-5942481.204476863,67253000.0,46325153.97856173,-143265000.0,-96417984.6186171,69951000.0,51794953.301509716,-4889000.0,25007908.4612007
1121,747,1,27828200000.0,28958478173.40896,13810622382.415062,12863323843.208208,7212400000.0,7570592617.096932,821300000.0,735748181.7458401,181300000.0,312189106.04066557,1002600000.0,1222894003.7433984,233000000.0,2760243.2414649837,794400000.0,901292207.2466772,26900000.0,-317278687.5351943
1026,1037,1,2788943000.0,3694064971.879999,2662320000.0,2919981515.3310556,126623000.0,837325210.6005048,299166000.0,319040202.39035153,0.0,76076260.51497278,299166000.0,298762344.00529087,-281667000.0,7503212.717717529,580833000.0,303719788.4717271,-281667000.0,-4936595.228041209
1015,242,1,2489159000.0,2446378450.6277037,1954765000.0,1798626124.4014246,488897000.0,145611619.45780796,294443000.0,288469912.3739703,370069000.0,408642550.7451389,636496000.0,662242275.6700505,64600000.0,52505360.47941331,229652000.0,234408897.99714792,64791000.0,66259320.63375837
1575,208,0,11961066.0,196436657.65548533,1068497.0,127310780.78504448,10892569.0,25739243.61779588,611174.0,22946759.825295124,0.0,2196813.271807675,611174.0,4985120.7208054755,-1146685.0,-973359.1414932227,1757859.0,-1326569.4002664504,-1146685.0,29778179.70670644
826,84,4,93941000000.0,149986533544.4198,39446000000.0,62299624510.6392,53466000000.0,52594207139.65816,4178000000.0,7242662090.557762,15656000000.0,16042645705.97149,18582000000.0,26146268534.453552,1764000000.0,2466918790.2913427,2414000000.0,3098881276.739111,1764000000.0,3483026507.993292
463,901,2,32097000000.0,27201208007.210476,20419000000.0,7516930607.529843,10658000000.0,15341594160.919323,2071000000.0,1769721887.7433891,6360000000.0,7362678013.4444895,8431000000.0,6349917931.468939,950000000.0,1051028738.3562464,831000000.0,559824879.1013825,1240000000.0,400054609.51293564
1660,1497,1,6578196.0,223153056.19166628,4441488.0,91388481.72836635,2465776.0,34331572.30212841,2008368.0,1873701.4613311228,923641.0,68970362.55196281,2932009.0,-4374593.395018341,-1328968.0,-972453.911771822,3337336.0,80893146.39666632,-1328968.0,1138290.4249699535
700,60,3,1658042000.0,1048292493.0082724,1223260000.0,1010953833.4408562,434782000.0,516630276.2276866,207698000.0,205313537.12180728,674127000.0,663332245.1541963,881825000.0,852106368.8659685,25549000.0,25538132.153416842,179614000.0,165342923.75711885,28084000.0,36107688.66726379
402,1152,1,9094896.0,782728529.2170945,13593163.0,197908703.85203123,-4498267.0,105151729.57127823,-928960.0,-2181506.769947714,1115703.0,68396488.1721622,186743.0,-517673.6370447153,-5136642.0,-5358370.086039561,4207682.0,12023638.41969698,-5136642.0,-9361994.0707204
591,406,2,16788482.0,-83556948.38453877,821758.0,-32709595.128168423,15966723.0,7833292.22774075,906228.0,44879760.14909118,333325.0,64168956.41410161,1239553.0,162699756.47381085,-1096396.0,10192365.110724311,2002625.0,44041047.29807801,-1096397.0,17454130.31788999
412,1415,3,1678241000.0,2133677019.9116638,730813000.0,642280699.1222478,947428000.0,966411451.563504,62311000.0,100802903.2934812,89643000.0,88688145.25571677,127553000.0,122203272.82218543,-24195000.0,-33533322.00373601,86506000.0,102154508.27838011,-24195000.0,-15296591.356891107
26,113,0,1363308942.0,1456905997.3615835,629855415.0,580020599.1606967,733453527.0,699129473.7032648,93681798.0,104240907.70804355,0.0,-738501.0613671849,93681798.0,80746928.29403962,39573525.0,33476615.760864414,54108273.0,59527541.98921075,39573525.0,47118900.04937963
205,526,2,15264467000.0,12458427940.46885,7226441209.924589,7782857453.445337,3059451000.0,4208420391.9101863,592816000.0,675260368.740082,378076000.0,336384472.7842234,970892000.0,956029967.9460193,444977000.0,378316189.4138251,147839000.0,117924704.52847387,444977000.0,434959674.09899366
699,1263,0,65987000.0,142401175.54077354,35279000.0,57762469.1385198,30708000.0,64468543.12138191,5319000.0,26526150.669566177,28050000.0,25707574.564798348,33369000.0,38187758.18717718,1124000.0,176088.76184691073,4195000.0,6195046.913915076,1124000.0,30247829.150696725
550,304,4,31945000000.0,4986489695.411915,26424000000.0,17084317877.525555,5506000000.0,6386614364.448772,1191000000.0,1071054344.1672088,2895000000.0,665329275.1013762,4086000000.0,2311514961.5399327,834000000.0,553761383.0496492,357000000.0,904918902.328087,834000000.0,581743363.5430272
140,207,1,2655001000.0,2692694978.9373193,1989549000.0,2066435371.0989866,665452000.0,-456783702.1057492,67554000.0,80016509.96567504,403267000.0,581808955.4092274,470821000.0,194512959.73027897,-3426000.0,39760175.60304734,30096000.0,29466816.65050449,37458000.0,-49867798.519702375
2004,586,2,9403000.0,117607220.70612256,5511000.0,33533444.331612032,3892000.0,-24871715.512991887,-48000.0,46261303.00055315,1387000.0,63685317.58429618,1339000.0,162699756.47381085,-903000.0,9476355.009148646,855000.0,44116028.93648595,-903000.0,17272767.78121027
28,456,2,551232000.0,902637157.721059,628224000.0,645514926.6995001,-138322000.0,-136682234.67651168,23716000.0,66145258.08761058,12709000.0,73111773.56302078,36425000.0,190887029.81620458,7478000.0,19057988.81861748,48579000.0,77053058.45718116,-24863000.0,4759818.350811782
844,949,4,435750000.0,434640170.38346004,62826000.0,56653580.46615233,372924000.0,376598005.57142526,28152000.0,42389837.14867412,49267000.0,48414805.86030669,77419000.0,81248727.07699405,143000.0,3519481.938199617,28009000.0,30028655.334585965,143000.0,1820664.3295565143
967,1059,4,367699000.0,317301223.72898394,382822000.0,337561537.1304425,-15123000.0,-170371877.84788737,310000.0,63656314.22400834,0.0,-1614320.16943587,310000.0,83938536.92503157,-47413000.0,-22310422.817933064,47723000.0,74616477.48651196,-47413000.0,-14029183.3073726
433,1396,2,3810682000.0,3631531086.271116,2050315000.0,2043988197.0196347,1303319000.0,1289756068.810134,110314000.0,160900073.40798724,71850000.0,135959200.4343647,148990000.0,308085057.46920186,11661000.0,24949118.907241605,98653000.0,121056010.02013852,11661000.0,33941212.60587257
228,315,3,2333529000.0,2386122957.2008348,1032484368.2283514,1036986643.0903137,1202771000.0,1199723923.206149,71236000.0,124205869.36284755,490990000.0,520448381.76240736,562226000.0,560484101.37394,19517000.0,31061279.03439282,46091000.0,76646460.35768954,25145000.0,46524749.992106594
1855,735,3,20737275.0,40446469.40437289,10788720.0,-117493.2567093593,10368036.0,-12302781.830422265,562564.0,72287488.34580712,77061.0,22675659.00289754,87201.0,62316373.62016005,-4142505.0,-3507368.137706216,4705069.0,56921706.961685404,-4142505.0,3744865.3468930535
776,330,3,386844000.0,665306672.2395984,412960000.0,748216533.7823806,-26116000.0,10232853.97515203,16927000.0,55037094.76172125,91131000.0,95557689.68076274,108058000.0,107923624.04746518,-813000.0,4076768.9732696875,13060000.0,34769940.47781112,3867000.0,6926281.066137668
839,1420,3,6911775000.0,6854477064.654134,5109042000.0,5853946926.942851,1802733000.0,1681817528.0766442,225256000.0,230186464.95058328,195092000.0,141228223.638356,420348000.0,418772984.0323211,132530000.0,70805222.27198371,92726000.0,101224534.76112671,132530000.0,105444128.19908205
793,1146,2,2883631000.0,16060644889.407965,1772390000.0,18792273757.280025,1110345000.0,3965796988.439001,319055000.0,400787090.95996153,1257690000.0,2491967497.757781,1576745000.0,1627614409.3561316,38222000.0,66863791.54235666,280833000.0,289811441.198712,38222000.0,69204618.98538476
820,846,2,133032000.0,792522409.19809,232711000.0,401936252.16175413,-16246000.0,217399137.33799794,12296000.0,65315006.92323205,62277000.0,137638979.39448103,74573000.0,224676599.2978841,-14749000.0,-172162.66928971885,89322000.0,126034071.59982456,-77026000.0,-39310456.108812734
2016,513,0,296638000.0,392734709.05572003,208509000.0,232668657.53154963,88129000.0,127484103.54001527,7319000.0,38508215.61919189,0.0,1064836.2461451087,7319000.0,15423370.416414222,-46633000.0,-28020939.392547727,53952000.0,54333849.43966731,-46633000.0,12147965.477037273
1438,1294,4,38809000.0,8926535900.200575,43090000.0,2537891588.940988,-4281000.0,5152598677.449454,7318000.0,18287115.00942764,25818000.0,40864956.47038444,33136000.0,23964715.248854276,-933000.0,6374132.827112322,8251000.0,5200232.848777521,-933000.0,1745629.6270912117
866,229,1,2376172000.0,2635879974.0625834,1870972000.0,2459279872.6877947,486613000.0,1030219640.5435926,-5214000.0,81098312.29857433,182832000.0,211290044.9856628,304976000.0,216432267.4658446,-103708000.0,-30633780.484156087,98494000.0,70443677.00207888,-103708000.0,-38364843.086768255
689,1207,1,3719784000.0,5814270164.9330635,3332984000.0,3801636355.3822246,286813000.0,2544190134.6802654,2618169000.0,2561891650.710403,-531777000.0,-644565799.5160749,2086392000.0,2117732693.3253493,44074000.0,-13225034.501941478,2574095000.0,2403736459.3487754,44074000.0,498187320.6220323
919,481,2,1537935000.0,1397009154.7454777,1281456000.0,1233074705.677299,256479000.0,1455794577.0455818,229699000.0,249795486.947181,0.0,71156560.0200711,229699000.0,350660635.6854581,-26947000.0,-5418504.050359549,256646000.0,315941155.02664816,-26947000.0,-41132651.16062055
1827,890,3,1182488000.0,1227284195.0252051,303489000.0,-228950269.7732476,759221000.0,645767820.7517176,56265000.0,95607859.46605778,333008000.0,321046534.07580096,251870000.0,248941993.57989132,16750000.0,22122709.47009193,39515000.0,53570653.56641997,16750000.0,28549582.055989202
1182,716,2,8225559.0,37972526.310626835,12447189.0,24406584.43919427,-4221630.0,-8320022.6463849805,17564.0,46261303.00055315,106922.0,64198852.077766456,124486.0,162699756.47381085,-8095209.0,8030497.718489506,8112773.0,43593432.86978601,-8095209.0,14831271.399089623
