epiphany24262/financial-performance-prediction/results/oof/m2_hgb_history_raw.csv
Id,group_id,fold,actual_Q0_TOTAL_ASSETS,pred_Q0_TOTAL_ASSETS,actual_Q0_TOTAL_LIABILITIES,pred_Q0_TOTAL_LIABILITIES,actual_Q0_TOTAL_STOCKHOLDERS_EQUITY,pred_Q0_TOTAL_STOCKHOLDERS_EQUITY,actual_Q0_GROSS_PROFIT,pred_Q0_GROSS_PROFIT,actual_Q0_COST_OF_REVENUES,pred_Q0_COST_OF_REVENUES,actual_Q0_REVENUES,pred_Q0_REVENUES,actual_Q0_OPERATING_INCOME,pred_Q0_OPERATING_INCOME,actual_Q0_OPERATING_EXPENSES,pred_Q0_OPERATING_EXPENSES,actual_Q0_EBITDA,pred_Q0_EBITDA
196,1499,1,1192950000.0,1015203173.8891674,1055816000.0,932176091.2337406,137134000.0,149244957.1820935,25598000.0,43705932.61550259,61899000.0,51815478.926069975,42992000.0,56708501.51612987,15222000.0,25887198.91033937,10383000.0,24648745.995095614,15215000.0,13921529.617968712
1568,1145,4,1219954000.0,1332741291.6960511,835046000.0,1251100854.7282434,384908000.0,-512146881.986638,111786000.0,86551379.90837036,217796000.0,229445716.23187566,329582000.0,321446651.13304216,28908000.0,9125433.455289962,85522000.0,113428763.11603215,26264000.0,21193950.33389021
1218,856,0,-135820000000.0,50908591778.0147,-37972000000.0,16641068358.09745,-97848000000.0,28134026085.486374,-435000000.0,385019309.8390877,4445000000.0,7398391980.459794,4010000000.0,12726478481.541399,-1472000000.0,-138148474.18139598,219000000.0,499331687.36521006,-654000000.0,90299213.3574157
23,1337,2,83298000.0,1358253738.2044258,16040000.0,611668726.8748956,-31633000.0,139414873.6596024,494000.0,938125.6853003548,3339000.0,43139809.346017286,3833000.0,22363266.61906678,-12348000.0,-7084612.231058232,12842000.0,57783815.443280056,-12348000.0,-16141549.065618584
783,1345,4,148546000.0,188043764.56671566,56555000.0,188780283.77424225,91991000.0,109280028.4136031,1761000.0,73081346.88653626,-2375000.0,48529766.06083088,-614000.0,54968979.17167108,-10098000.0,26558501.72380682,11859000.0,21601463.122200705,-10098000.0,57116260.86893781
1251,1021,3,7304300000.0,8553001354.670956,2451900000.0,2634005557.039744,4830200000.0,4214714655.722002,578200000.0,566350276.1822746,581100000.0,566879530.0201002,1159300000.0,1115017962.833883,245200000.0,296795405.67079586,333000000.0,366502774.07952976,245200000.0,266358788.40206996
1224,234,4,1976905000.0,1535508548.3420782,699909000.0,704134524.8838432,1276996000.0,1113079208.9181066,53993000.0,93102979.72949249,315825000.0,356179555.1873329,369818000.0,396059253.4459433,-1572000.0,-14199040.106022136,371390000.0,443027590.23914963,-317397000.0,-352357590.7705859
1410,323,0,2097274000.0,2456884212.813457,1132234000.0,1209537807.0317438,965931000.0,863138454.1619995,70481000.0,122132815.61171784,291052000.0,383253691.21258444,361533000.0,470542828.298309,58709000.0,93674167.70205687,11772000.0,53159450.07857613,58709000.0,109347079.95107183
529,1124,0,31183000.0,456241903.84806645,15926000.0,438226375.8404298,15257000.0,15152677.463198464,2456000.0,2169721.456273545,2151000.0,108979693.00431716,4607000.0,41078111.18366662,-2931000.0,28174777.729675032,5387000.0,50809375.20690075,-2931000.0,-587496.7742187092
730,576,2,978523000.0,878875073.9762471,851196000.0,848227675.389364,-94184000.0,222533624.76402342,24321000.0,11547051.879484197,137937000.0,197652409.2276729,162258000.0,192971595.02782935,-764000.0,-53280099.895432815,25085000.0,124511043.4583475,-764000.0,-161397202.17933428
1590,10,2,27253000.0,-97938782.20043458,14465193.072010836,95790422.62180497,12787806.927989164,50579781.0817332,-17000.0,-2219665.421035587,17493000.0,56648896.57721036,17476000.0,58962676.26515379,1196000.0,6659637.094177473,138000.0,-82084368.29599221,-155000.0,2282871.5893331873
367,641,2,798398000.0,3496283713.7229977,795372000.0,2112543439.9034784,3026000.0,1461702145.1580262,37121000.0,29251187.16313953,256160000.0,368947788.75188786,293281000.0,385082276.88955283,10257000.0,-59914153.71903271,26864000.0,142703283.17892864,10257000.0,-100950544.8063104
636,48,0,1059052000.0,1524019818.7856214,883921000.0,1248585955.7494946,175131000.0,190088879.483506,91945000.0,93142355.77837308,202788000.0,300561597.3408099,235132000.0,265376877.1133975,-287000.0,22026770.565386824,84957000.0,134034925.051155,6988000.0,-22053729.937801518
1270,290,3,11069000000.0,10178967095.870132,5919000000.0,6164551650.008662,5105000000.0,4698564240.86317,727000000.0,728031008.3108484,1752000000.0,1654587197.1715505,2479000000.0,2260410158.586494,462000000.0,457486495.34157795,265000000.0,258729212.01699933,462000000.0,569317746.9260566
102,167,1,12331000.0,-152013368.53306168,10875000.0,-14244212.09107389,1456000.0,-57680425.90353015,1472000.0,8795636.265849061,1968000.0,3938654.6232977784,3440000.0,1962138.2210003263,-4166000.0,7504502.3379427,5638000.0,18539393.39573278,-4166000.0,5542257.274782054
1658,1140,4,180372000.0,175306787.55521372,121221000.0,218896508.41459128,30642000.0,55675614.68792354,18014000.0,19706560.826972347,31653000.0,73054035.9048399,49667000.0,93061727.61373793,-11599000.0,3738233.0905321445,29613000.0,18869083.337132055,-11599000.0,3394361.803178939
6,1573,2,2319806000.0,1767678336.1210477,1534495000.0,1207790622.5844343,785311000.0,812117161.4134017,376397000.0,312841997.5045646,415254000.0,347527171.04242903,791651000.0,615100033.3724989,93430000.0,80299311.69461997,288680000.0,296908768.7731623,87717000.0,83236281.00310317
1147,1457,3,19295025.0,396937493.30975395,28370931.0,430958114.2490185,-13369686.0,-25964794.41336309,2067435.0,50407996.86849923,4847499.0,37103388.422499254,6914934.0,57154559.94093978,-1108124.0,2974304.405508007,3175559.0,27647993.360997517,-1108124.0,1247452.2527533679
114,1091,3,3549408000.0,3600481374.400338,2109262000.0,2430600871.3922524,1440146000.0,1703854509.7794344,264579000.0,252562122.35402882,494402000.0,481579216.6298884,758981000.0,770031487.2584522,58594000.0,68194423.90152368,205985000.0,207444836.12579882,58594000.0,54225078.993176565
139,988,1,331401784.0,422045911.8921665,56254670.0,-361684844.8328359,275147114.0,303912618.0521686,17982150.0,21612325.398701366,0.0,6979559.158305124,17982150.0,18901833.28715932,-40215832.0,-15456380.587442037,58197982.0,67915832.69907697,-40215832.0,-27237148.999638222
411,662,1,5533000.0,131548781.94340307,4648000.0,-24922438.668447785,885000.0,-86964151.13761207,-1669000.0,9463327.888736153,2438000.0,-1658956.381177865,769000.0,-499118.6094689645,-6339000.0,7074172.938399489,4670000.0,19660432.307939313,-6339000.0,4380278.258815151
681,175,3,36550000000.0,37500349893.986046,16943241279.095451,14245815810.207224,15250000000.0,13059578169.036337,577000000.0,516328389.60175127,3467000000.0,2779133124.8989654,4044000000.0,2977730362.89233,714000000.0,300250293.2376107,627000000.0,1109588749.7711737,-50000000.0,235316272.08591485
1671,163,0,100449000.0,623059198.0289419,141057000.0,531641954.93304366,-40608000.0,-6173068.7902914025,-171000.0,60084.93729231311,512000.0,105579946.16237605,341000.0,48977117.13030995,-48297000.0,-186103.77442946238,24344000.0,66916594.27928867,-24515000.0,-9242854.092384867
500,170,3,10599934.0,407779491.10231674,26203416.0,426889233.6672322,-15603482.0,100192248.60617991,-6219.0,49559454.91302475,193120.0,33022410.08183713,186901.0,54541927.66818127,-1076399.0,3223833.912388652,1070180.0,26903494.718892615,-1076399.0,652205.1968146581
1203,193,0,13322000.0,407337638.60768664,67881000.0,423876998.82795477,8277888.77383834,134118259.75164607,3223000.0,1540947.8197457881,1889000.0,108979693.00431716,5112000.0,35442102.33753101,-3552000.0,27470174.204114262,8664000.0,53488214.79681681,-5441000.0,-25808297.099013224
180,382,1,635001000.0,869814434.2326,115305000.0,82607276.16994628,502273000.0,-1321634914.0830262,21465000.0,6904388.653485934,40457000.0,6038075.356363157,61922000.0,45369188.23596818,-143360000.0,-305972898.197014,205282000.0,254248386.63450748,-183817000.0,-298034655.3808162
1960,1074,0,2672864000.0,2661912789.5008235,288913000.0,754304326.7014724,2383951000.0,2284607164.3361187,132902000.0,113033313.39940825,168499000.0,290176323.87237096,301401000.0,299271360.81147575,55706000.0,102926371.09004399,77196000.0,114388654.55415107,55706000.0,71766269.1398434
356,1599,3,8388335000.0,8924686114.90067,5163154000.0,5150931349.700851,3225181000.0,3231988674.1454067,313343000.0,334625379.6203872,687959000.0,658274212.7006016,1001302000.0,1065812607.6419262,116260000.0,203011680.39728495,85661000.0,100001206.89274938,227682000.0,311610848.7981254
1646,1068,1,1563399000.0,1412614148.9525397,1445358000.0,1301990755.115573,-136248000.0,-19745807.74962369,72333000.0,79697295.49764921,116682000.0,105428415.43459445,189015000.0,189628157.50854817,23506000.0,37265050.8919319,11423000.0,28200896.110002052,60910000.0,62474079.71424007
1793,586,2,320019000.0,382313087.54115975,126984000.0,147404400.65257087,193035000.0,277397814.6768192,177377000.0,220645792.66563666,58492000.0,127201599.3624741,235869000.0,322572070.0641869,25509000.0,56415036.427098095,151868000.0,202618481.04079774,25509000.0,41688386.93182867
235,418,0,0.0,-990698236.5771893,0.0,-837481587.536363,-804876.0,-5205526.872877259,0.0,-526663.5117089242,0.0,108085071.98336092,0.0,26943302.140978843,-14550.0,29355201.092792913,14550.0,47507227.321000084,-14550.0,-20444063.87711438
1668,345,3,267194000.0,633086393.6468798,175308000.0,616788790.9412518,91886000.0,56210686.335374884,5103000.0,51900918.488341026,0.0,33726259.297585174,5103000.0,57578481.5862152,-32762000.0,-20507945.890388712,37865000.0,53252959.219796464,-32762000.0,-21258518.31252354
1456,769,4,2249377000.0,4146644646.9069304,1923326000.0,2344744404.528104,326519000.0,-1363946545.4037414,-76300000.0,-34354736.575912796,416103000.0,472990953.8148054,339803000.0,329131766.81093234,34941000.0,59549096.534394406,184914000.0,120161456.12524833,-261214000.0,-271027266.9213518
1291,32,1,396890000.0,487462118.5238593,107071000.0,156445976.50851342,289819000.0,305035724.27776927,52569000.0,55793140.03121549,13634000.0,11299738.377655458,66203000.0,68685281.18795848,8375000.0,7453577.9231601255,57828000.0,71501700.83772884,-5259000.0,-8840713.33875401
1376,256,2,7827000.0,22477560.558278386,4744000.0,9134239.490413329,3083000.0,38756556.22761528,1288000.0,1818548.3365308566,867000.0,42377610.08774452,2155000.0,23870533.36404281,-3880000.0,-5658281.941080676,5168000.0,9660351.08398509,-3880000.0,-5795536.1602311125
1702,1050,4,11990000.0,26664469.908280242,3030000.0,131360362.5652094,8960000.0,2178829.47387425,1480000.0,2233066.9297428965,3017000.0,49303424.4808817,4497000.0,53341373.08749668,-944000.0,1196504.507525136,2424000.0,5711124.959552552,-944000.0,2765159.837789414
1591,116,2,7472874.0,387499807.5147801,3243445.0,146980808.1114428,4067990.0,186447396.50378987,3065804.0,378607.6388531137,0.0,42121236.93269709,3065804.0,21753232.085502815,-21884.0,-1958245.8953455137,3087688.0,2768947.1765202377,-21884.0,-2476715.788927699
647,998,1,2182494000.0,1262623993.9115765,2467501000.0,2345548565.8042088,-484456000.0,-758097589.347831,389190000.0,397238681.0064309,141172000.0,77940169.40329082,531030000.0,453368697.6407123,-54175000.0,-48449453.437887974,443365000.0,384954145.1720471,-54175000.0,-32883806.136582587
100,324,4,12166000.0,30233601.693908956,2892000.0,131360362.5652094,9274000.0,-17364085.76608788,5000.0,1397627.3066641907,54000.0,47573511.723517545,59000.0,52528134.35760089,-3433000.0,-806963.5478783906,3433000.0,6278427.504624481,-3428000.0,877667.7231962938
507,554,4,189783000.0,39754177.88901749,45792000.0,149231684.70390403,143991000.0,104162370.24561583,2372000.0,3376998.504429425,0.0,46843854.25034686,2372000.0,53752457.770059235,-18270000.0,-20374185.30384984,20642000.0,29228572.275006633,-18270000.0,-19324580.141622584
547,509,4,1072653000.0,2488961638.8856535,455367000.0,1054381879.884743,617286000.0,1659580472.7418203,134998000.0,124102505.32761618,27783000.0,61868715.78192598,163452000.0,225146389.56072184,5489000.0,-7093528.420061791,129509000.0,131587462.54162815,5489000.0,352032.1294688071
457,1464,1,665104000.0,680028830.2807851,575531000.0,580231990.584272,89573000.0,96295431.42661956,30803000.0,33248752.03858346,19437000.0,20975756.64417502,50240000.0,44440324.999888435,10357000.0,7737546.855222975,22017000.0,38606543.80199792,8786000.0,7698480.087331326
560,1261,3,1900367000.0,5228811268.212688,289037000.0,2789228609.970106,1613343000.0,3964089528.1175294,45433000.0,233876727.72199675,413911000.0,509079712.4935187,459344000.0,658368274.0368828,-6757000.0,99490110.87529026,52246000.0,88370147.49157028,-6813000.0,112684768.0801644
1402,384,4,88944000.0,117599893.35351993,45361000.0,164630421.19359308,43583000.0,46456450.385322936,0.0,1683575.6604993767,45000.0,47065861.36630552,45000.0,53341373.08749668,-14351000.0,-9757852.026728792,14351000.0,18006753.765447043,-14351000.0,-7740838.7969321
1274,1350,4,5390785000.0,4561752456.367798,4083098000.0,4110603133.1497397,1050686000.0,1028337454.6222688,352054000.0,347497912.635662,284900000.0,370006256.4655039,636954000.0,699402022.884855,120850000.0,114201860.73077054,187232000.0,221670675.45631033,164822000.0,158173085.08362922
799,892,2,18535000.0,776381844.4296069,13748000.0,1615215459.2072368,4787000.0,51882350.77894969,2839000.0,-149137555.6547709,7502000.0,45174423.44554041,10341000.0,31397806.918658983,-2229000.0,-1695841.9452071928,3071000.0,157386218.6375316,-232000.0,-173697215.81739324
1436,1492,3,13281300000.0,12792346461.564598,5777300000.0,5663023685.587903,7484300000.0,6797417996.282964,1030700000.0,921262280.1062545,1150100000.0,1239783579.8288758,2180800000.0,2254832176.7043395,687000000.0,714828093.966538,343700000.0,383991347.5584894,687000000.0,633509910.5005207
1518,1341,3,108681735.0,367126855.38303345,9192190.0,429544218.1216064,67531550.37365061,134114111.34145051,2201326.0,49472745.30194091,255772.0,33830046.42050895,2457098.0,54007536.80385521,-8935951.0,-5991145.760535183,11137277.0,32452310.359663274,-8935951.0,-7705087.146451246
211,403,0,189692000.0,588809649.3426043,90178000.0,471449014.43061936,99514000.0,104516479.93988393,-4411000.0,2418961.9775141557,24963000.0,126804339.2395139,20552000.0,60963150.38209067,-10000000.0,29918312.861367553,5589000.0,52004889.502565235,-10000000.0,28275138.011166614
1542,1378,2,230878000.0,201395104.8068068,57278000.0,60033315.02905531,173600000.0,191281365.19607958,26973000.0,29756428.610432606,7041000.0,45462805.65616199,34014000.0,55971899.24583645,-11169000.0,-11091319.41007568,38142000.0,37394127.174979195,-11169000.0,-11527118.985333929
1496,1478,2,73773000.0,-370040498.3574694,50819000.0,-203537114.51194793,38847689.64492722,24325955.821861666,5428000.0,5410883.558493009,22481000.0,56458521.75604918,27909000.0,42249668.662389114,-1778000.0,-8308210.035067526,7206000.0,-4292242.777574528,-1778000.0,-7391022.231135283
1891,702,1,1582767000.0,1853273578.7269735,680421000.0,677917789.9370399,880211000.0,831260633.5789455,56683000.0,64898136.9298659,17637000.0,8750818.505459774,74320000.0,90152206.78163524,-5119000.0,-3844187.6460809163,35279000.0,57126562.09171372,21404000.0,27445502.617285065
362,1108,1,5641000.0,-21121847.924677856,5200000.0,-7524629.367837282,-3859000.0,121042396.3548439,1192000.0,7689824.596534486,781000.0,316892.8157324915,1973000.0,1824784.4347792221,-97000.0,9455609.296335265,2070000.0,18497004.49735722,-878000.0,5998301.766399922
605,1128,1,3208196000.0,3113413591.5250344,2133043000.0,-304665201.2822135,1075153000.0,2378850440.130582,625972000.0,600160962.6118708,1066275000.0,247014711.19742942,1692247000.0,958214471.6540135,91616000.0,120906040.60808575,497965000.0,282197334.6210137,128007000.0,142270706.32703704
384,67,1,13057000.0,-17423848.453592952,4943774.229094189,-83102095.07767537,10949000.0,-9722838.821480999,7944000.0,8240551.8378668325,0.0,2205144.7317160997,7944000.0,-210065.75006652268,1997000.0,8205158.945156997,5947000.0,21232012.631302536,1997000.0,4971652.634722685
438,863,1,5973000000.0,5385959558.213011,4408000000.0,3566097458.3519444,1554000000.0,1900061365.4595232,244000000.0,225123100.3220437,1526000000.0,1564152123.4104397,1770000000.0,1717363261.750381,147000000.0,92638503.11154108,127000000.0,107854427.41811346,117000000.0,97039977.09555991
1761,1201,3,589088000.0,888833048.9859719,253950000.0,658318619.8506452,335138000.0,319069251.5093517,19294000.0,69720960.81948715,99428000.0,123313195.02642643,118722000.0,157850212.65072227,9057000.0,13323462.457761886,10237000.0,35551843.58127246,9057000.0,12183387.731965521
403,1321,3,21286772.0,402432682.4120726,1383236.0,429544218.1216064,19903536.0,17658739.735126592,781782.0,49954165.01073822,421382.0,33688486.53366871,1203164.0,54757416.63076304,-1960898.0,2214609.525537238,2742680.0,27375494.151856977,-1960898.0,242909.0320858851
388,1465,0,3445920.0,836843668.9151211,1859560.0,822815973.3015536,1616914.0883314284,3625814.1528423787,2970901.0,2417848.8895089333,569508.0,108478324.3131431,805185.0,41152679.844393335,2437201.0,29506739.495808683,533700.0,48715550.03717018,2437201.0,-2207943.016397975
1452,1235,4,328158000.0,327266602.55648524,124250521.82515822,228727150.58027527,270486000.0,275184307.9179887,24944000.0,29115499.759504933,16521000.0,60626460.24555586,41465000.0,93159347.8647174,-7674000.0,-1315891.9348097115,24827000.0,25909243.11026474,117000.0,6676083.344742144
1876,600,3,2498305.0,353757593.0370165,2997402.0,429544218.1216064,-3454854.0,-3874091.8729558843,467340.0,49646964.83617511,346611.0,33688486.53366871,813951.0,54541927.66818127,-114631.0,4501393.938613998,581971.0,26903494.718892615,-114631.0,1169635.5408244128
757,967,2,1288046000.0,1276899071.4382398,649920845.9604261,661901936.5320415,889849000.0,852842419.5673221,105384000.0,101443248.24698158,285360000.0,292338922.63601696,390744000.0,371537741.61916065,53190000.0,37576407.674854785,52194000.0,50539690.82674069,53190000.0,42861602.21830717
660,231,2,600057000.0,561731340.8257971,369915000.0,341888428.3891265,225443000.0,242326601.33311522,43121000.0,44214883.79671267,106269000.0,138411487.2230436,149390000.0,140835112.15603474,7853000.0,6082322.822511158,30439000.0,29876113.40614082,12682000.0,6079791.8859726535
197,1227,2,538955000.0,1610899684.286578,291671000.0,377526271.397527,247284000.0,1723996318.5482788,-14193000.0,3413766.2934988905,14235000.0,54278541.253125176,42000.0,20916384.317179903,-51845000.0,-65907489.02735021,37652000.0,58974648.09182536,-51845000.0,-50927397.275011696
93,446,2,25334074.0,81839682.091798,18917048.0,80738174.87436023,5501613.0,49456931.82333888,-536032.0,565344.2243546536,4501393.0,45088190.28204007,3965361.0,24812998.116334368,-2975120.0,-2287869.4484275654,2439088.0,22912725.22225868,-2975120.0,-2133739.2015705863
472,459,4,1934400000.0,2120061638.6636572,855887268.5537325,1110608916.3908775,957200000.0,1101362730.929742,84000000.0,130771973.5076904,375600000.0,457575037.8124093,459600000.0,578051511.3808631,30800000.0,55170448.5394301,59000000.0,77214610.40786563,25000000.0,62092963.47656961
1345,1471,4,102973000.0,11312577.476923048,162948000.0,382079581.0213885,-346214000.0,554745008.360244,-13037000.0,2240836.5743454,25768000.0,52447310.99893847,12731000.0,62894998.13237072,-23219000.0,-9887276.30394807,35950000.0,25933714.21319912,-48987000.0,-22999283.337898277
1672,1007,2,2501300000.0,2348415585.059021,1075500000.0,1147836664.5454502,1407900000.0,1330913003.3776896,99600000.0,106354213.90086384,151100000.0,183534491.73482692,250700000.0,273680749.8768386,31900000.0,30939650.27944115,67700000.0,116286506.73944908,31900000.0,9301498.864322131
521,1060,4,27910000000.0,50740075686.415825,24392000000.0,32786106797.776863,14058781786.346067,23263910190.57076,1525000000.0,1005156045.5148145,6421000000.0,3423878269.2906933,7946000000.0,6411483539.792689,561000000.0,588228739.023436,638000000.0,944608767.5442288,887000000.0,4074472.2743564714
1143,781,2,105238000.0,105316026.2514563,42240000.0,23052108.240685616,62998000.0,100497026.85327451,8572000.0,2755589.3828486595,322000.0,42622147.92999591,8894000.0,29740180.778690316,2218000.0,1814000.8567516692,6354000.0,355798.0573463058,2218000.0,1783926.0255909637
502,145,3,2010176000.0,2130916075.6777213,889414829.379791,1208495227.2879553,1057656000.0,1012960539.9012203,113627000.0,153261203.24615827,250202000.0,271998592.8397132,363829000.0,413675339.9153074,44531000.0,51642768.81527027,69096000.0,90169642.5268402,44531000.0,50754336.77891368
319,979,0,15154000000.0,15999499758.25143,5534200000.0,5685598994.775399,9554000000.0,9957242591.121075,739300000.0,775673393.0268323,999600000.0,994412485.7573421,1738900000.0,1621520827.3185952,318400000.0,213000757.13835067,315200000.0,357168515.4566772,424100000.0,439181304.4021572
471,8,4,346507000.0,-1808136085.4614418,100361000.0,-384736785.6543979,246146000.0,197754671.97426495,14398000.0,10304587.896768436,62502000.0,108877193.56359152,72480000.0,115496101.17159368,4926000.0,2743533.2506443085,9472000.0,17730157.02035373,4926000.0,4417295.551058581
1756,1541,4,229309000.0,202145995.01878512,190264000.0,318287487.367596,-44269000.0,-26340898.99451052,9225000.0,12410581.418819927,52669000.0,129028162.07985508,61894000.0,129750144.33948524,1401000.0,4235850.478440547,7511000.0,8575338.981690219,1714000.0,6614215.24876907
848,860,4,101740000.0,115556177.57598308,28463000.0,146104152.82892153,50734000.0,48126043.594948046,29850000.0,27553289.107928723,12745000.0,59418960.82638179,40857000.0,90505800.80213565,2689000.0,4533445.834778857,27161000.0,26581391.552654054,2689000.0,2901237.7768510617
1310,236,2,9582645000.0,9598937952.958387,3280269000.0,2885790531.9840937,6302376000.0,5696704395.487263,376175000.0,100618314.1560164,424915000.0,518568927.16877264,801090000.0,762153568.4162582,272965000.0,93049066.73936616,103421000.0,119063018.43857425,272754000.0,67346677.82714789
202,276,2,609678000.0,554726530.0231643,288631252.1743736,275877264.1453389,366720000.0,354654445.67005825,84451000.0,79892519.80689287,21802000.0,58789797.987518035,106253000.0,121055626.27045146,5683000.0,4181470.412297856,78768000.0,85963402.28417021,5683000.0,-2236940.715353202
1444,1363,1,43441700000.0,31801540404.023777,21559314449.01792,15081600505.694187,21882385550.98208,23941388582.126724,1370000000.0,1232774679.1832244,587400000.0,-357134450.74430007,1957400000.0,1095572068.9026906,472000000.0,318853052.0559149,1485400000.0,1257607729.4661489,-115400000.0,-627200100.4371828
1578,181,2,1146353000.0,1187900257.9824774,752649000.0,719068038.2654042,393704000.0,425847290.0714948,95229000.0,93311740.87067771,32092000.0,75512363.49963216,127321000.0,156107118.11251116,-58245000.0,-72980223.74994878,153474000.0,167752027.447728,-58245000.0,-68656249.08523151
451,1540,0,796771.0,-742553486.2304523,1072746.0,-610204713.3761132,-275975.0,-3600415.852743316,205707.0,-576941.1390700528,158335.0,108085071.98336092,364042.0,41194043.093841136,-168127.0,29506739.495808683,373834.0,44290683.72263162,-168127.0,19099817.95760131
35,1028,1,9069035000.0,8338866800.809925,2563480000.0,3849637196.5659413,6505555000.0,6522181663.790791,942419000.0,760830620.8672616,522866000.0,826702735.4921781,1285548000.0,1374628801.928709,602695000.0,532498590.6612642,339724000.0,342114314.14582133,602695000.0,459637003.36989635
237,1408,2,48924605000.0,23826501217.97262,25766652000.0,-2440207118.5642767,22441501000.0,28347622994.90693,1560160000.0,1415707703.3862486,915531000.0,666002919.5542214,2475691000.0,1944724541.1540005,558196000.0,729397795.0736729,1001964000.0,468803228.2532747,558196000.0,761958059.7302657
917,458,0,514281000.0,769205908.1501758,309957000.0,592777342.106154,198004000.0,177608977.29834065,106985000.0,73055678.68695906,149052000.0,183028397.22006088,309744000.0,172699826.68594575,62399000.0,42716515.44679468,44586000.0,72000157.50671071,62399000.0,13056285.338318817
558,415,3,17876000000.0,4813705957.9340925,4077000000.0,4437074198.059383,13799000000.0,1655538399.440152,-917000000.0,-123010703.5144459,1453000000.0,963654591.9500202,536000000.0,175120819.83326957,-1774000000.0,-252026064.7066613,857000000.0,1730214214.1235902,-1774000000.0,-1582858737.380733
73,1395,0,218354000.0,640740927.4503527,62021000.0,446001560.1017943,156333000.0,175725537.10745916,-143000.0,1260806.3291955276,848000.0,108756593.9632514,705000.0,41344003.36580965,-31577000.0,6776946.938647889,40859000.0,71271300.67281304,-41002000.0,-17629106.053448144
532,1216,3,2268100000.0,2982419639.0268655,1627400000.0,1809371217.0549495,640700000.0,1091222879.7869518,78400000.0,102821251.56419545,665200000.0,705086249.8398496,743600000.0,851784897.6602653,19100000.0,-51563081.14100354,724500000.0,864203633.4856797,-646100000.0,-1189363660.251905
986,1129,0,49117000.0,461214799.6826969,7104000.0,391203814.01049995,42013000.0,53576300.67006833,1616000.0,2806533.989560038,3273000.0,109204835.2174443,4889000.0,41310689.4751655,-1489000.0,29396724.441813134,3105000.0,50026688.559801996,-1489000.0,1944725.6688884296
252,269,4,12822000.0,78558916.60960037,1624000.0,131360362.5652094,11198000.0,36223983.42460848,0.0,1600975.1698539318,0.0,46843854.25034686,0.0,53341373.08749668,-1983000.0,1034297.3444146465,1983000.0,7651506.819998256,-1983000.0,122983.43586352593
982,657,1,543788000.0,653279013.6468619,205894547.02387,211971548.50438616,402777000.0,379870713.6078901,1944000.0,31074097.48986365,0.0,1354566.460489504,1944000.0,20186302.992330372,-51279000.0,-37252213.921267085,53223000.0,95377142.40566057,-51279000.0,-31544951.908406455
1947,648,0,16965000000.0,16574602332.473003,7506269391.549871,7765670066.076587,7744800000.0,8258307991.310587,1329900000.0,196169364.57910207,1175700000.0,984948919.0586956,2505600000.0,2358072590.797118,1069200000.0,776247173.3878773,32700000.0,208145993.57766393,1297200000.0,824846745.607366
1206,510,3,29788000.0,413791763.5407904,27907000.0,439811642.4920398,1881000.0,45333211.98404384,0.0,50724177.50112158,3452000.0,34642128.83149676,3452000.0,54959684.76334204,-23801000.0,-9258218.298678456,23801000.0,43767882.03485362,-23801000.0,-12249841.199303808
542,1455,0,39315010.0,455487519.7749261,15768167.0,415991141.6287596,23791305.0,22933667.689853583,7600979.0,3694192.5178517275,41810204.0,137600127.97347572,49411183.0,63941427.4558133,-1588725.0,29506739.495808683,9189704.0,52386843.14540826,-1588725.0,-15676312.378209237
15,1272,2,184728000.0,208007405.43222103,40367000.0,48704713.30749404,144361000.0,167849176.74992862,0.0,572144.2307502069,8094000.0,44878894.172106095,8094000.0,26172588.47672521,-23114000.0,-36441340.444419906,23114000.0,33573484.12883656,-23114000.0,-32945791.998660646
1754,1527,3,5014090000.0,4849130774.842781,2606263000.0,2666894415.8038316,2407827000.0,2112517506.7039087,420690000.0,432994241.65142787,905430000.0,899986816.141814,1326120000.0,1330077124.8016381,237492000.0,186985574.6923961,183198000.0,190426553.24136528,237492000.0,196873735.44141427
1448,1438,2,3543460000.0,2857273824.216601,2602227000.0,2279761782.1159935,941233000.0,1689405056.1235523,443568000.0,425755097.28270674,134292000.0,227641420.26045477,414603000.0,349532523.3606615,14363000.0,-44371070.815703064,429205000.0,106118611.21218011,14363000.0,-96071472.78455307
459,682,1,747087000.0,772431038.3000126,79688000.0,120897963.42680506,667399000.0,576462749.0076978,34565000.0,39016120.75968697,22203000.0,18170360.015367676,57261000.0,45139971.03455997,-16306000.0,-15455859.723656707,50871000.0,68492918.20986705,-16306000.0,-13418322.01448455
1505,317,1,4578121000.0,14524299151.424973,2310023301.364386,7272364493.876258,2489780000.0,6497100354.305138,2190001000.0,4867822145.876462,-1465670000.0,-1995481685.359917,724331000.0,481063135.56101096,216069000.0,765224468.4594526,1973932000.0,2575653444.2587852,216069000.0,-62967896.96126371
1613,680,3,11895943000.0,12281195592.774452,3479745000.0,3843549546.2555766,8416198000.0,8408583371.390254,335683000.0,377040636.3617873,296441000.0,341622448.4330446,632124000.0,681663761.6529214,90949000.0,46021075.0536525,201199000.0,388987749.2594461,134484000.0,165271569.33548373
1214,90,3,1059300000.0,1397323132.256434,513000000.0,966352780.1291552,545000000.0,657383410.5187804,132000000.0,159998492.13148612,172700000.0,194229234.71596313,304700000.0,357745743.9152941,34700000.0,36138422.29334394,88200000.0,97716637.32865426,43800000.0,51646347.925260246
454,544,4,11204065000.0,11168168824.51019,4242197120.938668,4053972940.7148395,3489373000.0,3527422632.405021,480702000.0,699977551.0410082,457696000.0,527259453.25611496,938398000.0,925690134.4314505,172392000.0,57326978.1886455,308310000.0,386890293.8674919,172392000.0,274280612.1231238
1392,712,1,531121000.0,540366124.0801392,248900000.0,236947703.86754394,282221000.0,311439009.4847023,62379000.0,73292446.32799895,135419000.0,147559487.9704042,197798000.0,204272044.12935564,18703000.0,30797031.601603176,43698000.0,66284415.02430614,18681000.0,24623773.10476943
1519,1529,1,961035000.0,137231489.4717961,1381722000.0,1410954794.366125,-420687000.0,-1064804107.9850792,271111000.0,342705066.4483142,201537000.0,173712442.42743662,472648000.0,583984450.0471671,5387000.0,33971591.16301874,265724000.0,293942835.1618709,5387000.0,21469150.953989696
1060,9,3,3194462000.0,3199964264.499891,1643299000.0,1810684952.23372,1512215000.0,1457405717.4136477,817744000.0,793497057.3053197,0.0,32350488.6432866,817744000.0,842708322.1421973,37900000.0,80377110.09283178,779844000.0,792358549.7995737,37900000.0,44290009.686260134
1100,1253,1,6042273.0,-6232412.550742943,3627261.0,114015834.6090799,2415012.0,42894474.561440505,0.0,7981857.649659147,0.0,2484947.149863948,0.0,-270413.0638314601,-1829562.0,8245086.097661506,1829562.0,18508657.870955538,-1829562.0,5751163.442914689
203,112,1,76266906.0,47975712.11062801,57438990.0,28635239.326098133,40912361.81482647,37942136.055792265,9146097.0,17712632.122832052,0.0,1281879.0635970582,9146097.0,10425033.325653164,-2633902.0,8245086.097661506,11779999.0,27369714.948724832,-2633902.0,5865668.1796882935
1493,1589,2,-3532973000.0,-21837414846.002377,-2747133000.0,-6634952855.387629,-773571000.0,-12361143201.256857,87737000.0,149960248.80940038,40236000.0,271476578.1528072,103187000.0,442180797.95461357,7123000.0,36268661.59197857,80614000.0,109989204.08619986,7123000.0,60485542.030214444
543,613,0,846734000.0,650107117.5514699,635659000.0,995350845.4692351,69332000.0,19519906.222123608,204774000.0,279908367.3219572,-13024000.0,-51181344.47589585,191750000.0,58393077.27498376,-52860000.0,-8336634.033421882,257634000.0,429858595.9278166,-52860000.0,-134459817.09680095
1966,79,4,1354514000.0,1337208193.74188,675720000.0,894250124.2598583,319291000.0,1150763906.608524,-16558000.0,809720.7258124074,64132000.0,119458227.47952184,47574000.0,92339450.87659073,22229000.0,11686950.309096415,13428000.0,17165334.37249743,-29986000.0,-20753113.77352978
1802,943,1,270533000.0,245884877.1564266,240046000.0,217367995.28912827,30487000.0,25554521.66172319,26052000.0,36270414.51946921,12454000.0,16776124.886180343,38506000.0,43349152.16103528,-21038000.0,-2238139.88723744,47090000.0,58770995.97676751,-21038000.0,-3753044.9093242744
1372,520,3,583783000.0,1202672202.6648614,717382000.0,1072980867.1771581,-133599000.0,-206394191.57168794,41865000.0,73109240.73002024,32703000.0,46065318.38755581,74568000.0,97366236.89909063,-32006000.0,-32615096.24662968,48224000.0,72082745.64275509,-6359000.0,-28337258.097578377
1325,178,0,534446.0,226534721.6724338,9794849.0,273665957.7085304,-9132038.0,-3373127.3766978444,6264.0,-14428.783541672674,3881.0,108085071.98336092,10145.0,39884900.78268037,-961868.0,29396724.441813134,972013.0,48715550.03717018,-965749.0,13883922.656036861
1504,342,1,106308000.0,128536756.97060214,29369000.0,14949587.475238942,76939000.0,104109670.0321151,15630000.0,21946048.32630126,0.0,1143109.847225715,15630000.0,11989830.950426525,-23899000.0,2355936.649988698,39529000.0,37344267.10618325,-23899000.0,1677289.4512858875
1347,419,4,369031000.0,4593081073.946991,216722530.1814524,1403807757.587738,188777000.0,2947639350.732354,45044000.0,66155953.09276316,42173000.0,88565489.83156069,87217000.0,138699299.10901177,-3804000.0,9118742.642779423,48848000.0,57610796.62249944,-3804000.0,6766950.8455489045
1492,886,3,327784000.0,697809697.9839529,323919000.0,677629718.3690925,3865000.0,-13519828.905781781,33496000.0,79311360.55554062,8201000.0,39930351.39982728,41697000.0,88774634.3420989,-4913000.0,-6890570.090196184,37287000.0,61716731.119173616,-3791000.0,-2624169.4621238397
1107,1421,4,85658000000.0,39155852697.21676,88335000000.0,41651067435.667984,-2772000000.0,16135435254.149073,5387000000.0,8713762541.040964,14002000000.0,22202340069.455025,16935000000.0,25058198604.886433,1165000000.0,1499076496.251388,4222000000.0,6116718365.6887045,1165000000.0,3437955421.6624856
1336,954,0,898860000.0,1257417905.6807294,527877640.3036609,881849336.0258325,360528000.0,364733617.6364394,68259000.0,81556650.61281922,42065000.0,145142975.68025702,110324000.0,161316416.12420014,-1325000.0,31722295.109399702,69584000.0,103617374.39148508,-1325000.0,4618891.9366533235
599,1230,4,50546000.0,70394623.80809271,5959000.0,133286363.80664589,44587000.0,53436326.516708836,1989000.0,3528021.378110547,1909000.0,49303424.4808817,3898000.0,53546924.7273245,-1895000.0,562251.2781590908,3884000.0,7647485.696178223,-1895000.0,2765159.837789414
117,1592,4,939056000.0,943691769.2065918,419590000.0,496100271.92766356,517473000.0,529921241.672766,90527000.0,111961123.13763627,120216000.0,150510264.95623848,210268000.0,276840141.0864484,61012000.0,58426365.17378486,29515000.0,37932080.3672379,61012000.0,68221839.03021026
1825,1596,0,20027115000.0,18738451540.622288,12952737000.0,9231244584.968506,5611108000.0,5811979094.2036915,32786000.0,-26670915.24259967,283742000.0,302059840.9757768,316528000.0,275001064.07055986,-1347477000.0,-222650627.44424194,1910658000.0,854562007.2897818,-1877872000.0,-542829617.4630004
1507,1095,4,124094000.0,124412289.10435134,18130000.0,141355295.3457112,105964000.0,86919025.94975291,830000.0,3650776.3632760486,0.0,46843854.25034686,830000.0,54014011.73510603,-5787000.0,-2842250.4734595744,6617000.0,10672036.20354863,-5787000.0,-218124.9971229487
321,18,1,68675000.0,88856688.23525648,40331082.646745786,33299587.718882147,53645000.0,52430170.90746084,10938000.0,20249744.823088147,6604000.0,8610736.345685445,17542000.0,16360481.128507921,880000.0,9860270.990442067,10058000.0,25725803.82835451,880000.0,6464885.382108936
1482,1044,0,1833700000.0,2125347257.8178484,811331929.4597701,1264602248.5896335,482900000.0,538836538.9869144,110200000.0,113232465.3019809,356000000.0,386477713.4514281,466200000.0,482941031.2198089,45700000.0,75556071.88707411,55600000.0,101467434.77120931,54600000.0,69345137.40909116
508,1491,4,62515472.0,63638648.34950886,29595817.732691668,144493814.85259026,21861273.0,-2265174.5473907595,7032458.0,12274156.225007808,11256239.0,60642708.86557965,18288697.0,66859836.81341028,-1564350.0,1211106.5555536489,8596808.0,14536211.97873872,-1564350.0,1879621.855743061
1411,89,4,33859785.0,48130020.225361526,6178818.0,131360362.5652094,27680967.0,43532259.05468987,-63384.0,1711600.8683740355,87873.0,47458370.6456422,24489.0,53457509.17736084,-2675666.0,375172.681985047,2612282.0,6503836.105018509,-2675666.0,2083068.11652654
718,784,4,770792000.0,820788560.8376396,581187000.0,577697408.6100761,188503000.0,75690755.45240961,456709000.0,485253831.19613004,0.0,51763936.61231388,456709000.0,492269512.0267076,-29756000.0,-13976586.119103108,486465000.0,446674028.58725476,-29756000.0,-19565603.337158106
1865,1595,1,4753100000.0,4671999665.793937,2691038000.0,2884279972.069175,2062062000.0,2240671071.130917,383135000.0,376971255.14598495,0.0,-23201869.09678467,383135000.0,355115649.6275871,126771000.0,97778332.89462629,256364000.0,323751906.3505063,126771000.0,81520394.88027686
710,229,4,9330700000.0,9955649433.52201,4987700000.0,4062513137.6892815,4343000000.0,3881832606.8040667,590200000.0,559858322.2421353,367100000.0,234565108.72229254,444000000.0,567014286.1739571,121300000.0,74819488.03560054,468900000.0,513985479.0857142,121300000.0,118800456.39193164
285,865,4,1797231000.0,1693692017.5518334,1568932000.0,1685475660.4279006,228299000.0,-374258006.6209487,143030000.0,146134806.71252927,0.0,74895293.27259864,143030000.0,177583454.064598,-113543000.0,-96373288.47509553,256573000.0,280099680.5640519,-113543000.0,-102288816.47762623
1609,549,4,90048000.0,1952912888.802482,45436321.63528667,1896634790.2255204,37547000.0,201441659.39628866,2482000.0,3327770.082296378,9262000.0,53857140.28992678,11744000.0,59235052.177564174,1360000.0,651364.2936368864,2815000.0,4308074.328390601,-333000.0,-1220812.0161683694
1814,521,2,190817000.0,176405375.15345258,91955000.0,61897215.85275538,118567925.39840196,160012867.7375661,16838000.0,14983728.519575737,21962000.0,57643379.1247353,38800000.0,56625933.37372306,3292000.0,3336710.1866872795,13546000.0,9643581.245583575,3292000.0,3926085.282663077
720,482,1,24930824.0,65176984.75123747,6278564.0,239884180.06567106,18652260.0,-58691851.73157515,7866761.0,12752089.563766446,20382092.0,34641844.056972414,28248853.0,26391466.90596848,1448213.0,9893826.063232416,6418548.0,16237688.92027893,1448213.0,6464885.382108936
1707,1123,1,6071000000.0,5658229333.040427,14261000000.0,10372579339.481567,-8190000000.0,-2919426778.256235,1287000000.0,1309557158.1125486,421000000.0,190794729.58084214,1708000000.0,1568100981.8434324,613000000.0,439591080.58404386,1095000000.0,905477573.6958318,192000000.0,216519636.58048376
485,633,0,5768300000.0,6317055759.058361,3017800000.0,3278058759.0920014,2739100000.0,2648771883.581718,487400000.0,546619221.2019157,888400000.0,817178368.8515805,1375800000.0,1369927104.9751375,276300000.0,193850637.97283316,211100000.0,229492173.64632,276300000.0,259569564.0388173
1364,815,3,3486179000.0,3391910069.8303657,1927467000.0,2099126111.2128,1501742000.0,1713342370.1125512,315111000.0,329387024.27855253,669472000.0,674406021.3422611,949217000.0,908542760.3553653,-24190000.0,103350109.96743031,194277000.0,207171033.68623242,120834000.0,106817491.06569144
1943,1072,2,496042000.0,500744166.308751,349488000.0,344962662.88782257,146554000.0,196732637.41467437,33924000.0,41116653.73181335,212763000.0,260768527.19273758,246687000.0,289238893.85631764,12448000.0,8948575.326425735,21476000.0,24392662.63768293,12448000.0,15434445.580141777
708,1318,1,1713800000.0,1858659200.5194068,864747334.9608463,919163424.5801787,585500000.0,676680098.8653147,141400000.0,119167804.92552954,205900000.0,181486228.1796147,347300000.0,320624345.7271871,100200000.0,82112502.10419098,64600000.0,73510755.9665145,76800000.0,52759358.116919935
1795,1600,4,5817000.0,33006491.390385184,1413000.0,132332767.27988358,5436000.0,-1986532.1666887198,5000.0,1288095.249640288,0.0,46843854.25034686,5000.0,53341373.08749668,-3525000.0,951263.2908709289,3530000.0,6192631.702185527,-3525000.0,1534951.1344169045
1196,706,2,4180537.0,44925403.06959428,13379601.0,12725611.732517654,-9199064.0,21216955.37582117,1107842.0,4293264.721240066,974711.0,42816293.067801304,2069845.0,23688628.87534816,-2577294.0,-3604662.2030699695,3685136.0,20002145.088489715,-2577294.0,-3525188.1450964254
1785,1398,2,6656000000.0,12446113789.893665,2127000000.0,3498113900.51487,4529000000.0,4250372186.157722,386000000.0,305864873.38544774,110000000.0,50924403.47172353,496000000.0,597619473.5889509,-53000000.0,18140521.522953153,439000000.0,2167870967.0948353,-53000000.0,-284677168.67310977
1117,883,1,191593000.0,180981928.62145016,250675000.0,278270283.407967,89973054.63642293,119973475.59364544,28173000.0,37640760.56249364,35245000.0,37193428.1379639,63418000.0,62740765.34727463,-6852000.0,-2109143.765845986,35025000.0,49625979.040594935,-6852000.0,-169538.7308588362
611,1106,3,69753000.0,569369564.4430497,24624000.0,462352839.4274647,45129000.0,349202032.9681692,4333000.0,51561459.57482343,3937000.0,37222204.76287499,8270000.0,62043226.96260302,-17948000.0,-20231433.28801014,22281000.0,43558201.94139448,-17948000.0,-23367697.001558363
1037,853,0,12798100000.0,12430483010.359148,7698700000.0,8122349265.850685,5099400000.0,6101017244.511766,578600000.0,542353108.8583485,1141600000.0,1120615179.9931574,1720200000.0,1759204115.2756433,210200000.0,27597833.920281436,368400000.0,359407781.87708956,210200000.0,148908529.01827106
1049,1153,1,41718000.0,80173517.5392775,16883000.0,95879226.48088558,24835000.0,-39408342.69545586,4472000.0,9852887.444327252,-7000.0,29590918.904526617,4465000.0,6603835.285530595,467000.0,9455609.296335265,4005000.0,17297041.18078742,467000.0,6598198.671900136
181,100,3,2175066000.0,2493264276.032004,720018000.0,992872707.7492753,1455048000.0,1306627514.2177265,262895000.0,252549246.41786346,0.0,39668896.749283135,262895000.0,306047696.7973601,-74357000.0,-28319370.033542573,337252000.0,293257511.2208501,-74357000.0,-22248258.77864836
1530,839,4,432444000.0,442489099.56861514,58115000.0,210351712.6096538,374329000.0,374489608.49081725,30953000.0,32081347.128865,9019000.0,52846494.98389782,39972000.0,95008306.62823436,-4508000.0,-5050162.054928367,35461000.0,40350287.01961088,-4508000.0,-1926561.2656929635
1172,936,3,1951144000.0,2845006038.191273,976648000.0,1434251116.0316777,828149000.0,1124166347.1680644,81471000.0,73742445.42978962,811299000.0,847942256.8846122,892770000.0,875138704.9451321,21174000.0,-57932183.630748495,35340000.0,56286526.17367795,46131000.0,22054127.833206534
1844,1278,1,5184000.0,-115080953.26550217,33317000.0,-166077081.14069486,2568262.933576247,-95088815.24204566,28000.0,9309516.718620073,1138000.0,2063932.6746705396,1166000.0,511050.6554667128,-1174000.0,8245086.097661506,1202000.0,18188748.976929907,-1174000.0,5678049.961983303
937,1185,4,30042800000.0,31772217155.1644,15158963259.867964,14759835660.277147,10331300000.0,10956263684.013586,1541600000.0,1331335891.1000562,2284300000.0,2238137682.01583,3825900000.0,3558206619.571204,727800000.0,815933161.3924584,402100000.0,333369104.2369582,1139500000.0,1167817961.994041
1319,477,1,3143366000.0,3491835106.995609,724791000.0,802725271.8714685,1686216654.8151803,1611066178.6995203,293240000.0,183755126.26995587,0.0,19058181.440043315,293240000.0,210334984.2182212,242794000.0,108521176.55553608,50446000.0,66192442.53906591,242794000.0,106948769.00956258
785,340,3,2558318838.0,2994154211.1069937,289865031.0,777990937.6612722,2268453807.0,2755099643.2352176,191440633.0,211595613.70069572,384407857.0,359024957.0585647,575848490.0,600924182.5654846,122416529.0,98518811.69514172,69024104.0,87744744.83685707,122416529.0,113035710.57211794
534,421,2,355784000.0,379866911.4159276,359982000.0,271394450.4173519,21035000.0,64976214.52788316,21274000.0,19319897.222889304,23247000.0,59808468.60850627,43857000.0,59560727.175034694,-2501000.0,-24381501.51082126,23775000.0,21818785.682855897,-2501000.0,-24667669.262517992
1073,1259,0,107571000000.0,139359678345.08688,49865975585.04998,76099164439.4331,57705024414.95002,50960712826.696365,4680000000.0,4532837881.972078,16059000000.0,16557463888.672855,20739000000.0,21215080547.309963,2233000000.0,1713317587.6637108,234000000.0,2557195684.14496,4446000000.0,2089539908.2473032
871,1087,2,357016000.0,419550156.12993485,134021000.0,109777103.24977832,222995000.0,256603686.45589286,10859000.0,9319156.788143348,60424000.0,90199876.39781736,71283000.0,80499148.46764116,4410000.0,4088342.024865302,6449000.0,-24881284.906241875,4410000.0,22250094.432564847
145,1542,3,10492900000.0,10738873361.790462,4642648635.342979,4588180204.45816,7724300000.0,7025006555.1259,1077000000.0,1148936989.9562726,2546000000.0,3129253995.9716353,3623000000.0,4005635942.8710823,389500000.0,453550069.5198201,626900000.0,640839648.2697139,450100000.0,657591769.256079
1137,1552,3,221167000.0,527737461.8442855,272405000.0,656622613.5892351,-51238000.0,-117637951.59473446,26384000.0,71709071.19818382,0.0,34305320.0777138,26384000.0,81893521.25310819,3123000.0,274812.34174983756,23261000.0,53960328.29437101,3123000.0,-2921179.3952860488
1853,807,1,644700000.0,1436150643.9395123,668700000.0,1026832702.2705079,-24000000.0,-284106158.6956778,11300000.0,33127046.456936117,30400000.0,172091562.70525393,40500000.0,57269061.07387963,-2900000.0,20569897.72395381,9300000.0,26239659.69618405,2000000.0,27030585.821305357
1607,1167,2,5733000000.0,4078780149.685324,4386600000.0,3864879723.5594954,1332700000.0,1507456798.3269997,508800000.0,539244827.9356626,1740100000.0,1661433989.2956617,2248900000.0,2167571506.029199,201100000.0,238754488.5051444,328200000.0,304466302.0390487,180600000.0,239521801.61958668
497,722,1,3187469000.0,3097970001.486833,1581882073.387936,2252158188.538949,1402929000.0,1590700649.580464,12023000.0,17616110.55380726,118303000.0,236393177.88403478,130326000.0,122945682.95919235,121116000.0,85883353.58444762,236940000.0,260338591.82447302,-224917000.0,-259050058.2770153
1789,567,1,160962000.0,-7631660.7866336815,136871000.0,-86832245.33749416,14091000.0,12582591.023395928,33234000.0,33900547.1801408,28516000.0,40891214.34337326,61750000.0,56895284.19577403,-4105000.0,-7728996.434585811,29699000.0,45718399.49162761,3535000.0,5749842.9992338745
1733,185,3,1070082000.0,1213191272.4187484,790095000.0,976417182.8900422,279987000.0,243515067.5091703,59499000.0,102305232.86875789,92514000.0,114113355.69328693,152013000.0,195136904.7333704,-6147000.0,390911.8185572042,65646000.0,85634191.1058972,-6147000.0,-4770925.0229061805
1735,511,2,55335000.0,76707714.3057946,11648000.0,61029504.32305424,43687000.0,67302769.00641362,13874000.0,25195686.873072673,0.0,47950473.70370893,13874000.0,30485363.595935605,364000.0,-4808883.415368233,13510000.0,15554832.428190706,364000.0,-6007807.878800794
1273,1200,4,8855100000.0,7600366796.95662,4468096700.788768,3413735127.1367226,3543300000.0,2621184924.8470535,468100000.0,368355207.41809595,2041800000.0,1942591237.6757066,2509900000.0,2269437761.106156,256500000.0,171347543.4713221,211600000.0,260640559.91212013,256500000.0,141919428.31479722
226,37,1,1045317000.0,942368931.6103437,491551000.0,473035980.00189465,553766000.0,581143611.6026789,49476000.0,50114342.76790211,27012000.0,29342774.15556818,76488000.0,72492630.03976141,5569000.0,10019536.174056644,43907000.0,68161086.53694656,5569000.0,4886512.021324147
856,763,0,3335011000.0,3502610210.279954,1532336000.0,1900084641.746722,1376443773.6613572,1267048830.9204655,158805000.0,162655332.54679623,458734000.0,513714878.7817543,617539000.0,670408722.1288093,82276000.0,83849779.4599334,26748000.0,66159960.091396,132057000.0,160717261.6209199
610,53,0,50788000000.0,34419588338.69622,23543456582.29001,19502627118.380238,11845000000.0,1660583851.4456272,1286000000.0,1513782781.4312506,484000000.0,190457151.07918665,1770000000.0,1789598265.3846056,994000000.0,644556362.23575,146000000.0,206899070.24626258,1140000000.0,108538299.04089788
434,1061,3,9209798000.0,8706843190.107996,3242862000.0,2968107089.7296,3654836000.0,3444677404.1161523,758604000.0,674754879.4742008,-63000.0,-15080693.024039712,758541000.0,644687617.3010182,306700000.0,189775363.14503235,451904000.0,422684142.1959316,306700000.0,198829727.85321912
1765,1156,3,3861516000.0,1662982485.488358,3060094000.0,1847874885.901532,801422000.0,-583884814.3989074,246503000.0,341031375.08823746,543454000.0,500894117.4457417,789957000.0,887633181.9345918,-286586000.0,-100696437.27123989,130761000.0,186055131.34504205,115742000.0,53848942.93305397
667,494,4,3117800000.0,3612793175.862782,2444800000.0,2502988463.400176,673000000.0,1238436161.314662,86700000.0,155652858.67918146,411500000.0,532725959.6592846,498200000.0,637585693.661744,-419900000.0,41201260.91966297,63400000.0,75026445.90359086,23300000.0,87771925.53097704
1194,1101,3,84073.0,582597711.9747877,2814055.0,476258707.70957124,-2729982.0,51116389.95039684,0.0,49559454.91302475,0.0,33830046.42050895,0.0,53882436.012486674,-647078.0,1137958.4716022199,647078.0,26847512.97108152,-647078.0,-502362.7311385346
626,1166,3,250689000.0,649642668.9686706,83024000.0,493805954.17120856,167665000.0,141273270.35873792,0.0,52809859.23371271,33193000.0,59806795.24617364,33193000.0,81558467.92007536,-43672000.0,-36114168.60018095,43672000.0,61995072.928219005,-43672000.0,-43219553.18036831
1654,1147,2,2267553000.0,2478110945.915905,1375272000.0,1450132993.6287134,519294000.0,587721792.2966952,30179000.0,99126724.17581037,36686000.0,104415246.77179265,66865000.0,143840256.8365523,-15417000.0,95744511.2661771,38864000.0,32902998.19408213,-8685000.0,84442462.22793852
288,49,4,2221575000.0,2094121805.9418929,1034139000.0,1150924263.5959506,1187436000.0,1109764106.2101538,131964000.0,126201819.19928238,106311000.0,160804623.2630716,188755000.0,225184372.90996784,3712000.0,11189521.45517024,128252000.0,138018577.64525843,3712000.0,11248046.2651449
1665,1302,2,555271000.0,509681394.7930463,273881000.0,379116984.2429642,281390000.0,408339452.0485811,77610000.0,8194864.116571583,73228000.0,69180660.3882815,150838000.0,180648554.19063556,6400000.0,-618630.5393378297,144438000.0,131403544.08602618,-66828000.0,-47961601.60650592
652,1419,1,1810200000.0,2764611128.189355,1334200000.0,1447491888.2742438,472000000.0,-805866369.496272,111400000.0,-13133117.115720462,439000000.0,656437701.5707655,550400000.0,488733167.75319624,53300000.0,16411542.647779949,43800000.0,55088404.38183265,67600000.0,-327782134.6774099
1078,133,0,339972000.0,592731377.1511652,145992000.0,526737549.07957906,193980000.0,181585819.96097916,800000.0,4646904.675999994,85000.0,113158598.88381602,885000.0,49107998.49613802,-35502000.0,4743786.199652005,45899000.0,97054507.82441342,-45099000.0,-30432269.277101286
778,612,1,992330000.0,979955127.9587419,401273000.0,191492993.01353937,544681000.0,754224857.8446438,417282000.0,405310078.6386656,0.0,3414655.8868394317,417282000.0,379568259.97294563,5536000.0,25432079.94970417,411746000.0,395009326.9554714,5536000.0,23703849.131621763
29,1181,3,600271000.0,976677210.9684466,137438000.0,572985346.0098187,462833000.0,469674619.25937593,73869000.0,111744134.9834047,24421000.0,50434445.941107884,98290000.0,147966916.33929884,-8089000.0,-5031002.627287003,81958000.0,97930862.04093227,-8089000.0,-3533013.417582484
854,1207,2,47193000.0,48302026.372504964,31000000.0,33346110.825255573,16193000.0,49492200.17307554,4954000.0,3954109.253540298,3898000.0,43811231.43968669,8852000.0,26454393.544891,-615000.0,-1508108.7768790468,5569000.0,6324068.934231834,-615000.0,-452154.6316814215
1423,816,2,150549000.0,129425994.12850378,163792000.0,170988597.83551872,16674000.0,22705405.666276373,28323000.0,17536440.744087763,6429000.0,50597445.87248842,34752000.0,45011042.6398201,-13758000.0,-45960600.57539707,21733000.0,30210185.129295148,6590000.0,-15250467.263435243
1406,969,0,62996000.0,456098855.58872706,12638000.0,410367349.3000899,50358000.0,51704567.24947737,9919000.0,10851011.833092049,5920000.0,111566158.88619885,13543000.0,48761756.68485233,1979000.0,30346012.39670364,7940000.0,52828160.852779955,1979000.0,2143123.3300824547
1624,531,2,56415000000.0,70833602773.30519,26707757359.48695,37604610074.02699,20622000000.0,19326801199.66741,4258000000.0,4619530004.071542,2744000000.0,948383704.4681487,7002000000.0,6774574376.3060665,471000000.0,694581504.080786,1302000000.0,1455688931.994374,2956000000.0,2553106220.9304743
926,830,3,572995000.0,1043875520.3188404,271264937.13018215,818477843.6867058,210105000.0,-1763931486.7789955,-46109000.0,183482840.9920458,111142000.0,131864725.43489341,65033000.0,264471884.20957318,53448000.0,50935419.72688439,184993000.0,178089886.53374964,-231102000.0,-85397897.50502506
1324,95,3,11156646.0,306291168.01100546,14063458.0,417933765.4101118,-2906812.0,139209608.71008095,-483256.0,49559454.91302475,692752.0,33688486.53366871,209496.0,54541927.66818127,-2378023.0,-204191.70283367444,1407493.0,26903494.718892615,-1890749.0,85467.89949865438
809,1354,0,746651000.0,1251258106.80411,563281000.0,917009316.802273,350347808.70326334,406457699.60776323,20268000.0,28369978.729208022,132273000.0,269237428.6019605,152541000.0,225465136.49459535,1482000.0,30838499.56942684,18377000.0,66583307.60565272,1891000.0,374935.7312643785
492,430,3,203605000.0,578912938.3923135,164863000.0,573541774.0439972,38742000.0,117972494.9663555,38308000.0,77643298.6457874,13284000.0,33899200.72786597,51592000.0,95235957.66999647,8585000.0,6619644.440575296,22801000.0,46600037.513842165,15507000.0,16529163.750172691
383,866,3,35610551.0,542705297.7848155,44852933.0,688602872.9087139,-9242382.0,755153431.4866012,3037874.0,50809053.2727957,5691278.0,37400571.30356012,8729152.0,60252218.67007004,-7028283.0,-2248778.102788592,15757435.0,41164766.824678466,-12719561.0,-10750201.744277773
1250,881,3,4596600000.0,8957503146.322836,2319347415.031524,2025969749.2227209,3466600000.0,5602642304.273554,2555100000.0,1410708759.019629,3033000000.0,2465531165.8533463,5588100000.0,3798814410.724816,1174900000.0,692982748.7645434,1380200000.0,712615154.7566267,1174900000.0,725599046.5211082
229,593,0,3802385000.0,4222543129.48394,2636965000.0,3000821490.653311,1165420000.0,1235932134.8211594,157645000.0,133272339.58014059,488142000.0,497376741.52993387,645787000.0,636147553.929902,66824000.0,72763969.35509916,83253000.0,116015629.3829309,74392000.0,64422296.19810597
1531,255,3,12852000.0,397937300.8248543,5815000.0,429544218.1216064,7037000.0,18583489.8423268,1838000.0,50514978.0584506,1427000.0,34035204.10244213,400000.0,55190270.88269336,-1116000.0,2361813.0419859416,2954000.0,27647993.360997517,-1116000.0,-396401.1483462412
1035,339,4,11747000000.0,13552537322.038595,7158000000.0,10412189648.482065,4503000000.0,5432212598.125305,770000000.0,572450527.1931494,1424000000.0,1418378912.3205054,2194000000.0,2295600047.9615493,154000000.0,336425987.30515754,2040000000.0,1814463430.1209447,-1270000000.0,-1853260289.0519898
1774,956,3,7236206.0,395881362.1597143,4913744.0,429544218.1216064,2190428.0,1385672.5509526285,634746.0,49768374.64204887,2326079.0,34920226.83643022,2960825.0,55071300.12503005,-234151.0,3020963.100313266,886442.0,27091887.915570926,-251696.0,1093363.8839297094
868,535,3,6411000000.0,6751823750.819726,3370100000.0,3735228318.946431,3176144611.7201624,3445844416.32118,371800000.0,391893068.8560838,637000000.0,686510592.7228142,1008800000.0,1073006519.2167727,180100000.0,156465970.25443718,166200000.0,185463082.1623966,205600000.0,222749543.35616875
1391,704,4,345836000.0,445447205.65496933,48837000.0,179990823.43978637,296999000.0,1540842052.9573505,3870000.0,5475049.097401035,113328000.0,135572190.47808263,116752000.0,131644704.06255387,297000.0,-12117.476551161642,3573000.0,7257759.26436458,297000.0,2732646.1489175134
1734,1505,0,20108000.0,440931277.987489,9068000.0,410293110.8593768,11040000.0,6310397.763851177,3847000.0,1840778.6335144863,661000.0,108085071.98336092,4508000.0,40356240.27595045,-4126000.0,27705776.172481053,7973000.0,51795687.94476475,-4126000.0,-2242014.559335517
1416,203,0,1564856000.0,1602668321.5149264,1122858000.0,1328541005.9188027,416354000.0,469421598.132671,276207000.0,297000929.8874184,-11227000.0,201396475.37702963,264980000.0,248726480.28976074,5657000.0,42287147.34760928,270550000.0,278771039.5364105,5657000.0,-59877857.420373015
352,651,2,1125373000.0,2275956605.327031,521681703.6382896,673554176.5748835,29987000.0,174962745.17943197,142411000.0,47916669.74493504,-42080000.0,-162872538.59702474,100331000.0,187878703.59723228,17283000.0,33844986.1933099,125128000.0,166498802.87951392,17283000.0,73792648.7366494
135,788,0,630871000.0,961467260.9938695,398464000.0,705604753.472511,232407000.0,171443974.84516785,80823000.0,51204801.7784284,413091000.0,-21946876.85668257,493914000.0,285192758.736045,-14453000.0,35026359.342546284,95276000.0,122691182.69739676,-14453000.0,-229346181.9700197
1338,248,0,123668000.0,529245592.629408,40963000.0,444846078.3517885,50285000.0,36035704.00010122,29188000.0,30645501.322940115,11108000.0,118601157.6538234,40296000.0,81363305.9404958,-25553000.0,20584958.49819444,35508000.0,70613371.09529209,-6320000.0,-18614269.061013613
1076,1427,3,34865437.0,358962552.57250655,19085704.0,598839990.837714,15779733.0,513786995.59997106,0.0,50225854.066567004,1198.0,47626530.601980515,1198.0,76196043.24737868,-6520186.0,-1578760.5893863677,6520186.0,29786711.38662543,-6520186.0,-3038666.947766469
1426,322,1,1275550000.0,705234700.1184192,1504271000.0,1012446212.6963725,-228721000.0,-1474416465.1753347,-35238000.0,19509200.70023416,59168000.0,-113954114.3268673,23930000.0,29323683.748435304,6621000.0,-7571569.576210146,102745000.0,149771274.27158767,-137983000.0,-66293558.86380186
2023,1459,1,151712000.0,174012913.83681792,195428000.0,186935263.53719598,28605000.0,38464271.47135082,11588000.0,12598734.281440822,43977000.0,28911542.285316527,55565000.0,32466229.878212694,-8864000.0,-690159.4889819635,20452000.0,32015584.556753762,-8864000.0,-2520865.3880716143
1219,392,1,1812825000.0,1643665659.771013,1134969000.0,1079541683.3921447,677856000.0,590502343.6538826,53184000.0,69536586.15059175,120142000.0,130672908.18775481,173326000.0,191306012.69082174,31929000.0,28513835.40335546,16945000.0,37911860.60666716,36239000.0,42185549.74669119
201,1176,3,-1450776000.0,-16333280503.264366,-894261000.0,-8230491096.407325,-556515000.0,-10389697046.213984,162740000.0,210896353.81639355,213058000.0,257465560.09132138,375798000.0,452111762.4655878,-31210000.0,-36385943.06818998,193950000.0,292546808.40647554,-31210000.0,-48038685.84535206
580,557,1,526507000.0,4324547677.725207,370554000.0,2592610859.122818,155953000.0,2258764156.3322973,66328000.0,80613446.2046554,107226000.0,115237061.61384277,173554000.0,186747629.40387473,-7923000.0,1321056.178138458,69543000.0,79946821.54074971,-3215000.0,11070470.006033104
268,347,1,3089123000.0,5467985777.085231,1300561000.0,2777788866.3487406,1788562000.0,1855196928.5995333,286131000.0,328694672.91112524,850247000.0,1286825458.1000962,1136378000.0,1430927536.1080618,205227000.0,166925300.9491658,1010678000.0,1409682803.3683481,-724547000.0,-525424671.2328793
484,186,2,2026392000.0,3201758402.3669457,773709000.0,639023549.8584324,1259138837.126244,3083455592.549838,36270000.0,-54226854.39182727,906000.0,64979995.98366121,37176000.0,123843390.51536076,-286393000.0,-405996778.2060209,341823000.0,1128971830.9201443,-305553000.0,-623651795.0609959
1169,1441,4,59798486.0,82196148.76717499,24561228.0,135818376.42419603,24680354.49630476,192847872.10342962,-143441.0,798378.5123857084,231837.0,46906985.25378335,88396.0,53110327.56481025,-6239976.0,-1182402.0887574223,6096535.0,8330564.961518674,-6239976.0,-1630212.133494095
595,928,1,269960000.0,901970426.7816125,370356000.0,417874801.7655574,-100396000.0,140419686.98051438,29296000.0,23744068.724970035,911000.0,-36404238.80026773,30207000.0,27049725.088089947,-31260000.0,-17145349.865806803,67269000.0,119933690.3991702,-37973000.0,-26257535.13480762
1664,124,4,1411497000.0,1428641887.2963514,713457000.0,761219431.7304498,667698000.0,646375119.4133464,123110000.0,114562033.00893435,21917000.0,64904968.58882359,145027000.0,193231063.66704473,16171000.0,16685544.452567033,124278000.0,130359215.95887458,-1168000.0,3508502.3388651526
1737,66,2,1068388000.0,2455476189.191827,793168000.0,1072597093.0135324,275220000.0,1148713844.184576,1125000.0,24392982.332394436,126961000.0,111347186.78345343,114574000.0,113244024.75256683,-123332000.0,-61411419.70101425,124457000.0,85288328.0345997,-123332000.0,-69300579.5543225
1105,365,3,736494000.0,1076222277.5745287,390655000.0,743190733.7093484,345839000.0,318024496.7607988,107458000.0,142018417.56185278,77264000.0,104351642.61252573,184722000.0,220645420.58002937,-21496000.0,-16304474.29663568,128954000.0,146938540.82628596,-21496000.0,-34838384.365860164
366,1577,3,1026034000.0,1300795266.4034638,544592518.5648394,896694562.7737136,829659000.0,801973116.5386956,179923000.0,218325105.08023152,-1664000.0,38047548.62769171,178259000.0,223660893.12579125,43073000.0,38362404.299590975,136850000.0,159753447.06966072,43073000.0,32420343.52870689
847,1228,1,2995900000.0,3061871947.5110645,1720300000.0,1776649244.6506197,1275600000.0,1516964266.718719,234800000.0,254745251.59393212,244100000.0,183111665.85980403,478900000.0,525067761.0919219,25200000.0,46153591.52333246,209600000.0,226502141.69775927,25200000.0,38902539.07859232
1604,1550,0,700529000.0,1092639763.0261106,363632000.0,728727796.4997282,335762000.0,359443484.146183,46249000.0,41163959.528044395,72678000.0,169286618.86592504,118927000.0,142866884.38500577,-13197000.0,15727963.420633128,59446000.0,102939232.11465478,-13197000.0,-35578784.738642804
579,836,2,5913288000.0,11220578788.913527,5639252000.0,7741945537.162508,274036000.0,597957462.8380029,470311000.0,427137435.07559925,1040995000.0,933683534.0641758,1511306000.0,1501874032.408928,65962000.0,74042689.5139153,404349000.0,321706078.92614967,65962000.0,53731585.1578193
874,483,0,232365000.0,585156878.958298,164743000.0,534527607.3991098,67622000.0,11003394.35698691,43176000.0,-2870303.4726298465,202053000.0,86650931.90752101,245229000.0,160626236.77655876,9035000.0,31626230.305036224,31930000.0,65447535.59037246,11246000.0,315013808.15505636
193,587,1,24556000.0,-9955395.223319558,5997000.0,-228339630.89617434,18559000.0,-75283928.35325062,-561000.0,7696898.934505232,1648000.0,3227201.054580268,1087000.0,7625320.456903322,-8770000.0,7998738.22414401,3225000.0,19340556.182285365,-3786000.0,5610904.474013759
680,400,3,7852974.0,397937300.8248543,8726749.0,429544218.1216064,-873775.0,-3375399.0514208954,1562860.0,49823797.53052571,0.0,33688486.53366871,1562860.0,54757416.63076304,-1603437.0,2139450.98557482,3166297.0,27092988.57152014,-1603437.0,172952.45242041055
702,135,3,52606000.0,390699366.0588339,31088000.0,434989985.36317664,21518000.0,21485565.732268434,2202000.0,50657863.148098856,21569000.0,49277425.85783667,23771000.0,69184657.69693267,-1737000.0,381497.0815244757,2889000.0,28778204.66207025,-687000.0,-168653.33558498055
499,946,3,641605000.0,1051423461.909442,98505000.0,503504424.995564,543100000.0,522779794.85038584,35752000.0,93877787.96908003,3063000.0,36707909.624612264,38815000.0,98722553.86300239,-5995000.0,1446911.0826871586,24767000.0,54677222.79450284,10985000.0,25266109.63202699
277,1389,1,428119000.0,302008366.90295213,200385000.0,113850641.45925194,227734000.0,-184124711.25495902,32734000.0,52156906.26506749,3693000.0,1986530.82078182,36427000.0,33544708.16670866,-31432000.0,-44654309.83598765,67859000.0,114952874.20715533,-35125000.0,-33697511.060556054
1540,1192,2,1748597000.0,1746959546.6659658,773677579.6790999,793248947.6418713,871968000.0,840522316.6432679,88936000.0,93531189.84261832,314131000.0,331086116.8287515,403067000.0,383079291.9040676,36520000.0,36816257.60256395,38806000.0,38397918.988107175,50130000.0,47632459.47403376
40,25,4,-12646800000.0,-27535260161.281826,-10176700000.0,-13187343812.741554,-2456100000.0,-18365543652.375378,244400000.0,270098657.0441811,496400000.0,525186452.6934912,740800000.0,796641085.141033,16300000.0,328340413.5777773,228100000.0,512783523.3653742,16300000.0,-26372173.898077615
109,770,3,1646711000.0,1921666936.2887728,1388441000.0,1533581298.1677592,258270000.0,583294941.7343835,48094000.0,90563011.14508349,144654000.0,190993075.77299494,147710000.0,208624979.464408,-42502000.0,-99397391.44133855,79586000.0,126586302.5753717,-31492000.0,-32463674.4079926
111,120,3,632540000.0,1000558847.8292779,270366000.0,655704377.472942,362174000.0,282949463.99915314,197077000.0,197465798.95475033,14622000.0,43996656.78834592,211699000.0,213227995.13428077,-57776000.0,-27610134.873478472,97890000.0,109249772.30223602,99187000.0,36564820.61688732
662,1070,4,156269000.0,168740810.84452254,70363000.0,190290539.33161595,85906000.0,94380248.42846304,19503000.0,20856001.50764919,30881000.0,72457794.87929475,50384000.0,97861413.51615414,3657000.0,5268074.756150957,15846000.0,18552448.559565343,3657000.0,7077299.163346547
1749,1565,0,12875300000.0,11477540927.444237,6095371591.431398,6677432229.1436405,1810000000.0,525233265.67282575,1227700000.0,1344220402.588278,4400600000.0,3511163290.7707286,5628300000.0,6010120645.3968315,478400000.0,355054719.7001507,749300000.0,707816755.6622036,478400000.0,446379276.3408796
340,218,0,441781000.0,835988727.0219082,86587000.0,493206303.1276127,355194000.0,340452203.6356473,97393000.0,99642250.41999222,44971000.0,151602048.8699261,142364000.0,177272441.7202391,9954000.0,33070965.648067735,87439000.0,111530534.13534908,9954000.0,-5368123.417107335
811,645,3,1903960000.0,2965187130.279114,1118147333.3250542,1807932551.374646,464992000.0,1538565367.4583611,314173000.0,296389400.4492773,381360000.0,349785076.3526508,695533000.0,671123569.9564079,49703000.0,63591064.550160795,262823000.0,286187153.90362346,51350000.0,58595097.68711624
1016,1065,4,413017000.0,469421762.4119404,156380700.0672279,348001758.69432557,290614000.0,312574090.69983035,164000.0,3537278.1717524035,0.0,46843854.25034686,164000.0,54400270.97440327,-47612000.0,-40721139.10584426,47776000.0,55953425.56153778,-47612000.0,-40501542.85955263
1696,313,0,6459000000.0,7413709439.898311,3814000000.0,4136300949.52692,2645000000.0,2784930318.3083544,417000000.0,447815003.83153147,1137000000.0,1084466283.0101306,1554000000.0,1605136795.7509165,109000000.0,153814021.5571924,308000000.0,272396774.26598907,109000000.0,270189004.8676372
200,1570,0,6683800000.0,6902067957.932856,2530688381.1304083,2538460981.4560704,4153111618.869592,4172598389.7363167,363300000.0,400286705.8860627,268000000.0,356920698.1699284,631300000.0,660443607.7527634,83300000.0,111959426.58736672,257700000.0,293182781.1854469,105600000.0,122006896.44460401
1994,1519,1,165094000.0,143791990.9172482,70482000.0,52425000.32874006,94612000.0,107089208.38203721,17629000.0,24584495.66771347,13074000.0,11677951.780992655,30703000.0,27018225.733499732,1152000.0,10707542.833253646,16477000.0,35438597.3677926,1152000.0,6442999.6600239705
735,1256,3,8604673.0,395881362.1597143,2338502.0,429544218.1216064,6266171.0,-7396211.29002819,1119391.0,49823797.53052571,1576117.0,34017489.62114348,2695508.0,54757416.63076304,23726.0,3408543.754093923,1095665.0,26903494.718892615,23726.0,1273855.2480640062
1160,1073,1,30395557000.0,48397983256.37276,16133181687.752192,31028772777.893265,6297705000.0,5517908801.494408,3044686000.0,2323639703.1314464,6751495000.0,8646357115.919939,9796181000.0,13223005636.125818,692314000.0,629084022.3545157,2352372000.0,1588078227.9997575,692314000.0,885694060.8034266
2018,626,2,764077821.0,694465922.6826786,149164973.0,201684461.57581204,540969385.0,522744892.16301167,20737462.0,15311938.942106308,3810639.0,39748798.83341518,24548101.0,45559876.35970527,-1942729.0,-4805185.660435116,26490830.0,29568965.644064806,-5753368.0,-9935291.76278641
597,747,1,19932000000.0,17703780821.54038,15924000000.0,16525348491.659037,3938000000.0,3800276501.5406227,677000000.0,545919218.2046721,2894000000.0,2464534229.8425145,3571000000.0,4061646709.453335,325000000.0,381188784.3768499,132000000.0,158579265.6926876,545000000.0,439586120.08489007
1089,1172,2,114455000.0,125909451.47408177,66800000.0,59438720.51435955,47655000.0,81423448.34729238,-324000.0,280567.8396971547,692000.0,42223705.81567523,368000.0,22921999.642861664,-4444000.0,-2548803.9983902946,6127000.0,-4627654.405206977,-6451000.0,-5574509.503031921
1635,985,4,123009000000.0,16813198250.286222,61047097858.95223,29893208136.4713,24132000000.0,11756073416.54851,3661000000.0,4293860423.5495048,846000000.0,2251026014.232179,4507000000.0,6670073378.503714,401000000.0,1165843982.3154695,5487000000.0,6666129642.173766,-1826000000.0,-2617277518.919249
394,774,4,1472222000.0,1543437975.7429988,444895000.0,417691674.5844021,1027327000.0,977722799.250764,423804000.0,431600031.28036714,0.0,54705497.34992054,423804000.0,474452412.3759232,44683000.0,19649958.31657001,379121000.0,367009736.06119746,44683000.0,19138408.94532057
176,623,0,1707972000.0,1843447564.4066908,826699000.0,1100585936.8025692,881273000.0,904516172.858131,161237000.0,190733868.93903932,18721000.0,128726866.34100899,179958000.0,218225459.37933096,-38330000.0,55629931.308551,218288000.0,205599974.93542916,-57051000.0,1728055.940338913
958,54,4,140348000.0,172126723.72202733,22627000.0,148971574.9244376,117721000.0,115705213.78090918,18849000.0,17688421.974841055,19797000.0,62976517.84349515,38646000.0,87337760.47019051,5179000.0,-579379.8544185561,24028000.0,25840965.127530262,-5179000.0,-4380954.335308882
651,168,0,68862000000.0,125071432568.34729,37281000000.0,74508512644.77696,30258000000.0,34697409028.10813,682000000.0,701704079.3495635,1405000000.0,723413497.7038808,2087000000.0,3843538340.2305765,938000000.0,602922763.7491208,2969000000.0,3363843408.1424756,-2287000000.0,-4494622856.797857
648,804,4,484306000.0,495186118.3329974,160149000.0,308093169.7031193,324110000.0,300822009.4442822,35935000.0,38323614.599054314,49919000.0,88537335.152469,85854000.0,143288066.30560783,8224000.0,11393767.427367797,26558000.0,30844948.130158026,9377000.0,14613272.93360654
1124,1359,0,263629355.0,604468178.4665896,139827658.8984726,495564992.70760804,106790041.0,135358290.9921795,4718481.0,18128463.526036285,-3354938.0,131427706.19884887,1363543.0,44082651.00607457,2345966.0,31778960.921675343,2372515.0,49966651.10042472,2345966.0,33862671.9460579
1983,117,1,22654400000.0,25966317132.29446,10023579681.929111,12223631694.76606,12050300000.0,11238210397.10793,409600000.0,251681619.2505026,3138700000.0,3180798274.595552,3548300000.0,4277436410.9017687,145800000.0,464806016.97500306,119900000.0,74321211.87480727,289700000.0,-146009950.60006192
1330,92,1,55695000.0,91764216.59848657,80300000.0,1042297189.8552991,-24605000.0,641155745.5086743,-33328000.0,6468966.621892041,45694000.0,12103761.22717243,12366000.0,11591851.275983198,-48025000.0,-8082062.344335943,14697000.0,30855119.861706734,-48025000.0,-12121241.642678348
445,1035,4,33248145.0,164176301.46939325,21743057.0,137841902.11274567,11505088.0,14014612.261636319,1461398.0,-580906.7968728603,569502.0,59693543.21740585,2030900.0,75489529.3718583,-12979193.0,1281356.46765664,15010093.0,4759724.423045046,-13548695.0,2685181.2788249785
908,796,2,19900000000.0,26563340653.114132,10348000000.0,9308801506.160566,9552000000.0,13546226020.10871,2649000000.0,2761727102.8344393,0.0,-556864967.577081,2649000000.0,2702194738.680101,467000000.0,370664311.0332832,2182000000.0,1907073798.0400128,467000000.0,450674935.4470012
1585,1569,1,2485319000.0,2414691037.3779006,1254039550.5762374,747508432.7025409,1849463000.0,1737684929.5963876,775144000.0,619572689.0851372,0.0,49198012.98943194,775144000.0,625183342.9068897,128435000.0,97570148.88122222,646709000.0,586303148.3256875,128435000.0,99608259.58435224
643,514,4,959084000.0,911263427.6698437,491986000.0,522726829.1297366,395838334.6316486,374576118.75338525,56609000.0,74802441.95744799,47928000.0,86942326.87237082,104537000.0,153568282.3457876,-22287000.0,-16567908.084344063,141301000.0,128946024.1629694,-84692000.0,-78356262.54210006
1240,875,4,1657157000.0,804787346.2403665,2335507000.0,2663631131.6451015,-678350000.0,-5037327094.249935,-96698000.0,387061947.8200185,98929000.0,2636220.0675587305,2231000.0,404704179.77111053,-125632000.0,-253185071.15779975,312618000.0,668506733.0738697,-409316000.0,-242820336.9658458
64,162,1,1590600000.0,1824579688.0333323,748600000.0,848321320.1829259,842000000.0,965196530.3075153,59700000.0,80031571.52335827,141700000.0,151096207.18666372,201400000.0,215357793.02745292,13800000.0,26960632.505388714,37700000.0,56566673.36120251,22000000.0,36393385.11352118
1027,30,4,919607000.0,943546669.167314,266509000.0,384355582.99733675,653098000.0,634211698.3420447,68886000.0,63593066.157983154,19532000.0,63092612.28101289,84131000.0,132010631.31617504,-18050000.0,-14999149.947993385,86936000.0,74957235.87920366,-18050000.0,-9601177.6583577
1034,40,3,121754701.0,2289611941.9347105,28424394.0,1170322684.5091715,93330307.0,-568158863.3941286,1406469.0,43029411.94666676,-1378985.0,32818775.57034876,27484.0,56954576.097941615,-14928443.0,-212120813.6251944,16334912.0,200009153.88439643,-14928443.0,-114698083.78109545
802,915,4,12973000000.0,20479529490.832928,6013807636.489885,8617037817.25194,6537000000.0,11691532079.064306,82000000.0,596190356.5279238,545000000.0,546821487.6544963,627000000.0,674374392.0323341,7000000.0,216264547.53439847,46000000.0,49491226.20357548,36000000.0,252366988.2816085
981,1226,3,613608000.0,1542646559.3851783,391072000.0,767420131.1946788,222536000.0,223266361.88946223,1437000.0,62772360.02252403,10955000.0,41927384.57883188,12392000.0,57003688.77739541,-84729000.0,-37015547.813842006,40703000.0,48256336.513553336,-39266000.0,-33714150.07050689
1046,288,0,102303000.0,497800083.1085529,104192000.0,465626664.3030817,-1889000.0,27103734.824373163,12811000.0,12365595.22552136,42439000.0,144204370.95458713,55250000.0,79996670.55478154,700000.0,29363971.977010816,12111000.0,58735203.18819231,700000.0,-6025680.974623502
581,47,1,1023085000.0,2850017973.8598356,937155000.0,1144112294.6951997,85930000.0,-68767365.22379306,87759000.0,116159445.65369532,257840000.0,259505589.35393834,345599000.0,439534762.9580165,-36941000.0,-25071236.296978116,111965000.0,168522589.44861546,-24206000.0,2075177.279740055
1033,857,2,822101000.0,521596546.72349715,260505000.0,306292564.05821705,561596000.0,430322810.83379257,113425000.0,45928645.28059533,-8261000.0,-31967136.32362841,105164000.0,91515116.73156403,25956000.0,-39726266.358869836,87469000.0,118465370.72240016,25956000.0,-28833875.88713474
1908,1229,0,972779000.0,1402160032.4736345,674585000.0,1214739232.7479625,298194000.0,345969081.1172955,81122000.0,79156856.75711964,33069000.0,135053628.7192586,114191000.0,146359108.01283655,-12742000.0,23263343.13713843,93864000.0,119172153.68585691,-12742000.0,-1208642.1577312774
1486,192,1,505122000.0,682924462.8938059,329765000.0,151795015.34395266,175357000.0,171751211.91257113,66862000.0,60721439.6315584,-15726000.0,75934306.9814935,51136000.0,60835976.05143238,-8784000.0,14143207.023049334,75646000.0,70782437.53806539,-8784000.0,12874184.278968897
640,1052,2,420505000.0,423612149.71279466,230508000.0,212226660.24580988,189997000.0,208834391.06351203,53603000.0,51815518.847375974,71511000.0,110025706.83241001,125114000.0,136724940.2277009,16734000.0,12663367.89737347,36869000.0,41800718.02100446,16734000.0,14106526.1741228
1988,109,4,216274000000.0,125070804205.13196,73401000000.0,67683916711.95145,142873000000.0,27422956957.492577,27936000000.0,12235729522.181232,6210000000.0,8798454671.683857,34146000000.0,25955907690.656525,13748000000.0,2985058352.6363235,20398000000.0,7480192216.652558,7538000000.0,3225367750.2403255
469,957,2,122531000000.0,-44353989911.25608,74517000000.0,-11238536649.013887,57494689417.43809,-23461637057.417084,11370000000.0,9917079615.08037,10501000000.0,15514799907.16676,21871000000.0,27842101802.043686,5767000000.0,3781933654.301061,5604000000.0,6396503608.929424,5766000000.0,3165396957.467478
606,348,0,5723214000.0,5031188037.28339,2776207000.0,1927597614.0335495,2947007000.0,2787624143.229224,448941000.0,543111648.8017905,516900000.0,772161850.4361695,865197000.0,1067033497.423136,78214000.0,103628709.74729757,370727000.0,382006023.44343024,78214000.0,-123216249.51969823
1877,1199,0,689227000.0,870124440.6508738,562767000.0,813990635.263713,126460000.0,161350688.3694081,40662000.0,32327279.0562961,11086000.0,113358310.61992785,47740000.0,78412728.32162869,-28335000.0,30052593.149933003,68997000.0,79295758.96298338,-28335000.0,-409634.477830776
1148,882,2,600857000.0,519589033.8009167,331349000.0,344378399.38524115,269508000.0,274139569.04313016,50595000.0,35721396.38319647,6532000.0,48555966.61665444,57127000.0,64133820.56444561,-62120000.0,-35668333.74977882,83188000.0,60727493.866993606,-32593000.0,-40065429.82531129
1653,1255,4,56794000.0,-72660157.47106238,12682000.0,143816460.32405975,44112000.0,12033236.545623656,25087000.0,22988449.80799813,14791000.0,49639076.243252516,39878000.0,77916487.71792325,-4627000.0,-544730.9186536903,44505000.0,30648267.62633992,-19418000.0,-8873898.148799986
1205,855,3,3747000.0,707940387.1689986,4407000.0,440522840.3770166,-660000.0,123276209.66975981,-1515000.0,49006061.8709756,1515000.0,36469714.89249546,0.0,54008433.756934434,-2598000.0,1088399.4996940931,1083000.0,26903494.718892615,-2598000.0,-220641.97323458755
1612,1189,0,3505835000.0,3846268652.4706893,1860807256.214476,1750126186.7275038,1470074000.0,1676671751.8957837,601953000.0,782956289.5259575,626097000.0,758588123.4630828,1228050000.0,1570724905.1470141,88554000.0,82336050.22195995,475916000.0,625013151.2821504,126037000.0,75268251.53774661
1894,1003,1,203011000.0,11090848.494768757,255300000.0,140114971.20327654,-52289000.0,-106357454.75796083,8409000.0,14019815.476499306,25579000.0,33805471.82878101,33988000.0,37101255.95838718,-8212000.0,-4587426.946702087,15533000.0,33058477.82644605,-7124000.0,2288696.475167695
458,809,4,3126495000.0,3317000393.987079,2137404000.0,1871808394.2063751,989091000.0,1113739955.9792225,70679000.0,119260757.04465288,930828000.0,855666376.5361432,1001507000.0,926488540.8232732,21039000.0,24598084.781350333,49640000.0,75046824.14329842,21039000.0,55121602.605615266
782,397,1,36175654.0,46916333.744427636,19187381.496044576,16586896.885729376,18868678.0,26023669.577018145,22295962.0,21395574.040401984,2274626.0,3630717.413546767,24570588.0,15060802.789726725,-1191082.0,7559807.9496851,23487044.0,32945871.549661957,-1191082.0,4944900.709720466
21,379,4,3642433000.0,4707263726.566576,1611617055.0351417,5460580842.478533,2307595000.0,3217088806.091863,392263000.0,319466066.96306825,1442178000.0,1340227606.90551,1834441000.0,1844687099.4744916,185633000.0,200606846.9015118,1648808000.0,1732661279.3854048,-1256545000.0,-1862696327.5413117
323,157,1,102171000.0,93453227.82205252,80142000.0,67037508.78245406,22029000.0,42159838.25364624,11994000.0,19784281.59437977,1280000.0,2002142.897481786,12084000.0,11904256.693311255,-8453000.0,2672558.9334736997,20447000.0,36577973.10116911,-8453000.0,1461975.7922060653
1847,1509,1,11562769000.0,12262706437.87738,8634392000.0,6952633699.066116,2928377000.0,3883635003.309748,696915000.0,1361327385.7461042,4617768000.0,3959456385.471601,5314683000.0,3486979681.6251564,87484000.0,56672824.68391553,6096071000.0,7565522808.599892,-5399156000.0,-3299132221.357341
1304,551,2,1061958000.0,1585817701.1176622,603583000.0,910585669.8600774,275904000.0,433003024.7855019,75380000.0,53094521.83684333,85007000.0,135336999.66807067,160387000.0,143802894.9970975,19279000.0,9309986.801149217,56101000.0,66830577.83601457,19279000.0,-1884240.9315686196
1031,1104,0,1709464000.0,2013222516.4207776,792444897.6724385,1153670182.090442,917019102.3275616,926985920.3160694,-50089000.0,10031590.749409238,206500000.0,263658025.29942957,156411000.0,208011861.88655147,62554000.0,69217862.77121633,32611000.0,74716227.49632679,-82700000.0,31806887.745921362
1109,1568,2,1182200000.0,1090304151.0738041,559672263.5892134,561799397.2355433,993300000.0,929113621.7271959,77500000.0,80271893.77302074,102700000.0,139414471.18736762,175100000.0,175715643.73808587,21600000.0,-25312707.455177695,55900000.0,86634949.33782865,21600000.0,20841217.421067085
1483,767,1,15318000000.0,32000366928.61459,8995872209.433592,22463536375.615803,2835000000.0,19769328103.35897,2220000000.0,1870917422.1787505,7363000000.0,8381082716.022362,9583000000.0,13823185695.07962,348000000.0,360408943.98723114,1879000000.0,1428751023.1050305,341000000.0,599320055.9874423
739,273,0,2898416000.0,712281950.2270062,2080781000.0,512147775.88318706,476998000.0,-3778524.3255349523,19746000.0,23888462.75132908,-19746000.0,182964416.77908516,0.0,28581044.734898094,-16089000.0,24915698.64237236,35835000.0,68799323.34940244,-16089000.0,-19007407.30739657
1565,772,1,37777000.0,40638134.87094938,8088000.0,-790273.9393190697,29689000.0,58162444.2397224,1942000.0,10550638.28205025,1878000.0,2905584.5569313657,3820000.0,4536500.139779628,-3377000.0,3607309.1602967503,5319000.0,25282758.908592835,-3377000.0,-798294.896963865
1547,1485,0,350115000.0,621276601.4492928,124447000.0,461244271.6120153,144501356.0121529,169730871.67791063,23341000.0,38038236.569943726,74465000.0,197537552.8248304,97806000.0,187390579.8924928,1273000.0,32710651.453693442,21144000.0,75511345.6851784,2197000.0,6146375.436849406
1772,45,3,60756000.0,443723078.0984446,14120000.0,429544218.1216064,46636000.0,50485485.28299703,39398000.0,89266265.5322761,0.0,34122702.68520021,39398000.0,85910510.62114532,1277000.0,3562234.8878380777,38121000.0,67046685.58424025,1277000.0,1659453.904958636
396,51,2,2329417000.0,2198457928.7165184,1103945000.0,1009345363.2454671,1225472000.0,1128263751.7562838,201803000.0,207150696.3937461,84310000.0,157507761.75068566,286113000.0,299913116.1920378,4458000.0,-37567006.5155979,134794000.0,115417501.99757437,67009000.0,62047335.80607075
370,1084,0,322707000.0,745152589.6229029,203952000.0,590994476.8425142,133189378.04611006,162163019.43840048,59563000.0,65728222.546608776,32549000.0,143357177.15856272,92112000.0,136058853.62928897,2829000.0,32154563.639382064,56734000.0,99009354.48825559,2829000.0,4176442.090540838
1387,101,2,16986396.0,-165499618.55885386,28398941.0,-24758546.708823536,7976898.609990532,22690306.17281208,-2992.0,956734.8072555305,2987192.0,42784398.5047539,2984200.0,24400605.91238472,-2823081.0,-5785011.822832027,2820089.0,50159749.99080284,-2823081.0,-13036007.265570898
1633,1572,3,5507733.0,708624287.0745289,3754986.0,498920678.5791532,1752747.0,43550893.90225527,77969.0,49559454.91302475,690.0,33688486.53366871,78659.0,54541927.66818127,-1288944.0,2067610.5632333779,1288944.0,26847512.97108152,-1210975.0,139143.26541993007
1459,961,3,2951779000.0,7126853093.18207,1733504809.66769,2814054531.2255883,-705417000.0,3965945847.8263583,103159000.0,170200321.2356185,95357000.0,117848000.51739155,198516000.0,249612478.61490974,63542000.0,64627229.29828172,39617000.0,61766356.19463061,63542000.0,70172355.90363032
447,490,3,1389340000.0,1872886079.98583,870172000.0,1252302881.7040045,518687000.0,608045735.3551161,122910000.0,154195946.46133304,509918000.0,527879733.9584482,632828000.0,664183319.6841042,77637000.0,57150362.04680934,35836000.0,58420338.10867932,87074000.0,91005190.85759819
1342,874,0,670100000.0,1008934237.023471,96919000.0,507446877.31219006,573181000.0,594495938.4610763,45369000.0,48027002.8610373,10723000.0,114660401.51747169,56092000.0,92062060.45235865,-44376000.0,1952298.317478469,100468000.0,128803177.86753716,-55099000.0,-40715248.642583005
1101,1581,3,796235000.0,887256578.4508398,203741000.0,690817521.4342167,463390000.0,445027994.53408337,475000.0,49989194.59853921,0.0,33867819.18442541,475000.0,54990814.27725273,-25797000.0,-6185246.869597443,26272000.0,38083214.72181163,-25797000.0,-12809080.728077969
1559,473,0,243654000.0,658691079.9792138,108112000.0,518194407.5815762,135542000.0,98087701.11123148,37230000.0,35889495.09387755,3845000.0,106630828.76888327,4798000.0,32340492.550011102,-21869000.0,23473627.37868407,59099000.0,88615876.267039,-21869000.0,-14088193.515877357
1859,730,3,63057347.0,419783728.2183779,37031977.76980746,440864180.38848823,50373559.0,50523331.033970974,5114390.0,53263511.89274189,9540399.0,42536787.32733199,14654789.0,68486763.4217499,3126608.0,6249938.351278826,1987782.0,28161524.40141664,3126608.0,4116739.5433246563
625,1451,4,2120798000.0,2249279931.8831925,1472395000.0,1628003018.1493182,648403000.0,779507185.7368838,67913000.0,63031932.78061356,30767000.0,114418400.02867128,98680000.0,193558770.2793239,-9629000.0,7491649.840261416,77542000.0,79669480.82653746,-9629000.0,3245442.2386637772
1728,887,2,706517000.0,1161557826.645272,905805000.0,1009320803.7793621,-199288000.0,-124076693.20690882,73709000.0,60013942.66880564,16853000.0,54570221.37459408,90562000.0,114339092.30265541,38915000.0,39446030.18001709,34794000.0,41425601.07026758,38915000.0,26487041.050893996
1404,1236,3,76126346.0,470643593.8726201,61120101.0,520753516.1004324,15006245.0,152707701.39650154,2282652.0,50657863.148098856,31006950.0,47535028.866906576,33289602.0,70991520.43889725,-2890968.0,3484537.211595773,5173620.0,27286098.004092146,-2890968.0,865943.0138309533
1515,995,4,156303000.0,148058242.1767661,83901000.0,184342119.82110864,72402000.0,72553491.46322082,17689000.0,9408521.217613649,41469000.0,90017595.34542957,59158000.0,95560751.01461093,-2517000.0,-9001249.536871469,20206000.0,27265451.669623237,-2517000.0,-7154781.87325757
1800,1468,2,3271200000.0,-6134055347.042251,1447362713.447565,-1320576778.2039587,-21400000.0,-4071616960.0080647,31300000.0,-8005936.460225183,847700000.0,834418531.1311141,879000000.0,900521392.1649882,-16400000.0,-397215310.2366045,66600000.0,108380212.82649697,-35300000.0,-46804510.76774309
4,1221,3,7361000.0,397937300.8248543,2671000.0,429544218.1216064,4573903.262590003,834691.0891157279,349000.0,49646964.83617511,109000.0,33688486.53366871,458000.0,54541927.66818127,-670000.0,2618385.109780393,1019000.0,26903494.718892615,-670000.0,434725.711164966
1400,723,0,-4860602000.0,836774357.2331355,-990657000.0,-173766983.66362852,-3869945000.0,1783941724.9104652,193881000.0,203956178.80850938,378009000.0,401191645.92051893,571890000.0,562161246.8981676,36078000.0,51907120.42400862,124685000.0,154121193.81596625,69196000.0,68350390.71783182
617,843,0,5475000000.0,6186555389.545395,4861300000.0,5176983073.289834,613700000.0,800990276.7712797,130600000.0,153415192.53697953,1421300000.0,1156607257.7689276,1551900000.0,1591067561.4481466,23900000.0,17308160.344132483,81800000.0,127172035.2261356,48800000.0,60722853.71144927
570,1066,3,9643000.0,397937300.8248543,6164000.0,429544218.1216064,3479000.0,10268216.696036011,1843000.0,50113921.65415413,2246000.0,34891618.582324,4089000.0,55463092.974426635,-437000.0,3014953.6991340886,2240000.0,27544931.614385128,-397000.0,608936.809658393
2015,1416,4,12012800000.0,10964129482.73533,6608200000.0,5226850565.0252075,4911800000.0,4212987710.768081,457000000.0,532152009.68380934,316800000.0,301376426.7721407,773800000.0,762225612.2318696,145800000.0,205301877.58997574,203500000.0,186775765.08782372,253500000.0,319462295.52199626
576,1219,0,6644800000.0,7233931566.814203,3248100000.0,3654297962.481597,2786600000.0,2789114558.5634236,345800000.0,344551449.58391094,33000000.0,278267349.65082043,378800000.0,522237451.39537024,36000000.0,14311911.381686436,342800000.0,483238901.96567285,3000000.0,-162903222.3489787
1397,690,3,136174000.0,526169241.87516385,62163000.0,497225836.9235018,72304000.0,99940297.75553769,10072000.0,60516405.47024037,-3712000.0,42673315.39807807,6360000.0,65904664.66329933,-12604000.0,-11515963.650251118,22676000.0,47186937.715624556,-12604000.0,-10940211.612018695
1134,1554,1,160043000.0,202542889.81045765,101422000.0,110102373.29508947,58621000.0,97175738.02153827,15202000.0,16621056.145918459,-14386000.0,-4733520.426244167,816000.0,11154909.915697878,-14398000.0,-5986978.573974695,29600000.0,48005750.264423914,-14398000.0,-9350122.575788552
188,568,0,9282000.0,434590363.4400182,3493000.0,409208083.3216774,5789000.0,6111688.278676141,355000.0,1609530.28687452,552000.0,108703466.52627024,907000.0,40359730.83980886,-972000.0,30687259.875283305,1327000.0,49341289.69593256,-972000.0,3549671.941474967
488,1306,3,16124000000.0,15313453392.910118,13383000000.0,11414588370.01193,2741000000.0,4786085381.21414,5251000000.0,1606307947.3737726,4961000000.0,3437227166.145731,9233000000.0,5305864713.179582,1583000000.0,834040679.5322813,3668000000.0,1766797894.4189947,1583000000.0,419036133.0310352
1211,717,1,1601068000.0,1633306325.7663736,1081707000.0,1136811628.947202,519361000.0,627429876.1706562,248876000.0,244739754.84157082,-34521000.0,-82344931.06328557,214355000.0,235251004.5024162,19006000.0,34770743.3235241,229870000.0,249802346.73251128,19006000.0,35944321.2420785
1580,265,3,779622000.0,1072800983.1126529,153452000.0,610045297.4841716,626170000.0,543140595.7945865,134561000.0,160636204.5812169,57608000.0,94515423.58467993,192169000.0,226252831.0650474,56917000.0,48553927.36082241,77644000.0,98472206.49125047,56917000.0,50556616.19811424
1533,896,3,4162272000.0,4121093670.570632,862254000.0,1143083463.6368892,3299439000.0,2895489021.075561,357871000.0,349778078.96095014,794265000.0,819772602.4147396,1152136000.0,1115009106.4425893,114028000.0,120000770.77986796,194829000.0,214048900.98433942,163042000.0,134048084.89580114
818,1094,0,13900400000.0,13793389881.57837,12204100000.0,10155102199.451836,7319729781.089915,7667666705.041795,78200000.0,309040007.2819767,235100000.0,272145538.5477742,313300000.0,794639047.8617531,174900000.0,-6908114.769256091,116600000.0,116452654.70910314,-38400000.0,314625772.4793068
50,1165,4,594022000.0,633260310.652245,132343000.0,216740546.2111566,461679000.0,491773476.1400187,121956000.0,108920037.11260937,1645000.0,44336758.31935229,123601000.0,154987866.75465643,31177000.0,13790457.641203092,45262000.0,44481669.56012676,76694000.0,65966544.10585288
590,762,1,1341960000.0,1441242010.8138206,666970000.0,695649418.492461,674990000.0,643970190.302218,55930000.0,58309477.48770289,179410000.0,167728940.23740977,235340000.0,221244557.9936073,23760000.0,32727223.16550184,32290000.0,49614223.5200331,23640000.0,29756369.48977851
377,386,2,52901000.0,286089593.75712126,24522965.98920461,39135297.048171036,33404000.0,92611685.61252564,-1183000.0,-2112744.3583776653,24144000.0,55997517.97283622,22961000.0,36950366.17638952,-5692000.0,-8216909.080684964,28653000.0,67774395.06167644,-29836000.0,-144818981.84391218
1953,841,2,877565000.0,585987261.4486986,1336553000.0,1542152786.813393,-475192000.0,-384799125.32911986,522812000.0,704658535.1495229,-345617000.0,-197819827.59524128,177195000.0,214354783.91955099,31868000.0,29724645.890694015,490944000.0,539152589.6359433,31868000.0,50183614.77014885
1018,588,0,26568400000.0,27508868836.719353,13080400000.0,14927569521.594347,13246000000.0,12307551654.214428,1346200000.0,1274006148.8273103,1952200000.0,2120764113.9296641,3298400000.0,3127766109.0765634,592200000.0,358211398.16865635,746800000.0,715824602.3192564,599400000.0,184374699.04250225
709,1406,4,2933971000.0,2274879035.6894407,2618511000.0,2432658688.3014107,315460000.0,389544581.4517124,65062000.0,28073027.17866144,2191000.0,47393912.83467061,67253000.0,116213776.70532767,-143265000.0,-64650674.36914685,69951000.0,52708265.332592554,-4889000.0,19611279.11335864
1121,444,4,27828200000.0,27592086243.0608,13810622382.415062,12732695468.356665,7212400000.0,8480870432.958301,821300000.0,776230319.6081526,181300000.0,351210923.94665384,1002600000.0,1205191082.3211436,233000000.0,46946984.06252202,794400000.0,914250180.8064276,26900000.0,-763061114.9279671
1026,1548,2,2788943000.0,3753961997.737312,2662320000.0,2996953527.772401,126623000.0,706124962.0371106,299166000.0,288447256.94382215,0.0,62786065.84659633,299166000.0,331179850.68637794,-281667000.0,22207190.00613738,580833000.0,273209475.78659475,-281667000.0,14874053.57464918
1015,1603,3,2489159000.0,3246958766.644828,1954765000.0,2318252315.0376735,488897000.0,956098729.0588162,294443000.0,259813658.60432935,370069000.0,345717675.90742004,636496000.0,584923274.8389618,64600000.0,52610042.42319064,229652000.0,254944238.15450445,64791000.0,58918224.23730323
1575,877,2,11961066.0,-2975596.9651954924,1068497.0,4062967.6334078563,10892569.0,41547103.677643,611174.0,1169225.8487779086,0.0,42078782.93703732,611174.0,22681850.623130724,-1146685.0,-1406918.693131724,1757859.0,2276275.85578173,-1146685.0,-1097746.1359633221
826,1602,1,93941000000.0,184979837667.90976,39446000000.0,61667853525.81361,53466000000.0,51743600761.26414,4178000000.0,10440078823.009165,15656000000.0,17563801169.276714,18582000000.0,18350079606.91751,1764000000.0,2950403543.150098,2414000000.0,3844118802.870441,1764000000.0,2416931799.747892
463,1286,3,32097000000.0,39665074057.774124,20419000000.0,9242709020.703297,10658000000.0,16642305012.900915,2071000000.0,1454786758.449977,6360000000.0,4636337134.078995,8431000000.0,5586218510.933672,950000000.0,947059775.7937087,831000000.0,665762847.9723513,1240000000.0,352063579.0475314
1660,1418,2,6578196.0,-782597990.9273287,4441488.0,-197529815.31041473,2465776.0,47923188.592000976,2008368.0,5967045.337068057,923641.0,42785554.23086644,2932009.0,23867263.75546015,-1328968.0,-1683474.7801086754,3337336.0,-371867126.44029176,-1328968.0,172890466.1863839
700,507,1,1658042000.0,1582873156.8034644,1223260000.0,1154503755.6343248,434782000.0,321756158.29227626,207698000.0,221551943.18800244,674127000.0,652390882.2307544,881825000.0,870255358.7181218,25549000.0,27997696.0850619,179614000.0,172655147.9491049,28084000.0,20161097.640141398
402,429,4,9094896.0,-117763850.9835631,13593163.0,126036905.78617443,-4498267.0,-278991933.59032553,-928960.0,4730079.366064615,1115703.0,47170135.99189152,186743.0,51075087.143010154,-5136642.0,126889.88724904385,4207682.0,3928041.9132403987,-5136642.0,509565.15449426405
591,82,1,16788482.0,531167798.28991526,821758.0,122767148.82829954,15966723.0,410037171.9698546,906228.0,8461712.476987597,333325.0,1749816.8587538213,1239553.0,2847063.5561620574,-1096396.0,9477815.316194504,2002625.0,18749771.77893093,-1096397.0,6464885.382108936
412,70,3,1678241000.0,1838622260.6391983,730813000.0,1037120823.4395432,947428000.0,978299579.8603815,62311000.0,109917234.49529569,89643000.0,116475530.02578132,127553000.0,174646749.16175625,-24195000.0,-32821825.25208354,86506000.0,111493652.59645419,-24195000.0,-22720182.993305035
26,311,2,1363308942.0,1272811339.7227852,629855415.0,523940149.96766007,733453527.0,788601279.9724913,93681798.0,77300865.7439129,0.0,43707483.296928756,93681798.0,83434319.08455126,39573525.0,42513575.08833098,54108273.0,64465404.37982864,39573525.0,21853783.115681853
205,1574,1,15264467000.0,14174048676.59315,7226441209.924589,7920675432.840897,3059451000.0,3430293620.072498,592816000.0,575620706.0684129,378076000.0,731777110.8332485,970892000.0,1588078025.7541618,444977000.0,519213989.9369063,147839000.0,169920162.20473355,444977000.0,487356950.665996
699,653,0,65987000.0,475486129.45264775,35279000.0,435806003.75955963,30708000.0,29379555.33341961,5319000.0,4808729.144493186,28050000.0,126241508.83952795,33369000.0,65803014.271503836,1124000.0,30346012.39670364,4195000.0,50617539.52007699,1124000.0,6757491.488072904
550,570,3,31945000000.0,36895244404.752495,26424000000.0,21746533030.608658,5506000000.0,5926965722.046546,1191000000.0,907845044.4415317,2895000000.0,2541969860.68443,4086000000.0,3846061147.119851,834000000.0,582022795.4398662,357000000.0,897577237.3327757,834000000.0,332783263.0745489
140,1503,2,2655001000.0,1314869462.7914944,1989549000.0,1629924773.030798,665452000.0,159063254.39495042,67554000.0,18107158.01050897,403267000.0,572757222.8492982,470821000.0,562540687.1339232,-3426000.0,-22997759.96619839,30096000.0,31532480.40114757,37458000.0,-8370522.596294664
2004,1217,2,9403000.0,35029061.70137408,5511000.0,5892820.031422118,3892000.0,41315673.67562692,-48000.0,663662.6056411905,1387000.0,42733423.91524001,1339000.0,23088831.34448602,-903000.0,-1776804.6267155467,855000.0,-1013400.571064401,-903000.0,-1284899.6189528173
28,1347,2,551232000.0,1102832305.05323,628224000.0,571088829.1020864,-138322000.0,1618430.3767562378,23716000.0,14148491.29796886,12709000.0,56070291.909121275,36425000.0,60356965.921109185,7478000.0,14377182.47053479,48579000.0,55225629.74623533,-24863000.0,-20746267.486887734
844,937,2,435750000.0,400091786.94776237,62826000.0,74871957.12294748,372924000.0,377036613.2644792,28152000.0,34184103.17147163,49267000.0,85453337.32350998,77419000.0,102903741.95540904,143000.0,-94228.9674193021,28009000.0,25719919.712980807,143000.0,-3199821.732372516
967,1131,3,367699000.0,697989158.807545,382822000.0,741047270.7897245,-15123000.0,-232046075.24950165,310000.0,109816112.97329473,0.0,35206897.413938634,310000.0,140994641.20867485,-47413000.0,-23511427.9911554,47723000.0,92460507.61698988,-47413000.0,-8866619.299184002
433,733,0,3810682000.0,3970547861.601864,2050315000.0,2265470388.0319633,1303319000.0,1315831310.890128,110314000.0,77271151.16793016,71850000.0,182292536.54892337,148990000.0,249306246.12903365,11661000.0,34603573.83485984,98653000.0,128305751.03439559,11661000.0,19925465.61668786
228,1025,4,2333529000.0,2297036002.4436607,1032484368.2283514,1093934485.6102586,1202771000.0,1157369647.2073803,71236000.0,98177072.71647842,490990000.0,533257723.1564405,562226000.0,640696113.8409796,19517000.0,33377716.650561474,46091000.0,51206603.28390322,25145000.0,36842596.52014138
1855,611,2,20737275.0,-23548021.11372233,10788720.0,-141509176.19493368,10368036.0,-12840923.193231905,562564.0,18822008.8955653,77061.0,55957316.735065676,87201.0,65204131.22509718,-4142505.0,-6701722.989562454,4705069.0,18754163.593669865,-4142505.0,-2480783.1435089456
776,1431,4,386844000.0,509633416.4308051,412960000.0,611949180.92908,-26116000.0,37023698.79706156,16927000.0,20237273.60646319,91131000.0,143386155.34042436,108058000.0,155326539.9712326,-813000.0,9615292.60709596,13060000.0,17286118.761628293,3867000.0,11166591.755243454
839,958,1,6911775000.0,7009792230.47299,5109042000.0,5605364202.271476,1802733000.0,1855099537.4462514,225256000.0,232649918.76109722,195092000.0,208997824.9410226,420348000.0,398702333.72226185,132530000.0,135756846.4764935,92726000.0,107040146.65717638,132530000.0,117825884.21859911
793,948,1,2883631000.0,20670091729.136696,1772390000.0,3439330387.416994,1110345000.0,4385421597.00651,319055000.0,296301405.4369632,1257690000.0,2508204442.5818577,1576745000.0,1287338108.245365,38222000.0,83652072.48563384,280833000.0,312249066.43759435,38222000.0,-115777070.38156208
820,1092,2,133032000.0,88013889.37703179,232711000.0,201554244.68357077,-16246000.0,100664076.15732536,12296000.0,25032973.12052422,62277000.0,108939896.59542969,74573000.0,108583294.9836534,-14749000.0,945802.1770102979,89322000.0,30701142.914461672,-77026000.0,-75176456.26149866
2016,686,2,296638000.0,294558889.6488195,208509000.0,235148748.33840966,88129000.0,174479644.82104474,7319000.0,14245875.490041269,0.0,41771874.91430846,7319000.0,31403939.325625777,-46633000.0,-26606454.3231457,53952000.0,55959784.815130726,-46633000.0,-30280113.67224183
1438,59,4,38809000.0,853025157.2746532,43090000.0,231309965.7028828,-4281000.0,703360492.7669629,7318000.0,5646248.277357328,25818000.0,59632508.722658366,33136000.0,76500030.76630738,-933000.0,546989.8407556647,8251000.0,10855112.725493083,-933000.0,1012913.1655587036
866,1372,1,2376172000.0,2353632745.1530266,1870972000.0,2040329174.7854261,486613000.0,615552753.9387213,-5214000.0,102409505.50587714,182832000.0,157329801.17506647,304976000.0,229709175.618343,-103708000.0,-17227344.485587258,98494000.0,120381605.52207626,-103708000.0,-32346574.355122216
689,125,3,3719784000.0,8421279091.776131,3332984000.0,3770037792.860143,286813000.0,116124594.06134343,2618169000.0,1540290760.8191693,-531777000.0,-167554095.14777035,2086392000.0,1902083258.3626235,44074000.0,6258809.155637133,2574095000.0,1796640572.0927196,44074000.0,-181590185.2746156
919,847,1,1537935000.0,1124077251.7339447,1281456000.0,1147196989.0658858,256479000.0,727444728.8593023,229699000.0,233946594.776199,0.0,10353682.78930081,229699000.0,237213369.21003577,-26947000.0,-21212338.10791292,256646000.0,289015453.25090903,-26947000.0,-55833468.82393075
1827,321,2,1182488000.0,1154859371.485949,303489000.0,386289112.2571265,759221000.0,733934692.6355951,56265000.0,66311509.731170624,333008000.0,355745561.82925576,251870000.0,281717083.62953794,16750000.0,23539378.047129884,39515000.0,100590915.01824294,16750000.0,-24553729.934723098
1182,818,0,8225559.0,441865967.11638135,12447189.0,420481920.8663846,-4221630.0,-2212025.98847745,17564.0,-133116.27069389969,106922.0,108310214.19648805,124486.0,41120146.59254078,-8095209.0,27503866.448469773,8112773.0,48821570.51008151,-8095209.0,18371978.60837557
