epiphany24262/financial-performance-prediction/results/oof/m2_hgb_history_raw.csv
Id,group_id,fold,actual_Q0_TOTAL_ASSETS,pred_Q0_TOTAL_ASSETS,actual_Q0_TOTAL_LIABILITIES,pred_Q0_TOTAL_LIABILITIES,actual_Q0_TOTAL_STOCKHOLDERS_EQUITY,pred_Q0_TOTAL_STOCKHOLDERS_EQUITY,actual_Q0_GROSS_PROFIT,pred_Q0_GROSS_PROFIT,actual_Q0_COST_OF_REVENUES,pred_Q0_COST_OF_REVENUES,actual_Q0_REVENUES,pred_Q0_REVENUES,actual_Q0_OPERATING_INCOME,pred_Q0_OPERATING_INCOME,actual_Q0_OPERATING_EXPENSES,pred_Q0_OPERATING_EXPENSES,actual_Q0_EBITDA,pred_Q0_EBITDA
196,1119,4,1192950000.0,1076671452.6262708,1055816000.0,1160242726.7149813,137134000.0,401842793.70601124,25598000.0,40779257.82460511,61899000.0,78528438.99353294,42992000.0,83250601.0692394,15222000.0,18695255.711899295,10383000.0,51890993.89975619,15215000.0,17435809.001676388
1568,556,2,1219954000.0,784653297.1046212,835046000.0,840123243.1670426,384908000.0,-1059223540.2231876,111786000.0,83582255.25474645,217796000.0,208571290.02284718,329582000.0,304578286.20615506,28908000.0,18240178.080505308,85522000.0,126769528.40632847,26264000.0,13423878.999841131
1218,1577,0,-135820000000.0,17099369003.670212,-37972000000.0,5293923923.609485,-97848000000.0,-12776862062.893076,-435000000.0,401823732.4247233,4445000000.0,7787197206.295338,4010000000.0,8043079066.36974,-1472000000.0,75131822.3034393,219000000.0,-454773551.257447,-654000000.0,-620284534.5977288
23,1062,1,83298000.0,-67000332.55460949,16040000.0,62961162.874320515,-31633000.0,-194690418.64630967,494000.0,71454162.5343255,3339000.0,27742662.69248864,3833000.0,21803216.978552252,-12348000.0,12879214.587610092,12842000.0,41592043.98344968,-12348000.0,-15450786.574233284
783,805,3,148546000.0,203423981.7317952,56555000.0,186921530.61889368,91991000.0,-51165396.306143194,1761000.0,105067812.24013214,-2375000.0,-18659138.626381774,-614000.0,11536365.38013852,-10098000.0,46986221.85492984,11859000.0,20798835.35253938,-10098000.0,74067526.51013862
1251,822,1,7304300000.0,7498904513.909445,2451900000.0,2273160203.2266836,4830200000.0,4427455678.261148,578200000.0,575054903.4804442,581100000.0,542452962.4921815,1159300000.0,1040270603.2222742,245200000.0,195009130.50740892,333000000.0,419614343.4024251,245200000.0,248079046.2795341
1224,228,0,1976905000.0,2272231132.152482,699909000.0,793873876.0950416,1276996000.0,1276082244.302005,53993000.0,93931128.93932487,315825000.0,340571576.92815655,369818000.0,388049059.7522206,-1572000.0,-13049757.618385399,371390000.0,459148290.0832781,-317397000.0,-372490601.3355072
1410,1451,2,2097274000.0,2177136787.75519,1132234000.0,1000841842.759755,965931000.0,1018632209.4974889,70481000.0,163915106.68795016,291052000.0,315855763.4833639,361533000.0,458657178.06514317,58709000.0,131025321.43549144,11772000.0,59079035.65147483,58709000.0,115010725.82780632
529,34,4,31183000.0,121802646.83560294,15926000.0,144056531.61944476,15257000.0,318683079.79812276,2456000.0,8016351.445083074,2151000.0,1967292.3940750645,4607000.0,27864236.761604868,-2931000.0,-3051175.3990154024,5387000.0,48563133.483382925,-2931000.0,1446091.6046948226
730,909,4,978523000.0,1636209667.9360979,851196000.0,2127736892.5220137,-94184000.0,249392521.4618019,24321000.0,43323472.42280827,137937000.0,462836776.0759002,162258000.0,179074478.94384468,-764000.0,-68760337.11087099,25085000.0,73170269.69684163,-764000.0,-57254331.45631058
1590,1344,4,27253000.0,1173610732.5285826,14465193.072010836,140787744.34454414,12787806.927989164,268474215.356067,-17000.0,11531103.434623182,17493000.0,288928631.2667583,17476000.0,43066325.93839964,1196000.0,-1002963.8408844898,138000.0,45380328.009017795,-155000.0,5498626.499234342
367,268,0,798398000.0,132261424.87126255,795372000.0,615244773.2375419,3026000.0,-72967095.12325208,37121000.0,30134372.953549433,256160000.0,326065994.41703725,293281000.0,413607793.4053991,10257000.0,-18701596.71229315,26864000.0,44391156.12636129,10257000.0,-7853912.180511463
636,839,4,1059052000.0,875459336.4066688,883921000.0,948126919.447826,175131000.0,447900684.34248656,91945000.0,115397288.19818842,202788000.0,233241790.44121274,235132000.0,276174507.5088314,-287000.0,-5452691.099940652,84957000.0,130595826.31477353,6988000.0,3281138.2048818744
1270,1065,3,11069000000.0,10172364137.588577,5919000000.0,7093524735.448739,5105000000.0,4338691615.392146,727000000.0,817896383.6722534,1752000000.0,1622047462.8927526,2479000000.0,2674420970.840592,462000000.0,523877469.5175721,265000000.0,184789213.69926685,462000000.0,526923737.03460866
102,712,1,12331000.0,-97405485.61424257,10875000.0,18831839.33821847,1456000.0,170493612.77467605,1472000.0,71329125.08051142,1968000.0,-1517894.8748608148,3440000.0,16615743.626011208,-4166000.0,21873916.927877977,5638000.0,-944977.149020714,-4166000.0,-1748637.6415225288
1658,812,1,180372000.0,185262518.50304952,121221000.0,85365036.25674477,30642000.0,51211579.67050627,18014000.0,85731817.16287981,31653000.0,27865536.17599941,49667000.0,51683465.84000058,-11599000.0,24218196.279917654,29613000.0,16595729.752283214,-11599000.0,1279887.2975352579
6,356,2,2319806000.0,2225154617.3617964,1534495000.0,1218675528.24969,785311000.0,-62674704.82354652,376397000.0,321088657.96604687,415254000.0,211965269.70084968,791651000.0,650648732.754066,93430000.0,82574294.21334663,288680000.0,293211035.09844476,87717000.0,66016688.85523299
1147,318,0,19295025.0,397594227.6446995,28370931.0,357897834.20049155,-13369686.0,-3135296.529522135,2067435.0,1939674.192771191,4847499.0,55548768.953507714,6914934.0,30722452.420760695,-1108124.0,-762076.2426420779,3175559.0,4028626.3070126283,-1108124.0,-400270.93592526525
114,141,2,3549408000.0,3143518745.8427196,2109262000.0,2020632283.3366725,1440146000.0,677591987.584289,264579000.0,288454433.20879346,494402000.0,575923184.2758961,758981000.0,782246335.2099892,58594000.0,64416561.17897328,205985000.0,217132340.86111015,58594000.0,64215868.42554696
139,890,3,331401784.0,778210538.0509565,56254670.0,137606478.88268846,275147114.0,570591289.640189,17982150.0,40635011.26966617,0.0,8019509.209924809,17982150.0,26999985.335344203,-40215832.0,-20499467.53142818,58197982.0,50352321.307649545,-40215832.0,-16484396.80389662
411,956,2,5533000.0,-780866172.6960709,4648000.0,-212143370.1695854,885000.0,-750197914.6367627,-1669000.0,879580.6113465226,2438000.0,1518063.3726945545,769000.0,676084.1523543107,-6339000.0,8302488.4287772635,4670000.0,61477531.56651894,-6339000.0,-1415340.839938167
681,18,1,36550000000.0,57268618890.8406,16943241279.095451,20337650188.467052,15250000000.0,16574852696.60423,577000000.0,441642978.6141664,3467000000.0,2777868842.519182,4044000000.0,4384074373.336838,714000000.0,251427464.2078282,627000000.0,2687543569.841407,-50000000.0,-393194510.03557575
1671,1574,4,100449000.0,63765398.916837454,141057000.0,253706419.31765744,-40608000.0,275545030.47722334,-171000.0,8120149.12909677,512000.0,6572577.347707172,341000.0,27337866.20616965,-48297000.0,-43820137.672064394,24344000.0,55742040.02744615,-24515000.0,-14358915.210910253
500,1524,4,10599934.0,568262.2887591973,26203416.0,140170455.4696752,-15603482.0,277483216.793655,-6219.0,6691506.554084498,193120.0,2420944.2806412643,186901.0,24286530.139555536,-1076399.0,-1369102.8488525888,1070180.0,44929725.503609866,-1076399.0,2859691.719964717
1203,855,3,13322000.0,343461226.5679674,67881000.0,443565796.7732253,8277888.77383834,237126775.97984546,3223000.0,21917131.009656623,1889000.0,-1181754.4959059358,5112000.0,1520645.184672154,-3552000.0,130267.40206088146,8664000.0,6145397.877470964,-5441000.0,7758334.340146892
180,1091,2,635001000.0,-719894816.5836655,115305000.0,218707176.6157574,502273000.0,-3026586030.277589,21465000.0,2939364.084380873,40457000.0,38120743.21423935,61922000.0,73033727.89423233,-143360000.0,-324951449.60072255,205282000.0,268698163.7366081,-183817000.0,-197179447.40538466
1960,1407,1,2672864000.0,2911350654.5461245,288913000.0,446301542.34647924,2383951000.0,2298386705.266986,132902000.0,188508275.77425057,168499000.0,170617239.28285658,301401000.0,311706911.847353,55706000.0,80066265.35653754,77196000.0,92205299.02295019,55706000.0,67244229.21869566
356,219,4,8388335000.0,8713167123.029522,5163154000.0,5149392109.711345,3225181000.0,3246536277.0890975,313343000.0,336670095.3633451,687959000.0,711636242.7693154,1001302000.0,1036621910.5476156,116260000.0,192726517.18995124,85661000.0,131161803.2424237,227682000.0,271717739.3568488
1646,1209,4,1563399000.0,1099355006.2984476,1445358000.0,1419044781.8207407,-136248000.0,221733319.77631152,72333000.0,88592812.60238102,116682000.0,113551098.15484451,189015000.0,215699286.29848382,23506000.0,11153149.126207601,11423000.0,52985391.43573177,60910000.0,58433270.649660766
1793,1494,4,320019000.0,295716944.76158607,126984000.0,252893429.09054196,193035000.0,397383138.16371685,177377000.0,252715763.58564946,58492000.0,90839854.60155272,235869000.0,361518024.98067254,25509000.0,45230617.11091081,151868000.0,213326103.2451428,25509000.0,54159625.19269062
235,903,0,0.0,-531918624.5438183,0.0,-192339095.50857028,-804876.0,-18278689.215181157,0.0,199563.58112255935,0.0,53137030.36646588,0.0,11201313.707826136,-14550.0,-1362703.4694259807,14550.0,-1428042.491608631,-14550.0,-219831.441145689
1668,520,3,267194000.0,324742659.93309087,175308000.0,357959083.30592835,91886000.0,123947302.71276315,5103000.0,26829314.228678808,0.0,2342631.7602378186,5103000.0,9680464.924085367,-32762000.0,-31190298.129070517,37865000.0,36881501.19491224,-32762000.0,-5543959.804993384
1456,719,4,2249377000.0,3257697976.478581,1923326000.0,3182171235.470808,326519000.0,-3840347281.258407,-76300000.0,-19864305.205310445,416103000.0,709384118.1738032,339803000.0,368040072.29115343,34941000.0,33055199.792814113,184914000.0,202584203.06492844,-261214000.0,-290750405.3353059
1291,57,1,396890000.0,471662397.4069126,107071000.0,141607313.97879425,289819000.0,242701059.9578285,52569000.0,105580337.68527588,13634000.0,13379242.59543562,66203000.0,62520392.702742,8375000.0,20701682.141031593,57828000.0,55943117.49731531,-5259000.0,-11222846.183900269
1376,344,4,7827000.0,9995715.354312126,4744000.0,140920152.4178498,3083000.0,268474215.356067,1288000.0,7636022.968554409,867000.0,1911574.1171380824,2155000.0,24782880.219046324,-3880000.0,-5089849.560131019,5168000.0,48780628.80376324,-3880000.0,-1782799.1562721776
1702,1482,1,11990000.0,-121659804.93588896,3030000.0,-61122102.40442204,8960000.0,-102249788.30358261,1480000.0,69825130.57367888,3017000.0,2387946.1556548714,4497000.0,6242504.524936713,-944000.0,22314566.625663027,2424000.0,1879126.7826099014,-944000.0,-1338365.0629007788
1591,331,2,7472874.0,574714896.0984454,3243445.0,198367195.1542065,4067990.0,265098373.87114382,3065804.0,1185220.835260004,0.0,1540546.5234985077,3065804.0,427090.8117276486,-21884.0,10523026.771527112,3087688.0,59099504.21179051,-21884.0,558279.8167056178
647,1582,1,2182494000.0,1203857184.469015,2467501000.0,2506478172.432657,-484456000.0,-524999863.6155199,389190000.0,374670478.96191216,141172000.0,64225823.40603125,531030000.0,425401793.2636884,-54175000.0,-62737260.177554436,443365000.0,349359666.45653105,-54175000.0,-30361969.980306525
100,1589,2,12166000.0,-5398242.894199727,2892000.0,-6067207.4670679895,9274000.0,44959978.98012175,5000.0,2029232.3001376542,54000.0,404914.26110876893,59000.0,1218141.1049952311,-3433000.0,8302488.4287772635,3433000.0,61087841.57743885,-3428000.0,-1740732.0604830727
507,336,2,189783000.0,198809515.2448072,45792000.0,97020564.55658326,143991000.0,154504958.6155288,2372000.0,5327126.543938395,0.0,2378402.476698919,2372000.0,4158324.1250631297,-18270000.0,-10565173.537487084,20642000.0,79946183.3491677,-18270000.0,-21837363.45165715
547,1095,3,1072653000.0,4655524880.441209,455367000.0,3274466679.5727854,617286000.0,2648143999.441037,134998000.0,139159521.61021113,27783000.0,29026023.77112532,163452000.0,162212326.46693122,5489000.0,4388942.643253775,129509000.0,146240386.15366375,5489000.0,16827061.376500577
457,886,2,665104000.0,613863894.6446227,575531000.0,638008474.1679575,89573000.0,79178847.54754107,30803000.0,27958818.206086304,19437000.0,18670338.624826714,50240000.0,39266065.8028373,10357000.0,8198625.099699528,22017000.0,73624581.3203573,8786000.0,4355546.717906785
560,670,3,1900367000.0,8039196903.093329,289037000.0,2602687271.092256,1613343000.0,4609939172.720641,45433000.0,205950832.55798492,413911000.0,503608847.3530784,459344000.0,684566494.3006088,-6757000.0,129719365.77808776,52246000.0,101048039.06688869,-6813000.0,122872633.35772927
1402,905,3,88944000.0,114491946.3041215,45361000.0,34902728.72891507,43583000.0,66477446.162133396,0.0,22634746.76051925,45000.0,1969765.6883846247,45000.0,4745588.650600645,-14351000.0,-11070211.87845885,14351000.0,15055160.237589566,-14351000.0,4756092.285909624
1274,1040,3,5390785000.0,4884088265.53732,4083098000.0,2377472202.5632167,1050686000.0,1113780244.8120687,352054000.0,354090841.6361166,284900000.0,584552731.1282815,636954000.0,694176419.273165,120850000.0,129917485.90092431,187232000.0,240885663.13006356,164822000.0,150799360.93504098
799,197,1,18535000.0,8019382.6386526795,13748000.0,4460105.908232398,4787000.0,35914145.37597443,2839000.0,71896858.3469734,7502000.0,199155285.0259644,10341000.0,94415594.9116865,-2229000.0,22768513.48028602,3071000.0,117849708.05835643,-232000.0,-33643084.827183135
1436,782,1,13281300000.0,17537743123.225937,5777300000.0,8744803632.670912,7484300000.0,8354328232.877824,1030700000.0,927798069.2261459,1150100000.0,1054829735.603695,2180800000.0,2427579575.1739616,687000000.0,564780955.4574294,343700000.0,234013680.48057583,687000000.0,676926109.4455078
1518,137,1,108681735.0,40986682.002039395,9192190.0,17753753.340819273,67531550.37365061,40476067.261516325,2201326.0,71607123.61937948,255772.0,-45220.66179608713,2457098.0,1886271.1545908798,-8935951.0,14307729.839079501,11137277.0,8503829.195872093,-8935951.0,-13283733.334112577
211,1313,0,189692000.0,529395506.27703166,90178000.0,413242340.8344813,99514000.0,87698495.40638852,-4411000.0,5078906.161646434,24963000.0,74237823.52395819,20552000.0,39621272.42075568,-10000000.0,-5159275.882191401,5589000.0,4541290.971118836,-10000000.0,-4327504.919982389
1542,188,0,230878000.0,567110293.1169494,57278000.0,382279729.7753604,173600000.0,190370621.54752007,26973000.0,27835569.6594556,7041000.0,56402214.95101293,34014000.0,61055377.99905442,-11169000.0,-12001676.520733194,38142000.0,39323836.716721624,-11169000.0,-10761668.822989676
1496,602,1,73773000.0,89468775.02354635,50819000.0,-21509203.942345105,38847689.64492722,75303697.06515338,5428000.0,72291943.99826394,22481000.0,15762196.71732098,27909000.0,24431428.888645496,-1778000.0,22187955.776273552,7206000.0,-12999520.008830111,-1778000.0,6161707.983691625
1891,1386,2,1582767000.0,1706054080.3779097,680421000.0,661308240.3813696,880211000.0,876027137.3224756,56683000.0,64227002.49046778,17637000.0,17649063.16912582,74320000.0,101185034.63920744,-5119000.0,11037237.571630092,35279000.0,98089321.1056082,21404000.0,17393034.70695351
362,63,0,5641000.0,387578475.57649994,5200000.0,351754899.8509092,-3859000.0,-3232820.952486387,1192000.0,471783.1541778426,781000.0,53462594.44831011,1973000.0,28331474.596351486,-97000.0,-283008.8260014171,2070000.0,1836760.0884504705,-878000.0,-1212240.684310342
605,600,3,3208196000.0,3679553603.3086047,2133043000.0,2028297941.3238025,1075153000.0,53002934.37175561,625972000.0,613294748.1900206,1066275000.0,818709149.4050337,1692247000.0,1579578983.643301,91616000.0,109106158.6049516,497965000.0,393801217.1993516,128007000.0,148800331.63072312
384,240,3,13057000.0,285628938.6397816,4943774.229094189,81377831.24322122,10949000.0,32973221.139229205,7944000.0,21580862.941712674,0.0,386046.1314723491,7944000.0,4782321.565648013,1997000.0,-2838629.178151748,5947000.0,4760839.244403681,1997000.0,14082322.693374429
438,681,2,5973000000.0,5431060571.594875,4408000000.0,4477222659.571778,1554000000.0,605904392.9172851,244000000.0,222143522.49326938,1526000000.0,1441941744.06286,1770000000.0,1994235932.3941016,147000000.0,116986907.9794386,127000000.0,160910614.86119598,117000000.0,124131563.91609162
1761,1233,0,589088000.0,902041133.112669,253950000.0,619313219.824276,335138000.0,322951459.3360295,19294000.0,23660167.53251539,99428000.0,141641710.57756853,118722000.0,135506921.1229682,9057000.0,10145896.972965235,10237000.0,12870118.054751677,9057000.0,11956610.666702094
403,509,4,21286772.0,8451345.766208785,1383236.0,138131810.7928614,19903536.0,275934337.2053591,781782.0,6958243.815704829,421382.0,759972.8303071164,1203164.0,24539524.079954892,-1960898.0,-1188761.0771771343,2742680.0,45352958.786330745,-1960898.0,2640182.2117494894
388,1329,4,3445920.0,-24097252.389898747,1859560.0,178475036.8890574,1616914.0883314284,268474215.356067,2970901.0,8157961.938316752,569508.0,1280991.2805168373,805185.0,25947870.957522877,2437201.0,994831.3004501614,533700.0,44447642.11666959,2437201.0,3383318.550197743
1452,1493,0,328158000.0,654036418.8660387,124250521.82515822,450435072.96627414,270486000.0,255264347.01622462,24944000.0,26717846.731953137,16521000.0,67538683.22442731,41465000.0,74015882.17188248,-7674000.0,-4486928.295207078,24827000.0,23650584.28210277,117000.0,3710862.173484753
1876,217,1,2498305.0,-299036014.54228216,2997402.0,-49123131.16912797,-3454854.0,-141734432.03322586,467340.0,71329125.08051142,346611.0,1817413.3459716663,813951.0,5297673.390349099,-114631.0,22953910.22210294,581971.0,3889550.8605037727,-114631.0,1089955.7841058744
757,180,3,1288046000.0,1296051710.0102232,649920845.9604261,653737870.3055364,889849000.0,880014728.4145302,105384000.0,118892620.75092606,285360000.0,283333697.37971866,390744000.0,393519351.39100087,53190000.0,40175491.20929745,52194000.0,54000097.88501022,53190000.0,50733261.80281063
660,425,3,600057000.0,604335157.6079984,369915000.0,348730200.08726805,225443000.0,223571059.15237024,43121000.0,61883173.57740341,106269000.0,89168476.626508,149390000.0,120330505.4937157,7853000.0,8551359.167138347,30439000.0,28048140.187751222,12682000.0,21162406.656879213
197,250,3,538955000.0,2211717766.678829,291671000.0,232257222.95471394,247284000.0,877521085.3694102,-14193000.0,11278625.101718953,14235000.0,16297934.864672,42000.0,11744734.61635875,-51845000.0,-35064690.8429422,37652000.0,40502152.28581287,-51845000.0,-24367546.055103116
93,807,1,25334074.0,59301075.31696143,18917048.0,20321814.355549864,5501613.0,41254397.778518565,-536032.0,71454162.5343255,4501393.0,11921322.125424193,3965361.0,5971873.073972856,-2975120.0,20383538.446681947,2439088.0,8264966.734226347,-2975120.0,334544.19967484113
472,555,3,1934400000.0,1933412877.6288772,855887268.5537325,789599106.4609722,957200000.0,945017630.3205881,84000000.0,138695915.9363156,375600000.0,434455948.1540883,459600000.0,549307526.6922681,30800000.0,59109216.12528351,59000000.0,68126571.84529567,25000000.0,64466051.895896204
1345,974,4,102973000.0,-576440484.8369057,162948000.0,292492517.76021266,-346214000.0,592891197.7871343,-13037000.0,4845259.288736135,25768000.0,11146036.786299322,12731000.0,38540490.004697606,-23219000.0,-13867228.020652257,35950000.0,67004490.89276353,-48987000.0,-30491870.847625725
1672,1178,0,2501300000.0,2928439459.7659864,1075500000.0,1479275141.5207343,1407900000.0,1647023520.1218848,99600000.0,121613815.84160621,151100000.0,210703296.4245747,250700000.0,301517022.0397647,31900000.0,34061126.54930972,67700000.0,111307533.74662344,31900000.0,4192513.0997152464
521,196,2,27910000000.0,54477896178.00982,24392000000.0,48924013686.776596,14058781786.346067,17838610519.94733,1525000000.0,1814463264.6679225,6421000000.0,10643289156.851036,7946000000.0,5417430967.446754,561000000.0,539489950.6506094,638000000.0,473232712.5581546,887000000.0,189914239.56256816
1143,374,4,105238000.0,82500015.00729597,42240000.0,201787046.06501612,62998000.0,316824811.9734512,8572000.0,14382166.427842332,322000.0,-3392448.4202147205,8894000.0,31845558.150408372,2218000.0,2220722.3931636014,6354000.0,46701719.389272146,2218000.0,5665863.130851338
502,643,0,2010176000.0,2321658404.9112973,889414829.379791,1147600769.5977173,1057656000.0,1129918747.8498137,113627000.0,122760335.80307361,250202000.0,271410868.25266635,363829000.0,386468612.2517883,44531000.0,38159376.16495503,69096000.0,63187532.53860115,44531000.0,47512705.34052479
319,277,1,15154000000.0,14819293606.74164,5534200000.0,6681511231.341449,9554000000.0,8364637712.414949,739300000.0,670658882.642462,999600000.0,1019818638.8182408,1738900000.0,1594825224.3148098,318400000.0,173819338.89966926,315200000.0,329163719.02970934,424100000.0,456283925.7210097
471,1421,2,346507000.0,2637507302.6543007,100361000.0,3871823971.797693,246146000.0,-21079558.354752757,14398000.0,9121909.079355383,62502000.0,62573458.21225674,72480000.0,80775567.97430144,4926000.0,11885999.35704599,9472000.0,66719504.519513935,4926000.0,-36237187.479626276
1756,928,0,229309000.0,529567337.76005876,190264000.0,585675095.5320352,-44269000.0,-20632278.529233504,9225000.0,13744416.759240672,52669000.0,130808619.03302187,61894000.0,99453381.01225774,1401000.0,6759542.576886802,7511000.0,9203939.025880931,1714000.0,5862217.726028305
848,613,0,101740000.0,455068969.6781792,28463000.0,354553604.78226876,50734000.0,52250665.517537504,29850000.0,25371332.97682575,12745000.0,64464772.03188352,40857000.0,64074792.137165286,2689000.0,1306209.1263944313,27161000.0,25097174.51980946,2689000.0,2177659.8991115945
1310,607,1,9582645000.0,8732981923.404356,3280269000.0,2653040656.6681314,6302376000.0,5958291447.877576,376175000.0,260524906.00808984,424915000.0,505187917.5356927,801090000.0,722367568.8842914,272965000.0,130792634.073359,103421000.0,84247016.94237067,272754000.0,176632033.72018936
202,502,1,609678000.0,600801499.5260992,288631252.1743736,293341193.94023335,366720000.0,336555903.8762528,84451000.0,146482246.6518208,21802000.0,11601982.53940914,106253000.0,101608994.51105009,5683000.0,23307790.474205844,78768000.0,98185420.89535032,5683000.0,5711438.41460009
1444,124,4,43441700000.0,23410900048.890247,21559314449.01792,12787917702.442488,21882385550.98208,28517461100.427845,1370000000.0,1239372059.7710576,587400000.0,298996199.6816985,1957400000.0,1764455112.8958993,472000000.0,450327996.58655244,1485400000.0,1840535769.0078716,-115400000.0,-733165748.6278566
1578,1121,2,1146353000.0,1107824054.157337,752649000.0,815972896.1072578,393704000.0,381170073.04189014,95229000.0,100801588.33580284,32092000.0,29024513.4439248,127321000.0,133485111.23778461,-58245000.0,-21359970.771616947,153474000.0,186631852.3120739,-58245000.0,-53215105.32665452
451,840,3,796771.0,334573262.69525445,1072746.0,201989439.0403555,-275975.0,121202161.95438637,205707.0,22573114.95591783,158335.0,-105294.84672321158,364042.0,4190984.4128712355,-168127.0,-179878.633274005,373834.0,-46636.417030770834,-168127.0,14777513.278534835
35,1605,2,9069035000.0,8876116869.991531,2563480000.0,2559461004.408292,6505555000.0,7681669259.47357,942419000.0,853495170.3396839,522866000.0,553749742.3177626,1285548000.0,1055599489.5715894,602695000.0,511696734.041233,339724000.0,353950707.70799124,602695000.0,533058022.0751109
237,1328,0,48924605000.0,38216338659.532394,25766652000.0,19044261387.296665,22441501000.0,32069840612.267677,1560160000.0,1082392552.8133986,915531000.0,1126588693.140121,2475691000.0,2479572324.2403717,558196000.0,804145621.8832384,1001964000.0,904712831.9058042,558196000.0,576807565.1106744
917,299,4,514281000.0,375560920.5949218,309957000.0,311203915.28270525,198004000.0,397863892.32778287,106985000.0,56390433.65283194,149052000.0,127826087.27838743,309744000.0,213427455.67705387,62399000.0,19002699.423519127,44586000.0,70323998.60037088,62399000.0,19253279.080114294
558,1592,4,17876000000.0,-6387767.166218935,4077000000.0,-761013214.3605334,13799000000.0,-627123600.2968771,-917000000.0,-413596674.7803395,1453000000.0,599808418.7641339,536000000.0,285176368.63809395,-1774000000.0,-228889470.55233943,857000000.0,946481702.6983333,-1774000000.0,-2594503764.991542
73,1398,0,218354000.0,622044118.0279136,62021000.0,380036873.762401,156333000.0,175893342.23775893,-143000.0,-587551.9633813293,848000.0,53462594.44831011,705000.0,28444377.299587484,-31577000.0,-29684921.250061523,40859000.0,33297006.828244675,-41002000.0,-28054338.029192552
532,116,2,2268100000.0,-101877845.90799424,1627400000.0,2949915940.604848,640700000.0,-666427973.5190778,78400000.0,65077004.06622151,665200000.0,768193771.8547829,743600000.0,846068954.2210674,19100000.0,-51459382.192502365,724500000.0,814143279.735734,-646100000.0,-733266307.4579412
986,1241,2,49117000.0,19932587.87427173,7104000.0,8095653.088398673,42013000.0,39886088.090876386,1616000.0,3312900.139203498,3273000.0,3685202.9282792127,4889000.0,3850433.7583270227,-1489000.0,11488591.32169909,3105000.0,61325735.843637966,-1489000.0,1416355.7614979604
252,13,2,12822000.0,117273880.79490893,1624000.0,43051632.84408407,11198000.0,111956224.82893278,0.0,1298270.8188275269,0.0,633601.80371974,0.0,677723.3525049351,-1983000.0,9609017.098296974,1983000.0,59653810.46925215,-1983000.0,-1123769.3092008326
982,352,1,543788000.0,555076410.3185866,205894547.02387,147449837.17779204,402777000.0,425602328.8235828,1944000.0,89330006.44114111,0.0,4987816.4237625105,1944000.0,25337337.31750524,-51279000.0,-21268298.45593543,53223000.0,100975383.70339744,-51279000.0,-64853178.44249502
1947,1444,4,16965000000.0,22358451731.887142,7506269391.549871,7369682148.76559,7744800000.0,3628867366.289382,1329900000.0,986988788.681949,1175700000.0,1132505904.2008817,2505600000.0,2151113363.3015103,1069200000.0,979549291.8700169,32700000.0,64727304.252252646,1297200000.0,1146823593.7480373
1206,430,3,29788000.0,90844658.9849155,27907000.0,45695340.82995739,1881000.0,12904319.607560273,0.0,22989076.545537677,3452000.0,2183590.1762182885,3452000.0,4825686.407956432,-23801000.0,-14588863.70282749,23801000.0,19794325.441871434,-23801000.0,4850585.38917505
542,123,0,39315010.0,345660553.5914299,15768167.0,323410541.6061913,23791305.0,-1975506.5230094474,7600979.0,15692851.615862086,41810204.0,112088517.70533434,49411183.0,51734272.767402105,-1588725.0,-3576323.1612455403,9189704.0,8445625.198472265,-1588725.0,-2957753.5730854543
15,385,3,184728000.0,212072317.4401261,40367000.0,42927100.7776874,144361000.0,130657066.03520487,0.0,22634746.76051925,8094000.0,3862194.3768593445,8094000.0,4390781.266817953,-23114000.0,-26225753.27890144,23114000.0,27224862.05098357,-23114000.0,-6123071.320606581
1754,1014,4,5014090000.0,4999830541.399787,2606263000.0,2581076407.781527,2407827000.0,2014336683.362459,420690000.0,437726794.96525806,905430000.0,896217738.7295679,1326120000.0,1422160229.7700326,237492000.0,199216568.1555196,183198000.0,200545873.82364294,237492000.0,221417632.12159768
1448,316,2,3543460000.0,6443531232.320639,2602227000.0,3132091163.1230106,941233000.0,4463368009.732947,443568000.0,456260819.0544483,134292000.0,286475280.45143634,414603000.0,417497511.3768123,14363000.0,-78043959.55905119,429205000.0,381574402.3320319,14363000.0,-7070496.203015651
459,80,3,747087000.0,718765257.2315652,79688000.0,193854177.96059892,667399000.0,647173929.8053185,34565000.0,54360720.1589347,22203000.0,20443445.096579704,57261000.0,50126503.07089497,-16306000.0,-21037456.474049892,50871000.0,58698131.87403123,-16306000.0,-5314889.048650917
1505,982,1,4578121000.0,-4092989348.178742,2310023301.364386,2727455906.5221443,2489780000.0,433741781.5340217,2190001000.0,2204188885.3480206,-1465670000.0,-1931047633.4897292,724331000.0,552170033.373602,216069000.0,552201823.4960134,1973932000.0,1995904339.393425,216069000.0,-721556287.7469888
1613,267,1,11895943000.0,11165289903.072254,3479745000.0,3532461850.045589,8416198000.0,7992196896.160242,335683000.0,356026368.9946152,296441000.0,187346820.28793782,632124000.0,780860247.3434677,90949000.0,49098318.34986814,201199000.0,112476220.98848788,134484000.0,85085434.25564155
1214,941,2,1059300000.0,1170328871.201663,513000000.0,675711988.269769,545000000.0,558272391.3394053,132000000.0,128274949.91727762,172700000.0,199383724.8796172,304700000.0,312013815.92755306,34700000.0,46509760.31126731,88200000.0,129418370.95223825,43800000.0,49928580.13067263
454,977,1,11204065000.0,9464790888.82158,4242197120.938668,3873628853.8892436,3489373000.0,3533332583.3644924,480702000.0,527802297.30419326,457696000.0,564998543.1625624,938398000.0,945450777.0800089,172392000.0,145044576.17859206,308310000.0,293851482.2042197,172392000.0,226685013.40070245
1392,303,0,531121000.0,917787975.101464,248900000.0,634987771.1029592,282221000.0,281952392.0852975,62379000.0,65174929.80993607,135419000.0,205574694.9076642,197798000.0,219005341.19487193,18703000.0,24004967.400147256,43698000.0,53795513.742604256,18681000.0,22505247.385402378
1519,1560,3,961035000.0,1041635974.0149676,1381722000.0,1250902606.5553298,-420687000.0,-1250811726.7566657,271111000.0,302160074.6395888,201537000.0,195277326.72653866,472648000.0,449537351.63423795,5387000.0,134904.40126653493,265724000.0,303476083.0746161,5387000.0,26468074.525260847
1060,1032,1,3194462000.0,2540337104.812306,1643299000.0,2203712575.24163,1512215000.0,1139450953.0661278,817744000.0,747110321.4986476,0.0,65593198.17871101,817744000.0,846434881.213404,37900000.0,76166789.1498498,779844000.0,777701501.27279,37900000.0,46370719.566115715
1100,1277,1,6042273.0,-122327982.17452665,3627261.0,140801846.88429353,2415012.0,-111685653.87399799,0.0,69814233.69968551,0.0,1376538.2924789775,0.0,1119151.9718328975,-1829562.0,22314566.625663027,1829562.0,-2489208.747533507,-1829562.0,-1638297.0127092027
203,261,2,76266906.0,64157757.71374756,57438990.0,38474120.07732095,40912361.81482647,34940974.61849337,9146097.0,11482484.532757163,0.0,127101.75595201257,9146097.0,12125471.820684047,-2633902.0,10728837.179910548,11779999.0,66585088.40041208,-2633902.0,843677.8725504582
1493,405,3,-3532973000.0,-20708375029.668957,-2747133000.0,-7972096840.571925,-773571000.0,-11201032311.370626,87737000.0,128829921.8432207,40236000.0,243462463.2650229,103187000.0,356518153.48965275,7123000.0,11705764.633642115,80614000.0,116449505.69298732,7123000.0,53940104.626282714
543,9,3,846734000.0,693655167.1907667,635659000.0,355066899.29424274,69332000.0,478485028.02803564,204774000.0,281641990.25226426,-13024000.0,-63051420.06173815,191750000.0,49950885.43377429,-52860000.0,-84833361.66319594,257634000.0,372043971.6615933,-52860000.0,-213785215.70427358
1966,415,3,1354514000.0,1477327401.7704887,675720000.0,-393076375.9434771,319291000.0,-286149555.979328,-16558000.0,-25151614.931512468,64132000.0,74080629.2181689,47574000.0,62139748.77240458,22229000.0,-47678961.631972104,13428000.0,18342215.27607055,-29986000.0,-4450902.576629472
1802,888,0,270533000.0,583102522.097297,240046000.0,584467799.2162975,30487000.0,49207183.52459557,26052000.0,30076538.986855995,12454000.0,68311647.7717731,38506000.0,73825692.47073722,-21038000.0,-12886426.0585435,47090000.0,45408046.240605354,-21038000.0,-9000002.801437467
1372,500,3,583783000.0,1537761961.7774365,717382000.0,1019196467.5497149,-133599000.0,125980302.17968205,41865000.0,63186444.37741471,32703000.0,22893660.67179643,74568000.0,76954786.81763878,-32006000.0,-31862563.63231952,48224000.0,51327022.43662148,-6359000.0,4526945.660049528
1325,678,0,534446.0,213947444.48296344,9794849.0,213824897.19196188,-9132038.0,-22935198.224514678,6264.0,373160.85209763824,3881.0,53375788.33081581,10145.0,28162865.08692303,-961868.0,-1095097.0206123884,972013.0,1985218.4911622817,-965749.0,-704458.0276005042
1504,581,2,106308000.0,138381683.9185114,29369000.0,33950164.30866038,76939000.0,97322860.10747196,15630000.0,16172955.713239724,0.0,683722.229878061,15630000.0,11204008.594668485,-23899000.0,4630915.040768623,39529000.0,76648394.33330804,-23899000.0,-9044435.307582777
1347,435,3,369031000.0,8018181524.687393,216722530.1814524,3730439211.4121256,188777000.0,4332559437.004173,45044000.0,82722634.73940773,42173000.0,55402812.995924965,87217000.0,126220603.32695991,-3804000.0,7756159.100854443,48848000.0,56389019.39054347,-3804000.0,19039162.831114113
1492,360,3,327784000.0,298177820.5975443,323919000.0,326479696.7496643,3865000.0,25502602.45247646,33496000.0,49079429.079346485,8201000.0,9077569.513723876,41697000.0,41557302.030123316,-4913000.0,-15372683.272980597,37287000.0,42172572.22081988,-3791000.0,9059259.59720755
1107,1471,2,85658000000.0,65399506275.05201,88335000000.0,53247083382.588936,-2772000000.0,-14608309382.531872,5387000000.0,9575005910.103249,14002000000.0,24079080296.76136,16935000000.0,33170730442.604267,1165000000.0,2023668029.864099,4222000000.0,6852668156.7547865,1165000000.0,1695898772.819077
1336,16,4,898860000.0,849142312.3522868,527877640.3036609,607973464.7000428,360528000.0,538502733.9377537,68259000.0,81330934.73905034,42065000.0,52727318.67200815,110324000.0,129438689.54723197,-1325000.0,6789627.36964938,69584000.0,105406978.07549143,-1325000.0,13957873.45319769
599,1259,4,50546000.0,49650830.92456758,5959000.0,141723437.17800632,44587000.0,300166789.78828603,1989000.0,8004708.186710684,1909000.0,-1516263.3978936384,3898000.0,25657523.035658903,-1895000.0,239890.53801158097,3884000.0,45858633.78993241,-1895000.0,3630983.264631286
117,1466,2,939056000.0,917352433.1296118,419590000.0,424281151.4123675,517473000.0,508204567.07792115,90527000.0,104289744.93554345,120216000.0,112119904.24370614,210268000.0,233885834.48287088,61012000.0,65624149.76056641,29515000.0,85618407.76490463,61012000.0,73002757.3144967
1825,1105,3,20027115000.0,17792739520.975414,12952737000.0,6813913223.774243,5611108000.0,5444132134.303258,32786000.0,-112034600.23253882,283742000.0,8365564.154268274,316528000.0,494560223.3131842,-1347477000.0,-242402612.07046354,1910658000.0,530151006.4754632,-1877872000.0,-705971216.899218
1507,930,3,124094000.0,135335102.58761117,18130000.0,29608486.171038155,105964000.0,115295126.59153855,830000.0,23712317.950202577,0.0,1053845.8440322294,830000.0,7374835.901136275,-5787000.0,-4957608.120344312,6617000.0,6438157.693175657,-5787000.0,12176949.629478382
321,688,0,68675000.0,423416497.4037211,40331082.646745786,370010533.2698371,53645000.0,51818116.60472018,10938000.0,9109564.926671738,6604000.0,57154654.83964094,17542000.0,42110803.06849168,880000.0,195573.71482812925,10058000.0,4493555.004180306,880000.0,103840.41105398932
1482,964,4,1833700000.0,1753285551.6590204,811331929.4597701,963984020.0823133,482900000.0,714877680.8539656,110200000.0,118230230.0835536,356000000.0,364931217.6633292,466200000.0,522850150.17306834,45700000.0,69733983.02804476,55600000.0,94588491.31238277,54600000.0,61185757.554141775
508,608,0,62515472.0,410065928.2991996,29595817.732691668,368009549.4939329,21861273.0,14075398.25226223,7032458.0,9548271.950663777,11256239.0,77627370.90102346,18288697.0,41601954.75153752,-1564350.0,-1879829.6111702882,8596808.0,8780541.794071207,-1564350.0,-1809615.5714792265
1411,715,3,33859785.0,77983739.19570807,6178818.0,-12961713.062325874,27680967.0,96996064.58540913,-63384.0,22622336.927287497,87873.0,1993383.244623315,24489.0,4884876.068091444,-2675666.0,-989217.5171177373,2612282.0,2576677.310762926,-2675666.0,12963326.884147896
718,899,4,770792000.0,908577886.4098525,581187000.0,628156768.7309055,188503000.0,381632989.62818605,456709000.0,411145177.0991737,0.0,2585421.349059442,456709000.0,449803497.2676369,-29756000.0,-47648723.68599765,486465000.0,484737276.72731286,-29756000.0,-31081615.223962072
1865,42,1,4753100000.0,4465189795.545738,2691038000.0,2726724807.52443,2062062000.0,1819122727.45988,383135000.0,384619197.87636065,0.0,44220707.34228923,383135000.0,533922307.01119435,126771000.0,119668221.03728092,256364000.0,330392915.68707854,126771000.0,135654698.15640676
710,971,2,9330700000.0,8702170546.17183,4987700000.0,4065991782.331963,4343000000.0,4342811864.206583,590200000.0,609220966.8663608,367100000.0,329505160.85069245,444000000.0,554052831.8690437,121300000.0,98136110.24688882,468900000.0,532319148.2522178,121300000.0,82863291.61448917
285,867,1,1797231000.0,1599370889.0462246,1568932000.0,1675709274.4972587,228299000.0,-201568488.40737593,143030000.0,187909457.78559503,0.0,13370058.293207267,143030000.0,84711129.64368802,-113543000.0,-96108870.32770406,256573000.0,256549279.11827096,-113543000.0,-57202780.21805807
1609,632,1,90048000.0,174360034.40237772,45436321.63528667,149271165.03282714,37547000.0,405314635.25713694,2482000.0,68187934.99697442,9262000.0,-264065744.60964927,11744000.0,20716059.76873571,1360000.0,22816619.47996211,2815000.0,205573046.69782972,-333000.0,-33042077.086282536
1814,1285,3,190817000.0,222140096.52891162,91955000.0,76132372.45704806,118567925.39840196,109323022.29739772,16838000.0,37507648.24928688,21962000.0,16447596.057530971,38800000.0,39746937.46121494,3292000.0,2729751.1412487654,13546000.0,10937083.263627697,3292000.0,20437607.273995694
720,1550,3,24930824.0,-5653365.410781575,6278564.0,172869249.9778134,18652260.0,-29200788.44531816,7866761.0,26114667.386663985,20382092.0,6124907.090783583,28248853.0,18788570.668313242,1448213.0,-904394.2018221377,6418548.0,638221.8792369487,1448213.0,15104429.151999904
1707,403,0,6071000000.0,6965435220.530064,14261000000.0,13405569925.161533,-8190000000.0,-2609956458.229097,1287000000.0,1272479449.1021142,421000000.0,394872452.837183,1708000000.0,1535646906.0251255,613000000.0,597723791.3021353,1095000000.0,970483437.4383104,192000000.0,240067159.8708561
485,1126,2,5768300000.0,5152692587.18386,3017800000.0,3068838560.206661,2739100000.0,2444825040.9519877,487400000.0,480621309.4374651,888400000.0,819594790.7278032,1375800000.0,1349175358.129216,276300000.0,187042383.6383149,211100000.0,212455141.7226941,276300000.0,280785059.43032825
1364,820,3,3486179000.0,3602678597.445709,1927467000.0,1721154265.0227866,1501742000.0,1526940911.3746798,315111000.0,334023716.93532753,669472000.0,684661249.3317878,949217000.0,963036037.7942963,-24190000.0,122363410.03084722,194277000.0,201496401.9332088,120834000.0,130339322.57103013
1943,1443,0,496042000.0,872610618.3670121,349488000.0,659122051.1401453,146554000.0,238988187.0377279,33924000.0,38622297.11833253,212763000.0,265012317.10353705,246687000.0,287560881.75668633,12448000.0,13309462.739192028,21476000.0,24286334.003176015,12448000.0,15242226.188382458
708,1395,3,1713800000.0,1737217551.0249534,864747334.9608463,918371353.8487971,585500000.0,707833087.2076795,141400000.0,135622687.71119463,205900000.0,226365443.87140274,347300000.0,351538511.4115443,100200000.0,92592639.25041597,64600000.0,61336122.99968821,76800000.0,65774248.915381186
1795,402,1,5817000.0,-21987481.17077672,1413000.0,-19309001.709103115,5436000.0,-9140843.32327907,5000.0,71329125.08051142,0.0,7393639.656115252,5000.0,391780.10497239424,-3525000.0,22187955.776273552,3530000.0,1643027.568456168,-3525000.0,-1330031.5202436813
1196,399,4,4180537.0,134022308.46978034,13379601.0,141208658.28456974,-9199064.0,268474215.356067,1107842.0,7860499.584196245,974711.0,-10687630.232088136,2069845.0,25412580.742251992,-2577294.0,-6195333.254553746,3685136.0,46747272.99482539,-2577294.0,1858076.1228773154
1785,1101,2,6656000000.0,6054106989.318022,2127000000.0,-1485110588.0956109,4529000000.0,4307446699.792309,386000000.0,394984541.745467,110000000.0,-148972305.23859963,496000000.0,472723633.86124647,-53000000.0,681990.5876255371,439000000.0,637549276.6343521,-53000000.0,-327702337.7337931
1117,258,0,191593000.0,580790141.7627741,250675000.0,592288719.4893733,89973054.63642293,77702255.96327882,28173000.0,24289176.515766263,35245000.0,102798546.63560261,63418000.0,92547757.58741398,-6852000.0,-6054766.116085515,35025000.0,34888429.9002407,-6852000.0,-9152880.489107547
611,576,2,69753000.0,245261745.5010108,24624000.0,72440005.74657078,45129000.0,175586460.34413838,4333000.0,6348132.516476209,3937000.0,7353264.603205827,8270000.0,16740142.699973634,-17948000.0,-16008380.055755563,22281000.0,81369244.47087738,-17948000.0,-21844333.394881286
1037,1217,1,12798100000.0,13349680223.297548,7698700000.0,7920301832.971988,5099400000.0,4537534692.833144,578600000.0,541766062.101126,1141600000.0,1200151728.3814847,1720200000.0,1725646531.0895376,210200000.0,99764509.441915,368400000.0,399317830.3758596,210200000.0,192287617.88459024
1049,72,1,41718000.0,61766851.58036234,16883000.0,17786826.113997288,24835000.0,34795011.26480257,4472000.0,72336927.66875543,-7000.0,11369468.58595622,4465000.0,3881611.7926801546,467000.0,22557560.602212906,4005000.0,-518029.39066895633,467000.0,1037142.8674097843
181,703,0,2175066000.0,2508130780.6828146,720018000.0,1016635765.484862,1455048000.0,1419135556.8973305,262895000.0,254116181.48990735,0.0,58230511.913650975,262895000.0,290655149.52529037,-74357000.0,-46207846.527896695,337252000.0,326156399.9890585,-74357000.0,-79257112.8080583
1530,350,3,432444000.0,421742976.9930961,58115000.0,68027565.76950468,374329000.0,383936494.19986767,30953000.0,48669393.051461525,9019000.0,10745060.581555564,39972000.0,44856693.08008166,-4508000.0,-5418995.495021045,35461000.0,36425304.25097687,-4508000.0,12049837.26443082
1172,1288,0,1951144000.0,1924971783.1593542,976648000.0,1087477383.4078095,828149000.0,822408246.7936249,81471000.0,-8943449.063900411,811299000.0,793612414.0958235,892770000.0,869950224.5278597,21174000.0,-25716648.24093297,35340000.0,37751672.741365835,46131000.0,6723734.4152217945
1844,591,2,5184000.0,-715763824.4427983,33317000.0,-110354906.19230016,2568262.933576247,-746068382.4521071,28000.0,1459250.8384451119,1138000.0,-443666.9509176818,1166000.0,1126875.0414682478,-1174000.0,10364833.722164076,1202000.0,60255195.92694753,-1174000.0,662043.4088808554
937,1025,3,30042800000.0,38719368464.37194,15158963259.867964,17264164757.342583,10331300000.0,9140423548.930603,1541600000.0,1486517866.6650994,2284300000.0,1890422114.7643383,3825900000.0,3741445235.5787954,727800000.0,740729185.0315865,402100000.0,460845680.1963759,1139500000.0,778008112.5469557
1319,64,4,3143366000.0,3712655376.7885656,724791000.0,826022562.3469013,1686216654.8151803,1569683973.049222,293240000.0,176347362.88435945,0.0,37715587.89562247,293240000.0,190632938.56869897,242794000.0,112420917.19552518,50446000.0,82252599.39090455,242794000.0,86442555.17395805
785,477,1,2558318838.0,2262034316.936179,289865031.0,345634507.3350152,2268453807.0,2125659633.9996715,191440633.0,224035824.95875505,384407857.0,321703472.67314214,575848490.0,518478786.33936065,122416529.0,107178231.33428152,69024104.0,54343675.69659631,122416529.0,144291335.11929697
534,1553,0,355784000.0,745742273.2424047,359982000.0,652442866.4554491,21035000.0,74513036.19875126,21274000.0,18466386.343451954,23247000.0,68779535.93894467,43857000.0,74543061.05663595,-2501000.0,-16214136.772771422,23775000.0,32294300.318108805,-2501000.0,-9216476.39158372
1073,476,2,107571000000.0,157018184767.16776,49865975585.04998,106619953162.2919,57705024414.95002,20386745919.041477,4680000000.0,7114889948.088999,16059000000.0,27637182230.902164,20739000000.0,28888311533.696247,2233000000.0,2461795930.953788,234000000.0,1641303704.9943933,4446000000.0,1794680044.8457248
871,1269,4,357016000.0,409528129.62076044,134021000.0,231101274.46426445,222995000.0,433636224.2704624,10859000.0,14670242.185089877,60424000.0,52510078.87313992,71283000.0,83601598.30742162,4410000.0,3301179.9888029234,6449000.0,50420056.44487365,4410000.0,5666918.231981075
145,789,4,10492900000.0,11422988304.540878,4642648635.342979,4942403326.422259,7724300000.0,6954199419.480034,1077000000.0,1236607740.0507793,2546000000.0,2783493572.7436967,3623000000.0,3576052154.7065997,389500000.0,511452092.06989557,626900000.0,715060408.3360757,450100000.0,584966748.4865481
1137,1457,1,221167000.0,125182155.30604805,272405000.0,258258206.3234296,-51238000.0,-120693208.90536834,26384000.0,90920157.1912613,0.0,1618715.097413333,26384000.0,20894343.813272163,3123000.0,21987303.00546454,23261000.0,26801192.403820194,3123000.0,-2612158.4796916037
1853,892,1,644700000.0,1445157919.6035037,668700000.0,992000443.772688,-24000000.0,167593346.34113893,11300000.0,88586824.05668317,30400000.0,59268198.44033942,40500000.0,72625386.4306423,-2900000.0,27784408.1357595,9300000.0,6296416.461983158,2000000.0,24035780.204661965
1607,1187,1,5733000000.0,6976664025.869702,4386600000.0,4917654098.937251,1332700000.0,2350269500.1386847,508800000.0,540965583.017536,1740100000.0,1645420806.8795319,2248900000.0,2199582248.1886106,201100000.0,184150411.45838803,328200000.0,361711807.67099684,180600000.0,190447271.9586453
497,794,4,3187469000.0,2791621148.930815,1581882073.387936,2772873852.7343936,1402929000.0,1499407951.5694985,12023000.0,15557806.63005729,118303000.0,111461433.27506015,130326000.0,155234598.31029913,121116000.0,120332254.4243954,236940000.0,260094356.01901048,-224917000.0,-251088397.34194338
1789,378,0,160962000.0,496013597.66528684,136871000.0,480945855.1381875,14091000.0,32124749.478658505,33234000.0,27514524.210436914,28516000.0,82840618.76568797,61750000.0,76947004.94860668,-4105000.0,-14797239.613809897,29699000.0,33686122.6867223,3535000.0,-3610185.3903000425
1733,1536,2,1070082000.0,849376875.4479603,790095000.0,621576574.7915694,279987000.0,254601392.68051383,59499000.0,62928308.51287503,92514000.0,107007479.69221127,152013000.0,154798951.05754936,-6147000.0,12543447.999083692,65646000.0,114166088.32729824,-6147000.0,-5070731.086138805
1735,1438,0,55335000.0,353269742.62315226,11648000.0,320989580.58022714,43687000.0,8378575.932648233,13874000.0,12008155.709692411,0.0,95839554.03633572,13874000.0,30943500.752793834,364000.0,-2920559.7180565842,13510000.0,1772482.669846792,364000.0,-9661599.817942305
1273,234,4,8855100000.0,8753867368.664858,4468096700.788768,4095883408.7135153,3543300000.0,4037266619.0420036,468100000.0,447356983.38517183,2041800000.0,1728119809.5323024,2509900000.0,2251572121.8519225,256500000.0,210668246.81804007,211600000.0,206897859.9932753,256500000.0,246790012.3130968
226,900,3,1045317000.0,1047224969.8458921,491551000.0,455413143.39973944,553766000.0,551855260.7855506,49476000.0,69220335.67927529,27012000.0,31922546.687848806,76488000.0,81418068.37205642,5569000.0,-6537941.2134195985,43907000.0,52319506.79595598,5569000.0,11247807.965961175
856,950,3,3335011000.0,2792840511.1164293,1532336000.0,1104400614.6051507,1376443773.6613572,1015392388.9446034,158805000.0,151832601.31862664,458734000.0,473679540.8070881,617539000.0,604562777.3140135,82276000.0,70818855.35407533,26748000.0,34409414.504337825,132057000.0,117673907.67699966
610,1027,1,50788000000.0,48082348475.67379,23543456582.29001,33887838684.104664,11845000000.0,11481404632.041897,1286000000.0,1311529876.471834,484000000.0,-170620695.71563008,1770000000.0,1788121073.5034032,994000000.0,698091539.0831368,146000000.0,462311370.55677027,1140000000.0,280163402.5682113
434,784,4,9209798000.0,8552393487.652735,3242862000.0,3235009539.354007,3654836000.0,2987462234.7290154,758604000.0,699786654.8063504,-63000.0,31781686.383309145,758541000.0,645661852.8949741,306700000.0,208030223.23867533,451904000.0,387570394.7691488,306700000.0,181487422.7237525
1765,676,2,3861516000.0,1957428872.4685156,3060094000.0,2448145271.1154943,801422000.0,-865889406.313548,246503000.0,376228444.37371105,543454000.0,390652891.22909665,789957000.0,838454017.7815372,-286586000.0,-276165821.73233926,130761000.0,179076794.96435905,115742000.0,200138238.6377453
667,1311,2,3117800000.0,3535058190.3675847,2444800000.0,2642895036.3547487,673000000.0,1325920151.627963,86700000.0,129359378.43185754,411500000.0,518195882.8666912,498200000.0,590752255.8987576,-419900000.0,40886796.891597845,63400000.0,118619239.92829093,23300000.0,77548149.80739538
1194,1323,0,84073.0,644663443.8595737,2814055.0,447238184.80755043,-2729982.0,6328128.8793023,0.0,418301.2854481936,0.0,53319858.8881747,0.0,24211437.22111788,-647078.0,-1476935.676353436,647078.0,1653775.7499883703,-647078.0,-3429886.859229012
626,969,4,250689000.0,331494811.0389048,83024000.0,208513577.82637748,167665000.0,403203142.10180897,0.0,7810176.401171599,33193000.0,17128993.21241565,33193000.0,48048814.70841257,-43672000.0,-37138956.0224341,43672000.0,78174178.69547129,-43672000.0,-29714372.036347635
1654,675,3,2267553000.0,2257461583.994138,1375272000.0,1055387595.9188192,519294000.0,853607100.1238177,30179000.0,85030152.73866445,36686000.0,60140574.49714401,66865000.0,145252335.4869201,-15417000.0,68038962.36902097,38864000.0,27982367.49368963,-8685000.0,78005082.86429176
288,444,4,2221575000.0,2283644613.421496,1034139000.0,1115380933.0510702,1187436000.0,1120446441.2748752,131964000.0,138213081.23538294,106311000.0,96588531.07490893,188755000.0,204969538.41446826,3712000.0,12910557.793749986,128252000.0,170105425.329872,3712000.0,15090105.336290829
1665,633,0,555271000.0,539767983.4882257,273881000.0,116594421.77615534,281390000.0,268432734.6001327,77610000.0,60868357.51664349,73228000.0,38270040.02517777,150838000.0,154715491.60613453,6400000.0,-24837792.09138371,144438000.0,153872461.58113095,-66828000.0,-90718275.62505145
652,1061,2,1810200000.0,567180022.3425297,1334200000.0,768744412.094814,472000000.0,-603642753.2795624,111400000.0,-13563382.817900484,439000000.0,755646561.1858466,550400000.0,525680056.3950881,53300000.0,26428102.064462498,43800000.0,99755459.48413016,67600000.0,-296340537.6571395
1078,508,0,339972000.0,601873748.322961,145992000.0,511606944.3369249,193980000.0,142656418.43923002,800000.0,15707322.77014829,85000.0,53294757.291159645,885000.0,38122098.11601283,-35502000.0,-35060875.53535048,45899000.0,51693022.33409687,-45099000.0,-37800102.20779385
778,4,2,992330000.0,833785586.6676955,401273000.0,451255456.6307786,544681000.0,600147957.7951196,417282000.0,407174282.8115001,0.0,-4449537.480709023,417282000.0,395178329.67746204,5536000.0,27920927.75973912,411746000.0,371881760.44423795,5536000.0,28527161.597421937
29,1129,4,600271000.0,531032499.0258829,137438000.0,238454327.36095688,462833000.0,627209638.4435914,73869000.0,73459803.77142231,24421000.0,31671628.566894293,98290000.0,114968441.86161458,-8089000.0,9352162.784039237,81958000.0,113095878.99857967,-8089000.0,2355230.7079289835
854,1361,2,47193000.0,49802656.60308995,31000000.0,35372440.34443692,16193000.0,23076455.915348858,4954000.0,5292646.481074092,3898000.0,4300861.499860663,8852000.0,8470624.538231628,-615000.0,10523026.771527112,5569000.0,62905967.0295176,-615000.0,530767.8040621146
1423,1432,1,150549000.0,314956163.4708771,163792000.0,239293768.94048795,16674000.0,82464472.64955461,28323000.0,76880592.6282135,6429000.0,13817079.451301847,34752000.0,34139439.67721054,-13758000.0,-11875719.737930343,21733000.0,23113996.99922584,6590000.0,-12733231.188046968
1406,626,2,62996000.0,70216388.61948708,12638000.0,19805787.19043511,50358000.0,47316194.55578826,9919000.0,8705009.488176145,5920000.0,4763064.412692077,13543000.0,12859109.964102576,1979000.0,11709004.298968922,7940000.0,64813342.2940031,1979000.0,2088405.685065602
1624,39,4,56415000000.0,47472946061.937744,26707757359.48695,32238864174.791218,20622000000.0,20262976195.937912,4258000000.0,4835306160.441707,2744000000.0,1190335292.966399,7002000000.0,4759172975.343463,471000000.0,553210818.0258067,1302000000.0,1489000921.1229947,2956000000.0,2968722919.638382
926,747,1,572995000.0,591662534.0037422,271264937.13018215,298169111.1617322,210105000.0,-182835121.56895798,-46109000.0,236886738.63913977,111142000.0,108586709.98476961,65033000.0,301931941.1516837,53448000.0,62943961.085505135,184993000.0,179636737.50876388,-231102000.0,-150233365.57906997
1324,523,0,11156646.0,387914643.6471186,14063458.0,351351077.94311637,-2906812.0,-11011742.862870552,-483256.0,849360.7065215288,692752.0,54077183.908148035,209496.0,29657265.933021475,-2378023.0,-2606016.498981036,1407493.0,1094985.7118402205,-1890749.0,-551710.6660626723
809,1220,3,746651000.0,1172310598.3691196,563281000.0,520304957.0687452,350347808.70326334,289226681.39225864,20268000.0,43575849.93497965,132273000.0,171785340.65556753,152541000.0,195213022.9279671,1482000.0,970274.309237259,18377000.0,17260994.99160998,1891000.0,22005171.470599093
492,1190,3,203605000.0,235401726.2584473,164863000.0,-194463635.15625602,38742000.0,-16613640.187091023,38308000.0,54344640.619547226,13284000.0,19273292.40570749,51592000.0,60896943.63084523,8585000.0,10582431.794139715,22801000.0,28821096.681056067,15507000.0,27820606.103976525
383,92,1,35610551.0,222803279.73949432,44852933.0,146724248.65424633,-9242382.0,187822955.46809012,3037874.0,71287472.20882663,5691278.0,6108848.339602051,8729152.0,10146601.553193929,-7028283.0,18102018.92905442,15757435.0,20279421.83197931,-12719561.0,-10433975.2717972
1250,1564,4,4596600000.0,8563999991.435797,2319347415.031524,2977547472.900056,3466600000.0,3206257658.9850698,2555100000.0,2379336251.162692,3033000000.0,2992874203.1176443,5588100000.0,4043444990.486689,1174900000.0,677108460.7301247,1380200000.0,598700993.6465943,1174900000.0,822172460.9056464
229,23,1,3802385000.0,3847462463.858861,2636965000.0,2631457008.9670196,1165420000.0,1094594889.011222,157645000.0,199486676.97492167,488142000.0,421554693.1717109,645787000.0,596083983.8184344,66824000.0,45359951.61679516,83253000.0,76123710.44655918,74392000.0,63621821.797296785
1531,1500,3,12852000.0,47015037.49824372,5815000.0,13189411.919705432,7037000.0,25795765.955744527,1838000.0,24061539.840346448,1427000.0,2811305.200590181,400000.0,7518833.513344938,-1116000.0,-1264552.6270040045,2954000.0,2314583.554915167,-1116000.0,13339314.299813034
1035,1501,2,11747000000.0,17318324078.0564,7158000000.0,11875456460.129248,4503000000.0,5750542135.2610035,770000000.0,332250841.51015687,1424000000.0,1059953621.3985045,2194000000.0,2176625379.6893673,154000000.0,323030977.30303633,2040000000.0,2557914355.8438993,-1270000000.0,-2054615861.8631234
1774,999,4,7236206.0,339875497.94213754,4913744.0,138537297.4730924,2190428.0,268474215.356067,634746.0,6859808.799347844,2326079.0,2410865.1264653234,2960825.0,25779247.700244315,-234151.0,-476125.0677576901,886442.0,45345624.986797854,-251696.0,3179683.4786432423
868,173,0,6411000000.0,7053134917.420818,3370100000.0,3705889636.9832115,3176144611.7201624,3407810179.889577,371800000.0,397521875.44442683,637000000.0,724907686.6587062,1008800000.0,1068966794.735488,180100000.0,163194832.8859748,166200000.0,167467546.97768107,205600000.0,219873211.63846686
1391,87,1,345836000.0,237650311.06040475,48837000.0,-6893225.703990379,296999000.0,1605192751.8438396,3870000.0,78153842.46439822,113328000.0,81317578.79990207,116752000.0,99178435.93792215,297000.0,21840237.54298578,3573000.0,91939072.04691328,297000.0,-3877379.896284778
1734,908,0,20108000.0,387578475.57649994,9068000.0,353103170.7685476,11040000.0,5411744.809423777,3847000.0,1506136.0457829386,661000.0,53319858.8881747,4508000.0,28421924.38214269,-4126000.0,-3979770.9561807057,7973000.0,7058363.952681405,-4126000.0,-3596238.0535853887
1416,557,1,1564856000.0,1632275624.4750724,1122858000.0,1192409657.1281059,416354000.0,515193682.96794075,276207000.0,293532003.14571786,-11227000.0,76879738.17068155,264980000.0,233145150.28244513,5657000.0,31269125.606907178,270550000.0,250208147.4485168,5657000.0,-3785134.23055596
352,965,3,1125373000.0,2045064793.6169415,521681703.6382896,1579734970.3029742,29987000.0,1198064679.1937819,142411000.0,197226981.63970467,-42080000.0,-139698837.36796525,100331000.0,145514926.72925106,17283000.0,46771263.04464618,125128000.0,149758494.7442532,17283000.0,84049105.33184999
135,107,1,630871000.0,523168004.10247916,398464000.0,460127346.573581,232407000.0,335306208.41226953,80823000.0,113764786.29838654,413091000.0,200539725.811209,493914000.0,388120068.02721417,-14453000.0,25912783.22623694,95276000.0,214079462.45093545,-14453000.0,-46270998.60396801
1338,943,0,123668000.0,473087390.6565817,40963000.0,388327280.1057632,50285000.0,32132571.045405086,29188000.0,33723269.096056364,11108000.0,67518930.12535161,40296000.0,74719699.27661291,-25553000.0,-9137088.731688643,35508000.0,28850812.12459157,-6320000.0,4558733.85115813
1076,247,1,34865437.0,228731412.45266464,19085704.0,71479826.47694832,15779733.0,262218547.70157334,0.0,71822590.21422082,1198.0,9789764.058706129,1198.0,17432695.110283755,-6520186.0,20287246.304109685,6520186.0,4915325.9166801525,-6520186.0,-4614834.591616755
1426,223,0,1275550000.0,1713571291.9306018,1504271000.0,1693362512.4793615,-228721000.0,-297763356.7865709,-35238000.0,7628780.580629837,59168000.0,-122244952.31787619,23930000.0,40677953.82583703,6621000.0,1321023.6139801515,102745000.0,-37093357.992070794,-137983000.0,-21523337.829175938
2023,1260,3,151712000.0,139867797.32654414,195428000.0,194442816.32962477,28605000.0,44280242.10049914,11588000.0,26738774.654209264,43977000.0,27290268.01277316,55565000.0,41131000.45021573,-8864000.0,-10925163.287892334,20452000.0,13604224.761815406,-8864000.0,6159918.172149278
1219,351,2,1812825000.0,1795328227.2555737,1134969000.0,1209343217.2624655,677856000.0,492443135.2664436,53184000.0,84752593.52832651,120142000.0,126323648.83029623,173326000.0,193557176.60032794,31929000.0,40037258.83268853,16945000.0,77199573.42650644,36239000.0,50995288.48047491
201,868,0,-1450776000.0,-1066009011.2519969,-894261000.0,-289305139.46817106,-556515000.0,-48761182.3453475,162740000.0,156957035.63245043,213058000.0,276675316.59571934,375798000.0,445872640.3382005,-31210000.0,-71934059.25860721,193950000.0,220604996.34376466,-31210000.0,-22142899.155676946
580,455,3,526507000.0,1742355107.8931751,370554000.0,525461267.12438464,155953000.0,265332005.64015692,66328000.0,91909347.63064444,107226000.0,106887618.59550422,173554000.0,180212711.7715002,-7923000.0,14821391.207997361,69543000.0,72580428.08287291,-3215000.0,19734071.79782368
268,550,3,3089123000.0,3046598561.6856647,1300561000.0,1587057882.2957258,1788562000.0,1475441721.1889844,286131000.0,314839880.5498583,850247000.0,823680790.6339208,1136378000.0,1180916735.4654243,205227000.0,171479573.5756683,1010678000.0,1158701702.5421922,-724547000.0,-741477883.0199872
484,1474,4,2026392000.0,4253518336.787055,773709000.0,1314787167.529899,1259138837.126244,-2000580969.948286,36270000.0,-42762305.45256535,906000.0,-125676568.39761792,37176000.0,77138990.12977816,-286393000.0,-331132431.9640982,341823000.0,569054877.0151423,-305553000.0,-380898288.27761376
1169,319,4,59798486.0,1816047.6238378414,24561228.0,140555072.54600853,24680354.49630476,280341931.4082398,-143441.0,6691506.554084498,231837.0,5022351.727862711,88396.0,25782712.603456475,-6239976.0,-5302898.615481786,6096535.0,47031383.87122572,-6239976.0,-1274650.7428089262
595,1472,1,269960000.0,-26699497.462383103,370356000.0,489812042.1309457,-100396000.0,-11233752.844957542,29296000.0,89390224.27739032,911000.0,-114299926.4741524,30207000.0,53821547.38616656,-31260000.0,-994061.6478099474,67269000.0,107900811.0547249,-37973000.0,-51309569.8147394
1664,644,4,1411497000.0,1692706693.5471287,713457000.0,793043753.0751356,667698000.0,804991244.7569904,123110000.0,121940059.29411298,21917000.0,25288291.195908286,145027000.0,172230661.9002757,16171000.0,21040412.668190118,124278000.0,157024687.65080464,-1168000.0,1410895.3378539586
1737,775,3,1068388000.0,2276591208.1055417,793168000.0,2133037951.609246,275220000.0,702875452.1930519,1125000.0,48999072.26846559,126961000.0,83349605.77435897,114574000.0,108784115.32981062,-123332000.0,-59576285.42954429,124457000.0,98372019.09976852,-123332000.0,-57167772.52903295
1105,1008,0,736494000.0,1057116787.822188,390655000.0,734867784.9532814,345839000.0,345946679.35352594,107458000.0,100730388.09936096,77264000.0,131789080.72611415,184722000.0,199457211.8507289,-21496000.0,-30387713.12909586,128954000.0,131005510.51559277,-21496000.0,-32106157.725998614
366,1418,0,1026034000.0,1321578109.9618719,544592518.5648394,847073065.2346354,829659000.0,782665068.1277997,179923000.0,180540944.60241956,-1664000.0,72019539.76844944,178259000.0,201538610.2447145,43073000.0,30667978.360625178,136850000.0,152488859.10430244,43073000.0,37733334.72780077
847,803,0,2995900000.0,3368179101.2578087,1720300000.0,2045441703.0321157,1275600000.0,1469009549.9886901,234800000.0,229618588.29935047,244100000.0,256221641.04706022,478900000.0,533013290.3942838,25200000.0,22216592.73297577,209600000.0,221760403.97023746,25200000.0,49104320.8973862
1604,1535,3,700529000.0,747165122.8767856,363632000.0,416051134.9277936,335762000.0,376826642.66368234,46249000.0,64247329.21230551,72678000.0,77526158.01281059,118927000.0,116200710.03184424,-13197000.0,-18484202.73057324,59446000.0,59950413.03950623,-13197000.0,-6533480.630335992
579,1274,4,5913288000.0,8560560142.362788,5639252000.0,6574741978.022463,274036000.0,-88463678.45381035,470311000.0,483320593.6677502,1040995000.0,956690957.495355,1511306000.0,1409656754.7641506,65962000.0,45992254.58560875,404349000.0,406944847.8480712,65962000.0,73273878.21885923
874,1085,3,232365000.0,284452896.13131684,164743000.0,446762413.9061065,67622000.0,35489872.81128865,43176000.0,49828438.6208542,202053000.0,100944818.35250056,245229000.0,165836337.95526993,9035000.0,9109684.649478786,31930000.0,23968240.586725786,11246000.0,21613496.336980354
193,58,0,24556000.0,405671859.4573118,5997000.0,356495146.8486172,18559000.0,-1506481.5307449687,-561000.0,266414.5133303552,1648000.0,52766040.0449616,1087000.0,29375595.368006963,-8770000.0,-1404054.8061242956,3225000.0,849209.2965273394,-3786000.0,-521952.6986836069
680,575,3,7852974.0,183934160.46704483,8726749.0,-7821616.031558244,-873775.0,-16314966.695161963,1562860.0,22977698.69517208,0.0,1670759.1716488483,1562860.0,4650629.265878342,-1603437.0,-1264552.6270040045,3166297.0,1757608.571092257,-1603437.0,13771329.807185875
702,290,3,52606000.0,60928870.19098209,31088000.0,-50822837.07808414,21518000.0,10451283.758627528,2202000.0,23612737.21048688,21569000.0,14544568.361244919,23771000.0,18469317.38317037,-1737000.0,-3886765.0241860854,2889000.0,4550554.354348261,-687000.0,13853122.972673742
499,1102,1,641605000.0,680553910.9234776,98505000.0,119934662.16835415,543100000.0,489620282.8847884,35752000.0,113390293.40774143,3063000.0,5340083.206196531,38815000.0,57788861.53082366,-5995000.0,22354083.169616386,24767000.0,29377664.429278325,10985000.0,26232685.00415939
277,132,1,428119000.0,242286708.72526523,200385000.0,186745043.1651604,227734000.0,-169552451.37407225,32734000.0,100319354.42626634,3693000.0,-15939819.672000598,36427000.0,52272478.31996375,-31432000.0,-46266852.885400616,67859000.0,131411480.45991904,-35125000.0,-24469294.241734542
1540,286,2,1748597000.0,1651889098.4309096,773677579.6790999,725956448.7205919,871968000.0,796447724.7510965,88936000.0,94272558.52131519,314131000.0,328291782.67077625,403067000.0,378497885.15726393,36520000.0,49309316.98103504,38806000.0,100795998.86053331,50130000.0,49462027.76583961
40,143,0,-12646800000.0,-5250871364.420448,-10176700000.0,-2553056844.3525634,-2456100000.0,377439548.61434823,244400000.0,281281202.8071763,496400000.0,526398342.32916313,740800000.0,620368519.3196986,16300000.0,68532697.91690741,228100000.0,878305729.6346502,16300000.0,-61445202.74875062
109,1566,2,1646711000.0,1858895788.3812776,1388441000.0,1394986443.7040064,258270000.0,859830740.9360969,48094000.0,101626070.31476097,144654000.0,190321722.30644667,147710000.0,296261561.20245856,-42502000.0,-30080365.73314357,79586000.0,153081216.13334048,-31492000.0,-34737333.845739804
111,128,0,632540000.0,1041424153.1240468,270366000.0,550421001.1030557,362174000.0,583360742.3812088,197077000.0,159053561.81304863,14622000.0,65117246.95550931,211699000.0,188022089.4709881,-57776000.0,-22158758.77600843,97890000.0,99138684.0777899,99187000.0,49931407.81080058
662,375,3,156269000.0,169105189.9280615,70363000.0,70712683.33832504,85906000.0,74200204.37716007,19503000.0,39107899.665211864,30881000.0,31571457.29881771,50384000.0,49858626.015537314,3657000.0,3192137.9724858264,15846000.0,13365268.319918493,3657000.0,17491694.96165122
1749,621,2,12875300000.0,14456480743.374722,6095371591.431398,8122246695.369157,1810000000.0,3588378918.889339,1227700000.0,933505301.6299261,4400600000.0,8225424500.178659,5628300000.0,8633463781.091366,478400000.0,407220015.25886905,749300000.0,679698652.6841742,478400000.0,-664454463.6093241
340,1018,0,441781000.0,778176262.7050055,86587000.0,418054587.76469135,355194000.0,341309764.92348146,97393000.0,98436731.08059321,44971000.0,90356746.24476011,142364000.0,161852288.86063254,9954000.0,6029160.437065667,87439000.0,87596114.06807728,9954000.0,6861894.933221432
811,86,2,1903960000.0,1050863571.8484622,1118147333.3250542,1455357283.4945083,464992000.0,-949682914.9505075,314173000.0,335558666.2565562,381360000.0,379893772.8482301,695533000.0,902067008.9459852,49703000.0,37010004.969258256,262823000.0,282236381.6500107,51350000.0,42371501.21056793
1016,70,3,413017000.0,513625522.2193029,156380700.0672279,167159893.3094878,290614000.0,339984011.0657415,164000.0,26571103.354426064,0.0,1623431.991869832,164000.0,9170494.036566159,-47612000.0,-36055208.01673806,47776000.0,41526245.02114659,-47612000.0,-23804688.5796145
1696,1024,4,6459000000.0,6162021890.784931,3814000000.0,4453274457.640813,2645000000.0,2480283125.5994105,417000000.0,466851963.90970737,1137000000.0,1239615389.4906905,1554000000.0,1626029804.1916678,109000000.0,150679726.8356765,308000000.0,256807214.79558054,109000000.0,176011628.74477032
200,118,0,6683800000.0,6673844560.010138,2530688381.1304083,2360901365.076826,4153111618.869592,4994389362.118616,363300000.0,392273053.8401854,268000000.0,336362213.5007713,631300000.0,669118530.2837348,83300000.0,103860772.33959416,257700000.0,268757843.7005797,105600000.0,126362705.37480111
1994,627,1,165094000.0,163048917.54669642,70482000.0,55021152.725652955,94612000.0,101667880.68067835,17629000.0,84352240.91746487,13074000.0,11370828.086407805,30703000.0,27018910.70251299,1152000.0,22447014.654022757,16477000.0,20027004.80871413,1152000.0,-190641.39340385
735,207,1,8604673.0,45351740.46899472,2338502.0,40196647.17566794,6266171.0,-39493944.43920956,1119391.0,71329125.08051142,1576117.0,2723483.6535335314,2695508.0,1949857.6095343227,23726.0,22557560.602212906,1095665.0,804550.9125895173,23726.0,-623375.7925974125
1160,1586,0,30395557000.0,32004806096.57716,16133181687.752192,9929280056.682669,6297705000.0,21658292547.077442,3044686000.0,3189497041.1630106,6751495000.0,10302957448.238848,9796181000.0,12067352265.173512,692314000.0,746850678.3641211,2352372000.0,2666446697.7294497,692314000.0,419365663.97679263
2018,200,3,764077821.0,723759823.2673292,149164973.0,192677904.80276498,540969385.0,514404835.1272396,20737462.0,42517190.075156726,3810639.0,8625327.899704961,24548101.0,24255030.63554037,-1942729.0,-7605047.049523356,26490830.0,30540753.362000436,-5753368.0,9686674.03218133
597,335,3,19932000000.0,17641012916.229477,15924000000.0,13802925020.6257,3938000000.0,3905656606.642262,677000000.0,634928400.1999023,2894000000.0,3120750442.400852,3571000000.0,3485825412.2224526,325000000.0,161116796.25029373,132000000.0,202098332.83118683,545000000.0,470520616.64552504
1089,311,2,114455000.0,117503682.12932056,66800000.0,42882961.03573099,47655000.0,39158992.626745954,-324000.0,-523621.24501121946,692000.0,2899497.214252854,368000.0,1317865.4811673788,-4444000.0,8256678.472733875,6127000.0,62063624.23978377,-6451000.0,-3054772.3743418967
1635,384,4,123009000000.0,14369593969.494577,61047097858.95223,51174176368.45571,24132000000.0,10182435487.44743,3661000000.0,2075523355.9973276,846000000.0,-12128070.771557946,4507000000.0,7117588628.07218,401000000.0,1163522038.414319,5487000000.0,7669952533.26456,-1826000000.0,-4684496825.615612
394,1561,2,1472222000.0,1465263661.4205692,444895000.0,578704377.9718817,1027327000.0,911640195.8712103,423804000.0,431728245.93319535,0.0,8027558.578958249,423804000.0,406705294.4797698,44683000.0,-20916110.440761432,379121000.0,372092389.5474959,44683000.0,43899070.355920404
176,827,1,1707972000.0,1667394878.7529485,826699000.0,784498715.680252,881273000.0,924975745.7926946,161237000.0,218641855.02975553,18721000.0,24444332.703008134,179958000.0,210306766.18993217,-38330000.0,23970308.021566804,218288000.0,166655340.44362462,-57051000.0,18934694.318341035
958,1401,2,140348000.0,161608716.60648385,22627000.0,38095821.44782638,117721000.0,186851395.0138543,18849000.0,20377238.094171885,19797000.0,18723896.945769943,38646000.0,41835744.71532365,5179000.0,15074149.604169734,24028000.0,79856766.08971709,-5179000.0,-3589783.225096369
651,759,4,68862000000.0,60090410755.29306,37281000000.0,54001876806.88191,30258000000.0,29951860281.8476,682000000.0,603293698.46055,1405000000.0,2316484392.2685585,2087000000.0,3887525861.814978,938000000.0,559098934.6141913,2969000000.0,3926939044.1669555,-2287000000.0,-4505173643.545575
648,821,2,484306000.0,480390920.22228307,160149000.0,177878766.00324556,324110000.0,315515795.4899765,35935000.0,43210554.32479398,49919000.0,48008591.2724497,85854000.0,101876057.03561315,8224000.0,21572495.405535664,26558000.0,82317423.50574844,9377000.0,13337749.567784322
1124,1533,0,263629355.0,561211452.0723946,139827658.8984726,447836844.9154454,106790041.0,105766913.76194757,4718481.0,12861805.715395523,-3354938.0,81759664.9007207,1363543.0,27446775.2822936,2345966.0,493515.7973076951,2372515.0,16838981.871116042,2345966.0,429885.88277304143
1983,1255,3,22654400000.0,27215107056.36845,10023579681.929111,11493777739.297325,12050300000.0,12805005462.656172,409600000.0,631462210.5849917,3138700000.0,3657987701.28897,3548300000.0,2878394224.4616656,145800000.0,511812981.25353914,119900000.0,-78635187.59308825,289700000.0,618122374.454657
1330,697,1,55695000.0,-57335892.13233086,80300000.0,-421317770.46053153,-24605000.0,742560830.0132625,-33328000.0,69084212.31814481,45694000.0,54819731.86071469,12366000.0,468288.8425028663,-48025000.0,5640266.18750096,14697000.0,17358368.787891164,-48025000.0,25469144.2450323
445,492,1,33248145.0,79213771.30737679,21743057.0,-31174446.767351758,11505088.0,117783645.44664107,1461398.0,71454162.5343255,569502.0,12967669.078069467,2030900.0,19435833.16880316,-12979193.0,22132331.597891677,15010093.0,-11370093.131060826,-13548695.0,441948.1903192496
908,1499,4,19900000000.0,16369542298.422047,10348000000.0,8330668735.83813,9552000000.0,7272224507.024649,2649000000.0,2364903128.249707,0.0,-120163982.5725742,2649000000.0,2676446045.6946673,467000000.0,553440551.77122,2182000000.0,1547933882.0912151,467000000.0,626077363.4776967
1585,1050,3,2485319000.0,3122750457.3065114,1254039550.5762374,1494492155.2173207,1849463000.0,2141741422.0206141,775144000.0,673194362.2375079,0.0,8257272.316043466,775144000.0,644540980.6565654,128435000.0,89207530.10980627,646709000.0,622209467.3713541,128435000.0,93663642.60114215
643,1128,0,959084000.0,1240810320.9425151,491986000.0,965717779.9065288,395838334.6316486,392218158.4091172,56609000.0,76547344.36048833,47928000.0,104794174.80466963,104537000.0,158876510.98807764,-22287000.0,-12630736.773263967,141301000.0,137001009.27942076,-84692000.0,-81395854.3030587
1240,14,4,1657157000.0,460282344.1762008,2335507000.0,2418287057.9533153,-678350000.0,-5040270969.8013,-96698000.0,213790564.21504366,98929000.0,-64609239.60380426,2231000.0,438502776.75477237,-125632000.0,-317023408.13839865,312618000.0,718716671.9969766,-409316000.0,-303516504.8112693
64,275,3,1590600000.0,1949156051.5481603,748600000.0,1003553111.4342538,842000000.0,872248335.9910282,59700000.0,92592647.91302715,141700000.0,152372542.38702694,201400000.0,243050970.9975786,13800000.0,33130518.817578,37700000.0,31403691.64072059,22000000.0,48742699.94065521
1027,1230,3,919607000.0,895342210.6757855,266509000.0,291378363.09481734,653098000.0,618564292.5240395,68886000.0,85519463.84422316,19532000.0,20275048.56928491,84131000.0,95288928.9781213,-18050000.0,-14024315.65426034,86936000.0,82950111.45663905,-18050000.0,-4125742.346263882
1034,198,0,121754701.0,585561442.7779562,28424394.0,372471717.9713423,93330307.0,88378161.01751144,1406469.0,8065365.006034553,-1378985.0,51432080.02954731,27484.0,12185409.73061648,-14928443.0,-278833294.8565855,16334912.0,148380687.99286252,-14928443.0,-214122080.72468266
802,1578,1,12973000000.0,8205359613.615084,6013807636.489885,3673534202.4788637,6537000000.0,8725608223.896452,82000000.0,772636875.60443,545000000.0,1309935430.0636663,627000000.0,422004520.86338377,7000000.0,344951815.2543121,46000000.0,720797811.3010304,36000000.0,-45690309.06986931
981,1120,3,613608000.0,541128608.0996792,391072000.0,1290254988.4577768,222536000.0,338747312.9692492,1437000.0,31867359.068425648,10955000.0,467305557.37610984,12392000.0,934455.6389297247,-84729000.0,-28659654.441414546,40703000.0,20001261.812614426,-39266000.0,-25719437.39511827
1046,343,0,102303000.0,441494399.66518414,104192000.0,443956904.49849147,-1889000.0,23220308.63197576,12811000.0,13284749.451166797,42439000.0,96076893.2843682,55250000.0,77046766.38391227,700000.0,-5938074.580552382,12111000.0,13113744.833133092,700000.0,-2620197.1176906
581,848,0,1023085000.0,1238587687.700824,937155000.0,1347429639.5566435,85930000.0,397548963.6454222,87759000.0,149861779.17581254,257840000.0,267640114.21497974,345599000.0,437525005.39014846,-36941000.0,-8214910.8095211135,111965000.0,123182488.71011859,-24206000.0,-26543163.14668375
1033,894,4,822101000.0,752498151.3374954,260505000.0,366417906.07025945,561596000.0,580217858.5513326,113425000.0,60018236.80647718,-8261000.0,-51930601.312079735,105164000.0,88979338.9095037,25956000.0,-42644088.15954502,87469000.0,116758971.02147894,25956000.0,-29381711.950892277
1908,1021,2,972779000.0,1053012766.0626208,674585000.0,853375679.4943616,298194000.0,270167349.76240885,81122000.0,80403607.08116108,33069000.0,39194419.82591916,114191000.0,109474478.2158584,-12742000.0,4536596.544458651,93864000.0,138283006.3603704,-12742000.0,-3115872.698313464
1486,183,0,505122000.0,878413631.2898507,329765000.0,619760196.2616994,175357000.0,202954969.3286907,66862000.0,57741091.14961288,-15726000.0,156261901.05635375,51136000.0,75048102.9208484,-8784000.0,-9084552.328583026,75646000.0,-75772427.74327342,-8784000.0,-5474327.03854992
640,736,2,420505000.0,389596625.91232264,230508000.0,205039655.4932423,189997000.0,188408158.9738127,53603000.0,53290707.04022195,71511000.0,74004029.80063489,125114000.0,121709885.61120036,16734000.0,22425851.700536188,36869000.0,88530303.12334125,16734000.0,16752055.48893116
1988,338,0,216274000000.0,116728896770.84956,73401000000.0,66777056628.24771,142873000000.0,65603891683.73533,27936000000.0,11897835341.88379,6210000000.0,10732419217.067982,34146000000.0,22531639959.75579,13748000000.0,3754158078.1197476,20398000000.0,9230874097.750252,7538000000.0,4035807030.69467
469,991,2,122531000000.0,20877624047.135757,74517000000.0,25668828639.606846,57494689417.43809,-8988033172.115377,11370000000.0,14025109888.320131,10501000000.0,18491161634.105568,21871000000.0,25532267545.517555,5767000000.0,3142372255.9081454,5604000000.0,7569528341.628811,5766000000.0,4519811517.330365
606,673,0,5723214000.0,5025010187.419525,2776207000.0,955039263.492028,2947007000.0,2308811379.158788,448941000.0,508759169.4345062,516900000.0,761650615.5943723,865197000.0,1019220302.2801836,78214000.0,73033958.45262356,370727000.0,381211322.62151366,78214000.0,90253571.01965517
1877,27,2,689227000.0,518061834.23789555,562767000.0,448731021.36148363,126460000.0,208805131.80607072,40662000.0,39195172.75198687,11086000.0,9198428.908083133,47740000.0,44873411.954955414,-28335000.0,11206442.85944321,68997000.0,88669479.96754575,-28335000.0,844794.5287308262
1148,532,1,600857000.0,606472056.8365939,331349000.0,370355816.8343878,269508000.0,335755485.50727284,50595000.0,99928083.33530715,6532000.0,14588314.874791248,57127000.0,55893848.95462444,-62120000.0,-5569556.090465154,83188000.0,75454882.06820443,-32593000.0,-42003707.0483256
1653,1310,3,56794000.0,62293422.498130284,12682000.0,110693226.45421343,44112000.0,24422870.694315456,25087000.0,37891681.720814824,14791000.0,3789426.5158864614,39878000.0,31738895.901577916,-4627000.0,1746972.55688631,44505000.0,25631681.865925714,-19418000.0,8273327.0223681
1205,1096,2,3747000.0,389371941.3858695,4407000.0,63668156.082473256,-660000.0,106472668.2927587,-1515000.0,-2719160.5045308876,1515000.0,3843541.6987551926,0.0,2000104.6106045127,-2598000.0,8727120.501406323,1083000.0,60595770.04129494,-2598000.0,-1336621.619633269
1612,76,2,3505835000.0,1668288880.2738729,1860807256.214476,1110607507.7015312,1470074000.0,-22008036.909859926,601953000.0,751119166.3124126,626097000.0,757250991.6538786,1228050000.0,1243612540.1525056,88554000.0,89870204.90523665,475916000.0,534895137.8431315,126037000.0,68746872.38872516
1894,1257,1,203011000.0,208152288.84644133,255300000.0,298707086.367872,-52289000.0,190941900.98608118,8409000.0,78121406.83559078,25579000.0,15934711.249631438,33988000.0,43757748.02450907,-8212000.0,7348270.023929817,15533000.0,23652727.988382813,-7124000.0,-11102527.276630016
458,865,3,3126495000.0,2665310515.20124,2137404000.0,2020895261.5678213,989091000.0,940039236.837151,70679000.0,107901432.83889624,930828000.0,865271756.9480762,1001507000.0,1006461656.9296827,21039000.0,1295190.3137092246,49640000.0,73076097.21380088,21039000.0,57156190.896017596
782,1593,3,36175654.0,63274775.3080252,19187381.496044576,23198380.987306736,18868678.0,18343915.298139226,22295962.0,35693675.318200044,2274626.0,4171542.1009076717,24570588.0,18217569.31279875,-1191082.0,-2906362.8745519794,23487044.0,18037416.446382716,-1191082.0,12965879.209012842
21,1011,2,3642433000.0,12621825766.79643,1611617055.0351417,7921618716.279302,2307595000.0,2547831625.926958,392263000.0,136210702.43753284,1442178000.0,1038857773.0797682,1834441000.0,2078714620.5406387,185633000.0,206631810.09561136,1648808000.0,1543593721.2060742,-1256545000.0,-2035968934.757745
323,232,1,102171000.0,98084832.37241429,80142000.0,136134173.852419,22029000.0,247629121.31234267,11994000.0,79958655.42849934,1280000.0,2179531.925906671,12084000.0,13272213.257734695,-8453000.0,17899988.972495567,20447000.0,21661788.315675512,-8453000.0,-7813264.918423051
1847,774,4,11562769000.0,13611378741.33132,8634392000.0,7235898357.643976,2928377000.0,1505766611.5576434,696915000.0,766807840.4438272,4617768000.0,4498608151.608677,5314683000.0,5972214878.065797,87484000.0,569817767.4064839,6096071000.0,7728128804.225909,-5399156000.0,-4622998327.187606
1304,960,3,1061958000.0,1236669449.7773411,603583000.0,608172988.7273817,275904000.0,141798754.6440789,75380000.0,75745328.79768983,85007000.0,93529923.07596004,160387000.0,137869048.76595342,19279000.0,6050447.695070717,56101000.0,54734857.05768569,19279000.0,10216361.783604896
1031,669,4,1709464000.0,1570208984.9941602,792444897.6724385,865545500.8729715,917019102.3275616,-1790353809.4860806,-50089000.0,17898409.44329199,206500000.0,178128989.91913944,156411000.0,172452455.07396442,62554000.0,62514849.11203024,32611000.0,67407642.24243943,-82700000.0,-11566140.450518066
1109,313,0,1182200000.0,1272361222.800806,559672263.5892134,525400222.2653252,993300000.0,1040715083.0223428,77500000.0,65744803.0149011,102700000.0,144727058.60028383,175100000.0,187889913.22249615,21600000.0,-4753115.889870053,55900000.0,61492989.45250366,21600000.0,-12845958.532759
1483,305,3,15318000000.0,13455698666.227608,8995872209.433592,28769613811.269947,2835000000.0,11536502342.077944,2220000000.0,2987423994.1573896,7363000000.0,8312154202.20559,9583000000.0,11387973835.179813,348000000.0,330318318.9501283,1879000000.0,1851259958.3042157,341000000.0,217257050.71245605
739,408,0,2898416000.0,650052131.2720313,2080781000.0,464897299.0861722,476998000.0,3985819.376938668,19746000.0,21024214.477337968,-19746000.0,93392632.80201487,0.0,29375272.74228094,-16089000.0,-11103847.127178427,35835000.0,22304354.26093374,-16089000.0,-14586732.51783873
1565,386,2,37777000.0,70544244.88821572,8088000.0,36308358.80957925,29689000.0,63073621.11183187,1942000.0,3020641.5706156865,1878000.0,2999574.557532467,3820000.0,4475193.623155678,-3377000.0,6786332.523853982,5319000.0,63437611.08155332,-3377000.0,-5220298.207861099
1547,329,4,350115000.0,1672022506.347094,124447000.0,1237619297.4330363,144501356.0121529,1406385237.988417,23341000.0,38282592.03096657,74465000.0,99326257.23053771,97806000.0,164852262.58249018,1273000.0,16094675.577209525,21144000.0,72978080.13749474,2197000.0,7539663.111343271
1772,203,0,60756000.0,420119321.70950615,14120000.0,360390074.97506845,46636000.0,61487310.0837977,39398000.0,30375573.777388245,0.0,52615807.41516936,39398000.0,73252697.94260752,1277000.0,247723.7661411362,38121000.0,33436964.803477004,1277000.0,190519.96572709578
396,883,0,2329417000.0,2319432170.5323586,1103945000.0,1339164284.1582305,1225472000.0,863188971.3555455,201803000.0,198262750.1102474,84310000.0,155549435.45542675,286113000.0,332426759.1147739,4458000.0,2994749.270064249,134794000.0,141768482.20859268,67009000.0,61607664.65877444
370,1540,3,322707000.0,322216313.6980148,203952000.0,190441407.61992034,133189378.04611006,141871056.47174692,59563000.0,81251780.8931257,32549000.0,43725211.88417252,92112000.0,115562054.5367609,2829000.0,5399045.194225926,56734000.0,54869470.811329484,2829000.0,18041693.08182753
1387,213,0,16986396.0,328764182.80157864,28398941.0,298022302.97802025,7976898.609990532,4690935.512159152,-2992.0,1230121.9266233984,2987192.0,53680121.82253608,2984200.0,33616585.06133535,-2823081.0,-3596585.621024414,2820089.0,4308918.73974206,-2823081.0,-2002181.9410523463
1633,1397,1,5507733.0,13458140.871810522,3754986.0,-12593348.951401532,1752747.0,8623682.652172726,77969.0,71329125.08051142,690.0,3385675.573957415,78659.0,161803.0590432597,-1288944.0,22314566.625663027,1288944.0,-871349.854649174,-1210975.0,-313998.3519550254
1459,1488,0,2951779000.0,1853362209.2884398,1733504809.66769,1590695192.424156,-705417000.0,-599724693.7051258,103159000.0,139055778.00724912,95357000.0,138117170.64507404,198516000.0,213546189.86198294,63542000.0,105444728.59828103,39617000.0,36810867.6305848,63542000.0,81050479.38857062
447,948,0,1389340000.0,1684926212.432984,870172000.0,1220381452.059838,518687000.0,615429121.0051744,122910000.0,126229123.55326846,509918000.0,512140003.3298025,632828000.0,615833380.0913931,77637000.0,62737353.38947125,35836000.0,30002869.196583215,87074000.0,108003756.5194303
1342,1529,4,670100000.0,640162942.0123825,96919000.0,219015157.18904495,573181000.0,823840234.434145,45369000.0,56360111.05507109,10723000.0,13493075.949510239,56092000.0,74368636.11796662,-44376000.0,-48759048.142346494,100468000.0,132795975.5506531,-55099000.0,-37196331.155646086
1101,802,1,796235000.0,737840378.5663571,203741000.0,377565643.96272993,463390000.0,346376114.03196,475000.0,71454162.5343255,0.0,-2449425.7207310847,475000.0,2094066.8642642752,-25797000.0,12253864.264589434,26272000.0,103748288.59831385,-25797000.0,-24328007.063605346
1559,864,4,243654000.0,3188967640.373223,108112000.0,1204248694.516232,135542000.0,1120215218.415947,37230000.0,37160556.56216582,3845000.0,7327935.229397889,4798000.0,36621394.993078604,-21869000.0,-6561134.209849108,59099000.0,90925966.58275902,-21869000.0,-14705982.769435693
1859,1238,0,63057347.0,423514247.6177664,37031977.76980746,370010533.2698371,50373559.0,46589118.84893852,5114390.0,5620046.927521243,9540399.0,63616278.723799124,14654789.0,42800963.14207989,3126608.0,3442184.359420914,1987782.0,2604976.708615037,3126608.0,3616033.9288068307
625,871,2,2120798000.0,1965438916.2752373,1472395000.0,1425543440.8988163,648403000.0,926402286.360295,67913000.0,109811985.36713047,30767000.0,44140398.31430922,98680000.0,174616206.21021348,-9629000.0,9690122.878303755,77542000.0,130997102.92836331,-9629000.0,-1270997.4664539318
1728,482,1,706517000.0,1234848125.0318143,905805000.0,1136353034.0531447,-199288000.0,3899069.165803735,73709000.0,138912351.16443983,16853000.0,23629854.577917613,90562000.0,56150625.22505314,38915000.0,49952546.2442759,34794000.0,34719703.36872496,38915000.0,38062534.03485307
1404,565,3,76126346.0,143858642.38618493,61120101.0,157537226.87019598,15006245.0,49549206.09704304,2282652.0,24553489.384084698,31006950.0,14614539.730833216,33289602.0,25105081.258399125,-2890968.0,231168.58563323304,5173620.0,3090971.715879098,-2890968.0,14664264.68674277
1515,604,4,156303000.0,142462410.8464679,83901000.0,180685188.8429346,72402000.0,313940391.72672194,17689000.0,18759546.72934005,41469000.0,45699870.74785829,59158000.0,71777776.75551641,-2517000.0,-14790598.791402232,20206000.0,63422675.1750404,-2517000.0,-7522066.105340093
1800,67,1,3271200000.0,-3531955680.8859534,1447362713.447565,262625178.88558888,-21400000.0,-2769217392.8033185,31300000.0,78991163.3884636,847700000.0,967526383.7508075,879000000.0,870662252.2382044,-16400000.0,-509941027.0944507,66600000.0,136265541.80250248,-35300000.0,-88784898.07706043
4,992,1,7361000.0,-59034166.99978577,2671000.0,-2322012.4383179233,4573903.262590003,-5902066.051637143,349000.0,71329125.08051142,109000.0,3587820.5344189396,458000.0,4435888.4758437015,-670000.0,22314566.625663027,1019000.0,1530778.628199778,-670000.0,114384.43424715285
1400,1108,0,-4860602000.0,1011248202.4026282,-990657000.0,-242741844.13814142,-3869945000.0,1125818035.3141994,193881000.0,196069441.5425365,378009000.0,422553537.64418674,571890000.0,630139116.7342947,36078000.0,14476087.605063794,124685000.0,144627756.3935468,69196000.0,72238825.10378276
617,961,2,5475000000.0,5276209018.252751,4861300000.0,4639815972.082684,613700000.0,1018878351.9329488,130600000.0,201342652.77166253,1421300000.0,1290416232.1062121,1551900000.0,1596002768.841663,23900000.0,53766002.547288835,81800000.0,142682717.2424227,48800000.0,90123717.97547148
570,257,1,9643000.0,-41693636.24288906,6164000.0,9641185.652591253,3479000.0,-2805077.049602642,1843000.0,71329125.08051142,2246000.0,1429290.461006764,4089000.0,3742042.1401856192,-437000.0,23107152.286977284,2240000.0,2840375.6721157446,-397000.0,-2488364.8373363954
2015,880,3,12012800000.0,9826062697.845661,6608200000.0,5408559736.995004,4911800000.0,3995743415.3602347,457000000.0,542636994.2830672,316800000.0,317936926.0251274,773800000.0,735596732.4374157,145800000.0,172080259.48098856,203500000.0,183078118.74518108,253500000.0,227779679.09092644
576,1076,2,6644800000.0,6626721218.642908,3248100000.0,3386282058.0287557,2786600000.0,2974609292.9080577,345800000.0,349205632.2354302,33000000.0,166075862.63828984,378800000.0,536482387.2015054,36000000.0,20324732.78971392,342800000.0,403778672.7620354,3000000.0,-96967604.44597442
1397,722,1,136174000.0,314916284.83925897,62163000.0,147980868.68574378,72304000.0,123661181.4323692,10072000.0,79536308.25435808,-3712000.0,-9661441.29116368,6360000.0,10320281.342440723,-12604000.0,15323706.242768357,22676000.0,19471379.73101393,-12604000.0,-14144709.460355414
1134,1495,3,160043000.0,190360399.74318,101422000.0,108840353.42445716,58621000.0,77573620.8330029,15202000.0,30002014.12492438,-14386000.0,3652899.303606874,816000.0,9282453.779971803,-14398000.0,-21908780.94600961,29600000.0,32813810.24351324,-14398000.0,-2871421.8110616854
188,487,1,9282000.0,-4515705.4815675635,3493000.0,8527145.959309578,5789000.0,8885030.908734923,355000.0,71329125.08051142,552000.0,3847676.9055591337,907000.0,2003810.5469162671,-972000.0,21860505.74292604,1327000.0,3871434.2956031696,-972000.0,-1157303.0736884607
488,150,3,16124000000.0,15740726030.676115,13383000000.0,13371531997.221043,2741000000.0,7751264406.232298,5251000000.0,2183264170.711444,4961000000.0,3675171527.1446023,9233000000.0,7443725259.442638,1583000000.0,929112923.9689605,3668000000.0,2203906359.4117475,1583000000.0,678250359.7042825
1211,1554,4,1601068000.0,1754594449.1981025,1081707000.0,1128532783.956333,519361000.0,694982168.4219198,248876000.0,249021412.3845333,-34521000.0,-143683896.84937364,214355000.0,246434865.00060546,19006000.0,27223560.80085757,229870000.0,255757500.02794582,19006000.0,30451488.587796587
1580,1079,4,779622000.0,654886127.9519088,153452000.0,403873610.0512472,626170000.0,696655376.0007144,134561000.0,133569602.80887927,57608000.0,56242494.6377921,192169000.0,210303121.02414554,56917000.0,57427793.44123934,77644000.0,102592332.9169844,56917000.0,57784118.0387277
1533,499,4,4162272000.0,3871623592.530547,862254000.0,991280654.8336636,3299439000.0,2767497314.4038825,357871000.0,371422432.4661047,794265000.0,845690158.5930513,1152136000.0,1161552003.5634396,114028000.0,114473251.58042693,194829000.0,221638379.1998884,163042000.0,173591862.646394
818,1555,3,13900400000.0,13052286791.88073,12204100000.0,12505038592.64237,7319729781.089915,7651487179.427172,78200000.0,-6162940.472278225,235100000.0,610027369.471615,313300000.0,588134335.4541677,174900000.0,90324500.16379294,116600000.0,-2743645.1521973875,-38400000.0,12576060.099573396
50,579,4,594022000.0,573405339.8401232,132343000.0,218530027.53446758,461679000.0,612799003.0406309,121956000.0,92179438.32620153,1645000.0,17495424.36036985,123601000.0,124740133.95967016,31177000.0,19739406.179081675,45262000.0,78439222.58517252,76694000.0,47797176.642543614
590,21,3,1341960000.0,1474751097.8604972,666970000.0,682263264.9193252,674990000.0,658648767.0177891,55930000.0,69409774.59237736,179410000.0,158971831.67031807,235340000.0,233217089.32202575,23760000.0,11989695.937547471,32290000.0,33279227.825133834,23640000.0,30369291.310364135
377,1125,3,52901000.0,94264393.64492008,24522965.98920461,1515954530.6147654,33404000.0,84580745.93621045,-1183000.0,24046044.123445272,24144000.0,17566330.056978952,22961000.0,19611342.915960506,-5692000.0,-8158104.600564291,28653000.0,23897635.775140125,-29836000.0,-3799543.332432039
1953,549,4,877565000.0,-156610415.41340008,1336553000.0,1520637518.0929632,-475192000.0,-127224442.60296983,522812000.0,603801721.9800081,-345617000.0,-376420514.91463757,177195000.0,197300230.28776366,31868000.0,-110599892.63658059,490944000.0,549277337.7537603,31868000.0,-102152602.36639245
1018,1347,1,26568400000.0,35955994033.520905,13080400000.0,16684814670.76458,13246000000.0,14959949075.412169,1346200000.0,1212295950.1800375,1952200000.0,1677254576.6129315,3298400000.0,2469224210.529769,592200000.0,361146105.0134524,746800000.0,613650910.5269414,599400000.0,232114180.94744107
709,1365,3,2933971000.0,3163795371.2765193,2618511000.0,1670032326.2002232,315460000.0,926287583.5609413,65062000.0,44487095.76968909,2191000.0,-1915154.449034057,67253000.0,57151550.65666274,-143265000.0,-80873640.11121961,69951000.0,38865020.04837441,-4889000.0,27546256.93178612
1121,1252,1,27828200000.0,23111580424.00618,13810622382.415062,10915923580.445751,7212400000.0,7835739659.659176,821300000.0,791559246.2883968,181300000.0,297333528.1126785,1002600000.0,1252590908.1021824,233000000.0,182594642.6199925,794400000.0,707018266.1327766,26900000.0,-148352425.47536018
1026,769,4,2788943000.0,4280257865.0479617,2662320000.0,2859995885.742654,126623000.0,1092156960.6762893,299166000.0,305204649.59342337,0.0,11745066.700799454,299166000.0,340655718.30425847,-281667000.0,-48569037.90195996,580833000.0,357123341.62312174,-281667000.0,21528402.211405393
1015,823,0,2489159000.0,2319329669.4368443,1954765000.0,2064853823.7258067,488897000.0,410373357.67466486,294443000.0,321203124.7320358,370069000.0,430037074.4296763,636496000.0,721306099.8870766,64600000.0,87765387.50519885,229652000.0,227218731.4475935,64791000.0,105690208.58801344
1575,241,2,11961066.0,72512808.38180396,1068497.0,12549214.73443031,10892569.0,69210936.2546931,611174.0,3283762.884856961,0.0,792928.3522952093,611174.0,1018381.467908848,-1146685.0,10409016.220254548,1757859.0,61121949.622248925,-1146685.0,120922.58650990174
826,242,1,93941000000.0,106899347332.8031,39446000000.0,68178838904.01486,53466000000.0,48142241484.940346,4178000000.0,5132685341.297478,15656000000.0,20037651691.821724,18582000000.0,18722806391.158306,1764000000.0,2808363701.284867,2414000000.0,3619885231.083394,1764000000.0,1727079403.435229
463,1402,1,32097000000.0,52287534770.12426,20419000000.0,12524215132.47385,10658000000.0,20469845673.369404,2071000000.0,1891382031.1575246,6360000000.0,6302587104.667787,8431000000.0,7116833306.921909,950000000.0,769605023.93759,831000000.0,-277581740.1125852,1240000000.0,218407029.05917442
1660,25,4,6578196.0,464010855.31114745,4441488.0,138537297.4730924,2465776.0,268474215.356067,2008368.0,11749473.347750882,923641.0,-38777676.022126004,2932009.0,26350894.47908611,-1328968.0,-1188761.0771771343,3337336.0,43397014.24260411,-1328968.0,2778383.5244081193
700,526,2,1658042000.0,1876533170.288542,1223260000.0,1056005938.552196,434782000.0,676764683.3467522,207698000.0,213743304.86467725,674127000.0,671849289.5359542,881825000.0,920943436.1889762,25549000.0,41193563.4977938,179614000.0,217201404.3148095,28084000.0,27984273.38142081
402,371,2,9094896.0,217764013.25210047,13593163.0,101704999.12184429,-4498267.0,-262364284.87114757,-928960.0,404395.36716177437,1115703.0,60781.44185852335,186743.0,3644390.846197605,-5136642.0,4298688.193506469,4207682.0,61916569.009135194,-5136642.0,-1255175.7984775773
591,184,4,16788482.0,475914349.29115677,821758.0,232561422.35649487,15966723.0,263263133.30788952,906228.0,5076832.184505027,333325.0,368153.001076015,1239553.0,23645308.06730829,-1096396.0,-1476222.8239175065,2002625.0,44570312.02052345,-1096397.0,2382056.6261534034
412,923,0,1678241000.0,1896830780.695478,730813000.0,979708172.9103293,947428000.0,992067987.0240995,62311000.0,56221115.01758273,89643000.0,141650343.79796457,127553000.0,134382209.596215,-24195000.0,-33474164.24351131,86506000.0,86430513.94713894,-24195000.0,-29200571.931921057
26,1111,2,1363308942.0,1417674712.7284749,629855415.0,565152153.9552076,733453527.0,700852912.4415053,93681798.0,85106636.36017196,0.0,-2408145.1805542666,93681798.0,92669103.45658854,39573525.0,52256896.72683923,54108273.0,97663829.3855692,39573525.0,35118191.95088535
205,666,2,15264467000.0,14659712914.660942,7226441209.924589,8216495081.62467,3059451000.0,4228874704.8712764,592816000.0,638630885.3327811,378076000.0,485271599.6613113,970892000.0,1367497340.167519,444977000.0,412866562.2178045,147839000.0,187570136.60223243,444977000.0,587872456.2754185
699,1149,4,65987000.0,108494240.25184086,35279000.0,167186168.4622004,30708000.0,284619904.91019064,5319000.0,11213716.681424083,28050000.0,27303099.867225543,33369000.0,63560933.16586829,1124000.0,519578.95965163177,4195000.0,46554095.07550771,1124000.0,3449624.6667409167
550,437,1,31945000000.0,37797378502.21447,26424000000.0,27240668694.0668,5506000000.0,6040273751.280181,1191000000.0,1156638043.0303698,2895000000.0,1190949111.2673347,4086000000.0,3154494401.5830946,834000000.0,521335516.17500794,357000000.0,1647054512.0544732,834000000.0,1641352170.1974099
140,1473,0,2655001000.0,2948629589.8884187,1989549000.0,2106635553.4094558,665452000.0,384737211.0784807,67554000.0,-82034425.94683047,403267000.0,583191949.0036254,470821000.0,523597238.34549004,-3426000.0,18479090.5613256,30096000.0,70223053.03544804,37458000.0,-182526095.08315155
2004,877,1,9403000.0,-51956533.256307185,5511000.0,-12673024.06478211,3892000.0,12404244.331346069,-48000.0,71329125.08051142,1387000.0,-159132.44905285485,1339000.0,-930989.4948534551,-903000.0,22314566.625663027,855000.0,-1647632.0609266304,-903000.0,794727.4218974173
28,31,3,551232000.0,968504798.2414397,628224000.0,612340435.283911,-138322000.0,133154615.68398559,23716000.0,41896623.83929716,12709000.0,1390858.8901076377,36425000.0,38453226.11114685,7478000.0,22056374.270367842,48579000.0,37955613.903514475,-24863000.0,-2347939.2307803244
844,288,0,435750000.0,759146030.1575047,62826000.0,391827329.67510146,372924000.0,370135286.3505961,28152000.0,30292486.21343705,49267000.0,96821303.00951442,77419000.0,113111525.12468752,143000.0,-1389942.046536397,28009000.0,29132588.94685046,143000.0,-4450316.946985458
967,1117,1,367699000.0,430586833.5063129,382822000.0,346784458.27348536,-15123000.0,-306873083.6284597,310000.0,127576356.44075088,0.0,12548063.28648182,310000.0,100786975.73166944,-47413000.0,4443946.489597312,47723000.0,77189727.26625332,-47413000.0,-27349876.592277683
433,917,1,3810682000.0,3959618137.599455,2050315000.0,1853552909.9554834,1303319000.0,1315393277.0981967,110314000.0,185123379.6102756,71850000.0,79597240.08942005,148990000.0,192343439.43823195,11661000.0,39972361.52418285,98653000.0,90327177.3389618,11661000.0,27736264.94773785
228,131,2,2333529000.0,2615800485.2336607,1032484368.2283514,1139320690.2406783,1202771000.0,1249762215.3898132,71236000.0,100055193.79642044,490990000.0,514461981.3882966,562226000.0,619695359.8008275,19517000.0,37001388.395971,46091000.0,99953856.11331561,25145000.0,40613921.06878175
1855,1604,3,20737275.0,-155521853.40917447,10788720.0,66673832.591482975,10368036.0,-13227910.867287572,562564.0,49827758.93039396,77061.0,9266969.578689946,87201.0,34721857.67490378,-4142505.0,-609317.9736510696,4705069.0,30979513.32338198,-4142505.0,13513607.271887682
776,654,4,386844000.0,901913118.5705518,412960000.0,670280122.8737111,-26116000.0,249571456.00568607,16927000.0,28802550.72965923,91131000.0,104611457.25009297,108058000.0,155171577.15506616,-813000.0,5786762.070446769,13060000.0,54328118.991367176,3867000.0,11077759.450156936
839,662,1,6911775000.0,6422115448.64226,5109042000.0,5329911972.43447,1802733000.0,1488789896.4984224,225256000.0,261546398.08512446,195092000.0,124006007.03713538,420348000.0,409352987.40433466,132530000.0,94402537.05760421,92726000.0,108512661.65366952,132530000.0,71986277.38439894
793,1426,2,2883631000.0,6838169331.651788,1772390000.0,7048035435.066901,1110345000.0,5616048035.910726,319055000.0,264847776.42328152,1257690000.0,2050464736.791453,1576745000.0,2398153750.358508,38222000.0,17534912.838094402,280833000.0,359118587.123367,38222000.0,-272467776.30041647
820,1376,2,133032000.0,118556241.2007275,232711000.0,297889368.0770339,-16246000.0,225571961.72940335,12296000.0,21117706.226274274,62277000.0,70396436.29482846,74573000.0,78416122.51066294,-14749000.0,4694047.027752872,89322000.0,134571226.56763512,-77026000.0,-74725590.10876767
2016,162,1,296638000.0,319103255.53509814,208509000.0,225755186.67629972,88129000.0,54208026.05959709,7319000.0,82081055.60495313,0.0,-4248010.417899529,7319000.0,5657363.746405772,-46633000.0,2274064.448159181,53952000.0,43116770.80573886,-46633000.0,-36841691.70481946
1438,2,4,38809000.0,3188257077.2767215,43090000.0,1171300092.0423293,-4281000.0,869194773.2540925,7318000.0,11127630.421212247,25818000.0,20467845.29097841,33136000.0,51355031.03790291,-933000.0,1341081.2611548612,8251000.0,50219774.14636584,-933000.0,391695.6952558278
866,365,1,2376172000.0,2513603197.1269665,1870972000.0,2308705227.7286067,486613000.0,476709251.99965787,-5214000.0,145775580.32743424,182832000.0,137190737.14074263,304976000.0,215725618.57500166,-103708000.0,-20908127.799454037,98494000.0,119745419.65731423,-103708000.0,-40531543.27771659
689,978,0,3719784000.0,6458429672.54115,3332984000.0,4002894013.7086496,286813000.0,985011989.6112401,2618169000.0,2665352202.9132833,-531777000.0,-702660894.8182578,2086392000.0,2002004398.7272613,44074000.0,-92220400.47367388,2574095000.0,2812098766.379838,44074000.0,413419294.1888252
919,362,1,1537935000.0,2050443914.5438712,1281456000.0,1372441034.1504753,256479000.0,913229005.5634698,229699000.0,260033862.71790245,0.0,13061049.79980482,229699000.0,234795034.43012017,-26947000.0,-34631989.22955441,256646000.0,354599168.8683556,-26947000.0,-106772091.62923336
1827,972,1,1182488000.0,1345890443.61344,303489000.0,563925662.3805329,759221000.0,809561894.8374527,56265000.0,123310129.2564722,333008000.0,303787121.5740226,251870000.0,273179598.64958537,16750000.0,45929044.15721779,39515000.0,247824846.34656906,16750000.0,-1411349.444625269
