epiphany24262/financial-performance-prediction/results/oof/m3a_catboost_direct_history_raw.csv
Id,group_id,fold,actual_Q0_TOTAL_ASSETS,pred_Q0_TOTAL_ASSETS,actual_Q0_TOTAL_LIABILITIES,pred_Q0_TOTAL_LIABILITIES,actual_Q0_TOTAL_STOCKHOLDERS_EQUITY,pred_Q0_TOTAL_STOCKHOLDERS_EQUITY,actual_Q0_GROSS_PROFIT,pred_Q0_GROSS_PROFIT,actual_Q0_COST_OF_REVENUES,pred_Q0_COST_OF_REVENUES,actual_Q0_REVENUES,pred_Q0_REVENUES,actual_Q0_OPERATING_INCOME,pred_Q0_OPERATING_INCOME,actual_Q0_OPERATING_EXPENSES,pred_Q0_OPERATING_EXPENSES,actual_Q0_EBITDA,pred_Q0_EBITDA
196,314,4,1192950000.0,2332957544.0024786,1055816000.0,1794338448.9344273,137134000.0,758705874.0976186,25598000.0,183070838.22214058,61899000.0,266238912.42297977,42992000.0,348438115.1049607,15222000.0,45418859.88860598,10383000.0,219655020.34841058,15215000.0,25192166.99140824
1568,1318,0,1219954000.0,3800674873.260893,835046000.0,2118134617.2486727,384908000.0,1864546542.708044,111786000.0,257909579.85469556,217796000.0,359312456.62292063,329582000.0,503670834.55107653,28908000.0,60544227.829443,85522000.0,237557368.99709797,26264000.0,72126524.46788496
1218,1523,0,-135820000000.0,18592242113.890945,-37972000000.0,10207781704.330332,-97848000000.0,2515526957.552141,-435000000.0,1958341863.8674147,4445000000.0,4110108482.5359426,4010000000.0,8923310468.533978,-1472000000.0,334667880.20393157,219000000.0,631197845.5644207,-654000000.0,108509705.12690836
23,1421,2,83298000.0,1484955566.452682,16040000.0,1139763060.6197312,-31633000.0,330812188.597299,494000.0,130054562.97304314,3339000.0,169121426.49154335,3833000.0,256554539.5472659,-12348000.0,10763368.781889915,12842000.0,169845502.2501433,-12348000.0,53965552.45678547
783,1306,2,148546000.0,1616363963.9913445,56555000.0,1327208828.270828,91991000.0,520507863.5353075,1761000.0,169705585.13711032,-2375000.0,192399375.41137075,-614000.0,283082467.1989126,-10098000.0,20027610.79882881,11859000.0,201357592.6236951,-10098000.0,50300992.19848625
1251,1292,1,7304300000.0,4572891135.347102,2451900000.0,2634144888.1599293,4830200000.0,2491936950.7880926,578200000.0,433814473.5078713,581100000.0,655793525.3012108,1159300000.0,1164075861.3108041,245200000.0,103029020.01553099,333000000.0,283463033.0910072,245200000.0,64535651.477098204
1224,1572,2,1976905000.0,1940897390.4720678,699909000.0,1589935536.1502347,1276996000.0,798596809.5331517,53993000.0,212450866.56365693,315825000.0,282804045.6030156,369818000.0,488150209.03044474,-1572000.0,20918952.664172396,371390000.0,229491907.69526723,-317397000.0,56564733.32676461
1410,638,0,2097274000.0,4464587617.186062,1132234000.0,2755072061.093357,965931000.0,1867967655.6656826,70481000.0,378603165.1088911,291052000.0,392784706.459636,361533000.0,614580723.4467201,58709000.0,76769180.5630541,11772000.0,291167775.78627336,58709000.0,71314278.02303433
529,10,4,31183000.0,1515778270.327139,15926000.0,1212057395.6010864,15257000.0,388091066.50530875,2456000.0,132748568.45662838,2151000.0,157842499.20203328,4607000.0,255095709.81548285,-2931000.0,37653445.01949036,5387000.0,206991336.78619203,-2931000.0,27863043.480130374
730,598,0,978523000.0,4044018492.466819,851196000.0,2407065396.8859196,-94184000.0,1867967655.6656826,24321000.0,225014302.41315854,137937000.0,311203671.887757,162258000.0,497411213.7366642,-764000.0,49139215.028306045,25085000.0,217368505.62851882,-764000.0,63611242.31807215
1590,740,3,27253000.0,1603843023.0331044,14465193.072010836,1236617272.7746925,12787806.927989164,433226483.84183097,-17000.0,152578368.87324834,17493000.0,147422134.03577942,17476000.0,225878862.11990356,1196000.0,25595325.711186826,138000.0,129110766.76506501,-155000.0,100997358.25536296
367,140,3,798398000.0,2602719443.0999184,795372000.0,1679879370.2498407,3026000.0,745470516.7422447,37121000.0,194053417.73532513,256160000.0,267046630.78302246,293281000.0,375334898.1751771,10257000.0,39830625.59655615,26864000.0,179179170.13993347,10257000.0,100801284.86100003
636,741,2,1059052000.0,2234531256.1436396,883921000.0,1657628969.4665713,175131000.0,795616500.3965962,91945000.0,198943989.4936375,202788000.0,318895428.5310268,235132000.0,420583481.8692188,-287000.0,31886899.983681083,84957000.0,223363496.6145389,6988000.0,53042183.711289294
1270,1352,1,11069000000.0,6692488374.17761,5919000000.0,3496196274.0429716,5105000000.0,2969495295.1344423,727000000.0,498570301.894979,1752000000.0,1043656831.6551385,2479000000.0,1906692139.063841,462000000.0,159445020.5588941,265000000.0,318977103.5524469,462000000.0,64192071.90041982
102,263,0,12331000.0,3246483995.0690846,10875000.0,1068730838.3300896,1456000.0,1867967655.6656826,1472000.0,140583289.36715096,1968000.0,127784578.04669559,3440000.0,242236070.29393208,-4166000.0,42787980.98274817,5638000.0,192605205.90166634,-4166000.0,51488545.476005875
1658,1092,1,180372000.0,1657180194.1107483,121221000.0,1517880013.1334426,30642000.0,413083720.4288987,18014000.0,193842332.36639914,31653000.0,170424690.80872202,49667000.0,255350386.0998758,-11599000.0,36362207.29236872,29613000.0,227787678.51068655,-11599000.0,54910587.48901418
6,33,0,2319806000.0,4625337975.151858,1534495000.0,2613233872.239182,785311000.0,1867967655.6656826,376397000.0,393271774.0451433,415254000.0,488914035.8100865,791651000.0,752594907.7201514,93430000.0,107156097.74892385,288680000.0,267893739.62757736,87717000.0,74907152.4498508
1147,1055,3,19295025.0,1630737312.7559566,28370931.0,1187553786.0435956,-13369686.0,391196731.410846,2067435.0,141924618.28761852,4847499.0,133327450.98560774,6914934.0,222630534.6160388,-1108124.0,26718356.409096956,3175559.0,124166069.6407494,-1108124.0,100801284.86100003
114,1011,2,3549408000.0,3511459454.83148,2109262000.0,1902613612.1901388,1440146000.0,1253434159.9270208,264579000.0,304279268.74193966,494402000.0,537738269.0491687,758981000.0,781014480.1978734,58594000.0,58934915.600559466,205985000.0,261225326.59187198,58594000.0,60666923.414447665
139,1334,4,331401784.0,1677184485.16673,56254670.0,1290413900.8082597,275147114.0,493009437.3049841,17982150.0,151480930.44630152,0.0,172400362.29531586,17982150.0,281030091.40183425,-40215832.0,35109140.14421842,58197982.0,208747601.57028314,-40215832.0,26130535.479918335
411,814,4,5533000.0,1415391307.1847405,4648000.0,1058486160.564657,885000.0,351509523.59264684,-1669000.0,129584542.31462646,2438000.0,149674816.19265598,769000.0,240951803.1060257,-6339000.0,26489789.959006228,4670000.0,201002516.3210521,-6339000.0,25892822.554754514
681,761,2,36550000000.0,25146600917.290646,16943241279.095451,7983720976.102038,15250000000.0,8602659550.730335,577000000.0,592400468.4341583,3467000000.0,1460131288.3416579,4044000000.0,3189505738.7851667,714000000.0,226080468.7245785,627000000.0,425122215.64512444,-50000000.0,54504195.69818285
1671,696,2,100449000.0,1554109479.144372,141057000.0,1329779047.3933473,-40608000.0,526915785.27963006,-171000.0,167696756.23934063,512000.0,193320562.2844301,341000.0,271680216.17470586,-48297000.0,9214042.737810612,24344000.0,185228956.52465788,-24515000.0,50879397.4750901
500,1236,2,10599934.0,1530520994.2990308,26203416.0,1067464662.6313605,-15603482.0,338604369.3670064,-6219.0,133773421.57873619,193120.0,129490906.14988387,186901.0,252578369.7154833,-1076399.0,18395460.149207845,1070180.0,182822775.8129227,-1076399.0,48743977.54585482
1203,449,4,13322000.0,1490176492.9115047,67881000.0,1267247660.8696752,8277888.77383834,387958307.6846254,3223000.0,150782313.5585662,1889000.0,185965829.56641674,5112000.0,265385903.31506193,-3552000.0,37591210.4193577,8664000.0,222603490.48022214,-5441000.0,29749948.18471024
180,11,3,635001000.0,2197412510.5556016,115305000.0,1764830617.9781065,502273000.0,712760783.1686395,21465000.0,201462962.16822734,40457000.0,203805072.16804063,61922000.0,358763293.79667664,-143360000.0,30002293.791750565,205282000.0,192827626.95213234,-183817000.0,100801284.86100003
1960,1026,2,2672864000.0,2419450722.2392163,288913000.0,1931959230.6774416,2383951000.0,1581053483.5006347,132902000.0,269533190.06539613,168499000.0,332003984.2010674,301401000.0,470005982.95975995,55706000.0,40966262.45962125,77196000.0,260367128.6414218,55706000.0,56723411.19163494
356,863,0,8388335000.0,5457539003.960151,5163154000.0,3638118427.6032767,3225181000.0,1867967655.6656826,313343000.0,473898146.59387106,687959000.0,626992536.2684364,1001302000.0,1185735145.1500695,116260000.0,96331713.48507105,85661000.0,290048676.63978726,227682000.0,71484313.22580664
1646,1578,1,1563399000.0,2906796080.198037,1445358000.0,2035044880.1763308,-136248000.0,967094826.7367264,72333000.0,257774190.14786217,116682000.0,298695262.5258622,189015000.0,402258002.30282915,23506000.0,48294878.94056308,11423000.0,261023016.54247895,60910000.0,59763496.490674816
1793,1064,4,320019000.0,1930705697.2226214,126984000.0,1723256775.23528,193035000.0,963088529.1451721,177377000.0,238848405.47665048,58492000.0,288472087.6494627,235869000.0,464869673.2131233,25509000.0,52905275.62288605,151868000.0,232072981.81303644,25509000.0,31217366.470075734
235,94,4,0.0,1410706536.9886122,0.0,1002742700.5090818,-804876.0,341969651.15636027,0.0,124873894.0124098,0.0,128119699.5954535,0.0,218139241.8126408,-14550.0,18928610.38912487,14550.0,180360446.67423284,-14550.0,27747844.9330955
1668,245,3,267194000.0,1816798572.381733,175308000.0,1657425316.2338123,91886000.0,488781961.3729819,5103000.0,171294149.63389543,0.0,174384192.61680937,5103000.0,258131002.46929407,-32762000.0,27048602.998424232,37865000.0,142371585.04320484,-32762000.0,100801284.86100003
1456,1010,3,2249377000.0,2816296676.5881443,1923326000.0,2045885082.7507296,326519000.0,1066630157.4583422,-76300000.0,225493445.95283204,416103000.0,418695915.5456129,339803000.0,643937243.4793718,34941000.0,55516049.302323274,184914000.0,227866703.11960533,-261214000.0,100801284.86100003
1291,1021,2,396890000.0,1620801237.6859174,107071000.0,1388207706.2592518,289819000.0,553072262.189966,52569000.0,178987508.89927307,13634000.0,218251495.83190286,66203000.0,306560038.289049,8375000.0,15434821.151125208,57828000.0,205693579.03258848,-5259000.0,51093871.811629884
1376,1176,2,7827000.0,1501904321.9337764,4744000.0,1138587495.345566,3083000.0,401701648.45660496,1288000.0,144033282.6399328,867000.0,170983513.10156786,2155000.0,301542693.8291774,-3880000.0,14868743.53727001,5168000.0,181751238.51170978,-3880000.0,46544309.95093285
1702,1493,0,11990000.0,3250312823.6402326,3030000.0,871853246.3709068,8960000.0,1867967655.6656826,1480000.0,103528535.65011817,3017000.0,129236628.23127794,4497000.0,209404398.16438723,-944000.0,33810221.27395578,2424000.0,163219844.67127064,-944000.0,60874394.50079471
1591,1286,2,7472874.0,1419575672.4448752,3243445.0,1132951689.8613334,4067990.0,312407454.01651216,3065804.0,130614376.17461383,0.0,132450865.0794903,3065804.0,238107150.36385107,-21884.0,15769508.661614671,3087688.0,151917816.39327824,-21884.0,43176441.81150688
647,1028,0,2182494000.0,4435559088.705748,2467501000.0,2558516969.398117,-484456000.0,1867967655.6656826,389190000.0,296520198.5337367,141172000.0,404254685.32763946,531030000.0,647416315.7156124,-54175000.0,47409901.24492536,443365000.0,270039793.9015479,-54175000.0,61953926.31042066
100,1407,1,12166000.0,1352629668.300436,2892000.0,1070241377.0151086,9274000.0,277142954.2622056,5000.0,143004324.09520423,54000.0,131196329.52681315,59000.0,214081139.76746857,-3433000.0,23660519.134736374,3433000.0,160817412.8931685,-3428000.0,40793847.47115277
507,447,1,189783000.0,1713492368.6121697,45792000.0,1475212255.0131276,143991000.0,385394343.6457212,2372000.0,188060959.39646232,0.0,148774162.94228625,2372000.0,262333480.61125708,-18270000.0,28909920.57897906,20642000.0,212273449.22066703,-18270000.0,55320765.238772824
547,960,3,1072653000.0,1843463155.456503,455367000.0,1101930948.7528489,617286000.0,458554901.7226808,134998000.0,174046994.72495747,27783000.0,161889564.18201286,163452000.0,289701422.1022445,5489000.0,26732922.53376159,129509000.0,147431477.05744928,5489000.0,100086846.04912925
457,632,1,665104000.0,2037507430.1230369,575531000.0,1759332204.429497,89573000.0,664558578.677941,30803000.0,231848708.3791333,19437000.0,209442309.55968422,50240000.0,313495711.6463523,10357000.0,46409943.81167578,22017000.0,241744403.0714666,8786000.0,62999978.763925515
560,618,0,1900367000.0,4083899740.1511946,289037000.0,2285869337.6070457,1613343000.0,1857580279.979889,45433000.0,269425294.9826869,413911000.0,400641337.0231397,459344000.0,739915442.9208304,-6757000.0,69742752.38469914,52246000.0,236527801.26118124,-6813000.0,74559347.17205732
1402,1560,4,88944000.0,1428295274.972313,45361000.0,1162397869.7855265,43583000.0,396145551.4057132,0.0,134285384.64818543,45000.0,171741113.5403738,45000.0,249120842.56783748,-14351000.0,30565769.469047263,14351000.0,203423802.97748366,-14351000.0,25714078.889016964
1274,683,0,5390785000.0,5146406320.720009,4083098000.0,3100996840.595505,1050686000.0,1867967655.6656826,352054000.0,421992766.49701315,284900000.0,532543266.4619577,636954000.0,838648121.2895383,120850000.0,84774479.26764561,187232000.0,300411634.60202956,164822000.0,71484313.22580664
799,1475,3,18535000.0,1684557101.8768272,13748000.0,1395548472.1647928,4787000.0,434591652.66296995,2839000.0,156187208.8448088,7502000.0,148381909.92771786,10341000.0,227472915.72360766,-2229000.0,26174405.67709142,3071000.0,129847437.531712,-232000.0,100801284.86100003
1436,366,2,13281300000.0,7140552426.829166,5777300000.0,3201657328.262351,7484300000.0,3451743174.9666605,1030700000.0,613766903.7037379,1150100000.0,690580482.0000266,2180800000.0,1748246760.3125558,687000000.0,312895939.81801724,343700000.0,342260847.7338003,687000000.0,57220182.99668793
1518,564,4,108681735.0,1565694294.725422,9192190.0,1324447093.7481902,67531550.37365061,401821495.5005462,2201326.0,139806902.76626056,255772.0,171012411.65317404,2457098.0,254266522.11625516,-8935951.0,31253146.241708092,11137277.0,202185955.22556445,-8935951.0,23844287.082807865
211,1245,3,189692000.0,1840628501.1055374,90178000.0,1588427071.6858442,99514000.0,582504703.467801,-4411000.0,180346748.64301983,24963000.0,170570925.07943815,20552000.0,249716989.269148,-10000000.0,31156901.64615199,5589000.0,138776888.48898202,-10000000.0,100801284.86100003
1542,539,4,230878000.0,1653323504.1741128,57278000.0,1394050987.6361399,173600000.0,526392759.0586165,26973000.0,152825211.0096913,7041000.0,204847221.57815474,34014000.0,274740400.27837396,-11169000.0,35850337.06333542,38142000.0,214165597.62120062,-11169000.0,25454799.55440776
1496,129,4,73773000.0,1657925831.6931963,50819000.0,1243341708.562977,38847689.64492722,427813881.5444261,5428000.0,151507640.38497138,22481000.0,155411902.99836987,27909000.0,261168411.07009208,-1778000.0,33139170.93582613,7206000.0,225426280.51825285,-1778000.0,25054155.567564815
1891,794,4,1582767000.0,2248956265.8794045,680421000.0,1874576594.9834368,880211000.0,693985191.4842383,56683000.0,186057384.4662679,17637000.0,248788009.60895568,74320000.0,339336561.7922318,-5119000.0,44545399.916253895,35279000.0,223980485.59409997,21404000.0,29204513.962087367
362,1155,3,5641000.0,1483723400.8038597,5200000.0,1141311418.85219,-3859000.0,367812999.3498707,1192000.0,141015752.48620152,781000.0,137964773.9354326,1973000.0,214104488.616987,-97000.0,25776883.48701459,2070000.0,122593886.08141321,-878000.0,100801284.86100003
605,905,3,3208196000.0,3149445094.442006,2133043000.0,1915048194.5486302,1075153000.0,1476667696.829369,625972000.0,470309716.7873352,1066275000.0,739886817.0831912,1692247000.0,1258711790.2522314,91616000.0,83468175.08211158,497965000.0,373646019.2519777,128007000.0,100801284.86100003
384,713,0,13057000.0,3246561843.231375,4943774.229094189,930878847.7579365,10949000.0,1867967655.6656826,7944000.0,110192146.24301428,0.0,136615711.4884464,7944000.0,219729668.89395225,1997000.0,27871346.424878523,5947000.0,173200417.8005087,1997000.0,53531673.11252536
438,1575,4,5973000000.0,6131743361.84749,4408000000.0,2668516102.080453,1554000000.0,2066457766.7514791,244000000.0,265637604.06287485,1526000000.0,734887580.0180837,1770000000.0,1070659586.8175932,147000000.0,64281390.55946185,127000000.0,254482976.4174886,117000000.0,41667939.01903812
1761,738,0,589088000.0,3805746474.4881654,253950000.0,1654019261.3815584,335138000.0,1867967655.6656826,19294000.0,194798974.1022307,99428000.0,198256025.21322674,118722000.0,300689570.41340697,9057000.0,59774505.00936984,10237000.0,217676604.8900749,9057000.0,73775133.15852135
403,525,3,21286772.0,1537543189.9247298,1383236.0,1230652583.2809978,19903536.0,395290205.560181,781782.0,140646155.29167318,421382.0,143097090.9570037,1203164.0,213262443.07865763,-1960898.0,26851279.85286349,2742680.0,123110097.11635104,-1960898.0,100801284.86100003
388,1349,4,3445920.0,1693383167.078539,1859560.0,1343842401.4381402,1616914.0883314284,430081892.2178831,2970901.0,149404836.4874819,569508.0,146073125.41285276,805185.0,242303088.4302851,2437201.0,28148898.19659117,533700.0,192550068.77987495,2437201.0,34376220.777787425
1452,124,4,328158000.0,1788178011.1688504,124250521.82515822,1611746693.45937,270486000.0,611649662.8612397,24944000.0,161862139.53341696,16521000.0,222334738.0383106,41465000.0,298505030.44090915,-7674000.0,40769924.294006355,24827000.0,223217729.323924,117000.0,25897953.06028391
1876,412,1,2498305.0,1299391346.5967054,2997402.0,1067651474.2052703,-3454854.0,281432568.89568615,467340.0,141395580.54758954,346611.0,136379287.36548305,813951.0,205981973.9149704,-114631.0,27655638.928182155,581971.0,150930967.3115491,-114631.0,41074244.25396855
757,651,2,1288046000.0,2227797449.559399,649920845.9604261,1634490101.8636315,889849000.0,821791252.0824168,105384000.0,227129502.4715395,285360000.0,303870025.7190697,390744000.0,481392250.2272178,53190000.0,39452562.45579041,52194000.0,236977132.4290075,53190000.0,57220182.99668793
660,226,2,600057000.0,1811193774.9641614,369915000.0,1466162537.1759057,225443000.0,673830847.545698,43121000.0,197809040.30409122,106269000.0,264946587.5210275,149390000.0,343448392.7608031,7853000.0,24703235.069257185,30439000.0,223206275.13235062,12682000.0,56723411.19163494
197,709,4,538955000.0,1307291985.0174932,291671000.0,1220604439.473106,247284000.0,434209375.81898427,-14193000.0,136250540.85114226,14235000.0,188753189.287848,42000.0,269889609.64901483,-51845000.0,20025182.437801614,37652000.0,211191539.16973048,-51845000.0,24634429.758615915
93,962,1,25334074.0,1433294174.9712567,18917048.0,1364214125.2482705,5501613.0,283877656.4139285,-536032.0,155487345.73036778,4501393.0,156451253.74452484,3965361.0,219877747.67421937,-2975120.0,28498180.001214445,2439088.0,168259036.06866273,-2975120.0,53302238.235373124
472,1463,0,1934400000.0,4497614792.91391,855887268.5537325,2621443637.5280137,957200000.0,1867967655.6656826,84000000.0,301240217.44813246,375600000.0,398867220.2034683,459600000.0,662577556.2417371,30800000.0,62803272.5906547,59000000.0,249631814.48131233,25000000.0,71484313.22580664
1345,573,0,102973000.0,3384903470.024278,162948000.0,1281400066.3293214,-346214000.0,1867967655.6656826,-13037000.0,136918397.01581627,25768000.0,129614312.66410136,12731000.0,232002113.40492833,-23219000.0,29482812.450230733,35950000.0,197869557.72923893,-48987000.0,40678989.076383166
1672,351,2,2501300000.0,2502825782.1421375,1075500000.0,1813302816.4184854,1407900000.0,1014057777.2437961,99600000.0,236330207.02866942,151100000.0,398016987.3051621,250700000.0,497407424.65369964,31900000.0,29264938.577804863,67700000.0,241921579.90563107,31900000.0,57220182.99668793
521,298,0,27910000000.0,14720676038.074965,24392000000.0,12771807277.842909,14058781786.346067,1867967655.6656826,1525000000.0,1036557319.1423818,6421000000.0,3409452765.522129,7946000000.0,4418266273.856646,561000000.0,221088383.8787777,638000000.0,354818717.2018184,887000000.0,61313086.6800596
1143,519,4,105238000.0,1611175151.4766417,42240000.0,1244151567.350141,62998000.0,434666312.2435131,8572000.0,139810655.3102581,322000.0,164511958.17262894,8894000.0,245620746.8164456,2218000.0,40400206.26908181,6354000.0,215604809.7924108,2218000.0,27890458.043981496
502,1365,3,2010176000.0,2673994345.5381746,889414829.379791,2094824457.436678,1057656000.0,1139292376.0315163,113627000.0,262540913.44497767,250202000.0,307954501.7838503,363829000.0,468206409.4011711,44531000.0,65148868.98980737,69096000.0,189311405.84921664,44531000.0,100801284.86100003
319,621,2,15154000000.0,8409669086.076362,5534200000.0,3648425149.4748087,9554000000.0,4866482161.35623,739300000.0,478087620.21224004,999600000.0,693096263.494674,1738900000.0,1502764360.3085735,318400000.0,180499460.2295456,315200000.0,337980990.3890955,424100000.0,57220182.99668793
471,516,2,346507000.0,1662053107.4942498,100361000.0,1374109103.3451245,246146000.0,534725042.1490238,14398000.0,187523884.15822285,62502000.0,249383616.27564538,72480000.0,320995276.06793356,4926000.0,22099179.874242052,9472000.0,222980473.7456131,4926000.0,53204533.56694146
1756,421,2,229309000.0,1721824629.601572,190264000.0,1425617747.504783,-44269000.0,520027033.1812936,9225000.0,180401034.87805006,52669000.0,249993364.34631962,61894000.0,306234985.6791235,1401000.0,21321052.193446606,7511000.0,213328554.02210364,1714000.0,50290411.88437016
848,415,3,101740000.0,1608861404.2800741,28463000.0,1139097158.3696544,50734000.0,494486703.4918803,29850000.0,167687653.50864694,12745000.0,157601348.24468684,40857000.0,248810519.31510508,2689000.0,32664649.943115525,27161000.0,141289024.04842895,2689000.0,100086846.04912925
1310,660,3,9582645000.0,4723727698.853431,3280269000.0,3003750815.043426,6302376000.0,1903170799.0520906,376175000.0,278626104.295352,424915000.0,477685531.24455917,801090000.0,900440814.5188943,272965000.0,67663274.2494402,103421000.0,241005721.75464582,272754000.0,100801284.86100003
202,496,2,609678000.0,1862988282.3341103,288631252.1743736,1485808432.955498,366720000.0,684725173.3265224,84451000.0,195597265.66298482,21802000.0,260550842.3577354,106253000.0,352588789.9759896,5683000.0,22709457.905612275,78768000.0,217274312.4748497,5683000.0,56723411.19163494
1444,1250,3,43441700000.0,30341521546.86219,21559314449.01792,7979731668.731938,21882385550.98208,7412769445.34705,1370000000.0,739573347.7408534,587400000.0,846310302.1289916,1957400000.0,2404305824.242585,472000000.0,181576839.34388554,1485400000.0,929625337.6064695,-115400000.0,100997358.25536296
1578,687,1,1146353000.0,2641846346.186193,752649000.0,2001569919.320225,393704000.0,999726820.8882978,95229000.0,253954709.4558088,32092000.0,256630288.17206985,127321000.0,437190019.46035933,-58245000.0,37916365.3374225,153474000.0,251035433.65455094,-58245000.0,64192071.90041982
451,1036,2,796771.0,1442387346.229298,1072746.0,1018085093.5196538,-275975.0,357282741.81357765,205707.0,128269101.79058039,158335.0,122609045.94581968,364042.0,235768388.63081872,-168127.0,16144870.764271587,373834.0,160928808.92131093,-168127.0,43098294.429131955
35,1172,1,9069035000.0,4703410272.302478,2563480000.0,2438467094.6687517,6505555000.0,2597498225.291055,942419000.0,470329681.3872311,522866000.0,586134323.2410065,1285548000.0,1210750765.0576086,602695000.0,132627178.1816118,339724000.0,319933526.8350589,602695000.0,64192071.90041982
237,194,4,48924605000.0,31979634912.087967,25766652000.0,8798733109.905956,22441501000.0,10175597562.778484,1560160000.0,838043649.569553,915531000.0,1010489804.0381217,2475691000.0,2283979694.377714,558196000.0,171000961.65924814,1001964000.0,384551775.3832819,558196000.0,55995650.8772679
917,1116,2,514281000.0,1920175280.9472227,309957000.0,1485808432.955498,198004000.0,647220742.4970537,106985000.0,198954962.00249127,149052000.0,258296325.42375678,309744000.0,324250339.0291047,62399000.0,27115371.430247664,44586000.0,234939325.76517886,62399000.0,55695792.3479605
558,251,2,17876000000.0,6345240237.516339,4077000000.0,2418971166.3679686,13799000000.0,4251983830.6101465,-917000000.0,272152603.5838546,1453000000.0,396073256.9670831,536000000.0,820830117.7872369,-1774000000.0,47402604.48231947,857000000.0,278955809.0729173,-1774000000.0,37087548.52853682
73,532,1,218354000.0,1592085973.5687308,62021000.0,1492573268.4064786,156333000.0,417896379.15952206,-143000.0,198275763.85918218,848000.0,163959866.84587574,705000.0,254037599.04005444,-31577000.0,31903108.854847714,40859000.0,209078615.6314163,-41002000.0,59690107.916208915
532,205,3,2268100000.0,2944197908.5915766,1627400000.0,2038319502.4874268,640700000.0,1210025978.8536727,78400000.0,247845913.49611956,665200000.0,477534333.1359645,743600000.0,800559481.4439967,19100000.0,57759185.64324962,724500000.0,388754458.37595135,-646100000.0,100801284.86100003
986,275,3,49117000.0,1617955406.4501653,7104000.0,1442046003.7151847,42013000.0,413136257.51608455,1616000.0,153012973.63631815,3273000.0,147397352.61362743,4889000.0,232500841.4305122,-1489000.0,33865091.42804899,3105000.0,127664087.21685839,-1489000.0,100801284.86100003
252,1030,3,12822000.0,1586749549.9503288,1624000.0,1307879094.8233073,11198000.0,303116726.02413297,0.0,125000369.21852821,0.0,138816617.96607482,0.0,212691985.87676966,-1983000.0,20822031.771033376,1983000.0,118318842.76438421,-1983000.0,100801284.86100003
982,1392,1,543788000.0,2383775660.345598,205894547.02387,1718790812.9428923,402777000.0,706765249.5433939,1944000.0,224413404.89389753,0.0,200619603.67273313,1944000.0,366911145.0918895,-51279000.0,30603539.268213272,53223000.0,245041601.96615222,-51279000.0,58753430.78789872
1947,616,2,16965000000.0,10145477333.498613,7506269391.549871,3804179483.41134,7744800000.0,5420816364.282515,1329900000.0,769628922.8231088,1175700000.0,736611647.7600545,2505600000.0,2003675320.4779751,1069200000.0,405558714.4876447,32700000.0,361999933.8152,1297200000.0,48624915.99165419
1206,918,0,29788000.0,3539468508.3694243,27907000.0,1149512877.838859,1881000.0,1867967655.6656826,0.0,153767055.06490797,3452000.0,123319679.67920637,3452000.0,257868759.26791668,-23801000.0,40380909.66672436,23801000.0,212108651.64089486,-23801000.0,57792605.97793624
542,1191,2,39315010.0,1530622605.476108,15768167.0,1088718486.1245956,23791305.0,372395470.939528,7600979.0,149989369.23354465,41810204.0,152063456.27692878,49411183.0,268365181.96353877,-1588725.0,20699731.05654137,9189704.0,180329840.2953378,-1588725.0,46116638.20680777
15,899,4,184728000.0,1577897474.4731536,40367000.0,1328139267.5160367,144361000.0,454051409.13844633,0.0,139545529.23403376,8094000.0,182490296.75364405,8094000.0,261547282.48398316,-23114000.0,29739398.788843088,23114000.0,209106761.35425746,-23114000.0,21951209.082674727
1754,856,2,5014090000.0,4915656678.355183,2606263000.0,2221989736.2857285,2407827000.0,1729864331.8315334,420690000.0,345041195.896087,905430000.0,601375657.9741682,1326120000.0,1001344856.3648806,237492000.0,101747821.10403183,183198000.0,271690682.4525892,237492000.0,57220182.99668793
1448,1495,3,3543460000.0,2920400276.6589375,2602227000.0,2192119157.8514614,941233000.0,1000447482.1573304,443568000.0,273202028.58202815,134292000.0,384628682.5939034,414603000.0,865298995.750654,14363000.0,43524817.30193726,429205000.0,275924801.3486884,14363000.0,100801284.86100003
459,1563,1,747087000.0,2217765502.06865,79688000.0,1482721660.4790852,667399000.0,638821726.7965999,34565000.0,232779582.49865058,22203000.0,210260291.137464,57261000.0,300938483.73195255,-16306000.0,34767098.67261358,50871000.0,240282383.52918264,-16306000.0,62695105.20102482
1505,8,3,4578121000.0,5721619925.560265,2310023301.364386,3205510009.623691,2489780000.0,2891774612.1809998,2190001000.0,1482542038.9044714,-1465670000.0,602660478.6095262,724331000.0,1566090687.8000836,216069000.0,121782269.80777149,1973932000.0,1733765636.516264,216069000.0,100801284.86100003
1613,399,4,11895943000.0,7569222826.319534,3479745000.0,2689605305.717791,8416198000.0,3229317594.930772,335683000.0,346840839.1607729,296441000.0,489501526.33341163,632124000.0,879067686.1675946,90949000.0,-8730166.460315302,201199000.0,256035247.67864335,134484000.0,33534385.637248345
1214,1410,3,1059300000.0,2479120959.157713,513000000.0,1975082404.7020583,545000000.0,1135454795.2570298,132000000.0,240882614.88384154,172700000.0,281093234.67289907,304700000.0,442169110.68489814,34700000.0,65316595.68742779,88200000.0,175476921.09106463,43800000.0,100801284.86100003
454,235,3,11204065000.0,6612802543.306776,4242197120.938668,3303559555.3472447,3489373000.0,3215022742.2247915,480702000.0,350974286.91764766,457696000.0,489200334.1763313,938398000.0,942400987.662571,172392000.0,68472221.07435407,308310000.0,351002295.4763634,172392000.0,100801284.86100003
1392,34,4,531121000.0,2036897124.7044969,248900000.0,1704861474.5100567,282221000.0,822665945.0764617,62379000.0,173278800.563691,135419000.0,282873202.8575973,197798000.0,398093725.06908274,18703000.0,52905275.62288605,43698000.0,237598615.66751617,18681000.0,29377428.985575832
1519,1545,4,961035000.0,3180766767.0546074,1381722000.0,2376657776.2808046,-420687000.0,1204586905.3423638,271111000.0,272349096.7333758,201537000.0,406081469.1940617,472648000.0,546797850.632279,5387000.0,54699179.41855946,265724000.0,231195301.1909789,5387000.0,34619541.76288754
1060,432,1,3194462000.0,3680545368.461571,1643299000.0,2273075099.842407,1512215000.0,1615687102.5884256,817744000.0,408254426.047044,0.0,388106142.54369,817744000.0,762395024.5275577,37900000.0,60712766.36637295,779844000.0,282611295.15606856,37900000.0,59607709.8751947
1100,895,3,6042273.0,1452517544.3040233,3627261.0,1061109330.6704991,2415012.0,305889180.337646,0.0,131075940.40356708,0.0,130259839.20071143,0.0,210010641.05174005,-1829562.0,22559700.562781587,1829562.0,121077583.23519954,-1829562.0,100997358.25536296
203,426,2,76266906.0,1561026232.107666,57438990.0,1273951301.52334,40912361.81482647,490450929.50559306,9146097.0,159380845.5695126,0.0,208803269.3877558,9146097.0,284802957.81339836,-2633902.0,18672788.411402166,11779999.0,190327150.83802444,-2633902.0,48742355.36997433
1493,1399,4,-3532973000.0,1790137515.1707764,-2747133000.0,1007748186.715733,-773571000.0,969258140.4146907,87737000.0,211877465.3903976,40236000.0,460093251.2083468,103187000.0,546510061.6082044,7123000.0,45856823.35145077,80614000.0,235959833.04713365,7123000.0,32028851.60286296
543,815,3,846734000.0,2058972561.6566205,635659000.0,1454942069.6007516,69332000.0,649124876.8300755,204774000.0,172159158.4674989,-13024000.0,200187582.77696162,191750000.0,307721558.6740408,-52860000.0,29426612.857997388,257634000.0,163646640.54790214,-52860000.0,100801284.86100003
1966,624,4,1354514000.0,1952427302.4545703,675720000.0,1622927643.870193,319291000.0,623938613.3408446,-16558000.0,151498356.71710807,64132000.0,202294032.3747841,47574000.0,302187922.12698865,22229000.0,33264339.503216416,13428000.0,249736764.18574342,-29986000.0,21857760.048855677
1802,437,1,270533000.0,1713492368.6121697,240046000.0,1624948750.4476311,30487000.0,441037930.8230833,26052000.0,199352977.3211275,12454000.0,173031325.3024311,38506000.0,257528683.1142956,-21038000.0,32919286.887768574,47090000.0,225976433.76513207,-21038000.0,62083217.57752711
1372,1341,2,583783000.0,1782577102.598907,717382000.0,1452250083.4625366,-133599000.0,653333417.3876835,41865000.0,216796572.23954883,32703000.0,268341343.4997658,74568000.0,386306754.7496282,-32006000.0,21595680.646274388,48224000.0,234337327.16652346,-6359000.0,56442567.52501434
1325,1439,4,534446.0,1447069638.0948286,9794849.0,1116360224.811695,-9132038.0,329640004.16209376,6264.0,127107042.28591603,3881.0,130627767.6523593,10145.0,228159181.72082794,-961868.0,26617531.108699262,972013.0,182419917.51298612,-965749.0,29372298.480046436
1504,1241,2,106308000.0,1612458061.7282724,29369000.0,1163514712.0083654,76939000.0,462775592.73088324,15630000.0,176855583.76869112,0.0,208503498.50681317,15630000.0,298273131.76764345,-23899000.0,16478870.89486742,39529000.0,198956428.81757396,-23899000.0,53821076.43446639
1347,1518,0,369031000.0,3660181321.059045,216722530.1814524,1453383630.710875,188777000.0,1857580279.979889,45044000.0,194183933.5595621,42173000.0,210477783.8085026,87217000.0,332057731.1223198,-3804000.0,59315496.954602055,48848000.0,227510798.87509918,-3804000.0,66909375.792108834
1492,872,1,327784000.0,1674133455.7583199,323919000.0,1590117141.4416368,3865000.0,444565897.4766135,33496000.0,205445902.25233653,8201000.0,173556587.75974,41697000.0,265432700.42235768,-4913000.0,33840711.59745938,37287000.0,245962830.2147178,-3791000.0,63096710.91277837
1107,1504,4,85658000000.0,31133913973.51302,88335000000.0,23699527292.605175,-2772000000.0,5106890507.207726,5387000000.0,3660588818.173311,14002000000.0,9086294197.630192,16935000000.0,15794396478.067234,1165000000.0,851726299.264143,4222000000.0,1482841007.2513864,1165000000.0,328376679.6199681
1336,431,2,898860000.0,1965564894.960125,527877640.3036609,1503101179.0015392,360528000.0,595192521.6043133,68259000.0,186567779.20420533,42065000.0,242376530.93338645,110324000.0,317706548.90252304,-1325000.0,22151427.462357566,69584000.0,227216254.4197168,-1325000.0,46853814.034477524
599,1357,1,50546000.0,1470137732.189744,5959000.0,1262176659.0567925,44587000.0,283877656.4139285,1989000.0,156498173.51663822,1909000.0,159893665.77498388,3898000.0,217387356.85968077,-1895000.0,28396518.053015783,3884000.0,179934568.12049246,-1895000.0,56217392.56873962
117,630,3,939056000.0,2379210603.733082,419590000.0,1764142512.3071098,517473000.0,1126901681.5169969,90527000.0,233649596.74167734,120216000.0,244334563.15685266,210268000.0,368023734.3593936,61012000.0,56611059.83506277,29515000.0,165604483.5100057,61012000.0,100801284.86100003
1825,1520,3,20027115000.0,8844138278.034527,12952737000.0,3786978751.095221,5611108000.0,2386599556.574074,32786000.0,310099122.742065,283742000.0,452125699.62259114,316528000.0,860426151.7790216,-1347477000.0,69034163.40471226,1910658000.0,423250984.5712714,-1877872000.0,100801284.86100003
1507,300,3,124094000.0,1666640860.683869,18130000.0,1544926620.811942,105964000.0,419477230.3208517,830000.0,162905839.0471909,0.0,153147174.96684986,830000.0,233749079.51374483,-5787000.0,26369280.05970092,6617000.0,130040958.73135436,-5787000.0,100801284.86100003
321,587,1,68675000.0,1535773799.0673099,40331082.646745786,1473109603.4990587,53645000.0,307496995.3239746,10938000.0,180076547.69412547,6604000.0,157978773.110214,17542000.0,233517197.08387506,880000.0,32945432.36399222,10058000.0,200359463.66652477,880000.0,62739869.15567251
1482,433,0,1833700000.0,4377622195.663923,811331929.4597701,2626637971.0134945,482900000.0,1867967655.6656826,110200000.0,296455479.8048516,356000000.0,348995188.81265193,466200000.0,619783609.3863311,45700000.0,67684574.50283046,55600000.0,263643567.64662647,54600000.0,71484313.22580664
508,1187,1,62515472.0,1472653087.8251066,29595817.732691668,1278553217.0158422,21861273.0,308404243.91174984,7032458.0,156273573.27874416,11256239.0,146717614.65709388,18288697.0,227317702.043231,-1564350.0,25753750.482687607,8596808.0,179858792.26186955,-1564350.0,61057614.604066946
1411,610,3,33859785.0,1565781629.1911378,6178818.0,1174052484.7249937,27680967.0,357322801.01116264,-63384.0,142930772.71451902,87873.0,139768925.81735677,24489.0,213886273.6622007,-2675666.0,25739423.32443112,2612282.0,124397740.36103368,-2675666.0,100801284.86100003
718,1603,3,770792000.0,2339857680.078653,581187000.0,1857485425.0989678,188503000.0,944637569.2471335,456709000.0,250561647.46512905,0.0,240811494.81054735,456709000.0,423195384.5649346,-29756000.0,35296901.73387245,486465000.0,275823130.74923706,-29756000.0,100801284.86100003
1865,1457,1,4753100000.0,3365619207.3314066,2691038000.0,2166572055.0000772,2062062000.0,1683075617.7285824,383135000.0,362603045.7862099,0.0,404183004.21071804,383135000.0,738286923.8630736,126771000.0,46905501.10666378,256364000.0,280905692.15227103,126771000.0,58939660.92012006
710,1426,2,9330700000.0,5291496723.734777,4987700000.0,2578120627.66013,4343000000.0,2560173252.9221945,590200000.0,406424439.21578974,367100000.0,586918843.7052463,444000000.0,919205412.5007572,121300000.0,89453817.4158333,468900000.0,312430440.22447926,121300000.0,56564733.32676461
285,985,3,1797231000.0,2252624678.29158,1568932000.0,1938619561.3079019,228299000.0,935415795.9285452,143030000.0,220701606.2459014,0.0,275439282.5524142,143030000.0,491863762.8536376,-113543000.0,38204506.602602094,256573000.0,210046602.88372168,-113543000.0,100801284.86100003
1609,179,4,90048000.0,1689604162.6032848,45436321.63528667,1261113717.7187872,37547000.0,489257552.70143163,2482000.0,150218952.97425157,9262000.0,176873923.00802362,11744000.0,270593375.3009001,1360000.0,34543763.004537076,2815000.0,214960176.51312706,-333000.0,31157196.864789754
1814,1095,3,190817000.0,1785416333.3695588,91955000.0,1764142512.3071098,118567925.39840196,609259970.6623275,16838000.0,209085222.84725967,21962000.0,190360011.58922446,38800000.0,270762992.69521344,3292000.0,37807039.2630257,13546000.0,142458302.75013906,3292000.0,100801284.86100003
720,50,3,24930824.0,1632081462.2995124,6278564.0,1206391606.9724503,18652260.0,418649172.32575166,7866761.0,163823099.57612765,20382092.0,144239008.0240252,28248853.0,226999337.3131299,1448213.0,27906888.84149295,6418548.0,128062203.2529943,1448213.0,100801284.86100003
1707,149,4,6071000000.0,10194112140.68105,14261000000.0,2574100386.924252,-8190000000.0,2500924996.4776874,1287000000.0,628484843.8812923,421000000.0,675973223.5420834,1708000000.0,1448130594.2342215,613000000.0,155814053.08624703,1095000000.0,373083290.7832327,192000000.0,36267327.59241221
485,1443,0,5768300000.0,5280467785.08913,3017800000.0,3209971322.024221,2739100000.0,1867967655.6656826,487400000.0,437618615.8725489,888400000.0,635001434.4282761,1375800000.0,1265530925.1356797,276300000.0,101101285.11338525,211100000.0,299465910.0613262,276300000.0,71484313.22580664
1364,1252,1,3486179000.0,3638445013.8722115,1927467000.0,2354799755.1790276,1501742000.0,1528700613.98898,315111000.0,361362528.1489543,669472000.0,592865154.805457,949217000.0,988057420.6898344,-24190000.0,65909707.88618635,194277000.0,269202056.40726435,120834000.0,60917484.23424904
1943,1464,4,496042000.0,1969093779.0974212,349488000.0,1704861474.5100567,146554000.0,824959047.7850051,33924000.0,180228812.5280883,212763000.0,281454096.75093323,246687000.0,341622607.87635577,12448000.0,55494554.579641476,21476000.0,228763246.034604,12448000.0,33005739.404956605
708,512,1,1713800000.0,2919749303.1909666,864747334.9608463,2128854627.3744128,585500000.0,1363577106.8410532,141400000.0,304386303.9920424,205900000.0,440731878.1843858,347300000.0,611187113.9975524,100200000.0,63192162.235381335,64600000.0,279853707.41729844,76800000.0,61886837.449038
1795,256,2,5817000.0,1501904321.9337764,1413000.0,1101394195.3138895,5436000.0,415952004.51697516,5000.0,132094800.51437354,0.0,159519478.89519548,5000.0,263976581.1223774,-3525000.0,16914785.369304165,3530000.0,165692336.7971653,-3525000.0,44491232.51413454
1196,860,3,4180537.0,1519494367.0302186,13379601.0,1454062148.7807057,-9199064.0,393120936.5349245,1107842.0,153821357.66488177,974711.0,142593196.6624965,2069845.0,214554205.90437305,-2577294.0,22857121.446476758,3685136.0,128490099.32467479,-2577294.0,100997358.25536296
1785,368,0,6656000000.0,5087456399.00032,2127000000.0,3137710911.3112044,4529000000.0,1867967655.6656826,386000000.0,406783511.42279416,110000000.0,893561916.9465694,496000000.0,1315355999.4287932,-53000000.0,75278476.98422512,439000000.0,292965750.88505006,-53000000.0,63361189.75464313
1117,1482,1,191593000.0,1715036157.5757418,250675000.0,1531037538.643614,89973054.63642293,450459948.6124629,28173000.0,190230561.9949446,35245000.0,176460799.17446983,63418000.0,261283790.01683605,-6852000.0,36068553.55257749,35025000.0,221620397.104729,-6852000.0,53789398.60278741
611,528,0,69753000.0,3597182285.179346,24624000.0,1312517004.647915,45129000.0,1867967655.6656826,4333000.0,164808679.1315871,3937000.0,159126877.17943335,8270000.0,261618239.399706,-17948000.0,44222665.57130924,22281000.0,210574591.02525884,-17948000.0,68441713.04093036
1037,1096,2,12798100000.0,7748913763.573517,7698700000.0,3807151602.1868305,5099400000.0,3076434918.0484395,578600000.0,457539350.63435435,1141600000.0,719616542.7424129,1720200000.0,1652956506.3021722,210200000.0,169851291.35893345,368400000.0,326977036.9784254,210200000.0,54144841.199789934
1049,1368,0,41718000.0,3309262745.3599215,16883000.0,999016030.1152844,24835000.0,1867967655.6656826,4472000.0,134165487.67896289,-7000.0,142933197.27463078,4465000.0,224407662.8622917,467000.0,45134592.73115039,4005000.0,186575929.2569906,467000.0,60263944.66630051
181,192,1,2175066000.0,3010809640.398033,720018000.0,1720490185.522415,1455048000.0,1385625069.656278,262895000.0,230396243.0973558,0.0,257075860.41152972,262895000.0,534370335.8188733,-74357000.0,30436912.044901118,337252000.0,281731889.602671,-74357000.0,60514305.12621659
1530,1427,1,432444000.0,1713492368.6121697,58115000.0,1549792126.1357486,374329000.0,522074769.52352476,30953000.0,206245473.24611336,9019000.0,174209423.29368567,39972000.0,265815024.07890368,-4508000.0,36413632.754710056,35461000.0,239412968.94066563,-4508000.0,62729099.38386598
1172,703,0,1951144000.0,4438664871.1942215,976648000.0,2799973783.2825494,828149000.0,1867967655.6656826,81471000.0,296432084.4223117,811299000.0,502774003.5646746,892770000.0,885023533.0451938,21174000.0,59549274.67515587,35340000.0,257019548.0260737,46131000.0,65047853.61277819
1844,177,1,5184000.0,1566609925.8979754,33317000.0,1153330859.0632339,2568262.933576247,337412668.69992065,28000.0,133240419.76558709,1138000.0,131129900.80685174,1166000.0,202714230.07563663,-1174000.0,26737218.685135886,1202000.0,160658663.51090562,-1174000.0,38179998.19607353
937,1211,2,30042800000.0,19845630532.76016,15158963259.867964,6315436587.686202,10331300000.0,5548793678.893057,1541600000.0,784265839.2064836,2284300000.0,1022138818.3253303,3825900000.0,2688535058.433737,727800000.0,368441279.9722584,402100000.0,336606595.67500436,1139500000.0,57220182.99668793
1319,819,4,3143366000.0,2772097213.3680663,724791000.0,1852841070.09824,1686216654.8151803,1106699152.4272568,293240000.0,206977618.46925715,0.0,324385368.4741974,293240000.0,499406461.0756051,242794000.0,55460021.728465885,50446000.0,229048483.33610734,242794000.0,29377428.985575832
785,508,0,2558318838.0,4428348204.566387,289865031.0,2484646199.7468076,2268453807.0,1867967655.6656826,191440633.0,348461476.0825347,384407857.0,376770101.1451185,575848490.0,627480424.3206286,122416529.0,79862426.78780112,69024104.0,271589182.6173118,122416529.0,71484313.22580664
534,742,1,355784000.0,2236635068.8612723,359982000.0,1802712538.7837188,21035000.0,686149383.6588621,21274000.0,212570309.2583809,23247000.0,202610883.5271302,43857000.0,330684324.7419852,-2501000.0,41411056.07598292,23775000.0,247260826.68586558,-2501000.0,64192071.90041982
1073,970,3,107571000000.0,86662964751.82582,49865975585.04998,26345619616.94837,57705024414.95002,35083217578.46039,4680000000.0,1857581256.8315687,16059000000.0,9537437747.201443,20739000000.0,12656209360.957434,2233000000.0,500076788.65370053,234000000.0,558473635.2535613,4446000000.0,100801284.86100003
871,1115,3,357016000.0,1915807007.373094,134021000.0,1609640236.8951578,222995000.0,626576927.3575463,10859000.0,206035778.30173686,60424000.0,178280044.87610984,71283000.0,269811884.61285806,4410000.0,38886048.939796954,6449000.0,147643206.78891978,4410000.0,100801284.86100003
145,1561,3,10492900000.0,7411285233.558409,4642648635.342979,3595363257.520535,7724300000.0,3671880251.5815597,1077000000.0,574510348.1786605,2546000000.0,2007942254.3465471,3623000000.0,3019516726.5019054,389500000.0,170663747.74842,626900000.0,478162119.7374234,450100000.0,100997358.25536296
1137,1231,2,221167000.0,1841832419.3529778,272405000.0,1397288384.8904905,-51238000.0,552458762.6013471,26384000.0,191480931.94452214,0.0,242926685.21635544,26384000.0,334077335.75547874,3123000.0,18092089.88170761,23261000.0,224602585.0553695,3123000.0,57313766.04076813
1853,1087,1,644700000.0,2482379553.945704,668700000.0,1920537266.5567167,-24000000.0,768887257.8235135,11300000.0,232628858.3278705,30400000.0,248892427.31345725,40500000.0,363468729.0603671,-2900000.0,46889846.51249429,9300000.0,262953177.09190565,2000000.0,60630739.784824446
1607,435,3,5733000000.0,5033769989.928514,4386600000.0,3025344316.6255236,1332700000.0,2278315906.431341,508800000.0,360840593.4357034,1740100000.0,962520677.0820011,2248900000.0,1738343888.2379694,201100000.0,82465753.80957274,328200000.0,331119101.66357416,180600000.0,100801284.86100003
497,361,2,3187469000.0,2657503585.2277813,1581882073.387936,1892653196.8762817,1402929000.0,1079846290.50117,12023000.0,301884106.05453074,118303000.0,414022356.7627009,130326000.0,572588311.9865551,121116000.0,36235684.68039686,236940000.0,246188699.93531975,-224917000.0,57220182.99668793
1789,988,0,160962000.0,3502334406.648899,136871000.0,1299083135.0834765,14091000.0,1867967655.6656826,33234000.0,147737741.49099606,28516000.0,130381096.85474825,61750000.0,237195981.69626915,-4105000.0,34461697.56375952,29699000.0,178200735.57378158,3535000.0,58080917.036083125
1733,155,3,1070082000.0,2252624678.29158,790095000.0,1655304530.7427237,279987000.0,755455080.1487144,59499000.0,204440330.06068563,92514000.0,217183280.75716537,152013000.0,338546085.2663083,-6147000.0,45310564.38718992,65646000.0,168548687.34733537,-6147000.0,100801284.86100003
1735,42,1,55335000.0,1499015806.378271,11648000.0,1317731154.8787472,43687000.0,275854447.48362327,13874000.0,163420738.721883,0.0,160716734.03367007,13874000.0,231623377.9100548,364000.0,30664604.434158802,13510000.0,185347844.66912097,364000.0,52882117.32034825
1273,370,3,8855100000.0,6180061506.842982,4468096700.788768,3012845892.7691298,3543300000.0,2449770629.2505035,468100000.0,317928061.66450804,2041800000.0,1171464133.43536,2509900000.0,1722990669.419682,256500000.0,86468917.47956558,211600000.0,285701568.0849217,256500000.0,100997358.25536296
226,1510,3,1045317000.0,2066944954.681209,491551000.0,1237217821.5942678,553766000.0,616279953.3661147,49476000.0,184021342.0442671,27012000.0,187174670.31709945,76488000.0,312144615.1780628,5569000.0,35726597.204762675,43907000.0,157296068.19490555,5569000.0,100282919.44349217
856,682,1,3335011000.0,3256299127.5365176,1532336000.0,1829375194.1069028,1376443773.6613572,1249729758.2322028,158805000.0,296908553.25106263,458734000.0,479749251.2434292,617539000.0,636155453.6017406,82276000.0,51417502.380149424,26748000.0,318031338.4030392,132057000.0,55461323.691843286
610,1489,4,50788000000.0,29121811681.07894,23543456582.29001,9249432233.854328,11845000000.0,5651394318.171426,1286000000.0,829952974.936231,484000000.0,857821695.8417165,1770000000.0,2011282800.629458,994000000.0,204443039.44758222,146000000.0,330822813.58317995,1140000000.0,80954402.2841592
434,1542,2,9209798000.0,3701423817.4551015,3242862000.0,1740566942.7708156,3654836000.0,1780891018.8768005,758604000.0,345514479.8575034,-63000.0,435865771.2363684,758541000.0,628582893.9767306,306700000.0,89732997.22929344,451904000.0,282402341.51447964,306700000.0,50304538.4142562
1765,981,2,3861516000.0,4152707112.7537246,3060094000.0,2324330907.5769377,801422000.0,1463788190.9552193,246503000.0,350302685.6155757,543454000.0,543284817.3701552,789957000.0,740496793.5284308,-286586000.0,62374753.52218915,130761000.0,257877882.12161505,115742000.0,47992584.34786393
667,231,2,3117800000.0,3276134656.9276543,2444800000.0,1845144645.0555165,673000000.0,1110049437.1006067,86700000.0,250209313.19576097,411500000.0,408882479.94747436,498200000.0,579022545.190489,-419900000.0,37268639.81208566,63400000.0,233429683.43434462,23300000.0,57220182.99668793
1194,1588,3,84073.0,1376821846.7072701,2814055.0,896133204.7013879,-2729982.0,286221216.7211088,0.0,124654340.66978467,0.0,129843862.5201143,0.0,206294935.337865,-647078.0,21370415.047894076,647078.0,122667291.77598232,-647078.0,100282919.44349217
626,281,2,250689000.0,1700799910.0834527,83024000.0,1403106769.7114494,167665000.0,537996693.468605,0.0,179581953.54127836,33193000.0,207294600.48703575,33193000.0,328118040.801579,-43672000.0,11455577.914857998,43672000.0,219500437.8740554,-43672000.0,53152540.12754813
1654,95,3,2267553000.0,2581018328.6200337,1375272000.0,2037051198.18813,519294000.0,1260254324.546968,30179000.0,244291192.43863696,36686000.0,311927071.5221989,66865000.0,447983497.3752322,-15417000.0,54103867.28410679,38864000.0,182880255.6808055,-8685000.0,100801284.86100003
288,1008,0,2221575000.0,4363553328.544788,1034139000.0,2530677734.3476224,1187436000.0,1867967655.6656826,131964000.0,297736683.7117241,106311000.0,332996734.8054993,188755000.0,515888969.7517226,3712000.0,57851072.30055709,128252000.0,254545101.63808024,3712000.0,71484313.22580664
1665,605,3,555271000.0,2133030483.0847592,273881000.0,1708515474.2884216,281390000.0,1049452762.5731481,77610000.0,214010878.19550717,73228000.0,232394254.3040731,150838000.0,374033284.6170163,6400000.0,41430046.18763725,144438000.0,167484707.925546,-66828000.0,100801284.86100003
652,935,3,1810200000.0,2496738958.0324636,1334200000.0,2357263948.5052214,472000000.0,1116764738.3367639,111400000.0,238810392.23536628,439000000.0,337442354.7582059,550400000.0,459494196.4723153,53300000.0,45126262.04566145,43800000.0,197194377.30760884,67600000.0,100801284.86100003
1078,46,2,339972000.0,1634536242.6288443,145992000.0,1364351954.5218797,193980000.0,555773721.8459094,800000.0,191014981.0273996,85000.0,220225265.0815941,885000.0,325823870.02787936,-35502000.0,9090404.896221101,45899000.0,216293203.86959496,-45099000.0,50335756.06244472
778,1331,2,992330000.0,2253002573.4981546,401273000.0,1454590073.8447104,544681000.0,774394350.0786258,417282000.0,230602118.11049667,0.0,246695836.92936063,417282000.0,495096101.9519575,5536000.0,26248684.151436582,411746000.0,243233522.3223374,5536000.0,53047828.29383612
29,1129,4,600271000.0,1768679897.9421048,137438000.0,1636791490.1073892,462833000.0,678916916.82442,73869000.0,157656982.69199687,24421000.0,255618009.63489008,98290000.0,342334425.84818244,-8089000.0,37089962.19949671,81958000.0,215678266.28183284,-8089000.0,25897953.06028391
854,464,4,47193000.0,1689604162.6032848,31000000.0,1319342811.3370743,16193000.0,509576453.4161204,4954000.0,147875293.11928415,3898000.0,192243568.59914,8852000.0,272415828.26631546,-615000.0,39277906.306060046,5569000.0,221046523.80267233,-615000.0,29538864.480848093
1423,1344,4,150549000.0,1759514931.6559882,163792000.0,1597594125.5751169,16674000.0,598606563.5663148,28323000.0,156999867.3983405,6429000.0,230954516.6360013,34752000.0,298321503.8899987,-13758000.0,35194768.06713081,21733000.0,235253640.15813076,6590000.0,26004589.20692937
1406,183,0,62996000.0,3309262745.3599215,12638000.0,1023373218.0826049,50358000.0,1867967655.6656826,9919000.0,128788805.47761482,5920000.0,141093975.50765377,13543000.0,223350934.68675387,1979000.0,45350619.470336884,7940000.0,188568043.86309534,1979000.0,69146060.77595638
1624,411,2,56415000000.0,40959791152.32463,26707757359.48695,14442332427.222437,20622000000.0,11841219972.040491,4258000000.0,2156995645.6989202,2744000000.0,1846361161.4614632,7002000000.0,5247572046.5747,471000000.0,515794144.1346367,1302000000.0,852312974.8350468,2956000000.0,57220182.99668793
926,211,2,572995000.0,1900706946.9290886,271264937.13018215,1350705722.2547243,210105000.0,759562215.2290028,-46109000.0,195650499.38005254,111142000.0,254762272.01668173,65033000.0,381757291.9383049,53448000.0,23075230.234417662,184993000.0,223414744.4614243,-231102000.0,56836636.38391077
1324,186,2,11156646.0,1530520994.2990308,14063458.0,1084766147.7454162,-2906812.0,357758510.8277,-483256.0,130345203.05721164,692752.0,130979767.03334898,209496.0,252578369.7154833,-2378023.0,15939269.75232318,1407493.0,173119225.63141692,-1890749.0,50636083.89549556
809,491,2,746651000.0,1858370343.2433672,563281000.0,1550650569.9627185,350347808.70326334,769090978.2688879,20268000.0,209627234.9848918,132273000.0,279629223.15460694,152541000.0,368646054.44938946,1482000.0,25015334.819690794,18377000.0,227358062.68247628,1891000.0,48624915.99165419
492,346,2,203605000.0,1662053107.4942498,164863000.0,1387823813.512565,38742000.0,573478781.4547999,38308000.0,184094801.20339084,13284000.0,244139681.28876024,51592000.0,310624159.8518461,8585000.0,23988154.52851653,22801000.0,213909464.13181475,15507000.0,55027359.378343
383,831,2,35610551.0,1521545936.634612,44852933.0,1317104886.332946,-9242382.0,399538073.2353456,3037874.0,143913796.28205323,5691278.0,165906875.94486773,8729152.0,274852280.547524,-7028283.0,12396495.79796055,15757435.0,175353540.36375368,-12719561.0,52628003.49166717
1250,12,2,4596600000.0,5733342839.249066,2319347415.031524,2233126002.5271907,3466600000.0,2342855608.7170124,2555100000.0,773674283.8950562,3033000000.0,966237239.8334147,5588100000.0,2445785476.4682865,1174900000.0,298641891.5927628,1380200000.0,413598450.41083413,1174900000.0,53218557.382318415
229,649,4,3802385000.0,4091849685.3744354,2636965000.0,2186014330.951365,1165420000.0,1459876013.9692912,157645000.0,233939961.18349558,488142000.0,391696149.61525667,645787000.0,550427250.1520464,66824000.0,55645983.286701456,83253000.0,240916505.04424742,74392000.0,33534385.637248345
1531,264,4,12852000.0,1562879331.2264118,5815000.0,1213048310.1427355,7037000.0,398979008.91181767,1838000.0,136800418.69076544,1427000.0,153569055.8336835,400000.0,252305810.1123922,-1116000.0,32613009.38816887,2954000.0,212552367.9287505,-1116000.0,30922818.11107716
1035,1424,4,11747000000.0,9070005348.199732,7158000000.0,3376442379.1082864,4503000000.0,3365346592.996963,770000000.0,544853276.7224929,1424000000.0,871717800.0139079,2194000000.0,1585505888.0514574,154000000.0,86932169.91029379,2040000000.0,549075599.155487,-1270000000.0,-15955152.714187548
1774,1335,3,7236206.0,1437436138.6429405,4913744.0,935215904.6582181,2190428.0,353347803.6299586,634746.0,137763183.22384363,2326079.0,136983129.32700658,2960825.0,212195315.94287848,-234151.0,27459142.486918792,886442.0,126708013.84622037,-251696.0,100997358.25536296
868,1093,0,6411000000.0,5280467785.08913,3370100000.0,2956703403.698595,3176144611.7201624,1867967655.6656826,371800000.0,400816939.47628593,637000000.0,596870733.8345523,1008800000.0,981714866.1170131,180100000.0,93247003.36341855,166200000.0,272833985.4495041,205600000.0,61313086.6800596
1391,1232,1,345836000.0,1812554224.7437296,48837000.0,1549792126.1357486,296999000.0,598984209.7721835,3870000.0,215314362.93640482,113328000.0,195984313.68400675,116752000.0,271592174.15962994,297000.0,42225655.0425004,3573000.0,229492126.88801715,297000.0,62527164.35369824
1734,577,1,20108000.0,1389387660.9894748,9068000.0,1198142593.867525,11040000.0,278839599.1031461,3847000.0,147837976.44103462,661000.0,125151390.43880987,4508000.0,210573919.374187,-4126000.0,25109068.7754685,7973000.0,163430961.6416469,-4126000.0,48840473.636548236
1416,1268,0,1564856000.0,4386491241.732605,1122858000.0,2372978100.6821814,416354000.0,1867967655.6656826,276207000.0,293840462.08805835,-11227000.0,294538354.38093483,264980000.0,579190667.6473641,5657000.0,62074178.7048965,270550000.0,231854576.5817089,5657000.0,71169007.70661382
352,288,0,1125373000.0,4116506805.830966,521681703.6382896,2262026187.526412,29987000.0,1867967655.6656826,142411000.0,279305791.9075682,-42080000.0,187142316.12882888,100331000.0,465633107.53339267,17283000.0,51289239.080242455,125128000.0,224672446.63290948,17283000.0,69696902.91308804
135,561,2,630871000.0,1782577102.598907,398464000.0,1419582621.4699695,232407000.0,707643746.7657262,80823000.0,198478509.4994645,413091000.0,277007096.3128428,493914000.0,405342298.40889454,-14453000.0,23337357.14104925,95276000.0,220917787.8537084,-14453000.0,54712566.8470383
1338,659,4,123668000.0,1646715698.3111978,40963000.0,1467724723.695882,50285000.0,596385252.0905068,29188000.0,149692821.84442917,11108000.0,196524933.63530707,40296000.0,289681352.96582305,-25553000.0,42877866.74400743,35508000.0,217624295.66234413,-6320000.0,25453623.816876974
1076,444,4,34865437.0,1458952645.8970623,19085704.0,1077052670.8123999,15779733.0,380000252.5837877,0.0,132480357.15162021,1198.0,151766939.5172397,1198.0,241185521.821622,-6520186.0,30014596.643816397,6520186.0,197416841.06581602,-6520186.0,23333839.904743902
1426,1104,4,1275550000.0,2216604003.2520504,1504271000.0,1777923368.89911,-228721000.0,771798126.3359332,-35238000.0,178077902.2337602,59168000.0,251299320.89153218,23930000.0,375556892.3925786,6621000.0,35523832.14451436,102745000.0,238609032.6562158,-137983000.0,34952665.529938444
2023,1321,2,151712000.0,1580217651.2420855,195428000.0,1385675232.6966114,28605000.0,427362001.2102239,11588000.0,158356948.07547456,43977000.0,207073009.66535515,55565000.0,285409740.00752234,-8864000.0,10893372.338660657,20452000.0,201092500.67187828,-8864000.0,49781043.91823205
1219,102,1,1812825000.0,3262514045.289089,1134969000.0,2014596049.8638084,677856000.0,1299905724.6687396,53184000.0,314565538.4745308,120142000.0,411516581.8327851,173326000.0,601574631.368617,31929000.0,53982210.24790578,16945000.0,270283502.5252439,36239000.0,63524022.94534518
201,633,0,-1450776000.0,3855285460.958465,-894261000.0,2005412283.0711322,-556515000.0,1857580279.979889,162740000.0,228978463.93682855,213058000.0,429060286.8928162,375798000.0,648519706.640986,-31210000.0,39045286.56811787,193950000.0,226395529.01316294,-31210000.0,68153399.70044702
580,782,1,526507000.0,2223348034.4525385,370554000.0,1914203583.734728,155953000.0,588716306.9579496,66328000.0,224707807.10945415,107226000.0,315660155.03984284,173554000.0,432801442.0830234,-7923000.0,46156774.657293715,69543000.0,251673281.23944128,-3215000.0,62011296.47776927
268,1214,4,3089123000.0,3540233415.4761844,1300561000.0,2497640864.3498354,1788562000.0,1246576279.4304576,286131000.0,264699627.76923072,850247000.0,454581391.2633248,1136378000.0,690365890.0373353,205227000.0,50377942.31111572,1010678000.0,352434485.7944836,-724547000.0,12580864.950614756
484,1597,4,2026392000.0,1759514931.6559882,773709000.0,1901043700.7096984,1259138837.126244,765114410.690645,36270000.0,184772517.35693958,906000.0,274846335.8458488,37176000.0,388859779.84266114,-286393000.0,22044049.35252294,341823000.0,255248768.73418733,-305553000.0,26024484.98396897
1169,141,2,59798486.0,1463930846.9345627,24561228.0,1138587495.345566,24680354.49630476,389523480.73426056,-143441.0,141192478.58053595,231837.0,164510879.41310716,88396.0,250823390.6240257,-6239976.0,13483655.587949172,6096535.0,180164464.61435667,-6239976.0,42762949.76590116
595,745,3,269960000.0,1984597835.3870053,370356000.0,1623138788.0850785,-100396000.0,616616766.8826385,29296000.0,178882408.3917974,911000.0,175286465.67264926,30207000.0,296671616.8130665,-31260000.0,32522144.57207352,67269000.0,146390139.5511944,-37973000.0,100086846.04912925
1664,134,4,1411497000.0,2337435111.700952,713457000.0,2025806820.7039905,667698000.0,967021812.5697547,123110000.0,205211705.4004102,21917000.0,308547599.60288966,145027000.0,434667614.75172925,16171000.0,44387189.45555624,124278000.0,251629847.4046048,-1168000.0,24967105.545322243
1737,1476,2,1068388000.0,1808242791.4227395,793168000.0,1243027282.6420727,275220000.0,513618493.8306215,1125000.0,183953465.5386839,126961000.0,289354637.2365056,114574000.0,342825009.6044643,-123332000.0,11938361.688342243,124457000.0,208659557.6248043,-123332000.0,55662488.935723215
1105,754,4,736494000.0,1799741321.714212,390655000.0,1612833388.8350272,345839000.0,750555737.6510375,107458000.0,169884517.55276185,77264000.0,219866784.73902917,184722000.0,373589739.3049319,-21496000.0,26480295.60198223,128954000.0,231300830.3015943,-21496000.0,22001035.556290735
366,1105,3,1026034000.0,2471872822.437111,544592518.5648394,2013690321.227744,829659000.0,1115903098.1712883,179923000.0,234684072.95756495,-1664000.0,267941956.70615703,178259000.0,429681523.08671033,43073000.0,57882880.106743105,136850000.0,177210431.358281,43073000.0,100801284.86100003
847,1594,2,2995900000.0,2854156980.313671,1720300000.0,1687583544.5391347,1275600000.0,1130424323.9442563,234800000.0,251800994.47352827,244100000.0,376651170.2861705,478900000.0,561998293.6439843,25200000.0,31813755.929773405,209600000.0,230875379.7740067,25200000.0,45589167.2207459
1604,937,1,700529000.0,2070448887.4037728,363632000.0,1565470520.7957084,335762000.0,625037900.4483157,46249000.0,198775075.61219892,72678000.0,162622718.47818804,118927000.0,273130071.58814764,-13197000.0,30647641.4307981,59446000.0,282090362.3896788,-13197000.0,58925404.39834222
579,168,0,5913288000.0,5334313907.067463,5639252000.0,3472749519.818769,274036000.0,1867967655.6656826,470311000.0,477478863.19203067,1040995000.0,840035610.0165092,1511306000.0,1525698327.8698866,65962000.0,97072288.34193373,404349000.0,267099230.189291,65962000.0,76915347.03746548
874,482,1,232365000.0,2124040479.778501,164743000.0,1690594696.0396616,67622000.0,535965244.07216275,43176000.0,212097461.5762319,202053000.0,283557969.1466886,245229000.0,334624075.5326443,9035000.0,43483625.730758004,31930000.0,248364771.2001176,11246000.0,62309517.30000366
193,38,0,24556000.0,3250312823.6402326,5997000.0,856716738.6078596,18559000.0,1867967655.6656826,-561000.0,109021792.03672707,1648000.0,112224234.49944472,1087000.0,204616926.0833608,-8770000.0,25435901.72122124,3225000.0,186570549.38057324,-3786000.0,46542704.8296969
680,820,3,7852974.0,1483723400.8038597,8726749.0,1211760440.2439373,-873775.0,310022960.12199056,1562860.0,138093637.44572735,0.0,149835936.079795,1562860.0,213901413.4924568,-1603437.0,25438360.63599065,3166297.0,120129509.36684418,-1603437.0,100801284.86100003
702,1325,3,52606000.0,1662205177.7085276,31088000.0,1517335530.89357,21518000.0,439303151.3706088,2202000.0,165258341.61302987,21569000.0,155785557.01156914,23771000.0,226228933.91218078,-1737000.0,27802643.235125095,2889000.0,127582246.04195672,-687000.0,100801284.86100003
499,967,1,641605000.0,2332947444.2320347,98505000.0,1714486172.995055,543100000.0,584037281.0092995,35752000.0,253358557.27249762,3063000.0,225550581.518618,38815000.0,316483974.3282654,-5995000.0,43786930.62203431,24767000.0,257247820.3767742,10985000.0,64192071.90041982
277,961,2,428119000.0,1782577102.598907,200385000.0,1381888815.1469216,227734000.0,692408744.104089,32734000.0,197024575.62770918,3693000.0,237128408.32519478,36427000.0,348490864.1431459,-31432000.0,17430901.023926675,67859000.0,236326914.79495752,-35125000.0,53848746.02825954
1540,700,3,1748597000.0,2753158241.6441793,773677579.6790999,2069554942.8593912,871968000.0,1111706289.3159914,88936000.0,252101813.00855452,314131000.0,314584535.186287,403067000.0,453136237.5188366,36520000.0,68326812.42642127,38806000.0,181803510.44569293,50130000.0,100801284.86100003
40,1512,1,-12646800000.0,3225903143.891485,-10176700000.0,-1414922049.3809938,-2456100000.0,1322918353.843297,244400000.0,305714538.5175139,496400000.0,683384290.6510026,740800000.0,1002588013.8519888,16300000.0,352489511.8380176,228100000.0,300331198.3764764,16300000.0,59344900.70065129
109,958,0,1646711000.0,4304603406.8251,1388441000.0,2896396087.824651,258270000.0,1867967655.6656826,48094000.0,283353848.80307025,144654000.0,474914938.65538526,147710000.0,670510977.298435,-42502000.0,47862206.681605935,79586000.0,247963869.1903656,-31492000.0,63093220.181592956
111,1108,0,632540000.0,4031023703.103094,270366000.0,1750882896.65805,362174000.0,1867967655.6656826,197077000.0,250191697.5347258,14622000.0,219471389.36641026,211699000.0,372892076.4648644,-57776000.0,50663036.897441514,97890000.0,219716195.55653477,99187000.0,67675505.8383204
662,285,3,156269000.0,1840628501.1055374,70363000.0,1652650852.6567748,85906000.0,541843895.4687582,19503000.0,200427689.94032705,30881000.0,185601103.57856303,50384000.0,256753603.31636715,3657000.0,39639781.3619049,15846000.0,142458302.75013906,3657000.0,100801284.86100003
1749,1091,2,12875300000.0,6953766605.170605,6095371591.431398,3681611428.1309,1810000000.0,2673069750.8672686,1227700000.0,637527019.15567,4400600000.0,2350674040.277732,5628300000.0,3401377117.5995154,478400000.0,311766040.911563,749300000.0,364068921.0344937,478400000.0,57220182.99668793
340,1347,1,441781000.0,1965789931.758438,86587000.0,1468248408.1384537,355194000.0,661068873.5968984,97393000.0,207942768.3943136,44971000.0,182058861.67882335,142364000.0,289215442.29183626,9954000.0,37484736.027756624,87439000.0,287745610.53680944,9954000.0,63635694.63488788
811,109,4,1903960000.0,3717277310.4836683,1118147333.3250542,2248712364.2393527,464992000.0,1243952817.152092,314173000.0,303499892.791649,381360000.0,478654136.0984018,695533000.0,751930477.0225568,49703000.0,52145066.90335079,262823000.0,256019776.4356189,51350000.0,35021142.90615734
1016,567,1,413017000.0,1713492368.6121697,156380700.0672279,1468602732.3647497,290614000.0,452608792.9691894,164000.0,198870644.2796054,0.0,151484298.82925916,164000.0,266579571.71208966,-47612000.0,28909920.57897906,47776000.0,228123082.4455666,-47612000.0,58112515.28267809
1696,268,0,6459000000.0,5280467785.08913,3814000000.0,3209971322.024221,2645000000.0,1867967655.6656826,417000000.0,425893101.59220934,1137000000.0,836646259.7166032,1554000000.0,1419528965.7275693,109000000.0,96328915.14427824,308000000.0,290048676.63978726,109000000.0,71484313.22580664
200,763,0,6683800000.0,5146406320.720009,2530688381.1304083,3063291163.3202806,4153111618.869592,1867967655.6656826,363300000.0,421533780.379678,268000000.0,529359365.11708164,631300000.0,866995050.7369478,83300000.0,93953016.27997632,257700000.0,282138078.1392889,105600000.0,71484313.22580664
1994,1188,0,165094000.0,3347653743.639744,70482000.0,1255624030.4050455,94612000.0,1867967655.6656826,17629000.0,149825012.21297032,13074000.0,159511270.62380236,30703000.0,251587492.8669592,1152000.0,48162189.688741915,16477000.0,210883713.6219208,1152000.0,68436026.27412851
735,352,1,8604673.0,1299391346.5967054,2338502.0,1179066464.9793372,6266171.0,280506961.57554054,1119391.0,152422236.3470983,1576117.0,162644002.38706505,2695508.0,210208956.37517977,23726.0,27975575.10913539,1095665.0,160867947.3256354,23726.0,45261663.82004068
1160,1540,4,30395557000.0,16835225926.024134,16133181687.752192,5087276746.948605,6297705000.0,3556423747.9664545,3044686000.0,1913279304.2904196,6751495000.0,3429127010.8616414,9796181000.0,5416705497.268123,692314000.0,480112430.1066552,2352372000.0,607789901.8761514,692314000.0,96353599.46509081
2018,841,2,764077821.0,1811193774.9641614,149164973.0,1496744542.3293302,540969385.0,630344538.076412,20737462.0,192092736.9380348,3810639.0,251118967.24185878,24548101.0,347327028.4576367,-1942729.0,21953099.70409462,26490830.0,221638697.37582982,-5753368.0,55695792.3479605
597,1362,1,19932000000.0,14953198835.359528,15924000000.0,8568419359.061335,3938000000.0,3709515486.159841,677000000.0,660036957.4006323,2894000000.0,2036325109.0007288,3571000000.0,2757025472.443739,325000000.0,173619478.79123193,132000000.0,367316838.4829316,545000000.0,58813732.70879951
1089,365,3,114455000.0,1620993796.927116,66800000.0,1455711072.8786788,47655000.0,429928094.7234814,-324000.0,151644031.8970883,692000.0,168707034.26145846,368000.0,230376916.89397037,-4444000.0,21926081.963311583,6127000.0,126359817.76667666,-6451000.0,100801284.86100003
1635,1058,0,123009000000.0,34133058194.329723,61047097858.95223,24998638145.16044,24132000000.0,1811448405.3744755,3661000000.0,1362687551.5183666,846000000.0,1186824077.4896812,4507000000.0,2852006797.533579,401000000.0,251202203.2204112,5487000000.0,1083077271.0642915,-1826000000.0,64353200.76726113
394,898,0,1472222000.0,4087667780.023384,444895000.0,2201106733.1179466,1027327000.0,1867967655.6656826,423804000.0,248267081.3225169,0.0,239798695.5561937,423804000.0,481674909.20625865,44683000.0,54004309.50107075,379121000.0,243463452.08511746,44683000.0,68171230.7432794
176,1342,1,1707972000.0,2978603751.1774817,826699000.0,1860107662.628342,881273000.0,1170243829.627921,161237000.0,297120328.4404363,18721000.0,356693370.7679543,179958000.0,528552168.17955947,-38330000.0,41331995.62888726,218288000.0,267201929.8956686,-57051000.0,64192071.90041982
958,1209,4,140348000.0,1740806499.5289388,22627000.0,1349093169.525864,117721000.0,461972841.5772698,18849000.0,146707622.1424926,19797000.0,179444355.28893697,38646000.0,269231327.48370504,5179000.0,31759257.256887086,24028000.0,231400699.58607966,-5179000.0,19353339.386518355
651,1103,0,68862000000.0,24211993165.665062,37281000000.0,20037143237.286514,30258000000.0,2721575761.2099595,682000000.0,935909643.8356193,1405000000.0,1254128220.0680575,2087000000.0,2964993296.000167,938000000.0,325052415.625273,2969000000.0,671460118.8403871,-2287000000.0,69151832.47374624
648,1099,4,484306000.0,1896763858.6245952,160149000.0,1631759313.0514328,324110000.0,655771606.4632599,35935000.0,163381162.14885333,49919000.0,238226745.32576692,85854000.0,321872457.5608301,8224000.0,48001061.46550748,26558000.0,233092701.73277846,9377000.0,29377428.985575832
1124,928,0,263629355.0,3373342431.3003554,139827658.8984726,1098700940.6268163,106790041.0,1867967655.6656826,4718481.0,157021346.3143707,-3354938.0,128399808.48522651,1363543.0,243146211.5074339,2345966.0,44787585.15804494,2372515.0,203138658.92607573,2345966.0,62339544.346603274
1983,736,2,22654400000.0,13330851796.615442,10023579681.929111,5077322663.172664,12050300000.0,6140700967.639532,409600000.0,557972863.8683665,3138700000.0,1206570397.669674,3548300000.0,2966780785.895365,145800000.0,348335372.9757925,119900000.0,354489316.0599853,289700000.0,57220182.99668793
1330,241,2,55695000.0,1708391862.9305878,80300000.0,1299794625.326166,-24605000.0,486527429.20746076,-33328000.0,157963295.68898898,45694000.0,209668488.62492335,12366000.0,277610022.27992094,-48025000.0,10132656.840904728,14697000.0,208368345.5258499,-48025000.0,49751260.63365118
445,395,3,33248145.0,1508735525.4976778,21743057.0,1189443396.7031329,11505088.0,399967656.6831175,1461398.0,143207212.16294634,569502.0,132221061.19477242,2030900.0,208875078.98420155,-12979193.0,24611081.84924674,15010093.0,125315599.47960961,-13548695.0,100801284.86100003
908,1449,4,19900000000.0,10526245419.3095,10348000000.0,3714520019.384062,9552000000.0,3875447884.732851,2649000000.0,1177963634.2856941,0.0,661558967.8348627,2649000000.0,1920607667.525382,467000000.0,165103316.20298228,2182000000.0,515298148.5011573,467000000.0,46765093.54232812
1585,674,4,2485319000.0,2927975349.596424,1254039550.5762374,2027723069.1312537,1849463000.0,1424191079.9932578,775144000.0,377637355.7320229,0.0,377830872.076545,775144000.0,654050005.7144806,128435000.0,55460021.728465885,646709000.0,250896774.10907584,128435000.0,33534385.637248345
643,1569,0,959084000.0,3807191610.097625,491986000.0,1917544585.5542204,395838334.6316486,1867967655.6656826,56609000.0,209197993.44441032,47928000.0,219952098.93771935,104537000.0,341450005.7439202,-22287000.0,44272773.35865413,141301000.0,241634339.46741492,-84692000.0,61265122.96670121
1240,1570,4,1657157000.0,4082976711.2304254,2335507000.0,2445137645.6235013,-678350000.0,1242726962.2964046,-96698000.0,291960585.98365766,98929000.0,432304073.55389416,2231000.0,699251936.0848835,-125632000.0,32706551.615428746,312618000.0,257957597.21622503,-409316000.0,28957339.23745791
64,427,1,1590600000.0,2549729449.534983,748600000.0,2013850461.3903968,842000000.0,1053653499.2177972,59700000.0,286153910.5723008,141700000.0,376435639.32762355,201400000.0,527167802.84813905,13800000.0,52802289.5558841,37700000.0,260771312.68679214,22000000.0,64535651.477098204
1027,658,0,919607000.0,3904243115.0341134,266509000.0,1878370217.9682596,653098000.0,1867967655.6656826,68886000.0,207103302.02132738,19532000.0,216403439.57910126,84131000.0,333067763.96641445,-18050000.0,47826335.10424701,86936000.0,224620738.17602038,-18050000.0,70724355.42380226
1034,320,3,121754701.0,1522659360.889986,28424394.0,1098410984.9922566,93330307.0,378982050.54717875,1406469.0,140250815.76395762,-1378985.0,147006903.27528292,27484.0,239139566.26533508,-14928443.0,23356758.517354876,16334912.0,135990834.38785943,-14928443.0,100801284.86100003
802,514,4,12973000000.0,6255333094.267137,6013807636.489885,2691898817.3810563,6537000000.0,2525546607.7929783,82000000.0,442515639.4072648,545000000.0,798304852.3525593,627000000.0,1219239362.7303712,7000000.0,147514552.66318262,46000000.0,324374863.4780872,36000000.0,33843378.882500365
981,945,3,613608000.0,2004128198.647406,391072000.0,1697846040.9646366,222536000.0,640836999.2215554,1437000.0,181978120.5086821,10955000.0,187603390.4550398,12392000.0,324869283.5359007,-84729000.0,28944801.90055585,40703000.0,153987665.17752695,-39266000.0,100801284.86100003
1046,867,1,102303000.0,1548179459.5869489,104192000.0,1596180641.5676165,-1889000.0,392263191.19095004,12811000.0,194049961.4624812,42439000.0,149115886.48477292,55250000.0,241543077.4924506,700000.0,26578883.256419018,12111000.0,217231527.01524755,700000.0,60392585.42663482
581,454,4,1023085000.0,2786617392.832836,937155000.0,1957663345.3568447,85930000.0,1223458927.6879423,87759000.0,225184214.7500469,257840000.0,404801506.03875417,345599000.0,613137476.9312198,-36941000.0,41405109.57611136,111965000.0,249242688.16781282,-24206000.0,31345486.779959247
1033,472,1,822101000.0,1972207956.3029647,260505000.0,1696725324.5975196,561596000.0,514966114.31263876,113425000.0,218488430.82498404,-8261000.0,169288693.32218468,105164000.0,264835414.32600927,25956000.0,29111198.281727597,87469000.0,248231223.74914506,25956000.0,59192251.01528484
1908,1238,0,972779000.0,4014946452.102072,674585000.0,2432714658.2894573,298194000.0,1867967655.6656826,81122000.0,233905181.41730297,33069000.0,259538297.05588812,114191000.0,445285622.0583447,-12742000.0,51417449.43908251,93864000.0,233866645.56778872,-12742000.0,71484313.22580664
1486,904,4,505122000.0,1828948541.512783,329765000.0,1551830052.8225074,175357000.0,645158131.362607,66862000.0,161753513.7888941,-15726000.0,241300857.15363896,51136000.0,362863959.7675959,-8784000.0,44468927.25848138,75646000.0,226591284.3647258,-8784000.0,26947457.48015461
640,990,3,420505000.0,1856728360.5312247,230508000.0,1342185404.386477,189997000.0,667594122.9601367,53603000.0,189968671.9726428,71511000.0,183543057.63616902,125114000.0,279854553.2438487,16734000.0,44670072.68197143,36869000.0,149862389.01213232,16734000.0,100086846.04912925
1988,706,2,216274000000.0,104364932969.0618,73401000000.0,34611111537.871826,142873000000.0,43116499257.915825,27936000000.0,9132198676.081398,6210000000.0,3609584472.9126554,34146000000.0,19310307370.56262,13748000000.0,2832934441.1224895,20398000000.0,7221075255.048088,7538000000.0,89096082.9243751
469,262,1,122531000000.0,-3447109837.0211725,74517000000.0,16490178784.769186,57494689417.43809,7313680906.259056,11370000000.0,3872145917.185583,10501000000.0,4536901196.276981,21871000000.0,10772802308.154993,5767000000.0,2384407125.633895,5604000000.0,2083151705.09818,5766000000.0,62274628.04826258
606,1374,4,5723214000.0,4240275851.2440534,2776207000.0,2086398560.2912886,2947007000.0,1857746047.0667787,448941000.0,377846580.01560897,516900000.0,552064335.4328191,865197000.0,825713916.5057254,78214000.0,87040102.88273326,370727000.0,264906423.13323483,78214000.0,31098169.11762882
1877,1138,0,689227000.0,3461435887.538442,562767000.0,1128225515.3287206,126460000.0,1867967655.6656826,40662000.0,147489361.49989432,11086000.0,153538962.2425865,47740000.0,242685802.92389965,-28335000.0,42215380.59268188,68997000.0,203003820.453466,-28335000.0,67795774.71428919
1148,1255,3,600857000.0,1938310573.2260866,331349000.0,1583402532.136734,269508000.0,530842546.81878424,50595000.0,162044613.39960882,6532000.0,173437367.77699655,57127000.0,245061634.75550044,-62120000.0,26046975.949491456,83188000.0,139575230.09047258,-32593000.0,100801284.86100003
1653,1150,3,56794000.0,1736730879.1358552,12682000.0,1497018635.7757854,44112000.0,430109437.3419523,25087000.0,160520916.45863307,14791000.0,155230760.43325657,39878000.0,243257396.9711752,-4627000.0,26827126.37105134,44505000.0,134652340.91925538,-19418000.0,100997358.25536296
1205,743,0,3747000.0,3250312823.6402326,4407000.0,900006422.8832817,-660000.0,1867967655.6656826,-1515000.0,100950661.77310944,1515000.0,125567959.23420358,0.0,206835558.18300688,-2598000.0,28204706.024731472,1083000.0,184860338.32546535,-2598000.0,52205731.02786262
1612,891,2,3505835000.0,4070305666.8752975,1860807256.214476,2075808311.856512,1470074000.0,1254864920.3410504,601953000.0,392709631.61626995,626097000.0,572705939.4543569,1228050000.0,1033812600.664394,88554000.0,73556652.8253505,475916000.0,281902855.1450863,126037000.0,60666923.414447665
1894,1039,4,203011000.0,1714111867.8080788,255300000.0,1487828354.1826618,-52289000.0,556381363.1607726,8409000.0,154542771.90532959,25579000.0,194277879.21837616,33988000.0,298670987.3579222,-8212000.0,30876423.354022875,15533000.0,211053659.95681816,-7124000.0,27365271.048954934
458,712,1,3126495000.0,2795705761.0030913,2137404000.0,2019890039.3944657,989091000.0,1042651774.9156097,70679000.0,255013314.48107043,930828000.0,418263083.2128773,1001507000.0,630163324.447127,21039000.0,62353340.357119516,49640000.0,272530679.2375983,21039000.0,64192071.90041982
782,165,3,36175654.0,1684255239.5585399,19187381.496044576,1423509024.039692,18868678.0,436495224.2816552,22295962.0,173838524.6749369,2274626.0,161484840.80450594,24570588.0,233018860.0842092,-1191082.0,31943854.557249293,23487044.0,131291925.17196405,-1191082.0,100801284.86100003
21,232,1,3642433000.0,5146342682.658621,1611617055.0351417,2843097995.221941,2307595000.0,1548327350.3777149,392263000.0,395242397.7938358,1442178000.0,918246768.7902203,1834441000.0,1435839879.7995086,185633000.0,101640607.39080244,1648808000.0,481936969.343868,-1256545000.0,58813732.70879951
323,342,1,102171000.0,1647274432.5687962,80142000.0,1310235926.360147,22029000.0,376107976.7913494,11994000.0,155394052.55159247,1280000.0,125307724.751477,12084000.0,223896241.39064658,-8453000.0,24790462.38392219,20447000.0,191951216.32983562,-8453000.0,46140991.310682796
1847,1419,4,11562769000.0,8303635045.94944,8634392000.0,3043204606.244751,2928377000.0,2530739022.031788,696915000.0,644156856.4143467,4617768000.0,1901552102.4346964,5314683000.0,3209247381.744709,87484000.0,83841251.63884301,6096071000.0,1401922022.0126135,-5399156000.0,-240024574.30791435
1304,989,4,1061958000.0,1739399911.2912612,603583000.0,1406254480.0190847,275904000.0,604210878.7340138,75380000.0,166410244.31535837,85007000.0,209274333.27456462,160387000.0,292511577.99523354,19279000.0,27969286.268559888,56101000.0,239744364.9020255,19279000.0,28408887.59702264
1031,77,1,1709464000.0,2863437128.6895456,792444897.6724385,1949648917.5276616,917019102.3275616,1116007175.7131073,-50089000.0,284784108.96861583,206500000.0,337418889.4879979,156411000.0,425899289.11230075,62554000.0,49245971.24788418,32611000.0,258713235.76534003,-82700000.0,59095447.53560018
1109,1048,0,1182200000.0,4464587617.186062,559672263.5892134,2676193916.1413836,993300000.0,1867967655.6656826,77500000.0,278586984.37430155,102700000.0,380207721.829372,175100000.0,554324453.1192484,21600000.0,53796814.80964694,55900000.0,257329494.23260063,21600000.0,71484313.22580664
1483,1507,1,15318000000.0,10359078326.207098,8995872209.433592,5312102687.617278,2835000000.0,2834502074.7754745,2220000000.0,1459787865.0119648,7363000000.0,4536789127.838865,9583000000.0,6244588619.962467,348000000.0,180678040.375403,1879000000.0,716275397.4403743,341000000.0,67319056.14429967
739,1417,1,2898416000.0,1535773799.0673099,2080781000.0,1426327672.0883744,476998000.0,311176583.65350866,19746000.0,171233513.70751607,-19746000.0,140520727.376801,0.0,242206329.66613328,-16089000.0,31333951.722354114,35835000.0,211552548.02108878,-16089000.0,58686405.08417469
1565,1261,2,37777000.0,1545744198.7072477,8088000.0,1224563763.777414,29689000.0,428741240.5572543,1942000.0,157207634.13886362,1878000.0,183838020.97520047,3820000.0,299792351.21328497,-3377000.0,15678181.35586603,5319000.0,191285399.3514743,-3377000.0,51047669.07028799
1547,48,0,350115000.0,3554896689.6941032,124447000.0,1441831368.1818497,144501356.0121529,1857580279.979889,23341000.0,202953135.98519596,74465000.0,240304064.64359158,97806000.0,350813285.9972228,1273000.0,58099530.87034636,21144000.0,220895298.7373678,2197000.0,73538435.84209168
1772,61,2,60756000.0,1589642904.4729204,14120000.0,1139734306.869083,46636000.0,484465089.9552523,39398000.0,168947081.95408088,0.0,205439791.86463165,39398000.0,297885949.6159322,1277000.0,20956635.002451405,38121000.0,200870770.33018422,1277000.0,54368581.27061331
396,1484,4,2329417000.0,2751429854.9283986,1103945000.0,2111177343.2491105,1225472000.0,1238816600.1849113,201803000.0,236248223.4944566,84310000.0,405996651.459365,286113000.0,578690319.827962,4458000.0,51434527.01891807,134794000.0,236118081.8998109,67009000.0,33058673.717567097
370,1128,0,322707000.0,3911031105.853107,203952000.0,1717825192.4550173,133189378.04611006,1867967655.6656826,59563000.0,201350915.61503065,32549000.0,196481084.0993293,92112000.0,312520422.4923115,2829000.0,57883984.98241794,56734000.0,227387456.9770987,2829000.0,71484313.22580664
1387,362,1,16986396.0,1328264780.3558283,28398941.0,1089496427.908512,7976898.609990532,253128868.72495842,-2992.0,125925615.96916974,2987192.0,136733460.09180427,2984200.0,205981973.9149704,-2823081.0,26990189.37555383,2820089.0,151941414.5675222,-2823081.0,37075126.36041285
1633,1474,4,5507733.0,1371197787.391387,3754986.0,1024864776.8055325,1752747.0,330583179.7076255,77969.0,119417128.68960947,690.0,129270739.61610639,78659.0,223659621.6539104,-1288944.0,23339614.92828527,1288944.0,205331444.40280783,-1210975.0,19715722.087498866
1459,843,0,2951779000.0,4033350177.8128657,1733504809.66769,1992130262.8270547,-705417000.0,1857580279.979889,103159000.0,308792167.3031635,95357000.0,338034125.9097656,198516000.0,534121469.7754911,63542000.0,63566684.34912351,39617000.0,245784041.0023809,63542000.0,70544485.69199973
447,15,2,1389340000.0,2550384051.1880617,870172000.0,1738793675.6325252,518687000.0,1113438784.618309,122910000.0,256916951.24050683,509918000.0,345936232.34091556,632828000.0,482262286.5898342,77637000.0,45458501.89108238,35836000.0,242827164.7358087,87074000.0,57220182.99668793
1342,527,1,670100000.0,2002309071.7694287,96919000.0,1479464502.7370803,573181000.0,402761297.519421,45369000.0,176579161.30761665,10723000.0,158137405.89030087,56092000.0,256609874.7797836,-44376000.0,29853952.803335592,100468000.0,227786698.83009654,-55099000.0,49187446.80075796
1101,1050,3,796235000.0,1617955406.4501653,203741000.0,1428806102.0214195,463390000.0,364974890.42631817,475000.0,144786533.63843298,0.0,172270043.8658805,475000.0,235944125.83936286,-25797000.0,21582199.157812834,26272000.0,128853658.59135199,-25797000.0,100801284.86100003
1559,148,0,243654000.0,3270168227.291294,108112000.0,1147301216.6873875,135542000.0,1864546542.708044,37230000.0,125562326.85044938,3845000.0,128990292.25474596,4798000.0,254137063.76538563,-21869000.0,30177232.101254866,59099000.0,165885268.48993638,-21869000.0,49391538.38229314
1859,83,0,63057347.0,3309262745.3599215,37031977.76980746,1048287330.5338373,50373559.0,1867967655.6656826,5114390.0,147561247.67630142,9540399.0,153210470.66932946,14654789.0,231018203.87206185,3126608.0,47909797.685055815,1987782.0,191744141.205305,3126608.0,70285693.47345616
625,862,1,2120798000.0,2597060742.7381935,1472395000.0,1813331287.5805986,648403000.0,635987107.0419345,67913000.0,200398070.0404487,30767000.0,199474969.54915082,98680000.0,375418208.32516265,-9629000.0,29284795.670841992,77542000.0,264179084.16854715,-9629000.0,47692982.072855726
1728,309,4,706517000.0,1974584016.735489,905805000.0,1622461657.0209827,-199288000.0,717260390.3939867,73709000.0,163109382.5347177,16853000.0,216341753.99849844,90562000.0,373737031.96403456,38915000.0,37193278.25850408,34794000.0,231943714.80307174,38915000.0,23608381.877454814
1404,810,3,76126346.0,1731497168.8779764,61120101.0,1267179603.6206565,15006245.0,441494853.05829704,2282652.0,169289777.79183903,31006950.0,149520882.2958206,33289602.0,228430807.90633595,-2890968.0,30509260.854242638,5173620.0,131579306.14344555,-2890968.0,100801284.86100003
1515,939,4,156303000.0,1731752515.300756,83901000.0,1431362974.2683372,72402000.0,499286647.51667917,17689000.0,152752721.46575266,41469000.0,205081506.61883682,59158000.0,281650286.3392012,-2517000.0,44714385.31820357,20206000.0,213892967.95758027,-2517000.0,24741951.811964937
1800,66,2,3271200000.0,4209563589.1518183,1447362713.447565,2564360271.3563724,-21400000.0,1504111664.7062411,31300000.0,338973704.19002974,847700000.0,599770061.3607537,879000000.0,805617207.9886999,-16400000.0,81824834.55116086,66600000.0,263110246.3996637,-35300000.0,53662303.39366278
4,694,4,7361000.0,1410706536.9886122,2671000.0,1023934636.4423361,4573903.262590003,333651192.92683434,349000.0,130928770.19172275,109000.0,133406766.93647182,458000.0,229753340.15301263,-670000.0,24514598.983205505,1019000.0,187647670.44346678,-670000.0,27248666.145297244
1400,327,1,-4860602000.0,2442279514.4914575,-990657000.0,-882145840.0497279,-3869945000.0,1165334565.5078597,193881000.0,300997352.8704529,378009000.0,509759517.58217967,571890000.0,769323880.5216197,36078000.0,67029640.87569517,124685000.0,255361450.71254605,69196000.0,63245138.13781541
617,1153,0,5475000000.0,5337546406.710163,4861300000.0,3575598507.043621,613700000.0,1867967655.6656826,130600000.0,448252836.78047514,1421300000.0,879750596.9461212,1551900000.0,1304919617.5655546,23900000.0,80077958.64904648,81800000.0,290048676.63978726,48800000.0,71484313.22580664
570,813,0,9643000.0,3250312823.6402326,6164000.0,922612771.6863484,3479000.0,1867967655.6656826,1843000.0,110784251.98482096,2246000.0,128246248.89652812,4089000.0,213271234.39048123,-437000.0,37562280.905321345,2240000.0,176261082.994798,-397000.0,67356776.0382049
2015,17,2,12012800000.0,3540980981.9660645,6608200000.0,1845190996.7049646,4911800000.0,1645420612.614701,457000000.0,295023100.2031257,316800000.0,436051148.2921519,773800000.0,617695996.6693687,145800000.0,66505104.873639286,203500000.0,246661401.04143965,253500000.0,57220182.99668793
576,1047,1,6644800000.0,4779678892.095763,3248100000.0,2490095863.852361,2786600000.0,2140217748.056954,345800000.0,362728823.87454045,33000000.0,462116713.7557372,378800000.0,811715656.4433076,36000000.0,55332635.2938149,342800000.0,290567287.2984103,3000000.0,64192071.90041982
1397,68,0,136174000.0,3617593399.0694284,62163000.0,1397091583.5176265,72304000.0,1867967655.6656826,10072000.0,181907396.15081623,-3712000.0,132821962.32720047,6360000.0,247168180.7578287,-12604000.0,35607714.00919336,22676000.0,244072911.84405774,-12604000.0,56413933.381329626
1134,1221,2,160043000.0,1670396283.4518948,101422000.0,1317499407.5412974,58621000.0,534784984.08651614,15202000.0,173583983.81299233,-14386000.0,187464050.50904727,816000.0,282293281.9937794,-14398000.0,9859026.884373918,29600000.0,208631180.06429464,-14398000.0,47290008.52972263
188,196,2,9282000.0,1530520994.2990308,3493000.0,1109642950.9823403,5789000.0,435795442.5753931,355000.0,145579691.2733482,552000.0,158672027.21858954,907000.0,279954462.5895293,-972000.0,19051718.486916855,1327000.0,178228165.8093574,-972000.0,56014492.611258075
488,145,3,16124000000.0,8184315204.650257,13383000000.0,3761030033.352359,2741000000.0,3380493864.123327,5251000000.0,967404989.4871535,4961000000.0,1648249012.578661,9233000000.0,3240994716.8841195,1583000000.0,234365282.33719647,3668000000.0,783741812.66168,1583000000.0,100801284.86100003
1211,498,0,1601068000.0,4359724499.97364,1081707000.0,2591346682.1342726,519361000.0,1867967655.6656826,248876000.0,300685928.32508683,-34521000.0,229066579.5434245,214355000.0,573842944.416868,19006000.0,60044047.9981083,229870000.0,265904762.27070946,19006000.0,74299887.97760098
1580,184,4,779622000.0,1964567204.2316709,153452000.0,1687872743.0316281,626170000.0,940112573.8290343,134561000.0,171369525.9020507,57608000.0,266215373.72261953,192169000.0,424766256.102831,56917000.0,50991623.52356101,77644000.0,239408407.07480323,56917000.0,32180304.429377913
1533,213,0,4162272000.0,4730539633.973882,862254000.0,2857790154.000781,3299439000.0,1867967655.6656826,357871000.0,363376194.23109007,794265000.0,538670050.1804154,1152136000.0,1057239716.9508073,114028000.0,95229004.22308646,194829000.0,268712248.8863428,163042000.0,71484313.22580664
818,583,0,13900400000.0,6924522964.492968,12204100000.0,4454145048.117754,7319729781.089915,1867967655.6656826,78200000.0,466581119.4870518,235100000.0,684684515.9515293,313300000.0,1454803401.7100413,174900000.0,83017317.72650254,116600000.0,304458474.3615033,-38400000.0,71484313.22580664
50,537,1,594022000.0,2079034356.8018403,132343000.0,1507358716.6820514,461679000.0,619692354.4781137,121956000.0,216106682.40214503,1645000.0,193639176.0730834,123601000.0,301286683.3833319,31177000.0,36433544.527223974,45262000.0,222505990.4425196,76694000.0,58700792.18360308
590,1171,2,1341960000.0,2277081653.028258,666970000.0,1640726035.5099652,674990000.0,867665915.4343106,55930000.0,227129502.4715395,179410000.0,351759127.3352121,235340000.0,417977457.9039831,23760000.0,35597422.59517222,32290000.0,236453014.3473401,23640000.0,57220182.99668793
377,276,2,52901000.0,1568618184.954801,24522965.98920461,1215861750.2137191,33404000.0,425827022.10692215,-1183000.0,147826840.80880946,24144000.0,176698478.8518514,22961000.0,285555457.83908594,-5692000.0,19303949.984260663,28653000.0,200521340.52808413,-29836000.0,53160007.11020377
1953,1136,2,877565000.0,2637923735.5574274,1336553000.0,1778546613.913136,-475192000.0,1105466845.739517,522812000.0,281267713.40404415,-345617000.0,373721799.81157935,177195000.0,618056537.4839654,31868000.0,45245185.36103148,490944000.0,290576236.05395186,31868000.0,56779280.40921027
1018,1253,0,26568400000.0,13828201500.79441,13080400000.0,8122256455.557634,13246000000.0,2147769369.695576,1346200000.0,735403513.1210271,1952200000.0,1292868601.2291532,3298400000.0,2670869500.7526493,592200000.0,215744546.53656372,746800000.0,323344042.25334615,599400000.0,70102649.3786144
709,868,0,2933971000.0,4454517397.314461,2618511000.0,2346838474.4101515,315460000.0,1867967655.6656826,65062000.0,286019785.5506599,2191000.0,320812626.415813,67253000.0,496596744.38997734,-143265000.0,57179973.962793745,69951000.0,250745919.50154072,-4889000.0,66081321.685324796
1121,747,1,27828200000.0,16307263743.392794,13810622382.415062,5763512804.181373,7212400000.0,5121943170.917152,821300000.0,548600819.3949474,181300000.0,688710083.5097376,1002600000.0,1769882297.9332833,233000000.0,139064806.17724735,794400000.0,400719259.4427134,26900000.0,64192071.90041982
1026,1037,1,2788943000.0,4316123190.123075,2662320000.0,1927035243.7506225,126623000.0,1354766953.5524855,299166000.0,315219881.67944384,0.0,384004502.8674864,299166000.0,696509658.56698,-281667000.0,54722875.36654673,580833000.0,269492874.60330075,-281667000.0,56398369.84541252
1015,242,1,2489159000.0,3571502550.7731075,1954765000.0,2069103319.949952,488897000.0,1249846082.4866567,294443000.0,290931610.43244076,370069000.0,601309302.2297747,636496000.0,941307548.8374636,64600000.0,65449269.24481534,229652000.0,277243354.8003263,64791000.0,65629463.720618434
1575,208,0,11961066.0,3246561843.231375,1068497.0,849413237.6081715,10892569.0,1867967655.6656826,611174.0,104240833.51220763,0.0,113087990.15078509,611174.0,203502992.38979626,-1146685.0,20343994.097038314,1757859.0,153001373.56902942,-1146685.0,37952069.19385084
826,84,4,93941000000.0,47921486790.295525,39446000000.0,19203403843.614906,53466000000.0,23905294368.441334,4178000000.0,2970071672.6230702,15656000000.0,8838928101.982159,18582000000.0,17201835006.733177,1764000000.0,1040574406.702475,2414000000.0,1045479991.0999333,1764000000.0,223939856.1568931
463,901,2,32097000000.0,22777358051.23145,20419000000.0,8583393333.692205,10658000000.0,6050308048.205816,2071000000.0,1306388288.1595845,6360000000.0,2827064200.9146585,8431000000.0,4695132960.394582,950000000.0,437973312.9293517,831000000.0,489143135.6581862,1240000000.0,52720917.35395449
1660,1497,1,6578196.0,1299391346.5967054,4441488.0,1235061035.9775105,2465776.0,280506961.57554054,2008368.0,140431525.07934713,923641.0,138751289.37237144,2932009.0,212231371.41739726,-1328968.0,25665780.988635227,3337336.0,159076024.1594669,-1328968.0,43407121.908650234
700,60,3,1658042000.0,2587204241.2212486,1223260000.0,1930080236.1744027,434782000.0,1234706284.695396,207698000.0,247886648.29838616,674127000.0,320768959.1440343,881825000.0,587680530.341989,25549000.0,60543697.19542154,179614000.0,209183646.0841389,28084000.0,100801284.86100003
402,1152,1,9094896.0,1598077662.5098305,13593163.0,1436250949.9908404,-4498267.0,302109563.98046184,-928960.0,160282253.27573758,1115703.0,154912593.1278305,186743.0,248960954.82891476,-5136642.0,27885868.073567003,4207682.0,204161467.50233912,-5136642.0,59289672.148675404
591,406,2,16788482.0,1419575672.4448752,821758.0,1101196844.4715128,15966723.0,312407454.01651216,906228.0,136288113.08957374,333325.0,126687604.99068332,1239553.0,242287536.28637552,-1096396.0,15769508.661614671,2002625.0,160363992.3936323,-1096397.0,45419961.3174294
412,1415,3,1678241000.0,2252624678.29158,730813000.0,1938619561.3079019,947428000.0,793314819.4930186,62311000.0,221689089.1905076,89643000.0,236270516.16949624,127553000.0,396617520.96248186,-24195000.0,39878145.67782102,86506000.0,172928845.52058068,-24195000.0,100801284.86100003
26,113,0,1363308942.0,3930603976.2728424,629855415.0,2192864013.1785603,733453527.0,1867967655.6656826,93681798.0,218941602.72702795,0.0,214220522.47495645,93681798.0,351743886.61337626,39573525.0,55297287.653976545,54108273.0,236353532.55577934,39573525.0,68803610.38202876
205,526,2,15264467000.0,5820546198.292368,7226441209.924589,4151552445.942799,3059451000.0,3077804654.001353,592816000.0,420514374.8368859,378076000.0,605122875.5723871,970892000.0,1290384439.388391,444977000.0,222440174.82427734,147839000.0,311053671.5848988,444977000.0,57220182.99668793
699,1263,0,65987000.0,3391046346.5997605,35279000.0,1118014099.744069,30708000.0,1867967655.6656826,5319000.0,141561311.93506253,28050000.0,146760723.16197145,33369000.0,240471467.01440847,1124000.0,48788703.80374586,4195000.0,203730509.96346864,1124000.0,65202276.12434828
550,304,4,31945000000.0,22501166723.00451,26424000000.0,12186053074.752789,5506000000.0,4062229412.051009,1191000000.0,723324692.4794434,2895000000.0,1903387933.040758,4086000000.0,3761409405.6212296,834000000.0,167274783.17712012,357000000.0,305564804.95716125,834000000.0,54922986.26828521
140,207,1,2655001000.0,3699840482.929968,1989549000.0,2247878201.966033,665452000.0,1411213851.4139738,67554000.0,296127437.20248806,403267000.0,452621374.0831692,470821000.0,744626198.0772233,-3426000.0,65785414.81911946,30096000.0,269422755.5607879,37458000.0,64192071.90041982
2004,586,2,9403000.0,1492547519.299817,5511000.0,1084766147.7454162,3892000.0,372517318.57927287,-48000.0,133785612.28181636,1387000.0,133852532.53090805,1339000.0,253397028.9067005,-903000.0,19199315.70326814,855000.0,170131825.88605097,-903000.0,50894614.048514575
28,456,2,551232000.0,1743830300.009704,628224000.0,1444247202.9516733,-138322000.0,495230953.84350157,23716000.0,182833166.46506017,12709000.0,244976581.9376247,36425000.0,315814785.67622197,7478000.0,16871231.78432122,48579000.0,222714372.55579636,-24863000.0,48551862.47800876
844,949,4,435750000.0,1790572431.1427197,62826000.0,1478871854.8880715,372924000.0,516546406.0255773,28152000.0,152752721.46575266,49267000.0,193391115.55390996,77419000.0,280884740.26337206,143000.0,41396219.1271198,28009000.0,211559158.47038785,143000.0,25740315.960360177
967,1059,4,367699000.0,1788178011.1688504,382822000.0,1514139851.4572601,-15123000.0,632978523.5488335,310000.0,157331671.16190746,0.0,233747151.41373944,310000.0,282964488.59464395,-47413000.0,32477176.09158799,47723000.0,228605124.23849776,-47413000.0,23770122.880935095
433,1396,2,3810682000.0,2860218676.5506926,2050315000.0,1765505652.7683265,1303319000.0,776339301.284534,110314000.0,202389882.029737,71850000.0,335320500.36534315,148990000.0,435624273.4638697,11661000.0,25577936.137271583,98653000.0,223126900.80807543,11661000.0,46613490.65117726
228,315,3,2333529000.0,2753158241.6441793,1032484368.2283514,2198500433.6289954,1202771000.0,1192240963.8237464,71236000.0,253889102.54411304,490990000.0,379806213.3414632,562226000.0,635590912.3785511,19517000.0,67875796.78431079,46091000.0,198328916.83175224,25145000.0,100801284.86100003
1855,735,3,20737275.0,1727292501.1041474,10788720.0,1297235876.467073,10368036.0,439630853.9848733,562564.0,143493327.48739225,77061.0,148999922.33924907,87201.0,221277790.75116193,-4142505.0,18476306.103748202,4705069.0,136671125.20166463,-4142505.0,100282919.44349217
776,330,3,386844000.0,1869519745.2121754,412960000.0,1782770222.2362301,-26116000.0,670209796.229432,16927000.0,207547321.0887545,91131000.0,186304897.6484831,108058000.0,301254367.6090894,-813000.0,47194504.46400666,13060000.0,148403208.11578566,3867000.0,100801284.86100003
839,1420,3,6911775000.0,4613560554.1858225,5109042000.0,2271037810.4947495,1802733000.0,2018582030.4037395,225256000.0,260580310.0551618,195092000.0,369062054.2564305,420348000.0,618357829.3013057,132530000.0,66398294.97578712,92726000.0,199218871.65727514,132530000.0,100801284.86100003
793,1146,2,2883631000.0,3821697784.975114,1772390000.0,2172967326.2352896,1110345000.0,1382780489.3166869,319055000.0,390942122.26547045,1257690000.0,1014414095.5415673,1576745000.0,1586830000.0926876,38222000.0,74843438.12743619,280833000.0,271125308.8016016,38222000.0,65254412.77817385
820,846,2,133032000.0,1758012921.3939347,232711000.0,1459541305.1072664,-16246000.0,659552706.4430326,12296000.0,209638874.71547437,62277000.0,286950969.0425375,74573000.0,389671694.87070334,-14749000.0,21432966.78650497,89322000.0,236187038.76421708,-77026000.0,56965731.20517449
2016,513,0,296638000.0,3727488253.599947,208509000.0,1465112154.8149526,88129000.0,1867967655.6656826,7319000.0,164475252.49916452,0.0,132505242.34031868,7319000.0,282609980.0005615,-46633000.0,41930694.920202695,53952000.0,216353822.85726866,-46633000.0,67301220.57342067
1438,1294,4,38809000.0,1477570049.9079132,43090000.0,1191168146.3758066,-4281000.0,485422156.482371,7318000.0,153968793.82166883,25818000.0,209521447.87057596,33136000.0,292550782.62311375,-933000.0,36119406.27184084,8251000.0,225082456.28606522,-933000.0,29841983.36070151
866,229,1,2376172000.0,3255706863.272362,1870972000.0,2145664685.2459013,486613000.0,1141844503.5986948,-5214000.0,291685487.07811534,182832000.0,358856726.6301337,304976000.0,567259926.7174016,-103708000.0,40371408.783627726,98494000.0,263996901.70740974,-103708000.0,62025881.72508041
689,1207,1,3719784000.0,4632798933.716988,3332984000.0,2310472374.2529597,286813000.0,1559948291.5454879,2618169000.0,707792744.4149129,-531777000.0,376742224.6542524,2086392000.0,942324412.7584535,44074000.0,73988334.44215137,2574095000.0,598946173.871979,44074000.0,63284355.11165389
919,481,2,1537935000.0,2786079290.446371,1281456000.0,1670745156.702646,256479000.0,1028270105.5591574,229699000.0,285816454.60921395,0.0,378015509.61617315,229699000.0,506573825.3610769,-26947000.0,23556181.233742908,256646000.0,242781295.30222785,-26947000.0,53807989.79747144
1827,890,3,1182488000.0,2461753082.9543247,303489000.0,1747499861.7046275,759221000.0,837401093.1007333,56265000.0,220364619.46228856,333008000.0,246624738.9066087,251870000.0,350379434.947476,16750000.0,57172145.80807717,39515000.0,168407452.2283454,16750000.0,100801284.86100003
1182,716,2,8225559.0,1487952774.0756469,12447189.0,1136953996.665709,-4221630.0,362647979.72120047,17564.0,136905918.6093645,106922.0,141649622.26840067,124486.0,262317250.00275648,-8095209.0,15683361.130679533,8112773.0,169620011.61666486,-8095209.0,51013649.21405821
