epiphany24262/financial-performance-prediction/results/oof/m3a_catboost_direct_history_raw.csv
Id,group_id,fold,actual_Q0_TOTAL_ASSETS,pred_Q0_TOTAL_ASSETS,actual_Q0_TOTAL_LIABILITIES,pred_Q0_TOTAL_LIABILITIES,actual_Q0_TOTAL_STOCKHOLDERS_EQUITY,pred_Q0_TOTAL_STOCKHOLDERS_EQUITY,actual_Q0_GROSS_PROFIT,pred_Q0_GROSS_PROFIT,actual_Q0_COST_OF_REVENUES,pred_Q0_COST_OF_REVENUES,actual_Q0_REVENUES,pred_Q0_REVENUES,actual_Q0_OPERATING_INCOME,pred_Q0_OPERATING_INCOME,actual_Q0_OPERATING_EXPENSES,pred_Q0_OPERATING_EXPENSES,actual_Q0_EBITDA,pred_Q0_EBITDA
196,1499,1,1192950000.0,1905742570.6042275,1055816000.0,1307104139.6883702,137134000.0,1018969159.2898664,25598000.0,164871264.0736953,61899000.0,190484388.74415177,42992000.0,187720631.32544684,15222000.0,32663225.083627984,10383000.0,158421102.4040545,15215000.0,40483572.81303682
1568,1145,4,1219954000.0,1982484000.2976365,835046000.0,1164527290.8007948,384908000.0,601166485.9185574,111786000.0,187356059.4147034,217796000.0,300772857.21035886,329582000.0,439954202.18022954,28908000.0,20932718.462912396,85522000.0,131869285.14343405,26264000.0,56880396.239254564
1218,856,0,-135820000000.0,6357263010.4229965,-37972000000.0,8513169314.739221,-97848000000.0,2156751919.517179,-435000000.0,2470626523.4989657,4445000000.0,5664332753.637159,4010000000.0,8601292604.813467,-1472000000.0,392104663.049284,219000000.0,1277535337.6193216,-654000000.0,517075489.5594715
23,1337,2,83298000.0,873214135.030365,16040000.0,812059260.838666,-31633000.0,39715875.08914769,494000.0,34257960.36081934,3339000.0,20935843.08744681,3833000.0,30612185.1754179,-12348000.0,6539896.18635647,12842000.0,96309698.00112402,-12348000.0,21822207.860232104
783,1345,4,148546000.0,787760479.7657638,56555000.0,657003729.1665897,91991000.0,124724620.37750566,1761000.0,133940286.0432939,-2375000.0,29160220.380645394,-614000.0,46969272.401141286,-10098000.0,12578562.73578775,11859000.0,65599389.5109781,-10098000.0,35287711.37750032
1251,1021,3,7304300000.0,5796542420.411657,2451900000.0,3267169036.2299643,4830200000.0,2200251792.5795174,578200000.0,421486927.7160513,581100000.0,825621181.1975683,1159300000.0,1313596826.0824556,245200000.0,113450800.89492051,333000000.0,279469888.4730898,245200000.0,50740794.6201538
1224,234,4,1976905000.0,1703199326.7989573,699909000.0,1097283046.0843585,1276996000.0,729802202.5709189,53993000.0,208769677.25069195,315825000.0,196774905.33481467,369818000.0,259931364.78712678,-1572000.0,12528308.649931654,371390000.0,269639958.6833894,-317397000.0,29392849.88472461
1410,323,0,2097274000.0,5895831740.58803,1132234000.0,2387610682.142211,965931000.0,1936458363.8208077,70481000.0,243729954.10753012,291052000.0,320780024.1944747,361533000.0,490029205.330449,58709000.0,46455049.11419406,11772000.0,208063234.70926252,58709000.0,47025308.01946597
529,1124,0,31183000.0,5786853862.998477,15926000.0,1397758679.907124,15257000.0,1936458363.8208077,2456000.0,74313637.9095484,2151000.0,4191542.10294044,4607000.0,29660794.667770386,-2931000.0,18733198.74067253,5387000.0,104294342.33652753,-2931000.0,32957486.501014665
730,576,2,978523000.0,2315093660.4285507,851196000.0,1299468915.933688,-94184000.0,780439723.7609524,24321000.0,121601658.97720277,137937000.0,258802185.91740268,162258000.0,315387763.7152798,-764000.0,36376507.80044955,25085000.0,220371747.38792124,-764000.0,24624750.520253714
1590,10,2,27253000.0,1035128389.9135051,14465193.072010836,755942305.5929368,12787806.927989164,190640572.44124436,-17000.0,35545679.208381236,17493000.0,51499826.93002558,17476000.0,53923655.16820824,1196000.0,7679728.517041817,138000.0,104718158.56320211,-155000.0,18321158.56078095
367,641,2,798398000.0,1944728697.5398908,795372000.0,1270010717.919103,3026000.0,599574189.1352506,37121000.0,134264794.9254107,256160000.0,244816795.22634405,293281000.0,335551993.657315,10257000.0,32673675.457123786,26864000.0,138939676.06890202,10257000.0,32130593.96293325
636,48,0,1059052000.0,5895831740.58803,883921000.0,2088487827.5340283,175131000.0,1936458363.8208077,91945000.0,187525828.5474157,202788000.0,155847357.98960942,235132000.0,263460671.12974107,-287000.0,44214442.10654584,84957000.0,160224788.4710936,6988000.0,43390669.14999837
1270,290,3,11069000000.0,9120396421.924568,5919000000.0,4260063812.0667496,5105000000.0,2761587876.9639378,727000000.0,491319947.7810519,1752000000.0,1500617836.6376348,2479000000.0,1860781625.580062,462000000.0,179209902.07891783,265000000.0,271561019.42361504,462000000.0,54796528.23593327
102,167,1,12331000.0,586764779.4231701,10875000.0,104303380.92507172,1456000.0,89546202.03832686,1472000.0,47215345.05611622,1968000.0,-7904456.880060554,3440000.0,7277752.15614903,-4166000.0,3029495.656043455,5638000.0,107080836.61842623,-4166000.0,-1696527.8120685741
1658,1140,4,180372000.0,1110009665.7423615,121221000.0,1030379401.3559823,30642000.0,191988530.28460777,18014000.0,155722408.98049083,31653000.0,58534214.83738196,49667000.0,93403267.22744536,-11599000.0,8059431.064976901,29613000.0,78015954.62222734,-11599000.0,46858909.13124508
6,1573,2,2319806000.0,3472150231.1156645,1534495000.0,1755711823.3051414,785311000.0,1538220701.1886375,376397000.0,327728644.83507824,415254000.0,492981332.5610371,791651000.0,724332962.8671453,93430000.0,60436251.25976583,288680000.0,244696470.1709919,87717000.0,37840659.77314381
1147,1457,3,19295025.0,950311164.9561357,28370931.0,144922073.35392046,-13369686.0,674352164.4567573,2067435.0,76864550.30803293,4847499.0,-16187250.954853177,6914934.0,12686951.915463686,-1108124.0,19681403.996761307,3175559.0,130557864.28227705,-1108124.0,12593113.528531358
114,1091,3,3549408000.0,2952876352.030205,2109262000.0,2039788018.2942057,1440146000.0,1370187071.4761674,264579000.0,281356318.7677562,494402000.0,509814139.38099056,758981000.0,780986405.6538304,58594000.0,67831599.50951825,205985000.0,170655337.37316075,58594000.0,53244170.43154804
139,988,1,331401784.0,584198404.4325237,56254670.0,255445798.79772282,275147114.0,117489933.13629389,17982150.0,60858176.58102685,0.0,-124227.06872105598,17982150.0,23770058.14392352,-40215832.0,4245927.696204916,58197982.0,123404241.84188539,-40215832.0,645357.3421286568
411,662,1,5533000.0,514319219.1865859,4648000.0,184015387.22698784,885000.0,-13845802.866743326,-1669000.0,28802378.067008317,2438000.0,-6938868.612340093,769000.0,-11684754.056426406,-6339000.0,-5155263.22835353,4670000.0,78928734.9125315,-6339000.0,-1206279.143511802
681,175,3,36550000000.0,25782639615.289795,16943241279.095451,11100658625.549301,15250000000.0,6485601347.973156,577000000.0,532245230.20777,3467000000.0,2854937355.5629168,4044000000.0,3622374312.0676203,714000000.0,150157320.97332624,627000000.0,466168676.4507477,-50000000.0,43018441.655093186
1671,163,0,100449000.0,5786853862.998477,141057000.0,1468903266.3710632,-40608000.0,1936458363.8208077,-171000.0,93572572.9399355,512000.0,38040769.39974606,341000.0,56652058.03953338,-48297000.0,11083549.231734946,24344000.0,107946449.37035924,-24515000.0,23929648.08212834
500,170,3,10599934.0,752180039.8538647,26203416.0,21111357.97685337,-15603482.0,683368611.3241385,-6219.0,52605396.221321344,193120.0,-23130847.349164367,186901.0,-7755224.964917898,-1076399.0,16956586.77467148,1070180.0,134885720.78980288,-1076399.0,9103218.018502384
1203,193,0,13322000.0,5786853862.998477,67881000.0,1542938756.6682832,8277888.77383834,1936458363.8208077,3223000.0,90567773.39109337,1889000.0,19555700.11559689,5112000.0,49242521.338110924,-3552000.0,16464776.17161277,8664000.0,118879564.52716362,-5441000.0,34852145.132390544
180,382,1,635001000.0,1925069947.5607328,115305000.0,1370561256.723831,502273000.0,649978330.4129875,21465000.0,196001761.57624054,40457000.0,104712845.85375857,61922000.0,153354707.66828644,-143360000.0,21978681.95088266,205282000.0,192508776.46399292,-183817000.0,54891184.95302317
1960,1074,0,2672864000.0,5895831740.58803,288913000.0,2088487827.5340283,2383951000.0,1936458363.8208077,132902000.0,248010734.2307205,168499000.0,234919211.34551883,301401000.0,415468896.0292015,55706000.0,58455766.74095049,77196000.0,210481721.59085914,55706000.0,51251132.00943244
356,1599,3,8388335000.0,7033021390.294158,5163154000.0,3857299625.5501227,3225181000.0,2386090894.709977,313343000.0,376923397.2877474,687959000.0,829233465.5941491,1001302000.0,1178306961.5637128,116260000.0,106956875.55981377,85661000.0,271636466.2935345,227682000.0,47663016.67383531
1646,1068,1,1563399000.0,2026339827.3195176,1445358000.0,1402681912.6074462,-136248000.0,1003069547.2904824,72333000.0,196632088.26764423,116682000.0,241184937.78176707,189015000.0,270324970.71385777,23506000.0,41169073.6561428,11423000.0,171482707.0567894,60910000.0,47233149.52956742
1793,586,2,320019000.0,2082117954.5773683,126984000.0,1411774214.0233943,193035000.0,849786715.090488,177377000.0,152397348.81860805,58492000.0,224681496.98663247,235869000.0,335888833.03604686,25509000.0,33479358.056738436,151868000.0,172581102.47885826,25509000.0,30914284.702401415
235,418,0,0.0,5786853862.998477,0.0,1195846289.4721756,-804876.0,1936458363.8208077,0.0,23080208.3092438,0.0,-2608592.0167173147,0.0,21621007.293055773,-14550.0,944822.2901636064,14550.0,31167744.475854695,-14550.0,-3770076.631368831
1668,345,3,267194000.0,1206962766.5038223,175308000.0,710613963.7772803,91886000.0,691002459.9545068,5103000.0,152219884.49915886,0.0,16693293.639410973,5103000.0,75934296.48116231,-32762000.0,21094428.6445982,37865000.0,154570698.9041764,-32762000.0,24954557.97824134
1456,769,4,2249377000.0,2910718068.896055,1923326000.0,1612322811.3530037,326519000.0,828757907.4396574,-76300000.0,232904962.67639554,416103000.0,437765630.0629821,339803000.0,589127986.1870165,34941000.0,35787563.92035206,184914000.0,229067454.22886974,-261214000.0,36265414.866209336
1291,32,1,396890000.0,1046144205.2790222,107071000.0,444959336.7744932,289819000.0,303733836.6160563,52569000.0,103150504.91794574,13634000.0,40443098.23983145,66203000.0,46744328.33081758,8375000.0,18310530.69667265,57828000.0,145132887.3669623,-5259000.0,29537745.461268835
1376,256,2,7827000.0,1007738954.5608115,4744000.0,858337856.2770827,3083000.0,90921733.8219744,1288000.0,29675343.980670273,867000.0,27379303.046105623,2155000.0,25775703.742459536,-3880000.0,10594660.821103796,5168000.0,95759040.46856993,-3880000.0,17719097.69752772
1702,1050,4,11990000.0,711551551.7554274,3030000.0,616172316.0209446,8960000.0,11279084.64970076,1480000.0,90536649.52686173,3017000.0,18015572.899481535,4497000.0,15665981.128361464,-944000.0,-1219725.5008855164,2424000.0,42647049.01858127,-944000.0,23330811.388878435
1591,116,2,7472874.0,696527445.3685884,3243445.0,390079783.6017971,4067990.0,25542963.58062601,3065804.0,7728228.0371082425,0.0,4120424.5002115965,3065804.0,-16779897.438974977,-21884.0,-1868091.5566610098,3087688.0,81364600.69032747,-21884.0,-1781898.9268060923
647,998,1,2182494000.0,2956546690.092988,2467501000.0,2651975816.297065,-484456000.0,1399546486.660349,389190000.0,282645984.42176104,141172000.0,417641596.60588104,531030000.0,536539138.15737695,-54175000.0,39344750.45412107,443365000.0,237422056.33538398,-54175000.0,47472046.88885296
100,324,4,12166000.0,541575758.6660237,2892000.0,377785184.9608717,9274000.0,-13913259.22915411,5000.0,88207297.23947006,54000.0,-1599378.4714138508,59000.0,2091418.8829476833,-3433000.0,-8428686.630792648,3433000.0,37928213.91298747,-3428000.0,10060437.555188209
507,554,4,189783000.0,844077888.0923834,45792000.0,668685736.6106825,143991000.0,123865453.20206606,2372000.0,133550730.94611496,0.0,26195325.14691305,2372000.0,49097594.42526066,-18270000.0,-12848422.515431628,20642000.0,67268332.81643137,-18270000.0,36108545.573877774
547,509,4,1072653000.0,689719598.4944534,455367000.0,579280665.8302894,617286000.0,209135464.51642847,134998000.0,113344244.54442888,27783000.0,57027343.11889231,163452000.0,107446460.88050115,5489000.0,276624.9772272259,129509000.0,89861878.79208893,5489000.0,18212338.644030616
457,1464,1,665104000.0,1239509179.1640449,575531000.0,891127321.4075508,89573000.0,618366996.0923302,30803000.0,157154201.56538716,19437000.0,86871294.82068884,50240000.0,109900947.12471819,10357000.0,33704847.61487334,22017000.0,164658827.47301844,8786000.0,50360369.9770142
560,1261,3,1900367000.0,1814638133.4460359,289037000.0,1094894555.7587762,1613343000.0,985572820.6753931,45433000.0,207066895.20585734,413911000.0,306368844.60529476,459344000.0,541571668.8980066,-6757000.0,55791858.393624306,52246000.0,154735105.14791387,-6813000.0,47222242.578635715
1402,384,4,88944000.0,571903325.9434967,45361000.0,525833632.0532794,43583000.0,39389562.744044185,0.0,109352049.61385792,45000.0,9115202.119021773,45000.0,36124554.87732148,-14351000.0,-10731281.921291977,14351000.0,53262114.59334844,-14351000.0,25274713.727737077
1274,1350,4,5390785000.0,5808815954.866983,4083098000.0,2940343527.2391987,1050686000.0,2055856659.041967,352054000.0,299237230.86571074,284900000.0,556743717.1828345,636954000.0,973332020.726051,120850000.0,81420988.52084191,187232000.0,261795953.60754302,164822000.0,55382770.75135637
799,892,2,18535000.0,916635818.0135498,13748000.0,891413300.1068647,4787000.0,99505109.04547572,2839000.0,40931953.77669543,7502000.0,38553757.2419281,10341000.0,41033054.98757732,-2229000.0,8843005.493763283,3071000.0,90232073.86289716,-232000.0,23889650.523461264
1436,1492,3,13281300000.0,9174617648.600622,5777300000.0,4657260846.5595875,7484300000.0,3266326730.311811,1030700000.0,578877034.5464828,1150100000.0,991478016.4803414,2180800000.0,1885360672.004784,687000000.0,233686407.70129496,343700000.0,274932619.4501416,687000000.0,49908056.74252778
1518,1341,3,108681735.0,1078360245.508811,9192190.0,507290208.7313943,67531550.37365061,664357625.8672003,2201326.0,95336404.26048249,255772.0,8366705.246453285,2457098.0,23162790.0895015,-8935951.0,22242858.99242285,11137277.0,142177398.48688683,-8935951.0,20575782.419736557
211,403,0,189692000.0,5786853862.998477,90178000.0,1650518392.9076302,99514000.0,1936458363.8208077,-4411000.0,119739069.2206009,24963000.0,42025571.08243346,20552000.0,75523488.29392326,-10000000.0,24164202.47010596,5589000.0,123397274.74370798,-10000000.0,38154722.40437576
1542,1378,2,230878000.0,1237395235.0425334,57278000.0,911034081.696348,173600000.0,210438922.98998415,26973000.0,52091654.71350312,7041000.0,66755245.14203429,34014000.0,73864402.09766889,-11169000.0,15295068.201107696,38142000.0,114724168.85089007,-11169000.0,27096704.846843302
1496,1478,2,73773000.0,978499699.5196147,50819000.0,863969475.2045503,38847689.64492722,74087188.16871381,5428000.0,32776263.721764266,22481000.0,39124985.97546017,27909000.0,33451123.36778617,-1778000.0,10186482.040898696,7206000.0,97038384.42598754,-1778000.0,22062334.929826427
1891,702,1,1582767000.0,2076056287.323031,680421000.0,1755749071.595318,880211000.0,1071143654.0539887,56683000.0,226868660.52226752,17637000.0,184326798.5922289,74320000.0,239354806.64228702,-5119000.0,34292284.0648254,35279000.0,186244838.48137283,21404000.0,62387400.25042373
362,1108,1,5641000.0,391992258.8648958,5200000.0,126341725.56569767,-3859000.0,24924220.471854925,1192000.0,33830807.59521991,781000.0,-203643.17838168144,1973000.0,5007004.015082121,-97000.0,-338875.7838460803,2070000.0,79496457.69589841,-878000.0,4567673.319024436
605,1128,1,3208196000.0,3589673823.487998,2133043000.0,2905849773.4431734,1075153000.0,1662968121.8335266,625972000.0,393349292.0518985,1066275000.0,1012318330.0481632,1692247000.0,1581760531.8002195,91616000.0,66871842.09190254,497965000.0,281116412.666628,128007000.0,77106816.84618765
384,67,1,13057000.0,472398433.6967764,4943774.229094189,179295520.5075178,10949000.0,-69710137.10009527,7944000.0,30339715.75242406,0.0,-1144653.6005346775,7944000.0,-8839590.517002106,1997000.0,-13804211.262909308,5947000.0,81675274.27201745,1997000.0,-8128789.129535347
438,863,1,5973000000.0,5053686739.274743,4408000000.0,3406185031.155914,1554000000.0,2134079883.6298983,244000000.0,378708186.80834293,1526000000.0,1040091848.8940771,1770000000.0,1446165533.7043686,147000000.0,87820600.60595928,127000000.0,235478796.6457994,117000000.0,58783941.698642105
1761,1201,3,589088000.0,1666960648.80272,253950000.0,1199786342.6127872,335138000.0,814941533.6411983,19294000.0,198015160.8582806,99428000.0,80789345.34013867,118722000.0,202100774.54156983,9057000.0,39101170.89108992,10237000.0,164003325.10515645,9057000.0,40910279.008113176
403,1321,3,21286772.0,729143544.9497824,1383236.0,-15780362.346123695,19903536.0,662176490.3523023,781782.0,63562387.47085667,421382.0,-17095819.052470922,1203164.0,-1524503.2148902416,-1960898.0,15670113.763732105,2742680.0,135775902.88292003,-1960898.0,7774058.326655038
388,1465,0,3445920.0,5786853862.998477,1859560.0,1450844277.132081,1616914.0883314284,1936458363.8208077,2970901.0,55065272.86325455,569508.0,-148158.39410579205,805185.0,45368078.40094161,2437201.0,8506590.554766014,533700.0,91465468.05504066,2437201.0,4424895.909165785
1452,1235,4,328158000.0,1197928583.0831218,124250521.82515822,1268867287.2061121,270486000.0,283086468.250419,24944000.0,168787846.44523588,16521000.0,70006972.07462299,41465000.0,125283081.10124731,-7674000.0,6054332.751717329,24827000.0,85828413.88405794,117000.0,50705606.844475724
1876,600,3,2498305.0,660194949.8434334,2997402.0,4867201.545840263,-3454854.0,657363821.2136229,467340.0,40494840.4192884,346611.0,-17721608.02522254,813951.0,-4339001.087121487,-114631.0,11690203.21350713,581971.0,126629561.28226465,-114631.0,2599128.229321778
757,967,2,1288046000.0,2572028000.354334,649920845.9604261,1339989516.7225819,889849000.0,1270673862.9858274,105384000.0,181487397.4917909,285360000.0,305618867.31796074,390744000.0,365822927.46508944,53190000.0,40106459.034918904,52194000.0,194268150.3787331,53190000.0,36121762.160657965
660,231,2,600057000.0,1664617156.5299025,369915000.0,1029175423.0779555,225443000.0,447792105.43428373,43121000.0,101989150.99180776,106269000.0,140587387.78424203,149390000.0,141548523.27213907,7853000.0,30375160.175909102,30439000.0,149224865.11681134,12682000.0,27203595.625566673
197,1227,2,538955000.0,1000156507.132987,291671000.0,643234137.2773657,247284000.0,117400791.73885787,-14193000.0,44260138.79461843,14235000.0,23797180.769354463,42000.0,47524998.47931898,-51845000.0,3657089.378324762,37652000.0,130905832.66027012,-51845000.0,25266601.789715476
93,446,2,25334074.0,886399408.9906445,18917048.0,830313035.0244391,5501613.0,59148651.70537746,-536032.0,19951943.78512931,4501393.0,18483480.681576967,3965361.0,7277368.6346024275,-2975120.0,1539296.8567975909,2439088.0,88740546.65345824,-2975120.0,23817911.281249277
472,459,4,1934400000.0,2251251950.5290055,855887268.5537325,1427305758.1590126,957200000.0,1044332979.1812578,84000000.0,205255304.53274125,375600000.0,318621737.62540317,459600000.0,468113135.6403754,30800000.0,35348586.49538353,59000000.0,131394618.16186365,25000000.0,57713454.53050193
1345,1471,4,102973000.0,837997824.3120623,162948000.0,566923927.6877708,-346214000.0,134322432.757985,-13037000.0,110987013.52129811,25768000.0,32839578.507377863,12731000.0,28847907.080427647,-23219000.0,-2540786.990387678,35950000.0,74659949.15792611,-48987000.0,4943914.313324168
1672,1007,2,2501300000.0,2826646380.2764635,1075500000.0,1476098068.1326675,1407900000.0,1391399746.051115,99600000.0,263989558.266693,151100000.0,336500799.75018066,250700000.0,468807594.61687803,31900000.0,45286669.39941532,67700000.0,224846564.29464552,31900000.0,29735423.30893425
521,1060,4,27910000000.0,30470736715.306564,24392000000.0,14764723740.490664,14058781786.346067,13808644248.730194,1525000000.0,1025884891.473212,6421000000.0,4104697723.535851,7946000000.0,6088975426.912282,561000000.0,426634286.62000597,638000000.0,419700336.9086831,887000000.0,54796141.45464263
1143,781,2,105238000.0,971924589.736373,42240000.0,865104135.773998,62998000.0,141882759.26213014,8572000.0,54642199.65241104,322000.0,24555584.49670434,8894000.0,28456959.03871405,2218000.0,10010929.766648814,6354000.0,103681677.54491132,2218000.0,24555597.341546226
502,145,3,2010176000.0,2886864981.274404,889414829.379791,1552907528.3869808,1057656000.0,1070930908.2596126,113627000.0,257623632.9486834,250202000.0,211680624.11047196,363829000.0,435838234.4883648,44531000.0,72825828.68803447,69096000.0,165775982.42337847,44531000.0,47663016.67383531
319,979,0,15154000000.0,5895831740.58803,5534200000.0,4481409778.097299,9554000000.0,1936458363.8208077,739300000.0,525479904.84039384,999600000.0,746488953.6503706,1738900000.0,1503043677.2204118,318400000.0,127802618.95808645,315200000.0,350306624.40187395,424100000.0,56439383.20871518
471,8,4,346507000.0,992238742.3452358,100361000.0,898645410.4837384,246146000.0,252668512.68259335,14398000.0,154513170.75009915,62502000.0,61427619.00123167,72480000.0,113924590.62811756,4926000.0,7517702.417463437,9472000.0,79676185.6045663,4926000.0,49238871.17157545
1756,1541,4,229309000.0,1034788672.418314,190264000.0,1007570499.7356267,-44269000.0,225431679.5783893,9225000.0,158626490.14262483,52669000.0,56737282.47270703,61894000.0,89422224.1000421,1401000.0,9849300.990359455,7511000.0,78045382.72293752,1714000.0,47034332.47200419
848,860,4,101740000.0,857692910.9276485,28463000.0,675960605.3601956,50734000.0,114205322.49645329,29850000.0,129463372.9457581,12745000.0,48802735.89384735,40857000.0,66567159.30131841,2689000.0,766303.1291838586,27161000.0,74429322.20761082,2689000.0,2520141.124873027
1310,236,2,9582645000.0,4464284268.179218,3280269000.0,2533656746.5778537,6302376000.0,2365449759.5783687,376175000.0,390934333.3384734,424915000.0,499847625.2553039,801090000.0,907627385.2885883,272965000.0,59506304.26051034,103421000.0,282641637.4190978,272754000.0,34915831.09589694
202,276,2,609678000.0,1865612159.838533,288631252.1743736,1191563656.4540498,366720000.0,754581460.7553502,84451000.0,106673322.57003397,21802000.0,144612837.4952228,106253000.0,208112875.94666278,5683000.0,26318778.299391255,78768000.0,163952287.66794667,5683000.0,27637129.101659287
1444,1363,1,43441700000.0,29900765818.61193,21559314449.01792,15133623459.121105,21882385550.98208,10985936179.929554,1370000000.0,854266626.5967058,587400000.0,958501920.2844715,1957400000.0,2498648762.9603477,472000000.0,187371923.419852,1485400000.0,810416320.7930781,-115400000.0,45032506.70100748
1578,181,2,1146353000.0,2119548889.7293298,752649000.0,1203815172.074075,393704000.0,919580142.8571954,95229000.0,150564858.13646352,32092000.0,181452858.35098833,127321000.0,287993484.08645,-58245000.0,27759620.396301597,153474000.0,194921393.98434108,-58245000.0,27637129.101659287
451,1540,0,796771.0,5786853862.998477,1072746.0,1231406241.4669561,-275975.0,1936458363.8208077,205707.0,32849839.451796293,158335.0,-5310580.084141493,364042.0,26459512.27365625,-168127.0,285818.7747235447,373834.0,43179847.72118431,-168127.0,-10767494.466498435
35,1028,1,9069035000.0,5151560064.791933,2563480000.0,3194141055.832984,6505555000.0,2086845492.7791295,942419000.0,464464125.597839,522866000.0,582822569.3680584,1285548000.0,1204489066.597581,602695000.0,271577923.72191155,339724000.0,285410856.83373296,602695000.0,61203500.67835863
237,1408,2,48924605000.0,34200944229.565075,25766652000.0,17391950669.444366,22441501000.0,14950890203.591125,1560160000.0,1041011931.3094221,915531000.0,1071613862.4426517,2475691000.0,3069712982.895629,558196000.0,375361317.6206871,1001964000.0,596979602.9784645,558196000.0,64227775.0388309
917,458,0,514281000.0,5895831740.58803,309957000.0,1890038402.65412,198004000.0,1936458363.8208077,106985000.0,181718293.37534323,149052000.0,133793205.42858607,309744000.0,212958048.2259084,62399000.0,42906105.54175092,44586000.0,161045698.05999088,62399000.0,47314103.30950431
558,415,3,17876000000.0,8014342539.658487,4077000000.0,3347655352.763908,13799000000.0,3191875679.058136,-917000000.0,208158536.42929843,1453000000.0,162999965.20797294,536000000.0,636676737.7947125,-1774000000.0,43793534.580428556,857000000.0,355381071.045415,-1774000000.0,2517069.770157218
73,1395,0,218354000.0,5786853862.998477,62021000.0,1481517158.3205538,156333000.0,1936458363.8208077,-143000.0,88746207.77553737,848000.0,38935198.01927602,705000.0,46304924.51222384,-31577000.0,6474296.152665302,40859000.0,126863462.11716074,-41002000.0,32927735.162150793
532,1216,3,2268100000.0,3076581113.228566,1627400000.0,2098037331.1954155,640700000.0,1286279989.8949945,78400000.0,282624150.3740145,665200000.0,535780117.69478595,743600000.0,787849379.5508237,19100000.0,51699271.49196019,724500000.0,347730607.6263567,-646100000.0,38908630.14806683
986,1129,0,49117000.0,5786853862.998477,7104000.0,1436506184.760354,42013000.0,1936458363.8208077,1616000.0,79326965.61201525,3273000.0,7466564.012099028,4889000.0,38920417.0020622,-1489000.0,18589121.475514784,3105000.0,101829385.22220653,-1489000.0,31232723.24129183
252,269,4,12822000.0,524071995.4145899,1624000.0,319499828.08122015,11198000.0,-40458826.926225424,0.0,80798206.82055253,0.0,3427459.8012673855,0.0,8725899.588454485,-1983000.0,-5736177.938629642,1983000.0,41502747.05480158,-1983000.0,18331655.142000586
982,657,1,543788000.0,1642289911.3670864,205894547.02387,1091896226.8247657,402777000.0,593364486.191031,1944000.0,140273715.78765047,0.0,107907393.30840296,1944000.0,127904766.33080697,-51279000.0,15806998.577102065,53223000.0,167963591.13386336,-51279000.0,49860168.89376988
1947,648,0,16965000000.0,5895831740.58803,7506269391.549871,5253549652.240381,7744800000.0,2045324757.7212877,1329900000.0,785728098.6219597,1175700000.0,1031596936.9831495,2505600000.0,2122552462.0952578,1069200000.0,370541893.76065934,32700000.0,358841865.6352467,1297200000.0,57449467.49414178
1206,510,3,29788000.0,1110476126.4320226,27907000.0,600619917.622509,1881000.0,721660980.1257359,0.0,118391161.3131057,3452000.0,1488926.2627346516,3452000.0,35450218.96292913,-23801000.0,20996530.345068395,23801000.0,147695240.9591114,-23801000.0,23263103.1546062
542,1455,0,39315010.0,5786853862.998477,15768167.0,1332063891.6703167,23791305.0,1936458363.8208077,7600979.0,64652217.048483014,41810204.0,-3985710.3343271017,49411183.0,18315989.59831333,-1588725.0,7781899.350963876,9189704.0,93506507.35951585,-1588725.0,-9086679.928281665
15,1272,2,184728000.0,1143408682.9638658,40367000.0,807780436.6493442,144361000.0,118002446.63238323,0.0,54743062.81792176,8094000.0,13167349.401097298,8094000.0,37406923.48767209,-23114000.0,12999983.623970598,23114000.0,123375533.62468576,-23114000.0,17837872.54366122
1754,1527,3,5014090000.0,4451936725.832666,2606263000.0,2797241515.3454504,2407827000.0,1811549813.213501,420690000.0,332875442.04079556,905430000.0,716299658.944929,1326120000.0,1008693819.6510589,237492000.0,96162060.84481944,183198000.0,215841430.80540106,237492000.0,47663016.67383531
1448,1438,2,3543460000.0,2727655472.5147424,2602227000.0,1487830204.6879318,941233000.0,930180983.959336,443568000.0,234664066.8083492,134292000.0,410377820.89923465,414603000.0,612338937.7443287,14363000.0,40028203.25080146,429205000.0,206971459.76574787,14363000.0,31485255.817793638
459,682,1,747087000.0,1305931707.4668384,79688000.0,1025897089.5485828,667399000.0,458574876.8419939,34565000.0,125826296.35139936,22203000.0,74842628.11596477,57261000.0,87228319.46371496,-16306000.0,23461488.542519987,50871000.0,155728657.14696696,-16306000.0,55910657.765040316
1505,317,1,4578121000.0,7562680637.766027,2310023301.364386,4804399474.325747,2489780000.0,2270240510.6139555,2190001000.0,1793017582.892953,-1465670000.0,221900521.01847112,724331000.0,1340104910.8907113,216069000.0,144168956.5881423,1973932000.0,1250284794.0757554,216069000.0,71666975.30978188
1613,680,3,11895943000.0,8771047252.492174,3479745000.0,3405059684.2459784,8416198000.0,3657148820.335711,335683000.0,382183767.10249126,296441000.0,469678198.98503923,632124000.0,942714199.0323279,90949000.0,78427612.50517014,201199000.0,244423102.72488654,134484000.0,51381012.97583833
1214,90,3,1059300000.0,2714501859.936676,513000000.0,1638475337.1007674,545000000.0,999990016.4136999,132000000.0,237677135.13372216,172700000.0,176556518.875876,304700000.0,376692637.42156625,34700000.0,67311549.07351941,88200000.0,164104730.17493707,43800000.0,45096431.97460342
454,544,4,11204065000.0,9450937074.626608,4242197120.938668,5152453764.95979,3489373000.0,4038018983.184503,480702000.0,256867695.75196937,457696000.0,422025046.9891493,938398000.0,897993140.8288369,172392000.0,101004004.90304622,308310000.0,330668116.5051698,172392000.0,38606460.24705597
1392,712,1,531121000.0,1721703218.1246686,248900000.0,1273286454.6046045,282221000.0,858451470.6399772,62379000.0,203813804.1519672,135419000.0,181373823.16391236,197798000.0,238765970.01507258,18703000.0,44036095.42446171,43698000.0,185688176.86267495,18681000.0,59451504.48138122
1519,1529,1,961035000.0,2276177957.0023546,1381722000.0,1719500096.4339066,-420687000.0,1096204667.884442,271111000.0,282707636.14268076,201537000.0,344635695.4805236,472648000.0,477871024.6586131,5387000.0,46943302.95519892,265724000.0,200699977.94845888,5387000.0,61737606.54907662
1060,9,3,3194462000.0,3182892924.282599,1643299000.0,2110485526.703482,1512215000.0,1557956551.1685684,817744000.0,317891454.0459266,0.0,235060586.69412446,817744000.0,590477880.1428745,37900000.0,81273816.30142593,779844000.0,241364869.53283978,37900000.0,44952687.28591241
1100,1253,1,6042273.0,279563696.2131705,3627261.0,16522013.967028618,2415012.0,-29327135.184673786,0.0,2911922.8936370015,0.0,-9534705.034336805,0.0,-8170774.568038106,-1829562.0,-7796198.012692571,1829562.0,54271598.529693246,-1829562.0,-19663777.1886881
203,112,1,76266906.0,685740836.8523355,57438990.0,344272353.707746,40912361.81482647,130784718.6207776,9146097.0,65990256.944961846,0.0,-687119.3208112717,9146097.0,19508298.94311595,-2633902.0,12147348.343529984,11779999.0,110148242.75517142,-2633902.0,14237477.572640456
1493,1589,2,-3532973000.0,1650240550.462469,-2747133000.0,497931332.69030094,-773571000.0,1153157308.1428545,87737000.0,200242058.90733173,40236000.0,454108280.7844435,103187000.0,662245004.6337667,7123000.0,42268177.36243841,80614000.0,160609904.9556159,7123000.0,37967099.6341585
543,613,0,846734000.0,5786853862.998477,635659000.0,1696906333.1934226,69332000.0,1936458363.8208077,204774000.0,128212425.7835601,-13024000.0,95384349.870664,191750000.0,132998050.43566024,-52860000.0,1733012.0944512635,257634000.0,171642066.39482483,-52860000.0,37044110.26788364
1966,79,4,1354514000.0,1208945349.9841557,675720000.0,993826748.7846894,319291000.0,296977752.33986247,-16558000.0,167721184.34678635,64132000.0,76783065.4786005,47574000.0,110380141.96039021,22229000.0,21467888.639033586,13428000.0,103342188.51214617,-29986000.0,35729465.68423895
1802,943,1,270533000.0,867900334.0558662,240046000.0,663001620.595222,30487000.0,321657937.0509553,26052000.0,138823215.0198645,12454000.0,41969930.369207144,38506000.0,62432558.26941323,-21038000.0,20735576.413829714,47090000.0,149902249.65195033,-21038000.0,46219962.11091626
1372,520,3,583783000.0,1635025076.400732,717382000.0,1304235938.9205377,-133599000.0,721063713.8680893,41865000.0,177164864.4033773,32703000.0,47431155.60295737,74568000.0,161599415.37196398,-32006000.0,30467106.38448356,48224000.0,155530079.2407448,-6359000.0,33996490.4916933
1325,178,0,534446.0,5786853862.998477,9794849.0,1193083957.2676363,-9132038.0,1936458363.8208077,6264.0,34731057.63481468,3881.0,-694076.0562596321,10145.0,27440979.330457926,-961868.0,5296423.97845301,972013.0,65780598.88261348,-965749.0,11320459.457189232
1504,342,1,106308000.0,993056737.7552762,29369000.0,577666908.1006732,76939000.0,195989064.04853475,15630000.0,105785203.33136523,0.0,15300863.736329079,15630000.0,35563635.938061595,-23899000.0,16587648.428957835,39529000.0,146358264.94554886,-23899000.0,33153719.261400707
1347,419,4,369031000.0,1089675279.909378,216722530.1814524,1021105687.4417889,188777000.0,326549585.2354686,45044000.0,152534334.99632314,42173000.0,118265342.95857811,87217000.0,183299043.6326424,-3804000.0,14442662.026917636,48848000.0,109979756.33849102,-3804000.0,43373252.81531618
1492,886,3,327784000.0,1255481395.4427247,323919000.0,884069083.1785464,3865000.0,721660980.1257359,33496000.0,152153238.1856345,8201000.0,17150420.587335944,41697000.0,88950179.18118727,-4913000.0,23937355.412576452,37287000.0,146815111.66033068,-3791000.0,41398471.53139444
1107,1421,4,85658000000.0,49124211271.99251,88335000000.0,47631607001.72172,-2772000000.0,534006845.38743955,5387000000.0,5522485551.553738,14002000000.0,12632959699.934933,16935000000.0,23658852369.054646,1165000000.0,2098685646.0279257,4222000000.0,4568148535.558217,1165000000.0,463416009.72564334
1336,954,0,898860000.0,5895831740.58803,527877640.3036609,1962425803.7761548,360528000.0,1936458363.8208077,68259000.0,140369213.39885193,42065000.0,122953570.23469669,110324000.0,178703612.43833184,-1325000.0,23163835.646118373,69584000.0,170517435.55661333,-1325000.0,12492311.256396376
599,1230,4,50546000.0,837590300.0424938,5959000.0,821275210.7030277,44587000.0,37380360.976202965,1989000.0,110585524.57732302,1909000.0,16506237.71359229,3898000.0,23750587.79906237,-1895000.0,-2997667.021594912,3884000.0,53162382.2673074,-1895000.0,35469589.71745431
117,1592,4,939056000.0,1747621736.6279764,419590000.0,1456836927.6194518,517473000.0,676383064.096359,90527000.0,183824334.92412722,120216000.0,172301137.03866905,210268000.0,210092464.98440325,61012000.0,16571346.04495199,29515000.0,97386548.71008971,61012000.0,53980065.76063397
1825,1596,0,20027115000.0,5895831740.58803,12952737000.0,4942580768.187458,5611108000.0,1936458363.8208077,32786000.0,369389943.17965573,283742000.0,398318761.62722707,316528000.0,870251543.268945,-1347477000.0,37493804.76303092,1910658000.0,442829553.46458554,-1877872000.0,24304604.9343545
1507,1095,4,124094000.0,772722493.6001568,18130000.0,769608805.2313762,105964000.0,49211221.317261815,830000.0,130512868.94552952,0.0,16465847.681452274,830000.0,22500359.147782683,-5787000.0,-4561130.761713162,6617000.0,62038462.40419868,-5787000.0,41061454.2571342
321,18,1,68675000.0,773690341.7681389,40331082.646745786,494953486.4301853,53645000.0,200315603.28432643,10938000.0,108291285.413791,6604000.0,20340279.02738273,17542000.0,41662610.815555215,880000.0,17573134.48964922,10058000.0,122058514.9504484,880000.0,34124213.1830574
1482,1044,0,1833700000.0,5895831740.58803,811331929.4597701,2295520335.322734,482900000.0,1936458363.8208077,110200000.0,240416195.51231015,356000000.0,239401312.01665705,466200000.0,433109324.5718137,45700000.0,57013973.45585905,55600000.0,206842501.28561494,54600000.0,51251132.00943244
508,1491,4,62515472.0,935245588.0426011,29595817.732691668,731391794.2653675,21861273.0,76978376.31495976,7032458.0,122350819.44709253,11256239.0,43045242.41323686,18288697.0,53278028.88786435,-1564350.0,-505709.6397355795,8596808.0,60805595.21502277,-1564350.0,36727161.69720286
1411,89,4,33859785.0,738620396.6619954,6178818.0,529103304.5502591,27680967.0,26586067.880850315,-63384.0,91350610.43857044,87873.0,20879893.849484444,24489.0,11022108.976723433,-2675666.0,-5364513.670547232,2612282.0,39445299.966364205,-2675666.0,12941474.876296535
718,784,4,770792000.0,1594113932.9100013,581187000.0,1055970363.0311656,188503000.0,573708102.5836805,456709000.0,172756293.01999813,0.0,122792266.16699183,456709000.0,327123746.18725383,-29756000.0,1064347.1630833596,486465000.0,203919172.89326867,-29756000.0,44374258.23193055
1865,1595,1,4753100000.0,3357912596.6662188,2691038000.0,2436594298.633784,2062062000.0,1502292425.2853646,383135000.0,333694241.2126772,0.0,395672393.5522358,383135000.0,587639390.3325064,126771000.0,60297536.024680756,256364000.0,238611332.87140805,126771000.0,51199741.70755472
710,229,4,9330700000.0,6282369914.3784275,4987700000.0,2958616118.167049,4343000000.0,3579634460.3217115,590200000.0,398554297.7866498,367100000.0,512840845.99029326,444000000.0,912576734.2835796,121300000.0,72116029.8120158,468900000.0,365370464.13771653,121300000.0,70453075.8219896
285,865,4,1797231000.0,1758454187.8853102,1568932000.0,1080754129.2655842,228299000.0,847159747.1984801,143030000.0,192928972.50040507,0.0,141782574.05102396,143030000.0,401905489.0568743,-113543000.0,-13405353.155101344,256573000.0,194729992.4527762,-113543000.0,45349317.1839478
1609,549,4,90048000.0,981220163.9487286,45436321.63528667,915808066.6688049,37547000.0,100465193.98988044,2482000.0,131060862.38831472,9262000.0,45395755.47975087,11744000.0,55325138.234510064,1360000.0,3946492.3049174845,2815000.0,71922946.09452167,-333000.0,25148608.310741544
1814,521,2,190817000.0,1188169048.297903,91955000.0,914206375.6395781,118567925.39840196,280232486.6236422,16838000.0,65823275.07413334,21962000.0,65081401.88591194,38800000.0,81279282.04408467,3292000.0,18947310.712092638,13546000.0,121297594.42362645,3292000.0,26903436.029240083
720,482,1,24930824.0,572193928.6074333,6278564.0,298585754.74804735,18652260.0,77551318.78783572,7866761.0,73269133.43223059,20382092.0,22157386.09456873,28248853.0,17878397.339687467,1448213.0,12854308.042124867,6418548.0,104261046.46582258,1448213.0,16675698.630177557
1707,1123,1,6071000000.0,13438655859.41002,14261000000.0,7025759381.488855,-8190000000.0,2742409323.8433084,1287000000.0,765436180.7076211,421000000.0,608646529.133803,1708000000.0,1295275413.7107966,613000000.0,317985520.72027695,1095000000.0,553804506.3421197,192000000.0,56232772.429191425
485,633,0,5768300000.0,5895831740.58803,3017800000.0,3381831853.085862,2739100000.0,1936458363.8208077,487400000.0,386275111.2658252,888400000.0,703548220.299498,1375800000.0,1297660229.38451,276300000.0,82063448.63915935,211100000.0,298362685.12425,276300000.0,51251132.00943244
1364,815,3,3486179000.0,3418916913.8378515,1927467000.0,2310083779.0054283,1501742000.0,1466530204.6275082,315111000.0,275693767.7483711,669472000.0,733293094.5472375,949217000.0,966171902.4696536,-24190000.0,79697812.49868593,194277000.0,181694681.4945956,120834000.0,40491570.09004194
1943,1072,2,496042000.0,1964128100.7415361,349488000.0,1297424514.8676393,146554000.0,793070974.7644274,33924000.0,137411385.73733532,212763000.0,251835521.60724342,246687000.0,253176391.82453883,12448000.0,27954911.003509432,21476000.0,182227831.02770862,12448000.0,31120590.30192579
708,1318,1,1713800000.0,2593575633.751814,864747334.9608463,2038836721.4978766,585500000.0,1365834124.3611703,141400000.0,268729198.2988281,205900000.0,302539038.36915255,347300000.0,444023144.0499239,100200000.0,56105021.62520543,64600000.0,208207196.0289252,76800000.0,56403014.69874421
1795,1600,4,5817000.0,527073904.08879566,1413000.0,409514100.95824957,5436000.0,6521045.762093663,5000.0,89768213.27995437,0.0,-4411236.9154138565,5000.0,-2031242.3888070583,-3525000.0,-8886595.464491844,3530000.0,37797572.82355428,-3525000.0,17999246.621680588
1196,706,2,4180537.0,900003959.0234838,13379601.0,872352359.9904826,-9199064.0,37015699.592506886,1107842.0,37433320.458557725,974711.0,26534353.620886922,2069845.0,26386083.7822392,-2577294.0,10108241.843390375,3685136.0,100941013.16539723,-2577294.0,22746704.554355066
1785,1398,2,6656000000.0,4714903694.058462,2127000000.0,2836332106.791611,4529000000.0,2207746511.333176,386000000.0,414197004.701816,110000000.0,885371037.2099422,496000000.0,1303193958.1055126,-53000000.0,65515412.686097585,439000000.0,369294838.16348124,-53000000.0,32156563.11458505
1117,883,1,191593000.0,1125273977.3105931,250675000.0,732287880.1300416,89973054.63642293,375042174.07269526,28173000.0,130152819.9853,35245000.0,39324175.93420458,63418000.0,72420820.6597476,-6852000.0,12407448.177209586,35025000.0,143538252.71234548,-6852000.0,28729630.70811611
611,1106,3,69753000.0,1123007659.5036368,24624000.0,436481699.14543104,45129000.0,691002459.9545068,4333000.0,120917588.79929733,3937000.0,-2406027.26868701,8270000.0,30761893.285033464,-17948000.0,20149691.856907412,22281000.0,145267482.47394314,-17948000.0,28996233.408832036
1037,853,0,12798100000.0,5895831740.58803,7698700000.0,4789579436.010731,5099400000.0,1936458363.8208077,578600000.0,526689335.11389226,1141600000.0,857342086.4966766,1720200000.0,1639820455.621796,210200000.0,117947211.73577361,368400000.0,366972560.8730978,210200000.0,48087355.516328685
1049,1153,1,41718000.0,640739509.1032,16883000.0,391231103.5037184,24835000.0,136557090.11572373,4472000.0,78060823.02248621,-7000.0,32288972.302625656,4465000.0,26052724.05002117,467000.0,15169174.100687861,4005000.0,131206640.39142302,467000.0,25102646.33017963
181,100,3,2175066000.0,2314640825.140462,720018000.0,1152564406.3673496,1455048000.0,897509672.9494014,262895000.0,171784772.74149615,0.0,91742861.79193246,262895000.0,256322762.03928494,-74357000.0,23740333.07555902,337252000.0,179650359.72513163,-74357000.0,20419757.93288406
1530,839,4,432444000.0,1066697479.0173106,58115000.0,969003239.0685644,374329000.0,207699466.03009582,30953000.0,162491233.14229012,9019000.0,48367988.87143242,39972000.0,67431336.51486826,-4508000.0,1117601.2337501943,35461000.0,73922490.59847918,-4508000.0,49763121.951538496
1172,936,3,1951144000.0,2514820033.760291,976648000.0,1736156722.6514742,828149000.0,1199052246.8115697,81471000.0,237146554.75428784,811299000.0,483768642.5446751,892770000.0,612945947.1474649,21174000.0,49162276.31912741,35340000.0,181529523.21117404,46131000.0,34660595.75402203
1844,1278,1,5184000.0,545699241.5731649,33317000.0,78867305.49101543,2568262.933576247,10013934.914980054,28000.0,11328112.991537511,1138000.0,-15067130.870105743,1166000.0,-6412053.129389048,-1174000.0,-10251414.370837912,1202000.0,67115970.19500428,-1174000.0,-32258674.464185447
937,1185,4,30042800000.0,27487558281.80613,15158963259.867964,10141152738.97654,10331300000.0,8430659403.640606,1541600000.0,1030891552.5370893,2284300000.0,1787820796.5450716,3825900000.0,3363600167.031498,727800000.0,789107610.9302266,402100000.0,384658648.3705373,1139500000.0,71967769.79399624
1319,477,1,3143366000.0,2452510179.625513,724791000.0,1873225832.342029,1686216654.8151803,1158160477.8202083,293240000.0,265620028.87981004,0.0,283096158.6919427,293240000.0,365448171.0739658,242794000.0,50858426.50931152,50446000.0,181655244.90641177,242794000.0,48008085.615100406
785,340,3,2558318838.0,2401318330.608168,289865031.0,1425468736.571504,2268453807.0,1080513819.1226058,191440633.0,231403344.47768125,384407857.0,270522062.20342577,575848490.0,468935803.6721878,122416529.0,86269811.0228587,69024104.0,165775982.42337847,122416529.0,43437645.33427785
534,421,2,355784000.0,1735344010.4039807,359982000.0,1076845316.233122,21035000.0,660774524.6397295,21274000.0,94654153.69888926,23247000.0,107434388.58095634,43857000.0,151619543.34990442,-2501000.0,25728376.17264749,23775000.0,163316138.29681998,-2501000.0,25680986.553650137
1073,1259,0,107571000000.0,5950269952.0,49865975585.04998,28062706943.437508,57705024414.95002,2156751919.517179,4680000000.0,3336392999.929354,16059000000.0,16031758367.704412,20739000000.0,19486622793.889526,2233000000.0,1277749646.977849,234000000.0,1430997253.685936,4446000000.0,855663517.3755648
871,1087,2,357016000.0,1483471540.1401715,134021000.0,969283927.4527175,222995000.0,372173118.0488297,10859000.0,90043774.41360158,60424000.0,99785662.67166471,71283000.0,107077497.36104918,4410000.0,19499337.25797811,6449000.0,134702378.4967737,4410000.0,27203595.625566673
145,1542,3,10492900000.0,9849010251.959435,4642648635.342979,4680732452.836004,7724300000.0,3126056365.029711,1077000000.0,613664913.4749247,2546000000.0,2592021315.1442757,3623000000.0,3713536062.488625,389500000.0,176187804.40108836,626900000.0,279956450.3377001,450100000.0,46012036.74520826
1137,1552,3,221167000.0,1371184218.0404525,272405000.0,975568355.2701116,-51238000.0,732351142.5410117,26384000.0,176627351.02890697,0.0,16199557.388539076,26384000.0,82515171.98112464,3123000.0,26606357.467929184,23261000.0,168542914.1095533,3123000.0,32391415.754757263
1853,807,1,644700000.0,1682411336.534492,668700000.0,1221648115.5970635,-24000000.0,766883529.5393069,11300000.0,189273179.4465459,30400000.0,154121068.29321474,40500000.0,160867382.6118077,-2900000.0,32726514.135404095,9300000.0,174896713.1441503,2000000.0,54460924.04528081
1607,1167,2,5733000000.0,5138948249.00159,4386600000.0,2972038253.62794,1332700000.0,2543263941.3953495,508800000.0,478503600.73644257,1740100000.0,1114910972.0819397,2248900000.0,1843596268.6252441,201100000.0,137099116.61633244,328200000.0,315593379.4582094,180600000.0,42588828.572324865
497,722,1,3187469000.0,3338981038.3042994,1581882073.387936,2107857721.6903877,1402929000.0,1614697021.07055,12023000.0,260877148.34467712,118303000.0,375776707.1271484,130326000.0,386683822.2425065,121116000.0,45471878.134345725,236940000.0,230567205.27789453,-224917000.0,59947638.28262018
1789,567,1,160962000.0,926834283.1556163,136871000.0,304384032.1931701,14091000.0,192776601.8673128,33234000.0,76807373.95048434,28516000.0,29382213.59402919,61750000.0,27843835.56782031,-4105000.0,7785522.905789763,29699000.0,143113494.74076325,3535000.0,13770274.565083325
1733,185,3,1070082000.0,2171704574.9433193,790095000.0,1084574152.1843147,279987000.0,903172698.7497367,59499000.0,187714932.33918232,92514000.0,86257409.63349974,152013000.0,242777020.5121132,-6147000.0,34942820.66993797,65646000.0,157823162.88786638,-6147000.0,43359740.165593214
1735,511,2,55335000.0,1023345967.0450144,11648000.0,864843722.9871855,43687000.0,66670280.588674426,13874000.0,37405221.437532485,0.0,18982236.8225739,13874000.0,9023928.900431514,364000.0,8695241.81208536,13510000.0,112402384.15254727,364000.0,20062708.03958498
1273,1200,4,8855100000.0,6874631410.914236,4468096700.788768,2148703353.405935,3543300000.0,2975623669.4892564,468100000.0,343597140.6072157,2041800000.0,1339903442.8198347,2509900000.0,1748092544.2038066,256500000.0,112368406.79908097,211600000.0,273034040.7555478,256500000.0,51113219.308731094
226,37,1,1045317000.0,1595368051.325615,491551000.0,748604973.0568504,553766000.0,738915668.8189435,49476000.0,120689783.8412965,27012000.0,57878189.64560032,76488000.0,77540704.19494784,5569000.0,18020354.176910624,43907000.0,130532133.63360709,5569000.0,-8887338.503741175
856,763,0,3335011000.0,5895831740.58803,1532336000.0,2049442752.4424398,1376443773.6613572,1936458363.8208077,158805000.0,251838880.65752617,458734000.0,225681744.8192916,617539000.0,480793758.42873454,82276000.0,62510124.05541359,26748000.0,221983805.093972,132057000.0,33129497.032443933
610,53,0,50788000000.0,5895831740.58803,23543456582.29001,11095457283.210674,11845000000.0,2045324757.7212877,1286000000.0,992161304.1563708,484000000.0,740805659.20316,1770000000.0,2392265948.434346,994000000.0,404072663.8267771,146000000.0,525954474.8783201,1140000000.0,84310966.20323393
434,1061,3,9209798000.0,3931474725.3200884,3242862000.0,2210360805.1545506,3654836000.0,1671448351.487098,758604000.0,321799285.94669616,-63000.0,228665436.6003858,758541000.0,597652339.4946846,306700000.0,89426979.66651116,451904000.0,201191425.09499672,306700000.0,37647486.49099355
1765,1156,3,3861516000.0,3713460957.477014,3060094000.0,2503290008.2675343,801422000.0,1404906398.1682057,246503000.0,285158097.0089674,543454000.0,416920206.66129905,789957000.0,686135089.9221069,-286586000.0,58262664.6480748,130761000.0,205261238.01036695,115742000.0,38541133.180474974
667,494,4,3117800000.0,2995029185.134332,2444800000.0,1727843362.9273217,673000000.0,1099366884.9611282,86700000.0,232736537.97593737,411500000.0,355086085.65993655,498200000.0,467365917.74924386,-419900000.0,39713535.35214517,63400000.0,155481530.21649623,23300000.0,57713454.53050193
1194,1101,3,84073.0,799784782.9691286,2814055.0,-150904391.49315548,-2729982.0,606483770.7083553,0.0,14039135.739059627,0.0,-23032836.630600333,0.0,-29325961.3240695,-647078.0,6946768.20874238,647078.0,134328913.65153715,-647078.0,-9940888.49411267
626,1166,3,250689000.0,1275860253.1895676,83024000.0,869015286.1715088,167665000.0,721660980.1257359,0.0,137668307.75357425,33193000.0,21682755.350571036,33193000.0,78632788.56247401,-43672000.0,21371726.81286329,43672000.0,160918676.37167722,-43672000.0,27953059.120508052
1654,1147,2,2267553000.0,3028625451.342677,1375272000.0,1449178643.0604482,519294000.0,1319443289.3778124,30179000.0,219499091.948549,36686000.0,282622417.9914742,66865000.0,450109104.31645644,-15417000.0,52327258.14733002,38864000.0,224461824.1765124,-8685000.0,30314845.04919947
288,49,4,2221575000.0,2201703339.2021675,1034139000.0,1342808584.6184716,1187436000.0,1104639914.8291044,131964000.0,237473806.74562424,106311000.0,237895732.07298112,188755000.0,404910718.6970949,3712000.0,44908919.93765262,128252000.0,161469249.36959413,3712000.0,57272405.47028243
1665,1302,2,555271000.0,2019372620.1544957,273881000.0,1286931724.127823,281390000.0,765658535.9784505,77610000.0,102840057.0158267,73228000.0,155661145.5175423,150838000.0,261443781.84601355,6400000.0,30401974.000385374,144438000.0,180534119.7806491,-66828000.0,30762456.05112806
652,1419,1,1810200000.0,2545063516.052203,1334200000.0,2068786285.4541054,472000000.0,1254358163.674642,111400000.0,202854886.4081124,439000000.0,300794178.5794727,550400000.0,366606075.9598191,53300000.0,28719720.531989433,43800000.0,207040047.34781805,67600000.0,24723218.347205102
1078,133,0,339972000.0,5786853862.998477,145992000.0,1688156435.0560281,193980000.0,1936458363.8208077,800000.0,117512592.16170907,85000.0,96003220.3706522,885000.0,119588668.21461022,-35502000.0,14818149.95387815,45899000.0,142199897.14792544,-45099000.0,46582775.7542179
778,612,1,992330000.0,2261852904.855091,401273000.0,1408900722.9667315,544681000.0,807681394.3204567,417282000.0,230948425.14961487,0.0,171853205.06560862,417282000.0,254903660.2468797,5536000.0,32841013.41886446,411746000.0,209645155.68942785,5536000.0,48328018.650359355
29,1181,3,600271000.0,1890337335.6434422,137438000.0,1129184284.4497333,462833000.0,721660980.1257359,73869000.0,180237323.39422756,24421000.0,59138719.03847194,98290000.0,184137742.5796343,-8089000.0,31883746.675095573,81958000.0,154359029.19447514,-8089000.0,39543129.157909214
854,1207,2,47193000.0,939351850.5360765,31000000.0,880278539.5494773,16193000.0,110112839.81368685,4954000.0,39600904.37217283,3898000.0,39589865.1925776,8852000.0,36318313.97736299,-615000.0,7456950.448381498,5569000.0,99544204.26953048,-615000.0,27289742.492291983
1423,816,2,150549000.0,1511876384.4260354,163792000.0,1069380661.7843013,16674000.0,296810865.67571867,28323000.0,62481369.440493345,6429000.0,101428239.48405552,34752000.0,127970438.05739987,-13758000.0,22316224.139938623,21733000.0,150305553.71473768,6590000.0,26777101.1327305
1406,969,0,62996000.0,5786853862.998477,12638000.0,1464138655.5882182,50358000.0,1936458363.8208077,9919000.0,89408790.57818115,5920000.0,19141693.843376994,13543000.0,47563170.11829877,1979000.0,28050831.28577645,7940000.0,121760886.0955511,1979000.0,33579418.497873515
1624,531,2,56415000000.0,46160051089.316,26707757359.48695,20264800490.417156,20622000000.0,16447026319.35668,4258000000.0,3669865254.955229,2744000000.0,2997859004.0394773,7002000000.0,6975049849.221146,471000000.0,420534589.559582,1302000000.0,1051121712.3594887,2956000000.0,2537921615.0525017
926,830,3,572995000.0,1863059240.651011,271264937.13018215,1041678436.1445312,210105000.0,939045780.1224151,-46109000.0,185439694.7966007,111142000.0,78488954.41236389,65033000.0,219054918.9418025,53448000.0,42821625.99509248,184993000.0,240219655.3979703,-231102000.0,29107315.12242522
1324,95,3,11156646.0,628035153.6129732,14063458.0,-11824657.44320631,-2906812.0,630020040.7690514,-483256.0,38665363.82652074,692752.0,-27530291.114103556,209496.0,-22311492.992447138,-2378023.0,17002537.874897465,1407493.0,129556507.9877257,-1890749.0,7709656.551597953
809,1354,0,746651000.0,5786853862.998477,563281000.0,1925218769.2937298,350347808.70326334,1936458363.8208077,20268000.0,170569253.1514039,132273000.0,141732288.37442118,152541000.0,212908958.2332561,1482000.0,36020131.40307761,18377000.0,148314860.8954705,1891000.0,39894658.85981321
492,430,3,203605000.0,1480974604.1728,164863000.0,1180741299.456761,38742000.0,765831578.2989414,38308000.0,169134659.99574554,13284000.0,41841479.79413664,51592000.0,150021348.70761657,8585000.0,36959337.696746886,22801000.0,149726110.87112477,15507000.0,37790311.32478977
383,866,3,35610551.0,1304800782.2690864,44852933.0,157754631.751503,-9242382.0,646314522.7770997,3037874.0,77224888.8651824,5691278.0,-13141148.67995739,8729152.0,3671203.7228741646,-7028283.0,13389789.348177314,15757435.0,165296270.25796673,-12719561.0,-3257936.8083645254
1250,881,3,4596600000.0,5164603547.994536,2319347415.031524,3739019545.175804,3466600000.0,2044154637.365385,2555100000.0,682904534.8483438,3033000000.0,1535632819.1394918,5588100000.0,2832606019.6211157,1174900000.0,211099330.09677905,1380200000.0,357020260.8207106,1174900000.0,40889228.307678714
229,593,0,3802385000.0,5895831740.58803,2636965000.0,2705459148.828885,1165420000.0,1936458363.8208077,157645000.0,235536527.9225347,488142000.0,334531174.384092,645787000.0,529052409.8503936,66824000.0,52384182.40203022,83253000.0,229079666.255283,74392000.0,51251132.00943244
1531,255,3,12852000.0,841837117.6325197,5815000.0,160609918.345675,7037000.0,704268210.1360121,1838000.0,80023296.57088685,1427000.0,-8433496.83857584,400000.0,11181382.982655048,-1116000.0,14618031.18886295,2954000.0,139387143.24104705,-1116000.0,12975120.685769953
1035,339,4,11747000000.0,12138370128.980463,7158000000.0,7004904515.334455,4503000000.0,6602243083.155571,770000000.0,587270099.8286145,1424000000.0,1322408046.766714,2194000000.0,2159046945.8107467,154000000.0,245165090.0162024,2040000000.0,1983261865.5581284,-1270000000.0,-37837344.39614171
1774,956,3,7236206.0,932272489.1387544,4913744.0,-47820262.35130072,2190428.0,614934185.5463989,634746.0,47719344.17599398,2326079.0,-12687911.733602405,2960825.0,-9885807.156218052,-234151.0,10829956.64789553,886442.0,153301472.2911354,-251696.0,-3883552.953808531
868,535,3,6411000000.0,5283748701.439469,3370100000.0,2820029216.828616,3176144611.7201624,1756626372.9172735,371800000.0,343803983.19227165,637000000.0,727711924.7245513,1008800000.0,1147675318.1704993,180100000.0,86222958.63366534,166200000.0,217494810.88461837,205600000.0,38878525.18311031
1391,704,4,345836000.0,1213885306.855957,48837000.0,1051998810.4338803,296999000.0,212300365.42713952,3870000.0,155232685.57603547,113328000.0,94086766.92109883,116752000.0,108676139.98239124,297000.0,3467112.4991558194,3573000.0,82785167.41852033,297000.0,42215105.10425999
1734,1505,0,20108000.0,5786853862.998477,9068000.0,1431523262.479025,11040000.0,1936458363.8208077,3847000.0,62384853.05801296,661000.0,-4740884.733209133,4508000.0,24097199.398597717,-4126000.0,8988234.271223918,7973000.0,96046488.5907116,-4126000.0,19367333.146765612
1416,203,0,1564856000.0,5895831740.58803,1122858000.0,2324305587.9387836,416354000.0,1936458363.8208077,276207000.0,197737335.80877224,-11227000.0,204189405.22455359,264980000.0,378341241.33119416,5657000.0,22215615.3276093,270550000.0,174951782.88279846,5657000.0,50479779.9448553
352,651,2,1125373000.0,2117284854.95263,521681703.6382896,1133173968.392469,29987000.0,913906457.9998937,142411000.0,143432385.19528544,-42080000.0,135076223.9303205,100331000.0,287469233.4362172,17283000.0,21778795.959108174,125128000.0,159581430.96221069,17283000.0,21654441.103739627
135,788,0,630871000.0,5786853862.998477,398464000.0,2016592538.9778957,232407000.0,1936458363.8208077,80823000.0,162932036.38905352,413091000.0,145033790.17471415,493914000.0,214258621.07832503,-14453000.0,30002199.402234986,95276000.0,172626999.8682115,-14453000.0,43872825.17751114
1338,248,0,123668000.0,5786853862.998477,40963000.0,1559812727.5144136,50285000.0,1936458363.8208077,29188000.0,124599479.77324373,11108000.0,66147839.292634845,40296000.0,115140210.07236588,-25553000.0,22964149.46756248,35508000.0,133512555.76480654,-6320000.0,26710181.948756583
1076,1427,3,34865437.0,714740090.0757275,19085704.0,227251719.0533533,15779733.0,675074931.7355568,0.0,83274826.59210068,1198.0,-8837655.268327832,1198.0,4009897.040122032,-6520186.0,19716689.055160373,6520186.0,142197029.6107245,-6520186.0,14078096.256841652
1426,322,1,1275550000.0,1577070834.5373807,1504271000.0,950656536.755137,-228721000.0,702064901.088086,-35238000.0,149737482.05096683,59168000.0,132893167.31581753,23930000.0,135459039.09872627,6621000.0,24333845.874204025,102745000.0,146870072.48607364,-137983000.0,57316203.61743034
2023,1459,1,151712000.0,947190492.0621161,195428000.0,325028994.01783276,28605000.0,127791588.20446944,11588000.0,95993205.02286434,43977000.0,17149192.89080715,55565000.0,14369399.991538048,-8864000.0,8431308.650696889,20452000.0,117403614.46469021,-8864000.0,-15266737.332681164
1219,392,1,1812825000.0,2640426879.6129837,1134969000.0,2060520139.9279947,677856000.0,1392705971.883916,53184000.0,260225069.9728375,120142000.0,325093167.47672284,173326000.0,401420814.50735843,31929000.0,51319007.77936284,16945000.0,193184900.08131334,36239000.0,64908169.85808708
201,1176,3,-1450776000.0,-218082873.47145367,-894261000.0,-910703313.0580406,-556515000.0,950219511.8664519,162740000.0,199629042.8404623,213058000.0,254063732.45099378,375798000.0,471598894.4785,-31210000.0,34987141.80896914,193950000.0,158648982.2737319,-31210000.0,41246822.86047374
580,557,1,526507000.0,1228438265.8658552,370554000.0,1071118819.0194929,155953000.0,605626375.8179951,66328000.0,168729673.3354925,107226000.0,209503439.39771748,173554000.0,337929367.40391326,-7923000.0,29393406.81950766,69543000.0,166536811.85747242,-3215000.0,56993863.34208908
268,347,1,3089123000.0,3492014023.094722,1300561000.0,2684185395.393442,1788562000.0,1523828979.1688285,286131000.0,319020276.17045665,850247000.0,502020243.8826187,1136378000.0,792428466.6994338,205227000.0,63479583.167845935,1010678000.0,474715736.1547999,-724547000.0,60330023.92872344
484,186,2,2026392000.0,1778374381.7982821,773709000.0,1118024968.5920668,1259138837.126244,918137102.19432,36270000.0,136035083.22616887,906000.0,172988049.65159816,37176000.0,318558563.3988446,-286393000.0,22115853.37621075,341823000.0,216347084.86225498,-305553000.0,19787156.89954607
1169,1441,4,59798486.0,532067290.5249586,24561228.0,430964502.0413909,24680354.49630476,-27209379.259141564,-143441.0,100924764.29856962,231837.0,5140184.130507469,88396.0,14969755.498538971,-6239976.0,-8978900.433495834,6096535.0,43996272.66220516,-6239976.0,18456062.370895237
595,928,1,269960000.0,1248151097.7397947,370356000.0,645811084.0991521,-100396000.0,529810961.87517786,29296000.0,140974817.67191976,911000.0,85719666.24832833,30207000.0,80689238.18872726,-31260000.0,13965419.953339413,67269000.0,159031037.86189395,-37973000.0,38121024.76457386
1664,124,4,1411497000.0,1508299855.1236567,713457000.0,1206677511.6180496,667698000.0,699217224.7808312,123110000.0,195123982.94551873,21917000.0,110616063.05265331,145027000.0,236659552.1622069,16171000.0,16786358.572231203,124278000.0,116159809.73056096,-1168000.0,51218116.752796896
1737,66,2,1068388000.0,1533859159.638607,793168000.0,911791986.4295309,275220000.0,559679432.868221,1125000.0,66262511.03821725,126961000.0,114380350.55947387,114574000.0,177371987.8275988,-123332000.0,14652588.542097181,124457000.0,147482870.7982678,-123332000.0,30058772.25728786
1105,365,3,736494000.0,2174393968.44879,390655000.0,661936966.6805272,345839000.0,753115729.8848202,107458000.0,124937580.81708479,77264000.0,106446220.33032715,184722000.0,197843149.4467821,-21496000.0,23147973.740205035,128954000.0,167997030.40497205,-21496000.0,8516931.018006705
366,1577,3,1026034000.0,2351398627.329951,544592518.5648394,1496947210.7467813,829659000.0,958022774.3785425,179923000.0,233542842.75956532,-1664000.0,148741779.00145036,178259000.0,313658040.9953197,43073000.0,66048016.474915445,136850000.0,165775982.42337847,43073000.0,43633288.87720431
847,1228,1,2995900000.0,2748873073.5302744,1720300000.0,2261688997.011773,1275600000.0,1154285453.9863176,234800000.0,262926866.02227983,244100000.0,319070884.0941691,478900000.0,454457359.7957729,25200000.0,36500399.861037,209600000.0,182482052.5776827,25200000.0,36613502.48379658
1604,1550,0,700529000.0,5786853862.998477,363632000.0,1976251703.086973,335762000.0,1936458363.8208077,46249000.0,128044962.22661632,72678000.0,96543556.18047571,118927000.0,115455731.39598048,-13197000.0,10328528.621075869,59446000.0,169871374.1011452,-13197000.0,18666986.000747398
579,836,2,5913288000.0,6536769465.81033,5639252000.0,3873655649.165592,274036000.0,2509928177.8535643,470311000.0,559409404.0538304,1040995000.0,976723247.9344873,1511306000.0,1649283463.5682726,65962000.0,118108455.99772406,404349000.0,249884539.6872018,65962000.0,44222509.02474491
874,483,0,232365000.0,5786853862.998477,164743000.0,1687173229.8141344,67622000.0,1936458363.8208077,43176000.0,155326844.8398283,202053000.0,102386030.29452276,245229000.0,131280624.1020186,9035000.0,38549246.96061778,31930000.0,147674636.85134602,11246000.0,37953020.67004396
193,587,1,24556000.0,453737176.3354573,5997000.0,167410537.54957962,18559000.0,-13082523.343490839,-561000.0,20946700.48396927,1648000.0,-16308182.420199752,1087000.0,-11124227.600134969,-8770000.0,-5241521.185719892,3225000.0,70643418.19634515,-3786000.0,-9486710.206571922
680,400,3,7852974.0,673988617.5087242,8726749.0,-5488501.305194855,-873775.0,659661946.4722447,1562860.0,60984551.500285566,0.0,-11720875.924877644,1562860.0,-3406073.8752343655,-1603437.0,15974980.104224965,3166297.0,123721255.65139523,-1603437.0,6006816.087824248
702,135,3,52606000.0,1056100941.1839528,31088000.0,287641715.3862901,21518000.0,697544466.4468368,2202000.0,101457426.28316927,21569000.0,-432105.6349924803,23771000.0,44921398.99864745,-1737000.0,24575941.512260675,2889000.0,138143824.5972607,-687000.0,30037463.324041925
499,946,3,641605000.0,1637241613.527524,98505000.0,938937957.169693,543100000.0,735173058.1277122,35752000.0,183818277.09283718,3063000.0,59562433.22194803,38815000.0,163463308.14091814,-5995000.0,42322010.677229665,24767000.0,161970366.55716074,10985000.0,39227398.19056702
277,1389,1,428119000.0,1753273212.5094342,200385000.0,1079975766.0116346,227734000.0,723563228.1047674,32734000.0,181119564.58087295,3693000.0,123193321.94668615,36427000.0,144993591.3657323,-31432000.0,16088810.616096064,67859000.0,181062676.81460175,-35125000.0,58510503.4349943
1540,1192,2,1748597000.0,2845254135.1390085,773677579.6790999,1435928042.6352234,871968000.0,1356282116.4641004,88936000.0,222089990.73911655,314131000.0,336792849.82823503,403067000.0,393136501.7099042,36520000.0,47711648.88954339,38806000.0,186552021.5256088,50130000.0,36121762.160657965
40,25,4,-12646800000.0,-2711313924.812372,-10176700000.0,-1448852371.5074863,-2456100000.0,-326386259.8346064,244400000.0,229796880.45952722,496400000.0,634775983.0403566,740800000.0,967705468.9708647,16300000.0,229725662.67423868,228100000.0,262652429.5451552,16300000.0,69757170.96928325
109,770,3,1646711000.0,2773249773.066474,1388441000.0,1785357453.9309573,258270000.0,1043242103.3628294,48094000.0,219485096.07346034,144654000.0,415905839.4699976,147710000.0,520424109.2344886,-42502000.0,51780578.6413662,79586000.0,190889380.2545069,-31492000.0,37165984.19493471
111,120,3,632540000.0,1831824387.6408224,270366000.0,1366288476.1124425,362174000.0,840143713.1485577,197077000.0,203755321.01050994,14622000.0,92996867.77108991,211699000.0,227196167.87023008,-57776000.0,45693749.989892915,97890000.0,152877869.33331597,99187000.0,42547044.31935705
662,1070,4,156269000.0,1173931691.0487494,70363000.0,1074364491.8310342,85906000.0,217044265.23000276,19503000.0,165666352.0942698,30881000.0,62344027.78772867,50384000.0,94090038.17042756,3657000.0,7430859.5494392365,15846000.0,76468071.67832416,3657000.0,49308409.70346514
1749,1565,0,12875300000.0,5895831740.58803,6095371591.431398,4233471148.4733005,1810000000.0,1936458363.8208077,1227700000.0,747284129.3677535,4400600000.0,3696777742.3373713,5628300000.0,4628768432.235359,478400000.0,144087019.41268232,749300000.0,391435002.54894525,478400000.0,72990814.38544334
340,218,0,441781000.0,5895831740.58803,86587000.0,1852826674.3458457,355194000.0,1936458363.8208077,97393000.0,143702396.49606228,44971000.0,117387634.6162706,142364000.0,150851914.9638759,9954000.0,26973646.824046016,87439000.0,165391738.2633749,9954000.0,22603396.83974611
811,645,3,1903960000.0,3136105317.7598186,1118147333.3250542,2625305106.0100017,464992000.0,1245204196.1080968,314173000.0,271120487.60117114,381360000.0,435897610.2026288,695533000.0,733747035.1431279,49703000.0,64454785.99827971,262823000.0,183469687.52275836,51350000.0,50924218.77492422
1016,1065,4,413017000.0,691517470.1410651,156380700.0672279,585589328.0918694,290614000.0,126367579.34453166,164000.0,131943873.97420079,0.0,27266791.05574608,164000.0,54147891.25433779,-47612000.0,-22509395.915638745,47776000.0,72033729.87459144,-47612000.0,31787508.411944263
1696,313,0,6459000000.0,5895831740.58803,3814000000.0,3695970300.1598387,2645000000.0,1936458363.8208077,417000000.0,401456848.96453476,1137000000.0,814844985.291772,1554000000.0,1398613423.3757002,109000000.0,85871730.31488927,308000000.0,295999617.6331054,109000000.0,56439383.20871518
200,1570,0,6683800000.0,5895831740.58803,2530688381.1304083,3018752978.4292645,4153111618.869592,1936458363.8208077,363300000.0,317682522.4687707,268000000.0,452803746.22072077,631300000.0,729708183.3299196,83300000.0,71415793.6373312,257700000.0,264315539.10476327,105600000.0,51251132.00943244
1994,1519,1,165094000.0,854382389.2815523,70482000.0,663801322.9752684,94612000.0,263999485.69160724,17629000.0,104560063.52915174,13074000.0,35394546.31670129,30703000.0,54678201.795191765,1152000.0,22091092.271906987,16477000.0,141272992.29441592,1152000.0,43307916.64164603
735,1256,3,8604673.0,683935528.2552843,2338502.0,-14151451.030890465,6266171.0,646274774.2812456,1119391.0,55516339.474653006,1576117.0,-16135955.498920321,2695508.0,571698.3749399185,23726.0,15906803.07079564,1095665.0,132781704.36379439,23726.0,6471986.318961099
1160,1073,1,30395557000.0,18324044963.339066,16133181687.752192,7585259516.961242,6297705000.0,4343911747.825132,3044686000.0,2083716535.1660204,6751495000.0,7489402550.895493,9796181000.0,8981519905.313992,692314000.0,575788946.3574369,2352372000.0,1504198802.772177,692314000.0,91580752.50206316
2018,626,2,764077821.0,1465958696.8578367,149164973.0,1071030176.3278036,540969385.0,459369388.5624143,20737462.0,90200724.55587655,3810639.0,82416629.00782406,24548101.0,106840877.4325403,-1942729.0,23188858.294072017,26490830.0,150451070.66260538,-5753368.0,27879219.224580098
597,747,1,19932000000.0,19217447828.036987,15924000000.0,8960088937.003445,3938000000.0,4655979277.668463,677000000.0,655754476.4084549,2894000000.0,2304754554.606512,3571000000.0,3362883969.020375,325000000.0,165508231.95592865,132000000.0,334657262.27170146,545000000.0,49202914.07214028
1089,1172,2,114455000.0,927266165.5363688,66800000.0,809664336.1246042,47655000.0,81836687.40819073,-324000.0,41873641.6110906,692000.0,19754255.587118745,368000.0,35078939.038110256,-4444000.0,7290564.397260606,6127000.0,113644248.38418496,-6451000.0,23895543.455449276
1635,985,4,123009000000.0,42108052473.33114,61047097858.95223,23136539640.180817,24132000000.0,14546027340.996027,3661000000.0,2475995930.5144596,846000000.0,1506093139.8105087,4507000000.0,4266448078.9898133,401000000.0,345422455.6860069,5487000000.0,4045630446.1588125,-1826000000.0,-209446369.7877106
394,774,4,1472222000.0,1585917977.0765538,444895000.0,1145345363.1641414,1027327000.0,747081343.5448744,423804000.0,184755858.32015944,0.0,163994886.25129956,423804000.0,334280774.78406906,44683000.0,16300981.958459929,379121000.0,181547699.30910864,44683000.0,49282302.810389005
176,623,0,1707972000.0,5895831740.58803,826699000.0,2324305587.9387836,881273000.0,1936458363.8208077,161237000.0,213146351.5435632,18721000.0,238505106.8979479,179958000.0,422022144.880726,-38330000.0,35893954.879594654,218288000.0,215319757.25898483,-57051000.0,51403868.144370124
958,54,4,140348000.0,1026026332.6353188,22627000.0,780840799.35396,117721000.0,165429408.55658126,18849000.0,155151787.92463183,19797000.0,44513999.41631389,38646000.0,61762198.75290978,5179000.0,5729609.030078962,24028000.0,91652885.71188548,-5179000.0,36182049.40428717
651,168,0,68862000000.0,5950269952.0,37281000000.0,16164563650.527939,30258000000.0,2283305640.4993916,682000000.0,1184678800.632101,1405000000.0,1356344953.7994676,2087000000.0,2863791335.467766,938000000.0,513673792.09797287,2969000000.0,1385831971.6006017,-2287000000.0,2361002.8767866194
648,804,4,484306000.0,1191523192.3013268,160149000.0,1268944301.9000254,324110000.0,322117075.23327816,35935000.0,176640806.6270282,49919000.0,102380407.145993,85854000.0,146738804.6890818,8224000.0,12270809.293356284,26558000.0,89828959.8875641,9377000.0,52319562.651780345
1124,1359,0,263629355.0,5786853862.998477,139827658.8984726,1589076038.7469952,106790041.0,1936458363.8208077,4718481.0,95159869.58150291,-3354938.0,41456364.07434237,1363543.0,62107533.357682705,2345966.0,20057294.864245847,2372515.0,112599802.7983262,2345966.0,30509546.792331643
1983,117,1,22654400000.0,17059194660.521364,10023579681.929111,6540986645.065851,12050300000.0,5990752030.722005,409600000.0,601227299.1814222,3138700000.0,2221787793.305426,3548300000.0,3522019111.222014,145800000.0,270636836.61281085,119900000.0,337868672.1811818,289700000.0,71200150.60795523
1330,92,1,55695000.0,741115375.8370366,80300000.0,455638417.204824,-24605000.0,227889319.4193139,-33328000.0,88645679.20235568,45694000.0,60429980.96415341,12366000.0,44645763.63257885,-48025000.0,16353667.05603747,14697000.0,141637158.7531545,-48025000.0,31689868.049700305
445,1035,4,33248145.0,618790569.2149696,21743057.0,550457159.2136989,11505088.0,26874242.166268945,1461398.0,109014712.10212064,569502.0,9333670.829471111,2030900.0,-6805472.970931768,-12979193.0,-9368111.213713437,15010093.0,48665706.536005855,-13548695.0,9363547.640593037
908,796,2,19900000000.0,12497063607.163792,10348000000.0,5998257078.1878,9552000000.0,4292284017.1461964,2649000000.0,1675366552.3025277,0.0,362775669.6072789,2649000000.0,1878935479.9991753,467000000.0,230650662.87552944,2182000000.0,1143436049.6225104,467000000.0,37235951.04744926
1585,1569,1,2485319000.0,2998474742.222293,1254039550.5762374,2447547874.8937454,1849463000.0,1405224717.7177558,775144000.0,343102832.20847803,0.0,330456635.0583816,775144000.0,616402413.0159433,128435000.0,59800392.58082628,646709000.0,276780270.54687846,128435000.0,54153214.47411507
643,514,4,959084000.0,1058047304.5702848,491986000.0,1067332388.139255,395838334.6316486,463288194.322871,56609000.0,175914630.74322325,47928000.0,131053002.08690906,104537000.0,205067033.83339715,-22287000.0,1234185.2359410524,141301000.0,126523996.3980309,-84692000.0,49942353.9797646
1240,875,4,1657157000.0,2985952767.886792,2335507000.0,1705460313.5743325,-678350000.0,936188130.3344264,-96698000.0,229572777.99626806,98929000.0,309155571.26135945,2231000.0,605193737.4525192,-125632000.0,35005180.30134341,312618000.0,442445789.7532097,-409316000.0,36177851.74446862
64,162,1,1590600000.0,2115415020.2147622,748600000.0,2016653211.2563202,842000000.0,1247888877.0079901,59700000.0,261976644.6863591,141700000.0,296543623.2238567,201400000.0,379559509.56895137,13800000.0,45934193.136735424,37700000.0,188485159.46297583,22000000.0,71874231.81800532
1027,30,4,919607000.0,990058703.9814596,266509000.0,848333403.4376602,653098000.0,394480627.8474997,68886000.0,148019497.75963974,19532000.0,70610970.37500894,84131000.0,134554427.6659528,-18050000.0,-3718321.844491586,86936000.0,97130953.0027445,-18050000.0,50505713.6463413
1034,40,3,121754701.0,756537821.2423949,28424394.0,123153553.70542812,93330307.0,681913051.5522643,1406469.0,63595865.07953119,-1378985.0,-10408288.12098205,27484.0,23306691.64029312,-14928443.0,6335040.055241719,16334912.0,142758780.69302756,-14928443.0,-3450001.0781717747
802,915,4,12973000000.0,8201020981.635139,6013807636.489885,4457681784.337658,6537000000.0,3333875847.546705,82000000.0,470444923.54738104,545000000.0,742756811.9533614,627000000.0,1569016832.3576744,7000000.0,147602329.31143528,46000000.0,296816872.14931256,36000000.0,41496995.33302034
981,1226,3,613608000.0,1412957133.439724,391072000.0,1108008309.9851308,222536000.0,825812547.3553599,1437000.0,152931767.23738277,10955000.0,68177141.04282522,12392000.0,154455919.8151008,-84729000.0,28266816.531795815,40703000.0,185720650.1362527,-39266000.0,22870761.641552478
1046,288,0,102303000.0,5786853862.998477,104192000.0,1691214797.762764,-1889000.0,1936458363.8208077,12811000.0,131263487.67499626,42439000.0,70532124.14260113,55250000.0,98457828.42934334,700000.0,33002387.925889075,12111000.0,130584085.63055632,700000.0,43902788.63747899
581,47,1,1023085000.0,1881802699.1767626,937155000.0,1758656257.9036765,85930000.0,684293360.5546628,87759000.0,189030892.57170793,257840000.0,299130360.03015894,345599000.0,443801330.8550557,-36941000.0,38258641.964911394,111965000.0,200190806.97192928,-24206000.0,68913348.77589196
1033,857,2,822101000.0,1384627669.9179935,260505000.0,940868878.2631881,561596000.0,386993531.79562616,113425000.0,58367164.16564697,-8261000.0,79666891.8408854,105164000.0,101541691.7394942,25956000.0,13269108.860252187,87469000.0,162067169.65112495,25956000.0,26615374.022570528
1908,1229,0,972779000.0,5895831740.58803,674585000.0,2329967196.4294634,298194000.0,1936458363.8208077,81122000.0,181152354.67675108,33069000.0,190006719.01021647,114191000.0,374001980.2229326,-12742000.0,24230069.610296622,93864000.0,190521812.3890487,-12742000.0,51251132.00943244
1486,192,1,505122000.0,1380587235.1962729,329765000.0,775490410.1578465,175357000.0,643148443.346344,66862000.0,176123238.63131255,-15726000.0,105587015.45382822,51136000.0,126289436.12589836,-8784000.0,29928305.86274126,75646000.0,159438636.82324743,-8784000.0,41066865.15623061
640,1052,2,420505000.0,1186690377.3643088,230508000.0,742913764.7409487,189997000.0,341209534.45561373,53603000.0,65667123.20804012,71511000.0,54706677.017347574,125114000.0,60845567.86032295,16734000.0,11004981.564970598,36869000.0,159133172.42715347,16734000.0,11536946.044980079
1988,109,4,216274000000.0,131909261166.37462,73401000000.0,46574876468.71944,142873000000.0,15304689445.328646,27936000000.0,12343390932.067715,6210000000.0,5531079994.766053,34146000000.0,26249357013.893654,13748000000.0,2368587601.1093755,20398000000.0,8529093350.323315,7538000000.0,399383038.3565963
469,957,2,122531000000.0,12080387596.676695,74517000000.0,5064955773.544312,57494689417.43809,17305907213.56562,11370000000.0,6128375247.060222,10501000000.0,6439434298.150044,21871000000.0,13402903074.380037,5767000000.0,3478099305.097947,5604000000.0,3720313041.081261,5766000000.0,1686914099.542656
606,348,0,5723214000.0,5895831740.58803,2776207000.0,2670424208.170931,2947007000.0,1936458363.8208077,448941000.0,385986881.58155775,516900000.0,534881962.5323332,865197000.0,778824319.8136258,78214000.0,72463226.38588998,370727000.0,280787260.0912277,78214000.0,56012707.89992172
1877,1199,0,689227000.0,5786853862.998477,562767000.0,1634835795.8529568,126460000.0,1936458363.8208077,40662000.0,120731381.56922907,11086000.0,56808474.41881609,47740000.0,60082514.12433195,-28335000.0,26839855.444847092,68997000.0,132511458.71543849,-28335000.0,45000454.256806105
1148,882,2,600857000.0,1093447653.6743627,331349000.0,831202840.030514,269508000.0,233843445.92015004,50595000.0,40514234.92769438,6532000.0,26741424.202195525,57127000.0,39156440.13820338,-62120000.0,10096421.104969665,83188000.0,129251217.17080295,-32593000.0,22841015.79809832
1653,1255,4,56794000.0,871860224.2763596,12682000.0,832228442.7880988,44112000.0,75590199.00890541,25087000.0,134851538.23969132,14791000.0,34783539.61176491,39878000.0,74089681.66463101,-4627000.0,-1465609.7653698623,44505000.0,68048939.11766738,-19418000.0,28540032.534209013
1205,855,3,3747000.0,767071461.6353068,4407000.0,-41848564.30958223,-660000.0,639525218.4441773,-1515000.0,47880934.4997797,1515000.0,-25372945.98993063,0.0,-2747369.523857832,-2598000.0,16627566.72140108,1083000.0,127799335.21114442,-2598000.0,-2436084.196369067
1612,1189,0,3505835000.0,6108361625.404932,1860807256.214476,2961789692.887983,1470074000.0,1997872227.148693,601953000.0,391452582.0409832,626097000.0,630912446.4381917,1228050000.0,1344420013.5787225,88554000.0,86315933.14828058,475916000.0,296224219.5012022,126037000.0,59770718.431703016
1894,1003,1,203011000.0,752442557.4161625,255300000.0,342023719.8702221,-52289000.0,172416299.39550412,8409000.0,80386668.65222955,25579000.0,54852695.141925335,33988000.0,42364810.732996464,-8212000.0,15694973.465267971,15533000.0,124506933.16963184,-7124000.0,30888290.863415845
458,809,4,3126495000.0,2101318390.9188757,2137404000.0,1356494430.7468355,989091000.0,651347237.6333435,70679000.0,208385780.35097933,930828000.0,310728244.60813063,1001507000.0,394345516.4108088,21039000.0,34063865.49168487,49640000.0,124318051.42449844,21039000.0,57713454.53050193
782,397,1,36175654.0,645347024.5194612,19187381.496044576,426473656.65538263,18868678.0,69563886.42247939,22295962.0,71798402.0137577,2274626.0,1357259.4652087688,24570588.0,25395741.625397086,-1191082.0,13564647.365317762,23487044.0,122197974.18411109,-1191082.0,38771159.71300791
21,379,4,3642433000.0,3598200701.172581,1611617055.0351417,2442445597.9353185,2307595000.0,1715883354.213965,392263000.0,364065896.7896838,1442178000.0,917705350.5787827,1834441000.0,1620348631.5661633,185633000.0,101957250.56642675,1648808000.0,1388996862.2332768,-1256545000.0,4753996.1486992985
323,157,1,102171000.0,900162033.7085361,80142000.0,348190132.9506068,22029000.0,96241522.74134934,11994000.0,83149200.65099275,1280000.0,18646287.445733786,12084000.0,5936905.703758836,-8453000.0,3838843.464291796,20447000.0,115086987.66356379,-8453000.0,-13453905.742025614
1847,1509,1,11562769000.0,9392523960.611063,8634392000.0,5980414442.278511,2928377000.0,2595318885.956645,696915000.0,686380435.8996265,4617768000.0,3302305556.5523157,5314683000.0,4160572412.5098367,87484000.0,98435318.04552735,6096071000.0,2803916444.00576,-5399156000.0,9392524.144262493
1304,551,2,1061958000.0,1363153729.9998293,603583000.0,969652791.6780875,275904000.0,420256520.7792007,75380000.0,55922560.817640245,85007000.0,117880460.82083827,160387000.0,119220868.67343652,19279000.0,12621426.129541516,56101000.0,147645604.35033,19279000.0,16591315.843546845
1031,1104,0,1709464000.0,5895831740.58803,792444897.6724385,2067135766.468925,917019102.3275616,1936458363.8208077,-50089000.0,187370277.18081427,206500000.0,136391726.10581023,156411000.0,265045103.0943569,62554000.0,35093077.81646129,32611000.0,168675361.51578593,-82700000.0,32734965.60044992
1109,1568,2,1182200000.0,2421097884.063143,559672263.5892134,1338975516.8838859,993300000.0,1217409440.930112,77500000.0,196216259.47015217,102700000.0,260271083.5300911,175100000.0,340851693.0115887,21600000.0,35203641.5885129,55900000.0,223122582.24866515,21600000.0,29298074.80121157
1483,767,1,15318000000.0,15364850683.81894,8995872209.433592,5822265269.936539,2835000000.0,3065156784.9097524,2220000000.0,2033890375.553498,7363000000.0,8322391026.165875,9583000000.0,10675616532.004635,348000000.0,200301742.25390923,1879000000.0,1320789981.176873,341000000.0,108785208.8034814
739,273,0,2898416000.0,5786853862.998477,2080781000.0,1619138637.0268614,476998000.0,1936458363.8208077,19746000.0,89595703.31563473,-19746000.0,31550887.665778756,0.0,57362979.68030238,-16089000.0,13041169.38905552,35835000.0,97110971.36564171,-16089000.0,23440763.996811442
1565,772,1,37777000.0,706435689.8578396,8088000.0,515278239.14685726,29689000.0,89541689.91618884,1942000.0,63202088.77677655,1878000.0,16899317.25797975,3820000.0,31916834.83343661,-3377000.0,11632763.628015965,5319000.0,130096629.063793,-3377000.0,37380428.55189017
1547,1485,0,350115000.0,5786853862.998477,124447000.0,1709601495.3998775,144501356.0121529,1936458363.8208077,23341000.0,160898782.8739795,74465000.0,216122025.09412915,97806000.0,195427377.27787542,1273000.0,43173855.720670864,21144000.0,154048269.55953586,2197000.0,54001089.39000884
1772,45,3,60756000.0,1270698040.6886144,14120000.0,645341213.1304078,46636000.0,735173058.1277122,39398000.0,119301294.84654742,0.0,29180974.39304042,39398000.0,65701846.22957158,1277000.0,27812584.721836507,38121000.0,143965499.67020902,1277000.0,29622644.138320155
396,51,2,2329417000.0,2857084352.1115847,1103945000.0,1558316375.5609949,1225472000.0,1415704014.4277565,201803000.0,281427139.77219284,84310000.0,301326796.3060988,286113000.0,461068609.14536774,4458000.0,47226724.4776403,134794000.0,231819390.6251019,67009000.0,30470746.85846733
370,1084,0,322707000.0,5895831740.58803,203952000.0,1953696321.6335094,133189378.04611006,1936458363.8208077,59563000.0,169088153.88421458,32549000.0,110043827.88141751,92112000.0,171101430.66431856,2829000.0,36169883.861957796,56734000.0,173757070.32390556,2829000.0,49542298.932866864
1387,101,2,16986396.0,708013237.430254,28398941.0,628057248.1486292,7976898.609990532,2635356.9068882465,-2992.0,-27451.07180738449,2987192.0,12604612.752240181,2984200.0,-7283952.950143576,-2823081.0,-2170473.807115078,2820089.0,87487861.29292768,-2823081.0,7005547.223343074
1633,1572,3,5507733.0,816881449.7409968,3754986.0,-102893040.75400352,1752747.0,606483770.7083553,77969.0,42120957.54032558,690.0,-14685809.69921875,78659.0,-18709050.714404583,-1288944.0,11351242.8127653,1288944.0,140976629.08264747,-1210975.0,-8720099.426569894
1459,961,3,2951779000.0,2250568812.4993186,1733504809.66769,1271436038.2040877,-705417000.0,1050317498.9671769,103159000.0,221406928.5321578,95357000.0,167757540.64122856,198516000.0,314272686.9512385,63542000.0,51764454.09690189,39617000.0,172237440.1922925,63542000.0,48162074.74458127
447,490,3,1389340000.0,2781230629.7965727,870172000.0,1477177511.510039,518687000.0,1203991555.6511538,122910000.0,252990281.55321965,509918000.0,286215032.3602298,632828000.0,516155843.23647606,77637000.0,76489645.57282995,35836000.0,162064200.60381907,87074000.0,43798138.89634922
1342,874,0,670100000.0,5786853862.998477,96919000.0,1655503270.3058808,573181000.0,1936458363.8208077,45369000.0,131928197.45956439,10723000.0,99173382.25184786,56092000.0,148130346.0634265,-44376000.0,5158575.300122485,100468000.0,151231014.36270297,-55099000.0,12412724.398821682
1101,1581,3,796235000.0,895238271.5824237,203741000.0,319085615.716063,463390000.0,659173215.6645002,475000.0,84724548.45388114,0.0,-4743163.469515324,475000.0,38341544.09537363,-25797000.0,20955619.25748594,26272000.0,138923554.80604523,-25797000.0,25989057.606143437
1559,473,0,243654000.0,5786853862.998477,108112000.0,1386125921.837432,135542000.0,1936458363.8208077,37230000.0,60255958.32923728,3845000.0,42777357.62682927,4798000.0,40472924.646876335,-21869000.0,6352754.868760854,59099000.0,105162023.66515875,-21869000.0,9022774.031627327
1859,730,3,63057347.0,1149775281.1038623,37031977.76980746,435966974.2499008,50373559.0,706019883.2322637,5114390.0,128051669.11555457,9540399.0,11417221.780209303,14654789.0,73414519.14273703,3126608.0,31913401.413577497,1987782.0,142404687.13483837,3126608.0,29607174.11190825
625,1451,4,2120798000.0,1387579625.3699217,1472395000.0,1084023240.5206854,648403000.0,453698720.1969597,67913000.0,156859017.1334156,30767000.0,141443231.70130825,98680000.0,203340102.97338653,-9629000.0,1555568.1237299591,77542000.0,156243094.50348738,-9629000.0,23434669.2008295
1728,887,2,706517000.0,1707746072.589316,905805000.0,841311405.9182663,-199288000.0,556231220.3844703,73709000.0,99499036.02959841,16853000.0,75493542.23428321,90562000.0,104708498.20749736,38915000.0,9864121.688849181,34794000.0,164918349.80059204,38915000.0,12248783.235205665
1404,1236,3,76126346.0,1014875616.7656183,61120101.0,263547872.91309738,15006245.0,719271342.0566558,2282652.0,98701027.7297607,31006950.0,445529.24444770813,33289602.0,32315466.84033811,-2890968.0,25065237.06682369,5173620.0,141933148.79824975,-2890968.0,23076343.064886086
1515,995,4,156303000.0,1129938534.0482054,83901000.0,979124741.9489622,72402000.0,162716146.66895485,17689000.0,153626877.99909845,41469000.0,79259514.31029677,59158000.0,84585183.7658031,-2517000.0,-2141071.414781511,20206000.0,78818980.55288535,-2517000.0,46678074.791324295
1800,1468,2,3271200000.0,3901950410.805287,1447362713.447565,2369877780.4293694,-21400000.0,1950625074.6909416,31300000.0,322338420.51899403,847700000.0,793274701.8037654,879000000.0,1121095530.4402096,-16400000.0,72149981.0898903,66600000.0,318339594.0732491,-35300000.0,30678144.827624638
4,1221,3,7361000.0,660194949.8434334,2671000.0,-58559124.770673275,4573903.262590003,628807912.5758208,349000.0,41823156.23038888,109000.0,-19429578.29984379,458000.0,-16831563.865640163,-670000.0,13238747.345876753,1019000.0,115836218.52388072,-670000.0,6073772.740174279
1400,723,0,-4860602000.0,5895831740.58803,-990657000.0,1892435868.8390706,-3869945000.0,1936458363.8208077,193881000.0,240841449.19369742,378009000.0,400129002.25904244,571890000.0,620720645.7492989,36078000.0,61144831.147948846,124685000.0,220394344.93106613,69196000.0,61200959.09920445
617,843,0,5475000000.0,5895831740.58803,4861300000.0,3580915410.3439107,613700000.0,1936458363.8208077,130600000.0,350943801.22473794,1421300000.0,799665963.8874935,1551900000.0,1202329486.4541602,23900000.0,77532025.92202038,81800000.0,263980511.2552809,48800000.0,51251132.00943244
570,1066,3,9643000.0,701332757.8958397,6164000.0,122984853.10420132,3479000.0,669602789.6379322,1843000.0,101181733.02359891,2246000.0,-1803558.708030939,4089000.0,14379571.836346865,-437000.0,18323413.37803331,2240000.0,131699072.61373177,-397000.0,17405810.563434236
2015,1416,4,12012800000.0,4287426671.266929,6608200000.0,2069835358.9341476,4911800000.0,2021404861.809739,457000000.0,251053907.35276064,316800000.0,323812848.86448586,773800000.0,677603155.7986864,145800000.0,67516641.01837769,203500000.0,185245134.48740757,253500000.0,55396881.502785236
576,1219,0,6644800000.0,5895831740.58803,3248100000.0,3180244526.412458,2786600000.0,1936458363.8208077,345800000.0,313087286.3976339,33000000.0,301152824.21262157,378800000.0,546188778.0212834,36000000.0,36869810.99383185,342800000.0,295683496.3422726,3000000.0,51251132.00943244
1397,690,3,136174000.0,1601932947.521873,62163000.0,512017275.94392157,72304000.0,650534712.9330549,10072000.0,123604244.02893186,-3712000.0,4678496.500564575,6360000.0,41068300.81271732,-12604000.0,17558725.908217207,22676000.0,161636704.03314647,-12604000.0,10615460.635921411
1134,1554,1,160043000.0,724134003.1881957,101422000.0,309474979.8249583,58621000.0,169424590.63798618,15202000.0,86063355.40578884,-14386000.0,8242910.230427623,816000.0,19128431.06086719,-14398000.0,8240581.147585407,29600000.0,165078246.3594459,-14398000.0,-1376173.4484035522
188,568,0,9282000.0,5786853862.998477,3493000.0,1335850587.3026624,5789000.0,1936458363.8208077,355000.0,64959910.69769746,552000.0,4621227.626164436,907000.0,37082715.18741548,-972000.0,17980943.20730652,1327000.0,95146689.32175678,-972000.0,29364104.40938814
488,1306,3,16124000000.0,10785423245.39051,13383000000.0,6199712900.545831,2741000000.0,2505372250.3310094,5251000000.0,1164308613.4193733,4961000000.0,2132848047.9917922,9233000000.0,3887744397.917455,1583000000.0,284204128.26949763,3668000000.0,808747882.7484107,1583000000.0,44373573.5085536
1211,717,1,1601068000.0,2894625606.4704504,1081707000.0,1690170374.5869365,519361000.0,1214262801.4596224,248876000.0,298185928.0081558,-34521000.0,135826835.14619106,214355000.0,311063565.38642836,19006000.0,45047200.577970766,229870000.0,196747873.38010615,19006000.0,54598979.032460526
1580,265,3,779622000.0,2038256119.72361,153452000.0,1346388432.4585283,626170000.0,900071065.8303287,134561000.0,198995887.6656404,57608000.0,155705274.93061215,192169000.0,306177984.87875545,56917000.0,60210516.55356581,77644000.0,158514075.3341987,56917000.0,48135264.313231766
1533,896,3,4162272000.0,3891013767.1834235,862254000.0,2428343400.815689,3299439000.0,1433570942.058144,357871000.0,287620029.2067257,794265000.0,599581435.9456626,1152136000.0,882410073.9672922,114028000.0,89099281.55159247,194829000.0,205748185.94866887,163042000.0,47663016.67383531
818,1094,0,13900400000.0,5786853862.998477,12204100000.0,3234770162.5012083,7319729781.089915,1936458363.8208077,78200000.0,409867859.32200146,235100000.0,443750538.40713584,313300000.0,1169271792.9085138,174900000.0,53150778.93105705,116600000.0,337745517.46751326,-38400000.0,51251132.00943244
50,1165,4,594022000.0,996222566.3811045,132343000.0,1087533945.309643,461679000.0,184191109.5074458,121956000.0,135233861.8784976,1645000.0,90322626.34371626,123601000.0,114624866.3630445,31177000.0,-10415770.586951464,45262000.0,80616744.65862963,76694000.0,10490572.17499198
590,762,1,1341960000.0,2194606830.0857806,666970000.0,2175959322.6657887,674990000.0,1144005568.7506075,55930000.0,237487277.1438201,179410000.0,251998365.08061087,235340000.0,320085605.29412615,23760000.0,44391730.5792776,32290000.0,188938514.21763963,23640000.0,61203500.67835863
377,386,2,52901000.0,1002053926.262454,24522965.98920461,866143999.7967117,33404000.0,123589014.34066892,-1183000.0,40168720.326429844,24144000.0,31248380.997356057,22961000.0,42639151.1624527,-5692000.0,11180185.162440479,28653000.0,129943701.99053791,-29836000.0,27073561.181326102
1953,841,2,877565000.0,2535299847.188818,1336553000.0,1289929581.1624126,-475192000.0,882992384.424574,522812000.0,222605611.95098883,-345617000.0,196275363.15427107,177195000.0,393113856.9107832,31868000.0,22692631.549460217,490944000.0,202905911.29945472,31868000.0,28263124.279779885
1018,588,0,26568400000.0,6357263010.4229965,13080400000.0,7209183907.259174,13246000000.0,2045324757.7212877,1346200000.0,700919958.7159734,1952200000.0,1691197657.2816887,3298400000.0,2817885038.836515,592200000.0,215687498.04625726,746800000.0,532891345.33521557,599400000.0,64791632.225661665
709,1406,4,2933971000.0,2160078267.4334674,2618511000.0,1456335935.9916756,315460000.0,922375430.7946628,65062000.0,186596763.1065701,2191000.0,184058143.2887745,67253000.0,371620143.18699956,-143265000.0,-5750824.507586986,69951000.0,156355976.18102068,-4889000.0,48733310.293909274
1121,444,4,27828200000.0,18880877039.519547,13810622382.415062,7628619701.818809,7212400000.0,6842365289.044513,821300000.0,516179159.5875225,181300000.0,644279797.5465343,1002600000.0,1455405442.4672737,233000000.0,172717344.68155557,794400000.0,950418963.3889298,26900000.0,57713454.53050193
1026,1548,2,2788943000.0,3536309247.8391676,2662320000.0,1909301091.547333,126623000.0,1511297957.5574522,299166000.0,315202244.8265111,0.0,334241991.85638946,299166000.0,610332126.2695662,-281667000.0,43976329.28066894,580833000.0,295344035.75126743,-281667000.0,22334063.554999273
1015,1603,3,2489159000.0,3314350449.886686,1954765000.0,2292466621.0672083,488897000.0,1237134271.5686097,294443000.0,301387377.2533838,370069000.0,477625845.7156637,636496000.0,736669215.3769176,64600000.0,61152608.19495729,229652000.0,173492658.54000738,64791000.0,53244170.43154804
1575,877,2,11961066.0,723252022.4269061,1068497.0,652070691.3107686,10892569.0,20885229.769921303,611174.0,11092962.494297802,0.0,-282975.69445478916,611174.0,-6614325.13342309,-1146685.0,-685057.7053187191,1757859.0,77210950.03764087,-1146685.0,10339976.587916546
826,1602,1,93941000000.0,57366726433.85224,39446000000.0,24117068058.521214,53466000000.0,30114904277.45794,4178000000.0,3420164213.0442796,15656000000.0,11460930360.80294,18582000000.0,22593036474.005634,1764000000.0,2436232842.254049,2414000000.0,1726532186.0199246,1764000000.0,4355723.209338583
463,1286,3,32097000000.0,21857733311.33003,20419000000.0,11619298824.659637,10658000000.0,5628736062.462062,2071000000.0,962613165.3601917,6360000000.0,5103118649.56981,8431000000.0,7084140494.181147,950000000.0,403585199.870059,831000000.0,449185442.04369086,1240000000.0,48178251.04511106
1660,1418,2,6578196.0,718897015.3960752,4441488.0,812946578.0567925,2465776.0,21340104.013914227,2008368.0,14838334.126211107,923641.0,17004173.19927752,2932009.0,1821291.9221036434,-1328968.0,-3222781.4970078617,3337336.0,87968795.22551799,-1328968.0,9479847.403519265
700,507,1,1658042000.0,2414992535.008033,1223260000.0,1922424357.8293927,434782000.0,1176158268.4835296,207698000.0,231621516.17891908,674127000.0,393974001.72976637,881825000.0,502687338.26551867,25549000.0,44740459.297996074,179614000.0,194459425.9118441,28084000.0,65817953.98144765
402,429,4,9094896.0,660217958.0219212,13593163.0,659713579.8308644,-4498267.0,9100948.398928523,-928960.0,128570677.52601916,1115703.0,48263178.07441831,186743.0,72598982.35934746,-5136642.0,-10541642.446903482,4207682.0,60990772.1734575,-5136642.0,-2236933.8950350583
591,82,1,16788482.0,635672609.1367741,821758.0,127349324.93696594,15966723.0,-4621755.5831815,906228.0,22747031.80296892,333325.0,-2502799.6138783693,1239553.0,-8559214.358703017,-1096396.0,-10013130.916564927,2002625.0,85699984.6079759,-1096397.0,-28661944.444859028
412,70,3,1678241000.0,2211912590.0343676,730813000.0,1317977055.1688473,947428000.0,969036313.5426842,62311000.0,213740623.24803022,89643000.0,141861703.13271815,127553000.0,302804884.77866614,-24195000.0,35890434.5514434,86506000.0,163775222.54275528,-24195000.0,40666427.287530944
26,311,2,1363308942.0,1962275649.7050767,629855415.0,1062304132.6348948,733453527.0,917288414.4417369,93681798.0,124405305.74344796,0.0,118236064.12532794,93681798.0,214157574.01963365,39573525.0,26620634.179866,54108273.0,179840748.00759462,39573525.0,28317012.291290224
205,1574,1,15264467000.0,8810927601.563381,7226441209.924589,4863105613.473791,3059451000.0,3139278654.3417206,592816000.0,491416161.9624986,378076000.0,649485350.8760583,970892000.0,1752413846.989447,444977000.0,202566216.81458914,147839000.0,286244742.36771035,444977000.0,61203500.67835863
699,653,0,65987000.0,5786853862.998477,35279000.0,1524812537.8019073,30708000.0,1936458363.8208077,5319000.0,119103261.38157219,28050000.0,37792057.349460125,33369000.0,71464895.99910164,1124000.0,28376007.842124403,4195000.0,125004472.18062583,1124000.0,35638434.36917353
550,570,3,31945000000.0,28209279496.425125,26424000000.0,20903534372.4196,5506000000.0,4219252935.1532946,1191000000.0,617560022.1566308,2895000000.0,2648538348.5903716,4086000000.0,4625293317.186268,834000000.0,208740299.1357984,357000000.0,334745578.32130355,834000000.0,53730993.76870358
140,1503,2,2655001000.0,3013354760.7113624,1989549000.0,1603750917.2834144,665452000.0,1379856012.5486054,67554000.0,273553740.731907,403267000.0,414020737.3375304,470821000.0,493523152.1495143,-3426000.0,42114356.90193786,30096000.0,246421481.84722903,37458000.0,37593547.043437116
2004,1217,2,9403000.0,755576936.1884146,5511000.0,748354524.1310861,3892000.0,3502111.0928521156,-48000.0,15073192.484731555,1387000.0,19626582.493000507,1339000.0,2765567.2087653875,-903000.0,111559.81736662984,855000.0,74277239.07615852,-903000.0,20583201.137607206
28,1347,2,551232000.0,1496470572.5255795,628224000.0,868214221.4485502,-138322000.0,512159307.3467157,23716000.0,87548296.50003713,12709000.0,87842686.92808676,36425000.0,104190515.37068105,7478000.0,12412417.031498656,48579000.0,181146611.3551381,-24863000.0,18818897.912064277
844,937,2,435750000.0,1404792321.4830112,62826000.0,991781597.7522042,372924000.0,329466679.7394141,28152000.0,78899164.81632859,49267000.0,80275605.7222091,77419000.0,104354053.49892938,143000.0,22489637.99872026,28009000.0,118559478.48890579,143000.0,24871408.959948037
967,1131,3,367699000.0,1320393532.5458755,382822000.0,1097857752.0228176,-15123000.0,775442448.7632755,310000.0,140848660.7058279,0.0,32521452.075367093,310000.0,106880662.94858325,-47413000.0,35368813.138656676,47723000.0,160244459.62259898,-47413000.0,28312752.001041643
433,733,0,3810682000.0,5895831740.58803,2050315000.0,2246208942.306893,1303319000.0,1936458363.8208077,110314000.0,182100979.4512108,71850000.0,181067470.10351712,148990000.0,303018934.0138899,11661000.0,29072665.321770296,98653000.0,204770055.5532638,11661000.0,17669922.248407714
228,1025,4,2333529000.0,2438814876.9766445,1032484368.2283514,1513941441.5736952,1202771000.0,993924289.9104717,71236000.0,220364175.724181,490990000.0,455438371.2253614,562226000.0,542468038.6843048,19517000.0,40464861.35599765,46091000.0,153997553.56440336,25145000.0,57859283.16003112
1855,611,2,20737275.0,969198312.6814628,10788720.0,784788927.130851,10368036.0,97086320.18426895,562564.0,33922954.91715282,77061.0,49793058.77427697,87201.0,27850497.9930501,-4142505.0,-4318380.929066345,4705069.0,148735377.58246604,-4142505.0,-52870976.65793131
776,1431,4,386844000.0,1151638176.39152,412960000.0,1047375482.9607077,-26116000.0,336967551.3706199,16927000.0,164740290.83710378,91131000.0,106522339.57824099,108058000.0,162033050.58463645,-813000.0,10319438.10182114,13060000.0,76808427.64557001,3867000.0,51015287.09811672
839,958,1,6911775000.0,5861590396.730323,5109042000.0,3468836240.1285706,1802733000.0,2227358391.867363,225256000.0,390038268.8377866,195092000.0,445215003.80987036,420348000.0,774339396.8801335,132530000.0,71149242.06702128,92726000.0,265158712.15349984,132530000.0,61203500.67835863
793,948,1,2883631000.0,2699805888.8656745,1772390000.0,2109779570.5172973,1110345000.0,1635464122.7720637,319055000.0,327740220.5027485,1257690000.0,1342019978.0496516,1576745000.0,1548148994.78317,38222000.0,52851297.32268894,280833000.0,228669420.36990717,38222000.0,65821752.349616066
820,1092,2,133032000.0,1632556322.428553,232711000.0,1091127488.8026788,-16246000.0,626624565.1250155,12296000.0,95729684.16708243,62277000.0,140975660.62881923,74573000.0,175720995.3839928,-14749000.0,21046005.371209353,89322000.0,185119735.1427453,-77026000.0,27820983.80611432
2016,686,2,296638000.0,1490402907.4134865,208509000.0,1049689162.9234645,88129000.0,394899560.8925164,7319000.0,63100519.3466596,0.0,49094240.591540694,7319000.0,103477640.06805241,-46633000.0,17635963.10127081,53952000.0,134745385.36753106,-46633000.0,25358567.834550902
1438,59,4,38809000.0,957318921.1036243,43090000.0,575495690.384172,-4281000.0,133367807.76727188,7318000.0,136745586.1218989,25818000.0,85519030.76379311,33136000.0,116609173.35124493,-933000.0,7037769.307634935,8251000.0,72711147.36197615,-933000.0,50213975.81161784
866,1372,1,2376172000.0,2685313759.3777075,1870972000.0,2245184203.9755373,486613000.0,1045727724.007066,-5214000.0,196495576.98266673,182832000.0,278392657.4373001,304976000.0,365176926.46398187,-103708000.0,31731731.828001022,98494000.0,186621338.84817564,-103708000.0,52815286.883289546
689,125,3,3719784000.0,3903449811.9013724,3332984000.0,3792827255.757909,286813000.0,1895241800.1371727,2618169000.0,991659197.2988669,-531777000.0,320218641.9362595,2086392000.0,1200396049.6875944,44074000.0,129547600.37195319,2574095000.0,785135547.939852,44074000.0,41386899.77464686
919,847,1,1537935000.0,2795276649.8075438,1281456000.0,2144084438.051496,256479000.0,1186641159.569183,229699000.0,239415954.56176054,0.0,205013515.52702326,229699000.0,360691658.5327982,-26947000.0,28210963.515504174,256646000.0,190251296.55717012,-26947000.0,50345100.94253385
1827,321,2,1182488000.0,2073324368.8237324,303489000.0,1339989516.7225819,759221000.0,746666587.090687,56265000.0,124229611.19748127,333008000.0,231409032.34686035,251870000.0,260974406.42164695,16750000.0,33940496.747894704,39515000.0,159410275.0920678,16750000.0,33444046.21311779
1182,818,0,8225559.0,5786853862.998477,12447189.0,1272513760.8213844,-4221630.0,1936458363.8208077,17564.0,47146401.23581797,106922.0,-12346599.104326725,124486.0,21202663.872060418,-8095209.0,4942797.564796895,8112773.0,72312669.67128396,-8095209.0,13631379.90617989
