epiphany24262/financial-performance-prediction/results/oof/m3a_catboost_direct_history_raw.csv
Id,group_id,fold,actual_Q0_TOTAL_ASSETS,pred_Q0_TOTAL_ASSETS,actual_Q0_TOTAL_LIABILITIES,pred_Q0_TOTAL_LIABILITIES,actual_Q0_TOTAL_STOCKHOLDERS_EQUITY,pred_Q0_TOTAL_STOCKHOLDERS_EQUITY,actual_Q0_GROSS_PROFIT,pred_Q0_GROSS_PROFIT,actual_Q0_COST_OF_REVENUES,pred_Q0_COST_OF_REVENUES,actual_Q0_REVENUES,pred_Q0_REVENUES,actual_Q0_OPERATING_INCOME,pred_Q0_OPERATING_INCOME,actual_Q0_OPERATING_EXPENSES,pred_Q0_OPERATING_EXPENSES,actual_Q0_EBITDA,pred_Q0_EBITDA
196,1119,4,1192950000.0,1758693825.9988456,1055816000.0,1211010566.5799427,137134000.0,789081616.2012429,25598000.0,174099164.09992132,61899000.0,142191848.3374781,42992000.0,178540572.5365467,15222000.0,30012605.134187125,10383000.0,152148969.9196399,15215000.0,61527065.440267965
1568,556,2,1219954000.0,1703552185.7721348,835046000.0,1128526774.0267165,384908000.0,759168194.9576159,111786000.0,214173295.96310902,217796000.0,336576026.93780774,329582000.0,397937586.10550416,28908000.0,42135856.720114894,85522000.0,203813842.6689074,26264000.0,65445319.26158376
1218,1577,0,-135820000000.0,838446130.4941578,-37972000000.0,-1224846369.8746014,-97848000000.0,2920966392.4947653,-435000000.0,2645811626.908488,4445000000.0,5147970966.8835945,4010000000.0,7392219347.844573,-1472000000.0,-60296991.147446126,219000000.0,664087999.8191859,-654000000.0,743639499.6268365
23,1062,1,83298000.0,827256609.7425208,16040000.0,647385609.8355641,-31633000.0,46002963.99284494,494000.0,41898833.590360224,3339000.0,14021876.59229958,3833000.0,18593604.336764336,-12348000.0,3560251.8220036477,12842000.0,106578681.66254169,-12348000.0,11776226.33027178
783,805,3,148546000.0,768951233.7511439,56555000.0,648457268.8635502,91991000.0,290171626.3621676,1761000.0,128315866.11475003,-2375000.0,-1426071.450713396,-614000.0,39209558.297567606,-10098000.0,18079986.706863552,11859000.0,152737664.4406071,-10098000.0,77673462.33571891
1251,822,1,7304300000.0,5279851439.32776,2451900000.0,2776273472.0251956,4830200000.0,2286224065.0003786,578200000.0,443448560.50324136,581100000.0,653367123.3668147,1159300000.0,1205677937.8594973,245200000.0,95038378.91213429,333000000.0,299680891.96424323,245200000.0,69374805.63461018
1224,228,0,1976905000.0,2419657681.5361414,699909000.0,1337733916.8923476,1276996000.0,1794695226.251447,53993000.0,134694236.72415662,315825000.0,226780924.48064053,369818000.0,288670398.41181076,-1572000.0,22976383.5173271,371390000.0,231180639.30688667,-317397000.0,20479710.559316218
1410,1451,2,2097274000.0,3126958172.4279146,1132234000.0,1924670991.9212942,965931000.0,1428624663.336906,70481000.0,326808949.0670149,291052000.0,352956309.25294864,361533000.0,492441389.8534603,58709000.0,53425561.81943828,11772000.0,235457283.5559612,58709000.0,61114399.04363511
529,34,4,31183000.0,751672112.1340742,15926000.0,420210270.7437711,15257000.0,458858454.7068695,2456000.0,67996399.5326606,2151000.0,34086237.42867851,4607000.0,27311574.217857003,-2931000.0,19221542.491892487,5387000.0,91103005.20776325,-2931000.0,61613823.86235376
730,909,4,978523000.0,1720367949.5430927,851196000.0,1257246798.9434159,-94184000.0,704606312.5971458,24321000.0,163359428.96613896,137937000.0,201383119.84146875,162258000.0,259585869.334697,-764000.0,17106550.0355466,25085000.0,151322565.95476854,-764000.0,64029491.884478435
1590,1344,4,27253000.0,965189217.4286199,14465193.072010836,359122972.11474705,12787806.927989164,454328351.0444596,-17000.0,51398054.8096866,17493000.0,30867175.61919856,17476000.0,50861236.94058907,1196000.0,17383386.49058546,138000.0,103783139.7944135,-155000.0,54910580.2521327
367,268,0,798398000.0,1989732368.3439484,795372000.0,1130814151.539197,3026000.0,1794695226.251447,37121000.0,126750398.34498382,256160000.0,190264734.56284845,293281000.0,261923680.2550695,10257000.0,13041403.89373073,26864000.0,102787668.56839529,10257000.0,8548295.637437016
636,839,4,1059052000.0,2111553419.6428723,883921000.0,1416638287.0811648,175131000.0,926746565.1116288,91945000.0,161100940.81160355,202788000.0,190248577.68666095,235132000.0,260568224.7673943,-287000.0,36671261.106684744,84957000.0,167204124.69432658,6988000.0,62656315.2530463
1270,1065,3,11069000000.0,6849619008.526162,5919000000.0,3872683945.2093573,5105000000.0,3405164745.559476,727000000.0,597025969.3716382,1752000000.0,1474946314.8967347,2479000000.0,2188207020.0072055,462000000.0,225582187.60412094,265000000.0,258456917.0355143,462000000.0,78359460.98023346
102,712,1,12331000.0,846322940.0738077,10875000.0,472396746.92664766,1456000.0,132189261.13007092,1472000.0,69228514.86751604,1968000.0,1589958.8684021235,3440000.0,8660203.794601202,-4166000.0,5710301.867632821,5638000.0,99171981.44233859,-4166000.0,-10564346.614384636
1658,812,1,180372000.0,1427938059.363852,121221000.0,944589511.2898893,30642000.0,315169474.8035649,18014000.0,134504740.61170238,31653000.0,76343114.74460375,49667000.0,70453124.20590508,-11599000.0,14813039.7792553,29613000.0,146602580.78958988,-11599000.0,32575784.201821387
6,356,2,2319806000.0,3158373603.6498747,1534495000.0,1999694479.0250227,785311000.0,1657254608.286292,376397000.0,351345601.07351726,415254000.0,520861772.1182649,791651000.0,752746496.7783792,93430000.0,69908696.81092049,288680000.0,235296124.9180162,87717000.0,64444796.2784881
1147,318,0,19295025.0,1266717940.3561907,28370931.0,584418186.5879836,-13369686.0,1782470577.4992363,2067435.0,27975968.113906622,4847499.0,15994119.99193573,6914934.0,42948792.60742462,-1108124.0,-1864167.3814667016,3175559.0,36355370.993982375,-1108124.0,-4345045.380414456
114,141,2,3549408000.0,3838533136.3315954,2109262000.0,1832972225.5025406,1440146000.0,1185007414.2988632,264579000.0,261736617.20411453,494402000.0,657718783.1448853,758981000.0,849384117.3332406,58594000.0,76951791.90544634,205985000.0,216136217.17435986,58594000.0,65961117.180467434
139,890,3,331401784.0,565520112.6751308,56254670.0,308257648.37900066,275147114.0,207753804.7060573,17982150.0,100870600.1393184,0.0,-16270209.807762861,17982150.0,-668443.9764692783,-40215832.0,9209945.736632004,58197982.0,166524863.68898144,-40215832.0,73792993.18976088
411,956,2,5533000.0,86842881.16239452,4648000.0,316029684.64222574,885000.0,12723823.42631948,-1669000.0,34668033.52814609,2438000.0,-6394478.726208925,769000.0,7058600.567462206,-6339000.0,4147657.9772208184,4670000.0,68976175.79522616,-6339000.0,2695355.1006840393
681,18,1,36550000000.0,31953294061.094906,16943241279.095451,11114992010.992464,15250000000.0,8029016650.753049,577000000.0,668731447.7583175,3467000000.0,2737145932.504876,4044000000.0,3764152074.214739,714000000.0,168856077.05686045,627000000.0,628018992.9319386,-50000000.0,67843478.8315674
1671,1574,4,100449000.0,696021330.7407298,141057000.0,607554599.9888067,-40608000.0,434153604.5122205,-171000.0,90906382.7139591,512000.0,33146904.345427513,341000.0,42428440.03252149,-48297000.0,14302228.541965097,24344000.0,113202552.98818323,-24515000.0,65755402.19472065
500,1524,4,10599934.0,721123224.3602266,26203416.0,109624258.39828396,-15603482.0,393094333.66810155,-6219.0,43525029.3420198,193120.0,3409918.0371103287,186901.0,3248003.5904107094,-1076399.0,17454019.710386276,1070180.0,74561679.71225059,-1076399.0,57923527.20011163
1203,855,3,13322000.0,973846556.5395346,67881000.0,637292350.279685,8277888.77383834,402407910.74892044,3223000.0,115388507.17992514,1889000.0,-6333163.045809507,5112000.0,54345902.72889364,-3552000.0,21512880.833474487,8664000.0,150342620.7914369,-5441000.0,74768445.01806492
180,1091,2,635001000.0,1615576352.7058463,115305000.0,1132778034.6773994,502273000.0,528607173.11542135,21465000.0,145746048.41634142,40457000.0,76084005.3473227,61922000.0,192684852.5532031,-143360000.0,25478359.605367467,205282000.0,199966471.30496478,-183817000.0,55961114.06012873
1960,1407,1,2672864000.0,2498733167.5350766,288913000.0,1450366961.1846895,2383951000.0,1305465789.9784327,132902000.0,244320424.65787268,168499000.0,332133974.32661647,301401000.0,406788713.0002717,55706000.0,37435453.72975561,77196000.0,187408005.45874414,55706000.0,51371785.9174394
356,219,4,8388335000.0,6283452208.886484,5163154000.0,3818906961.655935,3225181000.0,2736855610.505229,313343000.0,454496811.7143464,687959000.0,732846960.4039931,1001302000.0,1177581177.4564693,116260000.0,80155697.98051755,85661000.0,252445629.03033328,227682000.0,65936174.583986215
1646,1209,4,1563399000.0,2404192987.957622,1445358000.0,1474732759.9894474,-136248000.0,908688210.3683839,72333000.0,194527587.68164477,116682000.0,191200221.36563444,189015000.0,292480275.83118117,23506000.0,41509995.891977966,11423000.0,187785177.7809959,60910000.0,62656315.2530463
1793,1494,4,320019000.0,2080760524.941924,126984000.0,1275690874.1925657,193035000.0,938381910.4582562,177377000.0,222655880.59678018,58492000.0,183881212.82609963,235869000.0,326524925.5093615,25509000.0,51353368.94178082,151868000.0,197215884.54894602,25509000.0,64812732.30198102
235,903,0,0.0,740829802.6540413,0.0,299184811.44257164,-804876.0,1782470577.4992363,0.0,4115422.7315471172,0.0,8191987.721838355,0.0,5638745.907859802,-14550.0,-6031540.659159869,14550.0,33167339.65764326,-14550.0,-10135846.950012371
1668,520,3,267194000.0,1202704611.4648533,175308000.0,718981478.1260929,91886000.0,452993805.05739784,5103000.0,135544160.7944244,0.0,3475226.151032448,5103000.0,81314362.64863622,-32762000.0,16796293.144841105,37865000.0,163145239.8103307,-32762000.0,78359460.98023346
1456,719,4,2249377000.0,2909439702.5965443,1923326000.0,1625180437.193159,326519000.0,1273584487.6706955,-76300000.0,232845454.057288,416103000.0,356287724.4022765,339803000.0,553451297.536267,34941000.0,34420685.92711559,184914000.0,256614990.19123787,-261214000.0,65158741.69725677
1291,57,1,396890000.0,1424473545.115878,107071000.0,1065976432.6289496,289819000.0,380978262.6497934,52569000.0,120448821.6823045,13634000.0,83482422.76682973,66203000.0,78536781.93886244,8375000.0,4788126.084627956,57828000.0,160511203.6380552,-5259000.0,-48526.46877262741
1376,344,4,7827000.0,723305740.7106924,4744000.0,357442499.5221081,3083000.0,408552416.17858946,1288000.0,61156869.620875776,867000.0,23004832.592541575,2155000.0,25330493.68935573,-3880000.0,14464085.720193103,5168000.0,93559401.22039372,-3880000.0,57752332.12533154
1702,1482,1,11990000.0,907846791.0516014,3030000.0,481268520.44430304,8960000.0,20796711.085030556,1480000.0,43464325.88788307,3017000.0,4444493.921193004,4497000.0,25796896.28628385,-944000.0,10382208.348730475,2424000.0,85410467.74525428,-944000.0,437663.24340537935
1591,331,2,7472874.0,107198133.4562397,3243445.0,98570413.7783699,4067990.0,105297246.88638449,3065804.0,15883895.106909513,0.0,-19366645.704369903,3065804.0,5467813.600251079,-21884.0,-6614671.817064613,3087688.0,73815869.4335239,-21884.0,-35811259.10891755
647,1582,1,2182494000.0,2847314654.798022,2467501000.0,1591121182.3172565,-484456000.0,1180602779.719399,389190000.0,272644063.76793844,141172000.0,313086083.5688808,531030000.0,597405211.0697635,-54175000.0,27059324.014674842,443365000.0,267013529.51662487,-54175000.0,47995590.83504598
100,1589,2,12166000.0,43925293.608361244,2892000.0,131070427.12634611,9274000.0,-29875103.858838797,5000.0,37150932.06336224,54000.0,-30580750.056077838,59000.0,5676680.455674887,-3433000.0,2866690.459970489,3433000.0,78210200.73323745,-3428000.0,-9022168.635662705
507,336,2,189783000.0,626036880.8437862,45792000.0,639368933.5055661,143991000.0,101145505.82550168,2372000.0,103809921.49752998,0.0,14359448.924799442,2372000.0,68315255.9432466,-18270000.0,11683199.54762952,20642000.0,148435979.8552374,-18270000.0,41206984.212211594
547,1095,3,1072653000.0,901504225.7852263,455367000.0,324385996.5030618,617286000.0,329577601.26832294,134998000.0,121116073.86787343,27783000.0,130253750.77608061,163452000.0,162277091.71457422,5489000.0,6543183.375166848,129509000.0,150013611.1336842,5489000.0,71148008.76826516
457,886,2,665104000.0,1105633088.4036503,575531000.0,991343425.198,89573000.0,281250998.42261624,30803000.0,150962681.1173638,19437000.0,104897095.91901314,50240000.0,176946053.18457484,10357000.0,24595356.539869815,22017000.0,188741261.0969546,8786000.0,56481170.44376238
560,670,3,1900367000.0,2135061272.779811,289037000.0,975083372.4267983,1613343000.0,850735406.3436916,45433000.0,221483836.99574295,413911000.0,427874269.09486365,459344000.0,653897341.4951212,-6757000.0,53958907.62758766,52246000.0,154091776.02464226,-6813000.0,77673462.33571891
1402,905,3,88944000.0,548436916.894877,45361000.0,381712383.1811762,43583000.0,115842018.2247243,0.0,102856432.51379079,45000.0,-12201342.00970459,45000.0,2466479.05027771,-14351000.0,8095606.909180418,14351000.0,126573589.40389034,-14351000.0,75473106.28226009
1274,1040,3,5390785000.0,4414870338.473305,4083098000.0,2701375612.8086653,1050686000.0,1872365343.508483,352054000.0,377462252.5577984,284900000.0,448562494.05324125,636954000.0,894092363.9254069,120850000.0,80203285.01638865,187232000.0,247418440.6141082,164822000.0,76159104.92677462
799,197,1,18535000.0,1117976046.9842691,13748000.0,750963391.229886,4787000.0,36886742.93104339,2839000.0,65967906.63675356,7502000.0,416132.0426181555,10341000.0,35987071.97513354,-2229000.0,9878630.066082329,3071000.0,99054639.24480915,-232000.0,11834633.419866346
1436,782,1,13281300000.0,7506518490.087385,5777300000.0,3841822494.974039,7484300000.0,3541774664.837558,1030700000.0,630146805.7113194,1150100000.0,983718893.2950182,2180800000.0,1837289349.150949,687000000.0,336241380.9041565,343700000.0,364300535.0077814,687000000.0,74255338.09032938
1518,137,1,108681735.0,1004721836.467207,9192190.0,740485972.6056995,67531550.37365061,67977679.95108318,2201326.0,73641398.44136602,255772.0,24185493.10550058,2457098.0,29638319.077510595,-8935951.0,3468344.0788731277,11137277.0,114652103.70456052,-8935951.0,19803969.900664136
211,1313,0,189692000.0,1677589721.2210393,90178000.0,905788802.7678084,99514000.0,1782470577.4992363,-4411000.0,47552719.7276364,24963000.0,71495037.08863711,20552000.0,65767561.139980674,-10000000.0,4551894.928806752,5589000.0,68378998.3149311,-10000000.0,1478117.8005800769
1542,188,0,230878000.0,1660726852.1486354,57278000.0,1051997957.3672414,173600000.0,1794695226.251447,26973000.0,47519047.09056157,7041000.0,59502947.469138026,34014000.0,80831101.87444353,-11169000.0,-5967298.949075893,38142000.0,62762517.16277224,-11169000.0,4089991.3053995296
1496,602,1,73773000.0,1048576453.059114,50819000.0,739935488.7526922,38847689.64492722,97191266.28865862,5428000.0,89222637.40079194,22481000.0,39354591.25602007,27909000.0,28501934.51025796,-1778000.0,12993843.097315952,7206000.0,117710946.67714557,-1778000.0,13468056.05594796
1891,1386,2,1582767000.0,1826672580.3714924,680421000.0,1434566758.7113945,880211000.0,608106056.8389182,56683000.0,210164093.5154311,17637000.0,166792311.10264277,74320000.0,296764174.5144849,-5119000.0,28444512.002058342,35279000.0,204024339.72298905,21404000.0,61434868.57152169
362,63,0,5641000.0,1147299526.514557,5200000.0,519719578.541883,-3859000.0,1782470577.4992363,1192000.0,17625003.78077495,781000.0,11930178.28334117,1973000.0,37697469.36124849,-97000.0,1114571.0482192785,2070000.0,44000709.30049002,-878000.0,-3094577.3856267333
605,600,3,3208196000.0,3584759690.3883805,2133043000.0,1813032148.2097042,1075153000.0,1715072938.995097,625972000.0,368750705.563537,1066275000.0,917542862.747179,1692247000.0,1513336647.8338661,91616000.0,96168803.00832805,497965000.0,281217105.4742772,128007000.0,76375507.06361754
384,240,3,13057000.0,524358988.2024059,4943774.229094189,98497131.18588829,10949000.0,37763369.61231828,7944000.0,94216447.59031868,0.0,-1879551.658186555,7944000.0,7499416.69787693,1997000.0,2790938.3584189415,5947000.0,120927718.48773557,1997000.0,72428325.71749836
438,681,2,5973000000.0,6546924917.286164,4408000000.0,3173607308.204732,1554000000.0,2112123696.2568824,244000000.0,372690167.8449455,1526000000.0,1035180081.6669502,1770000000.0,1586776600.8359518,147000000.0,109658317.74563101,127000000.0,238621530.05164266,117000000.0,63298804.57535074
1761,1233,0,589088000.0,2003968352.0835824,253950000.0,1182598496.5987377,335138000.0,1794695226.251447,19294000.0,97516702.72814816,99428000.0,150454361.48856682,118722000.0,152564802.4189042,9057000.0,19257672.294802025,10237000.0,77091355.91351196,9057000.0,13548538.065630384
403,509,4,21286772.0,718912083.5105314,1383236.0,233100055.08143854,19903536.0,386137523.6347203,781782.0,46834386.265789926,421382.0,25811188.799396634,1203164.0,13449726.959944725,-1960898.0,13729050.588405952,2742680.0,67022298.93462318,-1960898.0,59613108.199398145
388,1329,4,3445920.0,663304575.7834225,1859560.0,259854160.80255508,1616914.0883314284,344703037.1555624,2970901.0,50853315.003961086,569508.0,32490964.33455026,805185.0,14387408.994021177,2437201.0,17783634.52872573,533700.0,79038582.65060681,2437201.0,57546837.823256835
1452,1493,0,328158000.0,1772067186.2597947,124250521.82515822,1176129611.6991858,270486000.0,1794695226.251447,24944000.0,103228855.73187923,16521000.0,97976407.90415716,41465000.0,108725863.60204422,-7674000.0,7535795.302809164,24827000.0,69781364.04169142,117000.0,9509058.34203872
1876,217,1,2498305.0,584789469.8964734,2997402.0,450785904.04438114,-3454854.0,-53203650.765476465,467340.0,22576138.346454084,346611.0,-11603229.390063167,813951.0,5722797.18705678,-114631.0,4238924.475872949,581971.0,79835471.22114891,-114631.0,-15721474.13548258
757,180,3,1288046000.0,2774230167.792959,649920845.9604261,1503746400.5088649,889849000.0,1065390107.4654218,105384000.0,206286524.72955734,285360000.0,221833099.5325659,390744000.0,383127199.96621144,53190000.0,41571211.490484945,52194000.0,186198321.7879565,53190000.0,78359460.98023346
660,425,3,600057000.0,1614442573.844109,369915000.0,1332572372.21208,225443000.0,883801498.8705583,43121000.0,162451565.47241506,106269000.0,57162584.68073559,149390000.0,150388976.49631417,7853000.0,33965436.65964335,30439000.0,182045679.80411983,12682000.0,78359460.98023346
197,250,3,538955000.0,766122677.5656571,291671000.0,335431124.5039158,247284000.0,177296559.84434843,-14193000.0,108894175.97217804,14235000.0,-4585141.887128472,42000.0,42787433.081017375,-51845000.0,6150318.177233651,37652000.0,134988496.53949422,-51845000.0,71148008.76826516
93,807,1,25334074.0,1029316161.5615034,18917048.0,624820378.1665154,5501613.0,31282209.652484655,-536032.0,48054825.34246588,4501393.0,-5384925.985297918,3965361.0,14584729.676319718,-2975120.0,6971485.67464374,2439088.0,95016366.01819813,-2975120.0,592112.1879316047
472,555,3,1934400000.0,3162772987.8938413,855887268.5537325,1664220462.9889376,957200000.0,1171829444.6593802,84000000.0,230317324.95503902,375600000.0,269467097.923478,459600000.0,453472882.9264151,30800000.0,54385812.40175844,59000000.0,190167578.46583092,25000000.0,78359460.98023346
1345,974,4,102973000.0,850626336.1490188,162948000.0,532717018.91849566,-346214000.0,505679136.6420871,-13037000.0,75464505.46747065,25768000.0,15076385.479611874,12731000.0,25665016.404601455,-23219000.0,9487551.689895332,35950000.0,135015636.34921795,-48987000.0,59177711.94295597
1672,1178,0,2501300000.0,2969023645.409767,1075500000.0,1630451735.67699,1407900000.0,1794695226.251447,99600000.0,188203353.62474245,151100000.0,311700066.5573708,250700000.0,409449357.4560722,31900000.0,33487497.442320123,67700000.0,155335718.0632725,31900000.0,54488498.59959273
521,196,2,27910000000.0,33873278807.046177,24392000000.0,16888446753.270876,14058781786.346067,10713201329.221516,1525000000.0,1113266661.9443073,6421000000.0,4438988508.59099,7946000000.0,6282700717.315907,561000000.0,242853501.13197818,638000000.0,443369266.63655025,887000000.0,62365683.56405122
1143,374,4,105238000.0,907690483.7976432,42240000.0,495150737.3639059,62998000.0,503193433.2268878,8572000.0,72289073.63249803,322000.0,25471417.745622516,8894000.0,23794897.566640615,2218000.0,24282777.203330398,6354000.0,118720366.04244328,2218000.0,61193565.58711658
502,643,0,2010176000.0,2890652600.785296,889414829.379791,1501535369.3980207,1057656000.0,1794695226.251447,113627000.0,185755412.34396955,250202000.0,277675897.879494,363829000.0,395244973.7235868,44531000.0,47348531.656633146,69096000.0,139196741.8373242,44531000.0,48828339.46838304
319,277,1,15154000000.0,9120154755.881664,5534200000.0,3909099686.3248024,9554000000.0,5058521867.981563,739300000.0,525576027.8669698,999600000.0,912216549.4346012,1738900000.0,1521818736.592978,318400000.0,143180506.68620914,315200000.0,329459556.6969104,424100000.0,65640099.02236732
471,1421,2,346507000.0,974236066.5304184,100361000.0,860390321.7804713,246146000.0,211300649.7568004,14398000.0,139548849.69408965,62502000.0,62904146.858894706,72480000.0,101822571.0487932,4926000.0,20146674.98915513,9472000.0,176837223.95052627,4926000.0,53619668.87621389
1756,928,0,229309000.0,1664852616.7561803,190264000.0,1061531968.0086703,-44269000.0,1794695226.251447,9225000.0,69437459.85909784,52669000.0,56842802.94807184,61894000.0,80973360.5095712,1401000.0,5552354.16892691,7511000.0,72416277.82479161,1714000.0,6033411.45967114
848,613,0,101740000.0,1359397609.5397892,28463000.0,675191376.2204428,50734000.0,1782470577.4992363,29850000.0,35987184.772259116,12745000.0,61225195.04434085,40857000.0,76379451.56652582,2689000.0,4147352.9817519635,27161000.0,49209484.708747745,2689000.0,-8133508.344051123
1310,607,1,9582645000.0,4482409403.430228,3280269000.0,2189174962.9619384,6302376000.0,2164143323.6188183,376175000.0,356629237.71262157,424915000.0,469378345.31095207,801090000.0,782089908.9531198,272965000.0,70041000.49195361,103421000.0,276084282.11310685,272754000.0,50870484.676496245
202,502,1,609678000.0,1665353241.734664,288631252.1743736,1044137396.9930079,366720000.0,547299409.0472212,84451000.0,141101769.60276085,21802000.0,135134843.928132,106253000.0,163469956.93082654,5683000.0,15242503.69612199,78768000.0,162154740.173783,5683000.0,37782943.072113
1444,124,4,43441700000.0,30742360656.27889,21559314449.01792,18301480334.242294,21882385550.98208,8779532721.281464,1370000000.0,1036859117.4844446,587400000.0,922647874.6096187,1957400000.0,2616808470.027974,472000000.0,170001397.67510104,1485400000.0,678978670.2605143,-115400000.0,62656315.2530463
1578,1121,2,1146353000.0,1691380684.5524096,752649000.0,1189187773.9122682,393704000.0,572189069.7681875,95229000.0,182924621.71229193,32092000.0,133840943.78442264,127321000.0,288412374.77499104,-58245000.0,26672152.480800472,153474000.0,194881688.0311816,-58245000.0,61209431.613750964
451,840,3,796771.0,313544374.44029903,1072746.0,80964823.61665678,-275975.0,-17644060.871369123,205707.0,63382885.47059709,158335.0,2890268.646754384,364042.0,6409986.706784964,-168127.0,959372.2190632671,373834.0,110002128.3326953,-168127.0,70940943.35737431
35,1605,2,9069035000.0,5644888920.957498,2563480000.0,2373057941.662071,6505555000.0,2867731083.8798585,942419000.0,457760332.95183104,522866000.0,596092885.5952003,1285548000.0,1070496796.001207,602695000.0,159520337.24960676,339724000.0,280128090.781319,602695000.0,63298804.57535074
237,1328,0,48924605000.0,37242551687.81828,25766652000.0,20958417893.380104,22441501000.0,2204112743.2184453,1560160000.0,1261593997.387963,915531000.0,1187163980.1718283,2475691000.0,2741711105.5610666,558196000.0,522947774.18602794,1001964000.0,931389410.460255,558196000.0,275548894.74187326
917,299,4,514281000.0,1699403808.6298108,309957000.0,1099061326.1615036,198004000.0,768386536.2451684,106985000.0,152811607.5899343,149052000.0,133910183.3073287,309744000.0,154937484.71858168,62399000.0,39831454.79934991,44586000.0,170933062.01675215,62399000.0,64101104.39171524
558,1592,4,17876000000.0,5553758474.204724,4077000000.0,2745133541.383646,13799000000.0,2513177823.6323843,-917000000.0,224436594.009415,1453000000.0,274208207.5546181,536000000.0,549244420.3953824,-1774000000.0,-19195311.740738362,857000000.0,339775421.8683319,-1774000000.0,54640296.35430831
73,1398,0,218354000.0,1581202594.9152312,62021000.0,867555577.9957042,156333000.0,1794695226.251447,-143000.0,37393180.34050512,848000.0,27487945.73889029,705000.0,59679852.83530152,-31577000.0,-12877705.94035004,40859000.0,54901706.32348931,-41002000.0,-1641495.4279925525
532,116,2,2268100000.0,3234268101.9508953,1627400000.0,2145718444.9028182,640700000.0,1554067969.512908,78400000.0,298482049.1777385,665200000.0,493606839.50491977,743600000.0,726402972.1069758,19100000.0,44403711.20582964,724500000.0,329817573.9337915,-646100000.0,60949199.17288256
986,1241,2,49117000.0,246652121.07897234,7104000.0,523147994.30643415,42013000.0,51541055.9099797,1616000.0,85891735.73819757,3273000.0,31171388.2276932,4889000.0,30967802.550019026,-1489000.0,10723618.224492013,3105000.0,138633131.7133012,-1489000.0,36784181.75914934
252,13,2,12822000.0,82757557.64152813,1624000.0,240020730.0480485,11198000.0,-20372190.737143755,0.0,17039287.97868967,0.0,-16116104.03750515,0.0,5145991.652785301,-1983000.0,4327213.054068133,1983000.0,79450280.29092038,-1983000.0,-2035184.429401487
982,352,1,543788000.0,1670627198.379509,205894547.02387,1047435427.7766964,402777000.0,608681119.5426701,1944000.0,152616108.30575448,0.0,122106253.05507982,1944000.0,174259827.63677907,-51279000.0,6003383.221928373,53223000.0,145272329.76237598,-51279000.0,36596386.832758725
1947,1444,4,16965000000.0,14207750451.72114,7506269391.549871,5211143263.408251,7744800000.0,4834236998.143026,1329900000.0,769282825.3811941,1175700000.0,937974088.0400431,2505600000.0,1879542458.8157268,1069200000.0,451810104.90898824,32700000.0,290341684.3394755,1297200000.0,62656315.2530463
1206,430,3,29788000.0,832931479.0765924,27907000.0,761078810.4797325,1881000.0,324199975.44947696,0.0,133159642.32217467,3452000.0,-3275850.999222398,3452000.0,52947132.256414294,-23801000.0,19707413.528183892,23801000.0,159895917.80744296,-23801000.0,76159104.92677462
542,123,0,39315010.0,1262933452.2219782,15768167.0,645267194.2773485,23791305.0,1782470577.4992363,7600979.0,28582348.089611232,41810204.0,-475900.09954738617,49411183.0,31513623.21320498,-1588725.0,-4697928.217862606,9189704.0,50679571.12873095,-1588725.0,-36604194.741910055
15,385,3,184728000.0,868729820.6697645,40367000.0,558206744.7180815,144361000.0,279117253.8903756,0.0,121804180.89770085,8094000.0,2373871.048247814,8094000.0,29370631.901306987,-23114000.0,9563817.261628598,23114000.0,150917319.19521293,-23114000.0,73888659.35299084
1754,1014,4,5014090000.0,5233071421.258931,2606263000.0,3016048503.5426064,2407827000.0,1989048572.3649583,420690000.0,347332801.3964849,905430000.0,657725576.8995377,1326120000.0,1061799991.5383956,237492000.0,103430166.90194266,183198000.0,248090422.5660692,237492000.0,65936174.583986215
1448,316,2,3543460000.0,3128620035.9138317,2602227000.0,1557610804.2754252,941233000.0,1024311158.8620508,443568000.0,287095052.5786009,134292000.0,332919559.13600224,414603000.0,663083375.5515075,14363000.0,31601732.128651313,429205000.0,219729736.1311117,14363000.0,65905660.221162334
459,80,3,747087000.0,1687643962.8129148,79688000.0,775964779.5417051,667399000.0,440475886.011729,34565000.0,160186707.4740253,22203000.0,69035687.85318124,57261000.0,114392312.11538184,-16306000.0,22869278.615297034,50871000.0,165659157.08224955,-16306000.0,78515988.12885633
1505,982,1,4578121000.0,6805869469.926394,2310023301.364386,3274005780.7945776,2489780000.0,2720544497.1346865,2190001000.0,2020241939.6433947,-1465670000.0,157221249.83504194,724331000.0,1782384033.3387184,216069000.0,153687992.86378652,1973932000.0,1287466974.9191132,216069000.0,80310824.9844653
1613,267,1,11895943000.0,7184026181.983944,3479745000.0,3001607415.940507,8416198000.0,4423441864.888355,335683000.0,428414674.68581843,296441000.0,564014674.315011,632124000.0,946224902.2584732,90949000.0,27573419.2530154,201199000.0,327784496.52558947,134484000.0,56682014.48485505
1214,941,2,1059300000.0,2189700734.9209085,513000000.0,1382707848.9941647,545000000.0,974302288.3089434,132000000.0,246353763.67174077,172700000.0,290330894.5938766,304700000.0,397040083.1811259,34700000.0,53530755.91620841,88200000.0,222203515.74450177,43800000.0,63298804.57535074
454,977,1,11204065000.0,7542787817.170233,4242197120.938668,4458993315.458235,3489373000.0,4378359020.154321,480702000.0,410795757.9897462,457696000.0,527900279.6410802,938398000.0,871975715.7874867,172392000.0,53362163.187040396,308310000.0,332339572.29592407,172392000.0,40312326.35339224
1392,303,0,531121000.0,2337248461.6283407,248900000.0,1301484016.1122549,282221000.0,1794695226.251447,62379000.0,113107286.0260998,135419000.0,198700670.68908244,197798000.0,243222372.0421499,18703000.0,29112021.898992434,43698000.0,87431111.9465861,18681000.0,18192613.598444298
1519,1560,3,961035000.0,2745368276.585549,1381722000.0,1506288681.547057,-420687000.0,929611719.2259545,271111000.0,295249078.52587014,201537000.0,326085636.27799624,472648000.0,602275383.1853414,5387000.0,54448130.69992578,265724000.0,180480590.9313503,5387000.0,78515988.12885633
1060,1032,1,3194462000.0,3230446364.040715,1643299000.0,1733909106.3687205,1512215000.0,1582557558.4927182,817744000.0,402889950.2898132,0.0,359720223.9768607,817744000.0,688681926.8178656,37900000.0,66328242.99065763,779844000.0,334784801.2412932,37900000.0,50992508.53810005
1100,1277,1,6042273.0,645560291.259696,3627261.0,330296651.7043376,2415012.0,-44946926.784499645,0.0,29517210.88948065,0.0,-20666100.28398764,0.0,-7100259.3156375885,-1829562.0,635875.5370764583,1829562.0,73830164.25517362,-1829562.0,-21523415.093697667
203,261,2,76266906.0,230178303.2878132,57438990.0,528448775.31544447,40912361.81482647,62642322.04813111,9146097.0,75991748.9043203,0.0,-7562572.65516746,9146097.0,23556956.707268953,-2633902.0,6159695.350210011,11779999.0,122069784.00684187,-2633902.0,29025820.22420691
1493,405,3,-3532973000.0,-1165173739.9602842,-2747133000.0,-1089896220.2548876,-773571000.0,1118044837.603136,87737000.0,213174398.5658896,40236000.0,390858719.3307978,103187000.0,716177546.7204561,7123000.0,25755958.457041696,80614000.0,154767675.56164515,7123000.0,77673462.33571891
543,9,3,846734000.0,1667348563.1847887,635659000.0,733118797.7174859,69332000.0,558661104.078747,204774000.0,139965825.6536947,-13024000.0,40188981.43716681,191750000.0,139023950.96939814,-52860000.0,984738.0799616426,257634000.0,147950511.27497342,-52860000.0,76175868.82828978
1966,415,3,1354514000.0,1353897395.9347272,675720000.0,955151046.3478079,319291000.0,566412469.9095216,-16558000.0,124282993.98932719,64132000.0,32230303.763919592,47574000.0,92292808.46604228,22229000.0,16518343.098047078,13428000.0,203027056.42104822,-29986000.0,76019341.6796669
1802,888,0,270533000.0,1702237583.0883703,240046000.0,1071001068.6304336,30487000.0,1794695226.251447,26052000.0,52048307.84021807,12454000.0,55479742.07097721,38506000.0,76405330.07688916,-21038000.0,-3088397.1862561405,47090000.0,66587113.85743785,-21038000.0,5866591.208197169
1372,500,3,583783000.0,1666678210.8840852,717382000.0,1270390538.016743,-133599000.0,652472150.1999233,41865000.0,159042957.5555447,32703000.0,56052322.681336045,74568000.0,157855726.63897836,-32006000.0,29524438.268204793,48224000.0,176923694.94036913,-6359000.0,78909440.74834783
1325,678,0,534446.0,1115511415.5093708,9794849.0,457912900.6216426,-9132038.0,1782470577.4992363,6264.0,11125554.985263467,3881.0,1517502.4568462372,10145.0,24649754.7075001,-961868.0,-2373859.4739809334,972013.0,39575339.16423142,-965749.0,-9526513.883513257
1504,581,2,106308000.0,639383148.1663074,29369000.0,739160342.5370793,76939000.0,112352470.07996821,15630000.0,113840919.5513556,0.0,5235628.386160135,15630000.0,76765690.92067826,-23899000.0,12547637.218197048,39529000.0,151026650.66363272,-23899000.0,45489013.41476667
1347,435,3,369031000.0,1240606929.2861505,216722530.1814524,946186705.9676723,188777000.0,622930628.8448552,45044000.0,149695258.2104913,42173000.0,148234696.28136367,87217000.0,179064310.21406937,-3804000.0,21396075.888399586,48848000.0,185110341.7256768,-3804000.0,77673462.33571891
1492,360,3,327784000.0,1186383022.1400084,323919000.0,864526554.5937781,3865000.0,444493503.0127201,33496000.0,139306360.862597,8201000.0,7548209.192090392,41697000.0,88309542.34894669,-4913000.0,27975624.07357928,37287000.0,157372579.6002841,-3791000.0,78515988.12885633
1107,1471,2,85658000000.0,67839915694.44361,88335000000.0,54283858802.739365,-2772000000.0,4880409511.524443,5387000000.0,6245341176.424778,14002000000.0,17498474061.5093,16935000000.0,26372678706.110157,1165000000.0,2405214894.1280155,4222000000.0,3083378548.203678,1165000000.0,264326411.8050667
1336,16,4,898860000.0,1650785981.1133084,527877640.3036609,892981574.4564686,360528000.0,598079133.6731708,68259000.0,132994314.03179234,42065000.0,71425427.94389069,110324000.0,121004738.86364579,-1325000.0,26753258.514584556,69584000.0,165888360.88599885,-1325000.0,60772149.72099968
599,1259,4,50546000.0,845510121.2738338,5959000.0,354766847.39156675,44587000.0,472985343.98423874,1989000.0,68190401.65038574,1909000.0,31573798.167780638,3898000.0,34090595.74197197,-1895000.0,26844300.70233524,3884000.0,100262576.6955142,-1895000.0,61896634.03814674
117,1466,2,939056000.0,1972955779.6186643,419590000.0,1209405271.159537,517473000.0,578498640.3667688,90527000.0,231304500.4208466,120216000.0,196472990.31003267,210268000.0,259421529.17733693,61012000.0,47369211.46398288,29515000.0,217642075.35122105,61012000.0,63298804.57535074
1825,1105,3,20027115000.0,10376338467.627602,12952737000.0,6198001495.168272,5611108000.0,3501231127.90089,32786000.0,402934694.2879326,283742000.0,453271367.23034143,316528000.0,947504460.5346935,-1347477000.0,66046318.85103408,1910658000.0,398703468.37607086,-1877872000.0,78359460.98023346
1507,930,3,124094000.0,674361697.7717385,18130000.0,548726921.74263,105964000.0,154780317.63605595,830000.0,125681956.82874393,0.0,-5441735.148673892,830000.0,16789426.423354864,-5787000.0,11448413.276164249,6617000.0,146756333.46471596,-5787000.0,77516935.18709604
321,688,0,68675000.0,1719369947.748331,40331082.646745786,1083467674.6814208,53645000.0,1794695226.251447,10938000.0,52296208.09187746,6604000.0,89156665.36997008,17542000.0,88551433.56690788,880000.0,4627551.755011141,10058000.0,71799037.27636826,880000.0,-37472051.09516074
1482,964,4,1833700000.0,2571472277.288493,811331929.4597701,1577093882.6111624,482900000.0,1101889597.1172085,110200000.0,205379265.54332295,356000000.0,292643402.0689825,466200000.0,363959518.37632465,45700000.0,57776912.98372127,55600000.0,184989137.03522533,54600000.0,65936174.583986215
508,608,0,62515472.0,1498168530.2710576,29595817.732691668,951240579.5365491,21861273.0,1794695226.251447,7032458.0,44400088.88009614,11256239.0,55318751.81966996,18288697.0,71166689.76740503,-1564350.0,-32252.521009027958,8596808.0,57582719.2065289,-1564350.0,-426075.65962040424
1411,715,3,33859785.0,571457729.0870576,6178818.0,309272740.96567535,27680967.0,73850022.85032105,-63384.0,90512099.53853899,87873.0,-9968839.331457496,24489.0,-2258180.448815465,-2675666.0,3408687.0067389905,2612282.0,136590440.02512974,-2675666.0,72428325.71749836
718,899,4,770792000.0,2089680414.7950501,581187000.0,1436892698.5020847,188503000.0,882080691.8570819,456709000.0,219981166.30933133,0.0,128183059.89582586,456709000.0,419272638.5854256,-29756000.0,24947860.87549907,486465000.0,198577681.19141975,-29756000.0,65936174.583986215
1865,42,1,4753100000.0,2714617638.303071,2691038000.0,1937782007.1841037,2062062000.0,1324305954.031904,383135000.0,305318365.3831208,0.0,294620046.50257236,383135000.0,661750761.651943,126771000.0,53440570.40969533,256364000.0,224807048.7004195,126771000.0,54080334.15366701
710,971,2,9330700000.0,6525935212.331839,4987700000.0,3245309151.8959117,4343000000.0,2747488160.273131,590200000.0,426737339.96989363,367100000.0,573563406.3072206,444000000.0,1039673802.5161498,121300000.0,99342360.93806094,468900000.0,286883416.0575061,121300000.0,64444796.2784881
285,867,1,1797231000.0,2637894256.92395,1568932000.0,1595563979.3122993,228299000.0,1000399588.2696112,143030000.0,231079511.8149768,0.0,241517133.46997416,143030000.0,412233025.25368226,-113543000.0,15946517.08997412,256573000.0,190792465.59909773,-113543000.0,30577111.069039706
1609,632,1,90048000.0,1234488062.6129136,45436321.63528667,816309784.889184,37547000.0,141564211.19924903,2482000.0,83117243.85223442,9262000.0,52968739.23289859,11744000.0,39906011.32929528,1360000.0,9585058.01756166,2815000.0,123991052.15918326,-333000.0,-494782.95251864195
1814,1285,3,190817000.0,873934804.1352677,91955000.0,779645508.2815909,118567925.39840196,396518762.0333755,16838000.0,130021947.82615519,21962000.0,31769151.981135607,38800000.0,22515694.818276763,3292000.0,20780369.73470834,13546000.0,160882684.30591378,3292000.0,77516935.18709604
720,1550,3,24930824.0,604462466.1884084,6278564.0,346572652.5678358,18652260.0,158268749.89500403,7866761.0,74678162.92480803,20382092.0,-3308004.9967257977,28248853.0,-3629397.538729906,1448213.0,6726756.629000723,6418548.0,135018856.8913896,1448213.0,73726280.98959973
1707,403,0,6071000000.0,8612949110.44749,14261000000.0,7198291757.974432,-8190000000.0,1865075673.032018,1287000000.0,1222333043.9432402,421000000.0,718189207.0938505,1708000000.0,1542356654.9581814,613000000.0,389368013.8941937,1095000000.0,940764079.9735954,192000000.0,61758170.48708147
485,1126,2,5768300000.0,5572235911.074459,3017800000.0,2649903865.9595947,2739100000.0,1951395571.8329177,487400000.0,406896332.1075007,888400000.0,683857245.244805,1375800000.0,1134611324.141652,276300000.0,102770050.56970416,211100000.0,272454707.3710817,276300000.0,63298804.57535074
1364,820,3,3486179000.0,3761656482.7011113,1927467000.0,1957552851.0814757,1501742000.0,1468649018.0888,315111000.0,293454159.26590925,669472000.0,608996113.2717152,949217000.0,914248626.8930249,-24190000.0,54172235.00483489,194277000.0,203120347.9680743,120834000.0,76865611.84351188
1943,1443,0,496042000.0,2226887231.973458,349488000.0,1301484016.1122549,146554000.0,1794695226.251447,33924000.0,116366653.72967678,212763000.0,187340722.8148142,246687000.0,208828777.07158017,12448000.0,27795178.737668052,21476000.0,92929643.48362315,12448000.0,16113190.98066976
708,1395,3,1713800000.0,2323137490.4386926,864747334.9608463,1669520288.216149,585500000.0,1178204587.5423,141400000.0,229820892.2432635,205900000.0,202162908.8807096,347300000.0,386336587.82392037,100200000.0,55172337.30561013,64600000.0,214772748.6113615,76800000.0,78359460.98023346
1795,402,1,5817000.0,903171032.2149329,1413000.0,539515414.8881989,5436000.0,-9601175.915793896,5000.0,37817125.72919977,0.0,-17411949.39306426,5000.0,5919327.562799692,-3525000.0,3218927.2579199523,3530000.0,78885890.23358971,-3525000.0,-11575872.114153937
1196,399,4,4180537.0,767598595.8218455,13379601.0,381113816.4219451,-9199064.0,450627967.3485987,1107842.0,67854448.08951998,974711.0,27394410.473825574,2069845.0,22538454.47008872,-2577294.0,18045479.726724103,3685136.0,112071877.80317989,-2577294.0,58451153.874268115
1785,1101,2,6656000000.0,6553369481.472176,2127000000.0,3044322776.527753,4529000000.0,2715973264.7646646,386000000.0,383092344.9726848,110000000.0,850843130.7090625,496000000.0,1476632220.8745656,-53000000.0,48905522.02412317,439000000.0,296570084.3028054,-53000000.0,54335600.24190469
1117,258,0,191593000.0,1592828864.1853452,250675000.0,1010768551.5428252,89973054.63642293,1794695226.251447,28173000.0,53999848.6569196,35245000.0,46892677.51400554,63418000.0,95676445.56676328,-6852000.0,-4297621.276140735,35025000.0,69217552.79671156,-6852000.0,7865881.3017822355
611,576,2,69753000.0,690663400.6468577,24624000.0,877037809.4625154,45129000.0,57764114.45982146,4333000.0,119012336.21518785,3937000.0,49339416.693553686,8270000.0,56968112.73497677,-17948000.0,17736674.324109092,22281000.0,156533551.83641583,-17948000.0,55773195.04568729
1037,1217,1,12798100000.0,7505450971.27143,7698700000.0,5204104176.29335,5099400000.0,3206049392.3517303,578600000.0,550101128.8195093,1141600000.0,945366268.7918688,1720200000.0,1820432191.3528552,210200000.0,150500482.96399373,368400000.0,312348847.57297075,210200000.0,68710716.28328116
1049,72,1,41718000.0,1097964829.8132882,16883000.0,803176064.3069372,24835000.0,136027003.24279916,4472000.0,63134646.82166672,-7000.0,7376545.0338670015,4465000.0,28133804.69880569,467000.0,11303905.546814024,4005000.0,111402175.1839732,467000.0,10797826.359121233
181,703,0,2175066000.0,1899184291.1769862,720018000.0,1024859229.1232615,1455048000.0,1782470577.4992363,262895000.0,149529180.7417856,0.0,182404630.21932936,262895000.0,294420197.013211,-74357000.0,-7749916.708187357,337252000.0,180753948.10209808,-74357000.0,22799397.22064469
1530,350,3,432444000.0,1165590756.4115477,58115000.0,919777761.2113056,374329000.0,494901538.29679585,30953000.0,155915677.15040743,9019000.0,29551079.668598533,39972000.0,80413396.6236422,-4508000.0,27614499.14824429,35461000.0,173866142.4717357,-4508000.0,78359460.98023346
1172,1288,0,1951144000.0,3112128102.5395913,976648000.0,1755636045.732965,828149000.0,1794695226.251447,81471000.0,181237884.27804667,811299000.0,417226553.1775956,892770000.0,587486117.5109369,21174000.0,19071269.77566968,35340000.0,146224635.62884897,46131000.0,50013647.675628655
1844,591,2,5184000.0,99736498.93700981,33317000.0,94250696.88406515,2568262.933576247,43072581.51022744,28000.0,8649010.157284021,1138000.0,-30649377.59428823,1166000.0,6992263.380710244,-1174000.0,-6376213.52749604,1202000.0,72500542.50029206,-1174000.0,-25783598.60517718
937,1025,3,30042800000.0,20098668712.131683,15158963259.867964,10877345017.026642,10331300000.0,5966725772.996837,1541600000.0,830424862.3830435,2284300000.0,1886901129.8473969,3825900000.0,3019076088.027164,727800000.0,443455821.6872489,402100000.0,270327703.4270124,1139500000.0,78359460.98023346
1319,64,4,3143366000.0,2788572531.2141685,724791000.0,1668420644.9697487,1686216654.8151803,1213679342.9985747,293240000.0,239397559.9003673,0.0,192271056.75211847,293240000.0,321524901.05743027,242794000.0,58930491.54875985,50446000.0,194060852.73222846,242794000.0,64806924.77120788
785,477,1,2558318838.0,2393476908.0983424,289865031.0,1474592541.1539855,2268453807.0,1207759493.2902331,191440633.0,238073154.16753027,384407857.0,325017241.9190909,575848490.0,406545453.5636463,122416529.0,49114927.13778876,69024104.0,189566346.93326154,122416529.0,52142166.66735461
534,1553,0,355784000.0,1905009374.141244,359982000.0,1145963707.9648724,21035000.0,1794695226.251447,21274000.0,90624202.27194804,23247000.0,77593723.64401984,43857000.0,123459950.91621006,-2501000.0,1152936.7803823948,23775000.0,84036298.9979288,-2501000.0,6648442.7120124325
1073,476,2,107571000000.0,115581306731.74983,49865975585.04998,50863400833.467735,57705024414.95002,52177744380.99969,4680000000.0,3516637335.4877167,16059000000.0,19335877407.08962,20739000000.0,23267821439.36499,2233000000.0,1321025576.2164407,234000000.0,1283656842.4283004,4446000000.0,247982811.30016303
871,1269,4,357016000.0,1277177043.2198567,134021000.0,1118726340.7656152,222995000.0,619339794.5494447,10859000.0,151751724.68688273,60424000.0,79096567.96972787,71283000.0,76768797.25844872,4410000.0,30950905.673495933,6449000.0,153278006.00314218,4410000.0,65936174.583986215
145,789,4,10492900000.0,8713164813.527697,4642648635.342979,4486589810.587952,7724300000.0,4199227551.5870132,1077000000.0,851079727.667031,2546000000.0,2154026889.6525874,3623000000.0,3398690484.1566873,389500000.0,211749434.41753608,626900000.0,363172903.9581922,450100000.0,62656315.2530463
1137,1457,1,221167000.0,1917778218.858233,272405000.0,1064445694.4460859,-51238000.0,400475805.44946444,26384000.0,135638980.4946524,0.0,62318197.054478526,26384000.0,79493110.86996889,3123000.0,7605578.911925301,23261000.0,165686052.93064117,3123000.0,34597438.81083671
1853,892,1,644700000.0,2146558073.705049,668700000.0,1201317842.109016,-24000000.0,615689325.6671886,11300000.0,189791608.58837327,30400000.0,119789961.51237524,40500000.0,161469190.3593923,-2900000.0,27795345.496040314,9300000.0,158603122.77336666,2000000.0,43056226.275459945
1607,1187,1,5733000000.0,4898121885.605914,4386600000.0,2715847209.8554034,1332700000.0,2268668857.297208,508800000.0,426648924.4164085,1740100000.0,1015064733.8192463,2248900000.0,1791382774.971201,201100000.0,119340320.90968466,328200000.0,268912179.0260752,180600000.0,64053495.32529777
497,794,4,3187469000.0,2594370597.507469,1581882073.387936,2190568441.5811796,1402929000.0,1227334996.0138116,12023000.0,242219048.05054066,118303000.0,249238450.17432225,130326000.0,425618224.4808538,121116000.0,63409573.89226358,236940000.0,274009585.6798712,-224917000.0,65936174.583986215
1789,378,0,160962000.0,1512763751.744905,136871000.0,902291795.4388995,14091000.0,1782470577.4992363,33234000.0,56568046.43980354,28516000.0,51532768.73564005,61750000.0,119622405.39987433,-4105000.0,-11233128.899336576,29699000.0,69534744.07688016,3535000.0,-42436241.778009
1733,1536,2,1070082000.0,1528324667.3675432,790095000.0,1123335675.5971336,279987000.0,633832411.5630262,59499000.0,176647333.92280623,92514000.0,135846936.40979695,152013000.0,254453338.88996172,-6147000.0,23439301.893997982,65646000.0,182883878.29239932,-6147000.0,60133093.44657927
1735,1438,0,55335000.0,1443764702.4037194,11648000.0,901074623.8928227,43687000.0,1794695226.251447,13874000.0,42491785.89498919,0.0,43901683.68586016,13874000.0,65615657.48904431,364000.0,1460005.1132422537,13510000.0,56627004.00066954,364000.0,-5633365.356365547
1273,234,4,8855100000.0,7054763793.522502,4468096700.788768,3337479943.9785595,3543300000.0,3186856541.7613277,468100000.0,377853731.2739172,2041800000.0,1044396168.6685189,2509900000.0,1835991181.826213,256500000.0,92370366.31841466,211600000.0,244361147.9352644,256500000.0,62656315.2530463
226,900,3,1045317000.0,1462969183.832121,491551000.0,1026491196.4168901,553766000.0,674480510.6792876,49476000.0,128761343.40058392,27012000.0,27165725.961867213,76488000.0,110698319.45001936,5569000.0,10750683.621397525,43907000.0,173427075.74524152,5569000.0,73066033.32880585
856,950,3,3335011000.0,2789983418.6642084,1532336000.0,1870667945.9298882,1376443773.6613572,1232409835.1378007,158805000.0,229090518.35689974,458734000.0,274968554.53158015,617539000.0,490226118.46025467,82276000.0,61279833.78122075,26748000.0,228823621.4506454,132057000.0,74721386.40756553
610,1027,1,50788000000.0,40692775522.89518,23543456582.29001,19180849052.877117,11845000000.0,8617448224.547642,1286000000.0,1025046265.3427914,484000000.0,816809131.8342923,1770000000.0,2493334660.549365,994000000.0,412803276.6638457,146000000.0,567282044.7172945,1140000000.0,115832276.7029773
434,784,4,9209798000.0,3966458149.51413,3242862000.0,2842929722.577273,3654836000.0,2346401721.808056,758604000.0,377368746.6245061,-63000.0,234903017.9122972,758541000.0,648224202.7556872,306700000.0,67239973.06142086,451904000.0,239010980.28904086,306700000.0,62656315.2530463
1765,676,2,3861516000.0,4586105593.380504,3060094000.0,2146755593.7687747,801422000.0,1604540210.3720694,246503000.0,314873934.0341079,543454000.0,456184286.45457584,789957000.0,785593441.0655342,-286586000.0,54631942.316822164,130761000.0,233168419.57241568,115742000.0,51449615.4693982
667,1311,2,3117800000.0,3466006793.361625,2444800000.0,1972380231.567935,673000000.0,1177103358.4108512,86700000.0,274915084.55442786,411500000.0,429151538.4798928,498200000.0,596545153.3548795,-419900000.0,46117717.39799624,63400000.0,236347082.9600529,23300000.0,63298804.57535074
1194,1323,0,84073.0,878136642.9174252,2814055.0,310690496.5279989,-2729982.0,1782470577.4992363,0.0,2800858.872435987,0.0,-19117113.10831654,0.0,-6112798.132209301,-647078.0,-5490374.018699527,647078.0,38831866.321190834,-647078.0,-22891784.403194815
626,969,4,250689000.0,965765897.7047701,83024000.0,867476338.2692819,167665000.0,525897758.53867984,0.0,130386167.72433561,33193000.0,55116897.66286075,33193000.0,78460642.41828656,-43672000.0,17073570.129929215,43672000.0,150715518.1090004,-43672000.0,65936174.583986215
1654,675,3,2267553000.0,2449630658.9399285,1375272000.0,1646472191.8472054,519294000.0,1291450556.5140905,30179000.0,278697248.41925764,36686000.0,183089741.33903044,66865000.0,340143885.46686566,-15417000.0,59404451.16533772,38864000.0,200760058.83296177,-8685000.0,78359460.98023346
288,444,4,2221575000.0,3055501312.6260033,1034139000.0,1670410957.0911245,1187436000.0,1203606526.8832262,131964000.0,245571194.77947187,106311000.0,306953295.2583855,188755000.0,443323907.7073966,3712000.0,43665307.43883149,128252000.0,204918161.96287987,3712000.0,65936174.583986215
1665,633,0,555271000.0,2080875270.493668,273881000.0,1210272952.9209957,281390000.0,1794695226.251447,77610000.0,122014311.66469061,73228000.0,179641527.1687234,150838000.0,266782018.1571051,6400000.0,20989405.105882064,144438000.0,124704474.3560755,-66828000.0,6664287.02853284
652,1061,2,1810200000.0,2341678778.3182125,1334200000.0,1574053080.4752066,472000000.0,1107718491.2317035,111400000.0,209123896.14376095,439000000.0,262530586.29595834,550400000.0,380446506.8937559,53300000.0,29259767.569463134,43800000.0,230164079.70374712,67600000.0,31182954.981585912
1078,508,0,339972000.0,1559273336.6128716,145992000.0,927803356.9179206,193980000.0,1794695226.251447,800000.0,73200250.11231166,85000.0,71661565.79322314,885000.0,127391153.29957461,-35502000.0,-5483870.548788726,45899000.0,73184513.10179877,-45099000.0,-9660938.125896946
778,4,2,992330000.0,1931872101.6482496,401273000.0,1073795494.4727917,544681000.0,584007833.9182129,417282000.0,254011730.289581,0.0,129121439.18515867,417282000.0,307441803.3332014,5536000.0,23841692.560695767,411746000.0,194469866.2728193,5536000.0,51989456.18932305
29,1129,4,600271000.0,1663090001.9774122,137438000.0,1193572040.3671937,462833000.0,706778707.775126,73869000.0,181603789.08180717,24421000.0,139555809.76571465,98290000.0,155028168.33470082,-8089000.0,27634101.221981123,81958000.0,169679687.61009708,-8089000.0,65936174.583986215
854,1361,2,47193000.0,214774704.0010352,31000000.0,591133630.3397717,16193000.0,56663483.29553044,4954000.0,86588683.05156636,3898000.0,17791503.034564853,8852000.0,24345636.1057415,-615000.0,9837090.45924437,5569000.0,139205816.10207585,-615000.0,43558865.20157215
1423,1432,1,150549000.0,1270757652.9836903,163792000.0,907931255.2443042,16674000.0,359627717.5715624,28323000.0,124243992.04382473,6429000.0,64635265.53943908,34752000.0,95376630.38243818,-13758000.0,11616797.842630789,21733000.0,145903962.18621305,6590000.0,37908973.33583118
1406,626,2,62996000.0,244758739.05895138,12638000.0,531414955.1648145,50358000.0,68860391.08737433,9919000.0,82614860.31848723,5920000.0,25017591.393067718,13543000.0,31387692.853740573,1979000.0,12449819.787646696,7940000.0,132886156.40574738,1979000.0,38755764.67293997
1624,39,4,56415000000.0,40695792914.02486,26707757359.48695,20244640214.210815,20622000000.0,10873846915.355276,4258000000.0,2891627030.3183155,2744000000.0,2949598990.0482903,7002000000.0,6381905403.786164,471000000.0,534477717.72634226,1302000000.0,967723903.1806638,2956000000.0,64058205.453013025
926,747,1,572995000.0,1687762894.055293,271264937.13018215,1204244194.156522,210105000.0,544154380.0289643,-46109000.0,144399460.95854425,111142000.0,113127743.27551854,65033000.0,160803923.51689637,53448000.0,27406036.45904343,184993000.0,189727538.91803688,-231102000.0,36287831.76343416
1324,523,0,11156646.0,1108062538.0038013,14063458.0,448920055.4952345,-2906812.0,1782470577.4992363,-483256.0,15541614.344844818,692752.0,-5601049.318128347,209496.0,17049051.326608896,-2378023.0,-6516254.001843914,1407493.0,33064644.427807808,-1890749.0,-10698548.441977873
809,1220,3,746651000.0,2279398695.013748,563281000.0,1190126814.6289592,350347808.70326334,820077761.7587926,20268000.0,165723676.06297967,132273000.0,176691285.15423018,152541000.0,299664614.2736331,1482000.0,27229672.6690076,18377000.0,168130704.21374893,1891000.0,76865611.84351188
492,1190,3,203605000.0,1144477667.347157,164863000.0,1215661354.1340356,38742000.0,670572470.2162123,38308000.0,135289599.17468768,13284000.0,48516703.93451345,51592000.0,115904442.7391684,8585000.0,32720704.69988148,22801000.0,175050840.05133605,15507000.0,77516935.18709604
383,92,1,35610551.0,1084233141.4255385,44852933.0,610812033.9263043,-9242382.0,145480954.26557088,3037874.0,50547801.92418796,5691278.0,21055760.32807064,8729152.0,30317161.636377573,-7028283.0,1290994.4376250654,15757435.0,117964294.40319926,-12719561.0,-16455177.360118225
1250,1564,4,4596600000.0,7077560941.985535,2319347415.031524,3174605135.582743,3466600000.0,3017444485.159236,2555100000.0,770140952.6001444,3033000000.0,1428745923.6675775,5588100000.0,2960262680.008068,1174900000.0,401952926.81949455,1380200000.0,364630898.2578628,1174900000.0,61893910.45769843
229,23,1,3802385000.0,3663187555.0981636,2636965000.0,2031878496.011066,1165420000.0,1480916856.6861448,157645000.0,308820428.05372554,488142000.0,402371000.1015252,645787000.0,572429062.7431915,66824000.0,59098719.236610584,83253000.0,222858558.34476823,74392000.0,52953823.689002834
1531,1500,3,12852000.0,629577373.9412313,5815000.0,272236874.6626539,7037000.0,76115303.62532568,1838000.0,87242016.70883816,1427000.0,-12349393.18896842,400000.0,-8374621.483302474,-1116000.0,5060310.861703232,2954000.0,134056637.47542578,-1116000.0,71693895.65477653
1035,1501,2,11747000000.0,12703530993.348267,7158000000.0,5552846699.993913,4503000000.0,4521080833.92207,770000000.0,712382966.359116,1424000000.0,1244667204.4952805,2194000000.0,2622795386.902183,154000000.0,131534458.98140582,2040000000.0,792904464.8767527,-1270000000.0,36185124.24872931
1774,999,4,7236206.0,506956882.430243,4913744.0,151458492.07057333,2190428.0,361672534.69005597,634746.0,53716700.447110474,2326079.0,11339496.878846407,2960825.0,11141582.420895815,-234151.0,7158977.150368944,886442.0,85421081.6230669,-251696.0,56175948.900150165
868,173,0,6411000000.0,5789786051.336423,3370100000.0,2920248067.973459,3176144611.7201624,1865075673.032018,371800000.0,398683367.4191096,637000000.0,578841682.6192337,1008800000.0,1050764283.5252627,180100000.0,111860313.20861089,166200000.0,246664426.93041837,205600000.0,73821847.14102206
1391,87,1,345836000.0,1267186226.0895247,48837000.0,868732167.4108562,296999000.0,312706533.87172735,3870000.0,136456669.69458103,113328000.0,74905202.84550595,116752000.0,73390577.25149345,297000.0,18727474.980261654,3573000.0,149081407.7384052,297000.0,26701074.325569533
1734,908,0,20108000.0,1288662828.0875978,9068000.0,811833504.2848935,11040000.0,1794695226.251447,3847000.0,23190473.04514122,661000.0,-1454873.6188077927,4508000.0,34298324.786287546,-4126000.0,-5558859.192081124,7973000.0,38473826.19224435,-4126000.0,-6255097.481995329
1416,557,1,1564856000.0,2061475413.3402648,1122858000.0,1368937342.5730212,416354000.0,834875477.8060851,276207000.0,217166165.1889805,-11227000.0,230048012.3068624,264980000.0,330250180.5825702,5657000.0,34104003.55847476,270550000.0,182617438.90585655,5657000.0,44111527.52229141
352,965,3,1125373000.0,1852321582.701692,521681703.6382896,978151314.9902778,29987000.0,855414819.234802,142411000.0,175673607.2568884,-42080000.0,80713667.18841767,100331000.0,246309754.60503078,17283000.0,22607366.362142786,125128000.0,149003321.7224966,17283000.0,76381561.4314727
135,107,1,630871000.0,1778130945.2619195,398464000.0,987757455.2161646,232407000.0,553818160.3991255,80823000.0,148826822.7365334,413091000.0,156412076.91884327,493914000.0,160803080.30786133,-14453000.0,19600753.889826253,95276000.0,168573441.3964988,-14453000.0,36957325.32951573
1338,943,0,123668000.0,1692976244.2922359,40963000.0,1049998811.0076156,50285000.0,1782470577.4992363,29188000.0,63637111.28987163,11108000.0,72645946.99724936,40296000.0,121561558.24954891,-25553000.0,-3564161.0506617427,35508000.0,62601004.40923649,-6320000.0,-4809843.644564509
1076,247,1,34865437.0,926992787.6886234,19085704.0,546581816.3836002,15779733.0,10966209.855602264,0.0,59680009.92864978,1198.0,-7882042.383312821,1198.0,21933530.974382877,-6520186.0,-1323714.514055252,6520186.0,85666990.49154806,-6520186.0,-5593101.420218289
1426,223,0,1275550000.0,1817175977.4562354,1504271000.0,1120671803.084865,-228721000.0,1794695226.251447,-35238000.0,101396579.18618137,59168000.0,139744898.1923486,23930000.0,189858906.76031542,6621000.0,3994197.474066943,102745000.0,116677866.5899308,-137983000.0,25926653.525407784
2023,1260,3,151712000.0,839665087.1705499,195428000.0,668175736.0942898,28605000.0,267081043.25191712,11588000.0,110081706.30816329,43977000.0,6799743.735727191,55565000.0,30420571.34392476,-8864000.0,6769235.529197231,20452000.0,161785585.91892713,-8864000.0,72223507.53566845
1219,351,2,1812825000.0,2625977090.1131163,1134969000.0,1708781190.9343858,677856000.0,1176244699.590608,53184000.0,269720949.25602484,120142000.0,317537413.18354017,173326000.0,469864367.5194268,31929000.0,43109095.52247994,16945000.0,216910383.10450852,36239000.0,61114399.04363511
201,868,0,-1450776000.0,-2845740986.460141,-894261000.0,-2066823473.060009,-556515000.0,1794695226.251447,162740000.0,201918994.6516384,213058000.0,294899451.9664654,375798000.0,448132444.93346715,-31210000.0,3894894.079957664,193950000.0,222055893.97089213,-31210000.0,15327939.664888911
580,455,3,526507000.0,1217989050.7298217,370554000.0,896668470.4347034,155953000.0,699735838.0770115,66328000.0,167391919.43976507,107226000.0,191671405.82287288,173554000.0,339216308.92341924,-7923000.0,30779053.106575385,69543000.0,150675260.78098246,-3215000.0,74725130.77827309
268,550,3,3089123000.0,3903590798.409073,1300561000.0,2016457335.2148633,1788562000.0,1222296458.98184,286131000.0,249846169.667273,850247000.0,520541486.85112154,1136378000.0,858842842.4851195,205227000.0,70596485.95157945,1010678000.0,468156987.5128591,-724547000.0,78359460.98023346
484,1474,4,2026392000.0,2059795056.5236998,773709000.0,1418246340.7277389,1259138837.126244,743810223.9541562,36270000.0,170979263.62069428,906000.0,154678715.7307312,37176000.0,241178757.8387823,-286393000.0,21049853.40076098,341823000.0,257560061.10842037,-305553000.0,55949746.07535859
1169,319,4,59798486.0,642538299.3070178,24561228.0,350343728.461483,24680354.49630476,390247469.8005259,-143441.0,53771223.91427761,231837.0,336364.58799135685,88396.0,1907184.3007330894,-6239976.0,9265610.2453136,6096535.0,72328679.2062071,-6239976.0,58420974.22655969
595,1472,1,269960000.0,1514279806.181131,370356000.0,1026210483.9649386,-100396000.0,345924264.76049876,29296000.0,131509773.22534162,911000.0,70448030.29619002,30207000.0,73255962.93497944,-31260000.0,5018571.238702476,67269000.0,138576152.9848493,-37973000.0,43690570.531503506
1664,644,4,1411497000.0,2522223561.4444737,713457000.0,1705619247.2012448,667698000.0,958415559.7777369,123110000.0,214578065.41785455,21917000.0,202057219.5019679,145027000.0,315974795.86502516,16171000.0,37727095.63070293,124278000.0,202562382.04260042,-1168000.0,62656315.2530463
1737,775,3,1068388000.0,980289151.4670916,793168000.0,917439085.6147647,275220000.0,593532068.1238985,1125000.0,132184228.01156533,126961000.0,95863941.83719552,114574000.0,142739312.66403377,-123332000.0,8391597.910195246,124457000.0,155527207.6403758,-123332000.0,76375507.06361754
1105,1008,0,736494000.0,1700461584.1060567,390655000.0,920199902.038837,345839000.0,1782470577.4992363,107458000.0,84877623.34307528,77264000.0,130144778.49329007,184722000.0,169341043.95433462,-21496000.0,-14913294.078055099,128954000.0,106045971.55457231,-21496000.0,4284400.3541801125
366,1418,0,1026034000.0,2598900787.703053,544592518.5648394,1365351379.0473278,829659000.0,1794695226.251447,179923000.0,168900147.08202234,-1664000.0,199785756.0585367,178259000.0,313921497.65788364,43073000.0,24731815.01851861,136850000.0,135793766.2097883,43073000.0,21122499.073962875
847,803,0,2995900000.0,2817344209.1263824,1720300000.0,1497945537.946867,1275600000.0,1794695226.251447,234800000.0,190459250.15518478,244100000.0,299441889.18074197,478900000.0,426988351.8144505,25200000.0,17807221.69241616,209600000.0,170144453.09932733,25200000.0,33859515.32572933
1604,1535,3,700529000.0,1542543500.5324922,363632000.0,1083837434.7551503,335762000.0,614352024.4115098,46249000.0,161237863.2977329,72678000.0,24094988.087673426,118927000.0,125476718.92132676,-13197000.0,23523619.29885143,59446000.0,168356714.03200153,-13197000.0,76709084.694889
579,1274,4,5913288000.0,6928118089.237005,5639252000.0,3699364170.624411,274036000.0,2683850032.460632,470311000.0,425494637.8622538,1040995000.0,848096879.7322435,1511306000.0,1541600896.7462058,65962000.0,71676169.98009542,404349000.0,278464709.82332814,65962000.0,64058205.453013025
874,1085,3,232365000.0,1172512716.3010821,164743000.0,954240628.0503831,67622000.0,576127095.2137606,43176000.0,130127686.71063012,202053000.0,83707986.60765576,245229000.0,182312156.31729853,9035000.0,36085856.561312236,31930000.0,180270140.34329048,11246000.0,77673462.33571891
193,58,0,24556000.0,1115729419.9487104,5997000.0,521826383.1599293,18559000.0,1782470577.4992363,-561000.0,14306761.17303431,1648000.0,-20312879.330998898,1087000.0,8958436.46116805,-8770000.0,-11285470.172065556,3225000.0,32453039.006794572,-3786000.0,-14274730.428195685
680,575,3,7852974.0,609917151.9860063,8726749.0,270682310.38092136,-873775.0,83084108.94438434,1562860.0,77257026.61388928,0.0,-13717383.912545562,1562860.0,-8458136.527932167,-1603437.0,3025844.237620339,3166297.0,120850351.94372436,-1603437.0,72428325.71749836
702,290,3,52606000.0,856779850.129416,31088000.0,636196757.0176158,21518000.0,227180956.46680117,2202000.0,105163130.97289008,21569000.0,9990326.23094678,23771000.0,16410541.568343878,-1737000.0,19599704.443972394,2889000.0,147517953.18557754,-687000.0,76066400.29016629
499,1102,1,641605000.0,1662050545.9819365,98505000.0,989365022.5706673,543100000.0,390275487.2063422,35752000.0,150223081.95133758,3063000.0,90803969.66413534,38815000.0,149448224.54540837,-5995000.0,27730085.453805596,24767000.0,143701669.4946516,10985000.0,47686676.43881565
277,132,1,428119000.0,1738548209.2413435,200385000.0,1134525484.2143142,227734000.0,513342356.4108374,32734000.0,133198637.20761979,3693000.0,111011757.11433983,36427000.0,143298036.88211596,-31432000.0,4015099.3361825645,67859000.0,167543832.0770722,-35125000.0,39075064.23875136
1540,286,2,1748597000.0,2440239928.614971,773677579.6790999,1640413712.7765205,871968000.0,1146832621.7466855,88936000.0,278227409.26824343,314131000.0,382347473.27000564,403067000.0,439370982.0176189,36520000.0,48241888.5808117,38806000.0,225329689.7259907,50130000.0,63298804.57535074
40,143,0,-12646800000.0,-5132036662.352684,-10176700000.0,-3400573617.1028404,-2456100000.0,1865075673.032018,244400000.0,319393791.73335314,496400000.0,555132760.4245002,740800000.0,950231178.2611601,16300000.0,269640688.84505475,228100000.0,276508006.86467445,16300000.0,49286740.044436336
109,1566,2,1646711000.0,2426929753.95289,1388441000.0,1873316638.879023,258270000.0,1258838116.1015816,48094000.0,235690084.32746136,144654000.0,391966714.4476675,147710000.0,611814300.8660784,-42502000.0,39168305.323084235,79586000.0,205333091.32956806,-31492000.0,62073122.17963788
111,128,0,632540000.0,2260218776.0668473,270366000.0,1316303038.4356413,362174000.0,1794695226.251447,197077000.0,121621328.12626344,14622000.0,170565320.78803653,211699000.0,285447435.8168684,-57776000.0,6689397.2691182345,97890000.0,96145086.62301382,99187000.0,19155731.02760475
662,375,3,156269000.0,873934804.1352677,70363000.0,819556501.662024,85906000.0,417929517.2414074,19503000.0,137613893.50976676,30881000.0,24854867.302369356,50384000.0,35318866.01036179,3657000.0,20208199.5581,15846000.0,175988190.55389634,3657000.0,77516935.18709604
1749,621,2,12875300000.0,11130689475.03854,6095371591.431398,4552009491.817724,1810000000.0,3138642374.6823435,1227700000.0,615567458.9069333,4400600000.0,3203271993.455557,5628300000.0,4508487769.360133,478400000.0,179299375.16330746,749300000.0,361648418.12990016,478400000.0,70071757.3639737
340,1018,0,441781000.0,1537436437.7314868,86587000.0,832151849.6621428,355194000.0,1782470577.4992363,97393000.0,92480891.83351529,44971000.0,95844659.50098825,142364000.0,146614959.20018733,9954000.0,7821880.004377663,87439000.0,83384021.08066306,9954000.0,9776730.919521637
811,86,2,1903960000.0,2706497324.7981753,1118147333.3250542,1593200386.106654,464992000.0,919244731.1897843,314173000.0,271637467.0392436,381360000.0,533334924.6737084,695533000.0,714172441.2242656,49703000.0,59581202.84425621,262823000.0,227329263.78731394,51350000.0,65905660.221162334
1016,70,3,413017000.0,757431845.8378329,156380700.0672279,630651625.4812016,290614000.0,324063328.8371875,164000.0,136931976.65091866,0.0,3803683.8387898207,164000.0,57015496.805371165,-47612000.0,16796293.144841105,47776000.0,164782442.33211607,-47612000.0,78359460.98023346
1696,1024,4,6459000000.0,6348778863.986689,3814000000.0,3502539903.7718434,2645000000.0,2538194459.414113,417000000.0,426969269.7283722,1137000000.0,781093565.4037323,1554000000.0,1523871010.4349303,109000000.0,87576428.11644837,308000000.0,257527326.65945712,109000000.0,65936174.583986215
200,118,0,6683800000.0,4573882432.595358,2530688381.1304083,2727190271.861413,4153111618.869592,1794695226.251447,363300000.0,344672021.51530904,268000000.0,494743933.04325444,631300000.0,819169024.7826221,83300000.0,79783796.19470291,257700000.0,260259350.1498642,105600000.0,77098294.54620749
1994,627,1,165094000.0,1342320183.5524216,70482000.0,967129323.7156615,94612000.0,223847845.59601748,17629000.0,125220905.74236149,13074000.0,59575814.968819976,30703000.0,55286158.83993566,1152000.0,17317962.639473706,16477000.0,141999540.85313374,1152000.0,40660855.24120214
735,207,1,8604673.0,771299155.9815135,2338502.0,518536503.96641207,6266171.0,-34507454.26148081,1119391.0,32396219.67149782,1576117.0,-5563367.6061115265,2695508.0,20885586.9863261,23726.0,7940406.6194368005,1095665.0,80132533.57845181,23726.0,-3014943.7426211163
1160,1586,0,30395557000.0,18887244511.10403,16133181687.752192,11204839663.809,6297705000.0,1794695226.251447,3044686000.0,3040078177.646687,6751495000.0,5626109367.085382,9796181000.0,7921329390.22784,692314000.0,630422414.4031677,2352372000.0,1962226086.5379865,692314000.0,599977068.8060892
2018,200,3,764077821.0,1643736249.5402803,149164973.0,966065906.5076947,540969385.0,466406378.5637071,20737462.0,160826032.71570525,3810639.0,38138701.40465903,24548101.0,101759975.88032937,-1942729.0,30367573.291626573,26490830.0,184486779.4960384,-5753368.0,78359460.98023346
597,335,3,19932000000.0,16690740776.199087,15924000000.0,10289274773.623234,3938000000.0,4399900980.421662,677000000.0,660366613.5641861,2894000000.0,2677888817.0742145,3571000000.0,3289529840.2564273,325000000.0,245660521.8724093,132000000.0,275437303.94659126,545000000.0,76709084.694889
1089,311,2,114455000.0,220021157.36942673,66800000.0,467269943.96333265,47655000.0,1352222.5975961685,-324000.0,80836479.85301399,692000.0,537405.4371504784,368000.0,49699348.621641755,-4444000.0,6105035.883988917,6127000.0,121559226.15681931,-6451000.0,26533174.75904806
1635,384,4,123009000000.0,53298530998.85497,61047097858.95223,44177698759.455635,24132000000.0,10415412085.49557,3661000000.0,2695809455.508696,846000000.0,1447158560.2746859,4507000000.0,4696245065.2164135,401000000.0,286243387.3524978,5487000000.0,2813408466.569079,-1826000000.0,86808148.39942427
394,1561,2,1472222000.0,2030260916.5589247,444895000.0,1136169140.582085,1027327000.0,709416688.8365741,423804000.0,254351747.8985449,0.0,142419377.02208143,423804000.0,315579320.0197382,44683000.0,33161181.13361738,379121000.0,208978814.11508274,44683000.0,54734583.9652306
176,827,1,1707972000.0,2549458563.3058157,826699000.0,1546350376.191637,881273000.0,1085738717.8629348,161237000.0,222596531.78043225,18721000.0,256597183.63859415,179958000.0,359804646.0716728,-38330000.0,34628729.77861765,218288000.0,194910080.9019139,-57051000.0,40515839.74204839
958,1401,2,140348000.0,915787923.9076405,22627000.0,702015349.4410429,117721000.0,217451813.0868044,18849000.0,98846882.12193298,19797000.0,39820570.673050165,38646000.0,85458531.2714063,5179000.0,10207112.620877802,24028000.0,139362781.59358287,-5179000.0,41224634.67015952
651,759,4,68862000000.0,54731510344.67507,37281000000.0,29283213140.90113,30258000000.0,17202229318.236923,682000000.0,892834222.0740147,1405000000.0,1205414655.2381575,2087000000.0,3139625658.046218,938000000.0,494139458.070906,2969000000.0,1280751425.650022,-2287000000.0,65158741.69725677
648,821,2,484306000.0,1194967087.3689504,160149000.0,965992936.6593304,324110000.0,309876328.974308,35935000.0,176363999.6521868,49919000.0,99776992.08174229,85854000.0,144700470.99215937,8224000.0,28307245.846722633,26558000.0,195233770.82899377,9377000.0,60646766.710831836
1124,1533,0,263629355.0,1642310837.7382803,139827658.8984726,846894854.449698,106790041.0,1794695226.251447,4718481.0,50178025.62207806,-3354938.0,31923261.114055395,1363543.0,68270156.41027355,2345966.0,664529.9649531394,2372515.0,61641681.90815151,2345966.0,1056558.4136404917
1983,1255,3,22654400000.0,15278133950.795256,10023579681.929111,8119238544.132435,12050300000.0,8292004526.188828,409600000.0,710716209.4724836,3138700000.0,2656200716.504285,3548300000.0,3349443761.47427,145800000.0,272337875.2881062,119900000.0,268530668.5714551,289700000.0,78359460.98023346
1330,697,1,55695000.0,1113553879.299255,80300000.0,709929709.3607721,-24605000.0,223050005.97790265,-33328000.0,78443159.99216688,45694000.0,23267138.57070172,12366000.0,41216623.03404379,-48025000.0,1005251.0952355564,14697000.0,126974879.99091324,-48025000.0,19843204.88851822
445,492,1,33248145.0,810464087.8503284,21743057.0,500517343.73490477,11505088.0,89213889.60795748,1461398.0,61945414.48397344,569502.0,2413840.694797039,2030900.0,11591796.624453902,-12979193.0,3644899.6906239986,15010093.0,123976129.838871,-13548695.0,-13574734.23002994
908,1499,4,19900000000.0,10996692875.561134,10348000000.0,5192471844.794609,9552000000.0,4493150994.561858,2649000000.0,1451938994.0622363,0.0,574421191.5729089,2649000000.0,2367435899.4747324,467000000.0,250910173.13083777,2182000000.0,1035232543.676278,467000000.0,65936174.583986215
1585,1050,3,2485319000.0,3424300736.188447,1254039550.5762374,1740453837.9891775,1849463000.0,1219537296.0713537,775144000.0,277944937.7915772,0.0,226754668.69932395,775144000.0,549568230.5340669,128435000.0,62149927.95624896,646709000.0,290391874.0729665,128435000.0,78359460.98023346
643,1128,0,959084000.0,2156585465.0859046,491986000.0,1363208973.0410461,395838334.6316486,1794695226.251447,56609000.0,124483940.02567762,47928000.0,142633747.04018062,104537000.0,272675373.8153521,-22287000.0,-4746986.4846614,141301000.0,134329981.35250932,-84692000.0,3520499.673095159
1240,14,4,1657157000.0,4583945467.6254425,2335507000.0,2626536068.3464875,-678350000.0,1115959510.8633907,-96698000.0,292984274.76463664,98929000.0,270150974.9213284,2231000.0,648739931.8659892,-125632000.0,45629582.924021594,312618000.0,332280788.65024304,-409316000.0,62699214.191748515
64,275,3,1590600000.0,2421967969.6700363,748600000.0,1317192503.8289485,842000000.0,991695741.4814503,59700000.0,207147455.1359344,141700000.0,219356167.4092561,201400000.0,369554498.3528793,13800000.0,43257153.68115536,37700000.0,170834301.67022792,22000000.0,78515988.12885633
1027,1230,3,919607000.0,1893284939.0659418,266509000.0,1062680267.7272325,653098000.0,628880433.1139505,68886000.0,172113897.3937129,19532000.0,85632119.9210372,84131000.0,183089070.13904107,-18050000.0,22755725.64251712,86936000.0,173154246.45476204,-18050000.0,78359460.98023346
1034,198,0,121754701.0,1154080022.6915588,28424394.0,596236976.020719,93330307.0,1782470577.4992363,1406469.0,35684131.87350869,-1378985.0,23491611.24060428,27484.0,48827254.597242236,-14928443.0,-33237956.025841683,16334912.0,57983247.08080047,-14928443.0,-34009541.918229595
802,1578,1,12973000000.0,6325573267.696083,6013807636.489885,3602905959.3339086,6537000000.0,2618159759.092307,82000000.0,510742633.8624902,545000000.0,753010431.303164,627000000.0,1653466323.3731651,7000000.0,168397416.65582603,46000000.0,366531021.3048433,36000000.0,74094526.692594
981,1120,3,613608000.0,1949161077.7607293,391072000.0,1149191506.6671977,222536000.0,601711192.1681061,1437000.0,148308819.73157674,10955000.0,60963889.91070473,12392000.0,157810572.7970611,-84729000.0,24121308.393411428,40703000.0,194832249.63984698,-39266000.0,78909440.74834783
1046,343,0,102303000.0,1599556753.5381975,104192000.0,957476731.1887755,-1889000.0,1782470577.4992363,12811000.0,62543602.770720065,42439000.0,54496387.03700316,55250000.0,86629784.51734507,700000.0,-131746.4408814311,12111000.0,71138802.59274375,700000.0,2350530.8678641766
581,848,0,1023085000.0,2287580393.4757233,937155000.0,1433486996.7710462,85930000.0,1794695226.251447,87759000.0,202884146.0652534,257840000.0,313030208.0120944,345599000.0,484780698.6283002,-36941000.0,29008606.636289388,111965000.0,148856442.55144385,-24206000.0,27018726.61232598
1033,894,4,822101000.0,1174139436.989129,260505000.0,985322976.3524575,561596000.0,552577030.5465485,113425000.0,132056858.46222937,-8261000.0,66361537.76130128,105164000.0,123815871.79692304,25956000.0,18121650.087295875,87469000.0,153922664.65689486,25956000.0,65936174.583986215
1908,1021,2,972779000.0,1991720132.3491478,674585000.0,1265685400.5791378,298194000.0,655958757.1711435,81122000.0,185368751.65930346,33069000.0,107825882.55078161,114191000.0,266528384.9002632,-12742000.0,26310582.83053916,93864000.0,198711511.78345177,-12742000.0,63298804.57535074
1486,183,0,505122000.0,1912285427.925397,329765000.0,1108938277.6569252,175357000.0,1794695226.251447,66862000.0,92547462.05834538,-15726000.0,98865201.74510777,51136000.0,162339906.5815314,-8784000.0,16722423.973430589,75646000.0,80352347.7621775,-8784000.0,6903239.13441027
640,736,2,420505000.0,817839724.6237011,230508000.0,616815205.625843,189997000.0,258423216.407418,53603000.0,119627492.83355862,71511000.0,57704617.40453982,125114000.0,76450335.22395766,16734000.0,8340204.82310535,36869000.0,160243502.42408925,16734000.0,14157280.431164503
1988,338,0,216274000000.0,124487331463.256,73401000000.0,28713889846.887226,142873000000.0,2920966392.4947653,27936000000.0,13302415374.75699,6210000000.0,6173833053.162585,34146000000.0,23057472104.23277,13748000000.0,4223420118.127516,20398000000.0,8315381163.492514,7538000000.0,1315771287.5906165
469,991,2,122531000000.0,31243545012.416645,74517000000.0,22590482336.571003,57494689417.43809,-269289522.9356301,11370000000.0,6566505911.504216,10501000000.0,5758991799.357846,21871000000.0,14225602953.058357,5767000000.0,4025176837.2493277,5604000000.0,4318320274.587238,5766000000.0,620849293.8431637
606,673,0,5723214000.0,3932361433.894714,2776207000.0,2346582308.2278047,2947007000.0,1794695226.251447,448941000.0,402693729.4136807,516900000.0,557089522.6565242,865197000.0,979269058.0849957,78214000.0,94276387.69259934,370727000.0,352020418.8836809,78214000.0,94807182.68667354
1877,27,2,689227000.0,453938433.94458675,562767000.0,698819762.2112231,126460000.0,74399834.0445944,40662000.0,111777635.42622507,11086000.0,30486469.692013502,47740000.0,48126865.3140229,-28335000.0,15109234.858038336,68997000.0,137181185.20074728,-28335000.0,49657062.45689438
1148,532,1,600857000.0,1181637503.098319,331349000.0,808861172.6049194,269508000.0,244725714.1086259,50595000.0,111578611.97497046,6532000.0,66426034.40333223,57127000.0,64418977.875463486,-62120000.0,2642754.8193178773,83188000.0,139080652.65699217,-32593000.0,25847279.447916143
1653,1310,3,56794000.0,672731114.337328,12682000.0,542309384.5440755,44112000.0,165135300.89086938,25087000.0,89645737.93413234,14791000.0,4636203.80319047,39878000.0,20764881.19506073,-4627000.0,12669456.246972114,44505000.0,170138117.0831484,-19418000.0,75725422.84693596
1205,1096,2,3747000.0,70943442.69756985,4407000.0,246149494.90951872,-660000.0,-13643512.295067072,-1515000.0,24130132.196968973,1515000.0,-13981988.721232295,0.0,5911618.699169993,-2598000.0,3743908.219046995,1083000.0,64873893.543244064,-2598000.0,-8420354.734373987
1612,76,2,3505835000.0,4173819590.6163735,1860807256.214476,3093180106.2239695,1470074000.0,1538976938.9309528,601953000.0,391822114.348298,626097000.0,750758791.1982663,1228050000.0,1200358602.588432,88554000.0,73947649.18913688,475916000.0,310678457.66734266,126037000.0,65961117.180467434
1894,1257,1,203011000.0,1142853270.1400394,255300000.0,805111853.080512,-52289000.0,254579851.74607754,8409000.0,104543630.44205433,25579000.0,48514063.19905114,33988000.0,66440522.98956609,-8212000.0,5569538.430610031,15533000.0,135983517.54267934,-7124000.0,22715204.645142518
458,865,3,3126495000.0,2669299224.164716,2137404000.0,1608674785.5876014,989091000.0,1236686510.1669233,70679000.0,240847115.84283596,930828000.0,322998231.6286085,1001507000.0,557579499.4696001,21039000.0,45307262.951188825,49640000.0,184365350.58253792,21039000.0,78359460.98023346
782,1593,3,36175654.0,810998418.5210528,19187381.496044576,431400582.64369583,18868678.0,158400504.37318254,22295962.0,103432427.86451912,2274626.0,3639157.0022571087,24570588.0,16843013.269064665,-1191082.0,11066443.175707966,23487044.0,139796634.12103474,-1191082.0,74768445.01806492
21,1011,2,3642433000.0,5855147704.79397,1611617055.0351417,2718677738.299076,2307595000.0,1710643767.105083,392263000.0,492307084.77212006,1442178000.0,1047295048.9847786,1834441000.0,1569329430.571762,185633000.0,90601538.79261817,1648808000.0,587746069.6217381,-1256545000.0,30409909.961600646
323,232,1,102171000.0,1241354632.491665,80142000.0,698311078.5408258,22029000.0,192150098.4744631,11994000.0,85969978.62473428,1280000.0,29211914.010248423,12084000.0,31377034.6247617,-8453000.0,1466177.8944886178,20447000.0,155489964.83534786,-8453000.0,-10140526.308166884
1847,774,4,11562769000.0,8173919242.802655,8634392000.0,4562042566.098749,2928377000.0,3128452646.9949064,696915000.0,611199829.8071871,4617768000.0,3129640271.1713,5314683000.0,4408289150.532944,87484000.0,101046480.66181673,6096071000.0,3063991430.345572,-5399156000.0,64534284.38401948
1304,960,3,1061958000.0,1262146085.5137577,603583000.0,614907456.2037287,275904000.0,410842666.4519441,75380000.0,132618751.36441225,85007000.0,59971342.95201945,160387000.0,164096912.46377742,19279000.0,9858067.701308012,56101000.0,151861885.6858118,19279000.0,75422916.53088756
1031,669,4,1709464000.0,2089517467.1015768,792444897.6724385,778196104.6400018,917019102.3275616,948995563.4888058,-50089000.0,171508382.08767056,206500000.0,172722597.83622825,156411000.0,234555314.83059824,62554000.0,10689202.487573534,32611000.0,167559021.2134226,-82700000.0,61527065.440267965
1109,313,0,1182200000.0,2487394797.0219574,559672263.5892134,1344809142.3556516,993300000.0,1794695226.251447,77500000.0,177106054.3932872,102700000.0,189751862.28371733,175100000.0,294300814.9822252,21600000.0,23617855.23801443,55900000.0,170759488.71482658,21600000.0,43141171.06077051
1483,305,3,15318000000.0,13633426145.75359,8995872209.433592,7312466244.476461,2835000000.0,3619547557.475148,2220000000.0,1747944191.0969253,7363000000.0,8157829877.729892,9583000000.0,9580211239.737352,348000000.0,283070941.6391336,1879000000.0,880378141.8949548,341000000.0,96085380.16023977
739,408,0,2898416000.0,1582803406.6949348,2080781000.0,845270874.0072684,476998000.0,1782470577.4992363,19746000.0,44489853.803602755,-19746000.0,23958706.50429368,0.0,70330129.13980484,-16089000.0,-9857401.025424644,35835000.0,52447375.83884895,-16089000.0,-3739141.50092496
1565,386,2,37777000.0,389488294.6038356,8088000.0,633628822.8911538,29689000.0,68543813.18025422,1942000.0,91766431.54254138,1878000.0,11499508.12086761,3820000.0,52511906.11944604,-3377000.0,12716336.036466181,5319000.0,141079665.70927376,-3377000.0,43789088.490579605
1547,329,4,350115000.0,1353840456.7237053,124447000.0,961328753.1910286,144501356.0121529,819982300.3994324,23341000.0,142113073.3927005,74465000.0,164524016.7828992,97806000.0,249954764.52506816,1273000.0,32177783.51440803,21144000.0,153910810.39526543,2197000.0,67076549.23505198
1772,203,0,60756000.0,1505960141.3299723,14120000.0,987699925.8992381,46636000.0,1794695226.251447,39398000.0,52116262.76628369,0.0,59785835.23594701,39398000.0,109325988.51889229,1277000.0,6071468.330994219,38121000.0,69705959.61470306,1277000.0,341659.6961340681
396,883,0,2329417000.0,2843979694.7909975,1103945000.0,1671323659.3870978,1225472000.0,1794695226.251447,201803000.0,216696329.51434,84310000.0,346834209.09961045,286113000.0,463979196.7611368,4458000.0,28116552.35545671,134794000.0,160815943.3262133,67009000.0,54260265.33513511
370,1540,3,322707000.0,1321510337.164415,203952000.0,1181858221.0306911,133189378.04611006,779468000.5367491,59563000.0,162137954.47085747,32549000.0,56540340.58384931,92112000.0,160609310.8651724,2829000.0,29903487.646688312,56734000.0,180568097.04386637,2829000.0,78359460.98023346
1387,213,0,16986396.0,1039630595.6655378,28398941.0,466616600.5470028,7976898.609990532,1782470577.4992363,-2992.0,9347959.334206223,2987192.0,1007718.6571638584,2984200.0,22080241.915545344,-2823081.0,-10802720.423616767,2820089.0,42278129.15460706,-2823081.0,-34336866.05878173
1633,1397,1,5507733.0,739497554.8263226,3754986.0,319401116.79092884,1752747.0,19913569.946778774,77969.0,24789015.044694006,690.0,-11049054.213173509,78659.0,4448676.958837271,-1288944.0,2350698.9575681835,1288944.0,106531093.20541543,-1210975.0,-30074435.47849402
1459,1488,0,2951779000.0,2297655594.746535,1733504809.66769,1250673858.6380162,-705417000.0,1794695226.251447,103159000.0,167130628.32696226,95357000.0,218208459.07931173,198516000.0,334158137.3860587,63542000.0,60362503.42047659,39617000.0,129231000.72759458,63542000.0,41393780.77560294
447,948,0,1389340000.0,3141034076.2751017,870172000.0,1732834392.3650813,518687000.0,1794695226.251447,122910000.0,187589171.56652883,509918000.0,339441764.3007817,632828000.0,448961113.73401046,77637000.0,48967196.205897026,35836000.0,115078894.25896984,87074000.0,35399693.30000298
1342,1529,4,670100000.0,1432976108.690649,96919000.0,800762604.6770716,573181000.0,580008831.4815634,45369000.0,126287779.40996861,10723000.0,57143589.12259722,56092000.0,105692390.56131804,-44376000.0,10887270.389427379,100468000.0,178501732.7825355,-55099000.0,60772149.72099968
1101,802,1,796235000.0,1118487151.1275673,203741000.0,632062673.5154948,463390000.0,48579364.90973389,475000.0,70676401.01187408,0.0,9153734.032594204,475000.0,31109910.393672585,-25797000.0,1044243.4376015067,26272000.0,89014866.21546268,-25797000.0,13220005.97195007
1559,864,4,243654000.0,547674923.2626262,108112000.0,117240459.18255472,135542000.0,385642364.5417563,37230000.0,52194419.26551789,3845000.0,42756778.41329527,4798000.0,39927735.45353258,-21869000.0,5242749.3800997585,59099000.0,125420858.04270634,-21869000.0,61152691.54458788
1859,1238,0,63057347.0,1516083288.7914705,37031977.76980746,884149085.8732038,50373559.0,1782470577.4992363,5114390.0,58158966.47785097,9540399.0,55770810.770120144,14654789.0,69625506.47323036,3126608.0,9265992.761613116,1987782.0,62672415.930416465,3126608.0,-176152.6505914107
625,871,2,2120798000.0,1392373606.6568704,1472395000.0,1096345743.7406948,648403000.0,583696318.4121231,67913000.0,158626307.37801147,30767000.0,110196407.56537712,98680000.0,207743426.84070063,-9629000.0,4078060.4086970985,77542000.0,176152303.68512604,-9629000.0,7411198.798580542
1728,482,1,706517000.0,1846289222.5603046,905805000.0,814367109.4659519,-199288000.0,534562313.34861493,73709000.0,150622317.30789852,16853000.0,121727993.29438412,90562000.0,96943698.98389697,38915000.0,16044163.871829152,34794000.0,204867505.5238471,38915000.0,2387892.3810866177
1404,565,3,76126346.0,845148434.157701,61120101.0,538256683.1162953,15006245.0,248976357.74829197,2282652.0,97585294.03916478,31006950.0,3054213.8465801477,33289602.0,10122933.724492311,-2890968.0,11515125.289604306,5173620.0,129439950.7333222,-2890968.0,72428325.71749836
1515,604,4,156303000.0,1035856738.0606685,83901000.0,823174065.9768801,72402000.0,577263691.6100237,17689000.0,133121785.90419787,41469000.0,97037538.24652803,59158000.0,69400383.14515018,-2517000.0,31011255.92000483,20206000.0,156355257.67169884,-2517000.0,63683482.489202686
1800,67,1,3271200000.0,3698254834.405514,1447362713.447565,2453157329.7409916,-21400000.0,1707126813.1806722,31300000.0,298335020.9577829,847700000.0,755228754.8266227,879000000.0,1037246862.4151713,-16400000.0,80702959.58228104,66600000.0,247126844.62009022,-35300000.0,56918752.19891865
4,992,1,7361000.0,599024248.0678768,2671000.0,343752001.6319175,4573903.262590003,-69485495.09523225,349000.0,20356405.064328015,109000.0,-14507729.778372288,458000.0,-1500136.2101752758,-670000.0,5123668.721949443,1019000.0,71566418.80586106,-670000.0,-15198226.006603986
1400,1108,0,-4860602000.0,-2538005925.9819984,-990657000.0,-2112279732.2283278,-3869945000.0,1794695226.251447,193881000.0,241672319.9297946,378009000.0,442943341.1355003,571890000.0,590438593.8603146,36078000.0,55432346.8036052,124685000.0,153175924.7745585,69196000.0,51558602.04277878
617,961,2,5475000000.0,5718575109.483478,4861300000.0,3274703232.883808,613700000.0,1728140458.2162566,130600000.0,365297963.05304587,1421300000.0,924570926.0993357,1551900000.0,1425241087.4243102,23900000.0,89091406.9114383,81800000.0,241289670.95460236,48800000.0,63298804.57535074
570,257,1,9643000.0,896197839.9786072,6164000.0,690867650.349462,3479000.0,-25923108.544829607,1843000.0,52504386.560674965,2246000.0,5489308.008392811,4089000.0,27925598.51208186,-437000.0,5905632.654537797,2240000.0,89640613.35901457,-397000.0,9334717.163807608
2015,880,3,12012800000.0,4518046775.268306,6608200000.0,2199941598.696617,4911800000.0,1508447977.5304296,457000000.0,320903437.8214266,316800000.0,268965039.9443351,773800000.0,615623672.1846371,145800000.0,72863718.50674018,203500000.0,240749486.90757084,253500000.0,78359460.98023346
576,1076,2,6644800000.0,5713945659.622955,3248100000.0,2219288361.2005305,2786600000.0,1877705765.0391102,345800000.0,315286499.74647653,33000000.0,389480364.19542557,378800000.0,728501366.8071302,36000000.0,56858371.84309649,342800000.0,293660392.59081703,3000000.0,63298804.57535074
1397,722,1,136174000.0,1198257048.403675,62163000.0,694682076.0136256,72304000.0,278270667.46371114,10072000.0,94266239.9826281,-3712000.0,31246789.02694571,6360000.0,38858792.08419478,-12604000.0,7571232.574056208,22676000.0,151420933.3313869,-12604000.0,688834.572579287
1134,1495,3,160043000.0,693511858.6544046,101422000.0,644961029.7646213,58621000.0,236082388.84339488,15202000.0,109036840.75101322,-14386000.0,-2934663.772789955,816000.0,38315320.32016933,-14398000.0,11492232.090883806,29600000.0,190714737.1352325,-14398000.0,76865611.84351188
188,487,1,9282000.0,1004991081.0558586,3493000.0,713248028.6348534,5789000.0,39252836.06358981,355000.0,42278519.58894205,552000.0,3141395.934440613,907000.0,26458005.238938928,-972000.0,10046708.842035145,1327000.0,93768544.50986052,-972000.0,14379752.767583929
488,150,3,16124000000.0,9181243153.466898,13383000000.0,4556444988.211038,2741000000.0,2741955576.6470227,5251000000.0,1059394884.5875257,4961000000.0,1953686583.3628237,9233000000.0,3679501654.8722773,1583000000.0,341603404.099059,3668000000.0,732841779.6387942,1583000000.0,78359460.98023346
1211,1554,4,1601068000.0,2424638405.0747128,1081707000.0,1670410957.0911245,519361000.0,1096614219.3284435,248876000.0,235722286.14561215,-34521000.0,166411849.26857328,214355000.0,322618834.7148391,19006000.0,37400368.726520255,229870000.0,202539298.68898562,19006000.0,65936174.583986215
1580,1079,4,779622000.0,2137275629.5465684,153452000.0,1368832448.259306,626170000.0,880013696.3015635,134561000.0,165377804.94811493,57608000.0,161048874.46681142,192169000.0,231611048.0254377,56917000.0,48799845.21375361,77644000.0,175264607.16736293,56917000.0,65936174.583986215
1533,499,4,4162272000.0,4190008379.629705,862254000.0,2156649558.8732452,3299439000.0,1639897981.2429423,357871000.0,354871759.40985686,794265000.0,619288124.6950579,1152136000.0,817419802.3390992,114028000.0,72322864.05261604,194829000.0,215906948.63102683,163042000.0,65936174.583986215
818,1555,3,13900400000.0,9805024407.23558,12204100000.0,5009162552.239653,7319729781.089915,2439655429.724612,78200000.0,327330439.3717516,235100000.0,515968348.84078646,313300000.0,1295991924.9397678,174900000.0,55239180.32918919,116600000.0,280803511.2708013,-38400000.0,78359460.98023346
50,579,4,594022000.0,1379907665.4872727,132343000.0,694504227.3791995,461679000.0,547822698.2302036,121956000.0,122757027.45062727,1645000.0,67404027.22019947,123601000.0,105740488.88874555,31177000.0,23868092.29725349,45262000.0,181218873.65260834,76694000.0,60770468.17569324
590,21,3,1341960000.0,2481509198.4655876,666970000.0,1503746400.5088649,674990000.0,1058036768.237319,55930000.0,204875973.293018,179410000.0,162731149.839159,235340000.0,307717029.2496569,23760000.0,40349378.63697385,32290000.0,188368279.58924595,23640000.0,78359460.98023346
377,1125,3,52901000.0,765415234.0013933,24522965.98920461,718424881.9293127,33404000.0,219448231.14243507,-1183000.0,114669940.32554954,24144000.0,4278312.093906999,22961000.0,24384327.29086113,-5692000.0,13885992.396310315,28653000.0,166541714.49969527,-29836000.0,75909873.14154342
1953,549,4,877565000.0,2478601901.9516683,1336553000.0,1520681303.945565,-475192000.0,1275472889.5592742,522812000.0,237748113.48714113,-345617000.0,191840856.42078638,177195000.0,536033187.5246577,31868000.0,48575307.15835549,490944000.0,247575845.64653903,31868000.0,64063660.801493794
1018,1347,1,26568400000.0,21261753657.28649,13080400000.0,10914309829.334206,13246000000.0,7194717422.470742,1346200000.0,706496379.2324964,1952200000.0,1414079059.4352937,3298400000.0,2980246190.502266,592200000.0,170338780.6164205,746800000.0,524113153.4589646,599400000.0,68083557.80610056
709,1365,3,2933971000.0,2971001960.5507708,2618511000.0,1769035463.5686042,315460000.0,1059609035.4289795,65062000.0,234671692.90377092,2191000.0,151019990.0934109,67253000.0,360430656.10540915,-143265000.0,39465857.79419881,69951000.0,185520403.78840926,-4889000.0,78359460.98023346
1121,1252,1,27828200000.0,17342610477.92085,13810622382.415062,8258385808.611324,7212400000.0,5071888498.2816105,821300000.0,576431480.0879552,181300000.0,716945928.5648379,1002600000.0,1703585430.1469407,233000000.0,140909693.3553216,794400000.0,745768456.7154714,26900000.0,53114361.81901519
1026,769,4,2788943000.0,3568863810.2285886,2662320000.0,2521062162.6098804,126623000.0,1469418820.3744829,299166000.0,272058445.65424407,0.0,212165012.35682184,299166000.0,509759860.78887784,-281667000.0,37998426.865334906,580833000.0,265740440.7902017,-281667000.0,62656315.2530463
1015,823,0,2489159000.0,3181167812.7729616,1954765000.0,1570591634.8703425,488897000.0,1794695226.251447,294443000.0,280780119.42536706,370069000.0,440343554.01552737,636496000.0,794442690.8402399,64600000.0,48146094.43689492,229652000.0,245866497.36397088,64791000.0,51885772.021717705
1575,241,2,11961066.0,-16778876.524129868,1068497.0,129034101.74985886,10892569.0,15364511.228789926,611174.0,22093335.586827517,0.0,-8321310.02847755,611174.0,6816405.4489684105,-1146685.0,-1852811.7656772584,1757859.0,65456754.94135755,-1146685.0,-18173838.54576619
826,242,1,93941000000.0,57393005544.16107,39446000000.0,25900812661.526585,53466000000.0,29072746461.42024,4178000000.0,3765436450.279983,15656000000.0,13271220524.107117,18582000000.0,23374544257.09313,1764000000.0,2756255282.7349014,2414000000.0,1895876357.79813,1764000000.0,326666366.9493475
463,1402,1,32097000000.0,25519008180.533886,20419000000.0,11840350688.802677,10658000000.0,5987809508.308994,2071000000.0,1464602558.999064,6360000000.0,4552903473.827274,8431000000.0,6478267453.521931,950000000.0,411219267.3237739,831000000.0,620867185.6251725,1240000000.0,112422373.21850982
1660,25,4,6578196.0,598665050.6769285,4441488.0,191820239.65936518,2465776.0,373624351.09452975,2008368.0,41990248.82965338,923641.0,28631586.9732033,2932009.0,20054928.728564024,-1328968.0,11844931.53832677,3337336.0,80963393.0766294,-1328968.0,58583770.7439868
700,526,2,1658042000.0,2114396476.1906028,1223260000.0,1316991568.316493,434782000.0,887006065.0760558,207698000.0,222504544.55189794,674127000.0,338973128.1788097,881825000.0,447025619.15582395,25549000.0,39832934.53532693,179614000.0,214812267.41791236,28084000.0,64444796.2784881
402,371,2,9094896.0,246064995.1840315,13593163.0,448159691.6849079,-4498267.0,66878219.09693611,-928960.0,94929956.27083105,1115703.0,-8474105.915462375,186743.0,51564563.327824354,-5136642.0,4036802.501770824,4207682.0,136550481.48042265,-5136642.0,11530044.750131033
591,184,4,16788482.0,418920639.49873066,821758.0,124774762.76973248,15966723.0,358181716.4983609,906228.0,45552861.0933305,333325.0,-2473477.199271202,1239553.0,6455381.3373093605,-1096396.0,-6584982.641900927,2002625.0,91343441.0468471,-1096397.0,55413544.104802296
412,923,0,1678241000.0,2200715875.0302844,730813000.0,1273407965.9876437,947428000.0,1794695226.251447,62311000.0,160709758.0315169,89643000.0,173081140.27280492,127553000.0,355330988.69826925,-24195000.0,383584.31356458366,86506000.0,141399002.06895256,-24195000.0,43573037.556195095
26,1111,2,1363308942.0,1371373423.2240539,629855415.0,1123815391.9354632,733453527.0,489787483.89159214,93681798.0,162043525.327587,0.0,140444285.64444262,93681798.0,194600381.06727922,39573525.0,25162173.331219003,54108273.0,208774922.67774498,39573525.0,51896288.93358388
205,666,2,15264467000.0,9650207458.496487,7226441209.924589,4605599125.069322,3059451000.0,3168633501.7225304,592816000.0,448006948.3053904,378076000.0,773711118.7808093,970892000.0,1649821407.271698,444977000.0,150678769.92850363,147839000.0,283003969.3313473,444977000.0,71580581.50220329
699,1149,4,65987000.0,1003290361.9512372,35279000.0,671722772.1705556,30708000.0,557902423.2307234,5319000.0,89810097.39944798,28050000.0,59996037.71948242,33369000.0,44818960.663310766,1124000.0,36048024.0637698,4195000.0,125053485.94916847,1124000.0,61193565.58711658
550,437,1,31945000000.0,30186737348.98159,26424000000.0,20301751080.36841,5506000000.0,5104343851.442565,1191000000.0,828996220.1341529,2895000000.0,2566896173.5388203,4086000000.0,3772616469.5011783,834000000.0,228653339.09763312,357000000.0,433191888.593525,834000000.0,33861328.99917182
140,1473,0,2655001000.0,3117160736.6832995,1989549000.0,1544479454.0603848,665452000.0,1794695226.251447,67554000.0,176366322.8274062,403267000.0,370095843.22896475,470821000.0,487166287.75947213,-3426000.0,36893327.6155345,30096000.0,158376956.55896902,37458000.0,-14121390.635948256
2004,877,1,9403000.0,879522255.1678271,5511000.0,596123805.0178914,3892000.0,-56401662.39115596,-48000.0,37533600.60585642,1387000.0,-5358751.187825084,1339000.0,14479548.03389287,-903000.0,6598224.351058662,855000.0,91928328.49793595,-903000.0,2280616.2559376583
28,31,3,551232000.0,1469756379.697517,628224000.0,1275542066.6411388,-138322000.0,543143827.4046266,23716000.0,126315080.54040384,12709000.0,14041596.172933698,36425000.0,104534418.50596535,7478000.0,13682749.055479884,48579000.0,176395535.99595243,-24863000.0,78909440.74834783
844,288,0,435750000.0,1566640770.3226266,62826000.0,1006303129.9039898,372924000.0,1794695226.251447,28152000.0,65079630.0875572,49267000.0,65505916.497451305,77419000.0,91836939.00028992,143000.0,7776719.324518576,28009000.0,72988405.78099883,143000.0,8502837.15409229
967,1117,1,367699000.0,1293154264.2429194,382822000.0,1108338920.0584764,-15123000.0,387515044.9789237,310000.0,132994411.98461086,0.0,75175119.71645784,310000.0,66968996.85343063,-47413000.0,10959071.411820471,47723000.0,146475171.47032088,-47413000.0,36536944.487692446
433,917,1,3810682000.0,2220475969.2236505,2050315000.0,1421963160.599503,1303319000.0,709320706.4767466,110314000.0,195654982.7515644,71850000.0,238032628.91313308,148990000.0,215540368.35370088,11661000.0,21675707.14988309,98653000.0,212553144.26940274,11661000.0,8930834.525458619
228,131,2,2333529000.0,2571855038.6874332,1032484368.2283514,1735619230.3631694,1202771000.0,1277732690.0624065,71236000.0,283522958.5184697,490990000.0,414550118.7636084,562226000.0,595427549.4926158,19517000.0,48265876.210733995,46091000.0,227347512.1295594,25145000.0,61581924.06590204
1855,1604,3,20737275.0,1440354574.1303382,10788720.0,916746150.5460958,10368036.0,456138919.68683493,562564.0,49785900.755936086,77061.0,5807157.762098551,87201.0,21480339.18620467,-4142505.0,-9240149.463373616,4705069.0,294828217.2072452,-4142505.0,70611584.82997942
776,654,4,386844000.0,1473397143.297893,412960000.0,1157219151.2759025,-26116000.0,618496156.6914402,16927000.0,142348111.38327217,91131000.0,93938977.34809613,108058000.0,140987768.17414737,-813000.0,33655577.92564297,13060000.0,161033519.47923893,3867000.0,64101104.39171524
839,662,1,6911775000.0,4673121351.176644,5109042000.0,2251565614.922432,1802733000.0,1875906320.3857358,225256000.0,335751614.8318737,195092000.0,418321357.88615406,420348000.0,618192725.9042683,132530000.0,66832203.51650004,92726000.0,204493187.44425046,132530000.0,58764696.5527609
793,1426,2,2883631000.0,4131132834.474325,1772390000.0,2256257332.836368,1110345000.0,1482191030.0012054,319055000.0,370777072.3036166,1257690000.0,1143235523.6062205,1576745000.0,1498994111.589374,38222000.0,82030978.81292595,280833000.0,227008569.3257041,38222000.0,57072384.10285398
820,1376,2,133032000.0,1327854244.7647586,232711000.0,1125591179.7377367,-16246000.0,519719571.63310564,12296000.0,141147728.76916295,62277000.0,148712276.11641884,74573000.0,261320984.9831562,-14749000.0,26648799.303454116,89322000.0,176036352.95019272,-77026000.0,57711561.83895384
2016,162,1,296638000.0,1216044217.4023838,208509000.0,881239486.5862513,88129000.0,309859948.1654042,7319000.0,109708641.0226435,0.0,71910402.07428563,7319000.0,89081368.13092697,-46633000.0,-984776.0870984942,53952000.0,139187826.79325417,-46633000.0,32991048.93420648
1438,2,4,38809000.0,799874579.1243606,43090000.0,683092320.3044538,-4281000.0,516319150.34039366,7318000.0,101077647.66525656,25818000.0,93012778.08947682,33136000.0,93810107.6438514,-933000.0,19123084.84090063,8251000.0,126193110.14517042,-933000.0,64815297.681032844
866,365,1,2376172000.0,2188994959.8666058,1870972000.0,1306681916.7644584,486613000.0,1023955047.7091866,-5214000.0,236260863.02494225,182832000.0,253386025.4098158,304976000.0,366447824.5876653,-103708000.0,25540422.25331232,98494000.0,193011762.93178183,-103708000.0,45669730.27997814
689,978,0,3719784000.0,4181960622.132517,3332984000.0,2477123591.912714,286813000.0,1865075673.032018,2618169000.0,1423233469.8091912,-531777000.0,444643877.76611185,2086392000.0,1261761938.5024583,44074000.0,82190780.78330718,2574095000.0,1829300204.491515,44074000.0,81043252.93428314
919,362,1,1537935000.0,2476155054.0222383,1281456000.0,1580379140.318801,256479000.0,994638663.6535046,229699000.0,220051857.69199345,0.0,234802037.86701488,229699000.0,343661765.80820715,-26947000.0,22682104.38427724,256646000.0,210184356.82432225,-26947000.0,43004425.82492853
1827,972,1,1182488000.0,1797234392.077036,303489000.0,1086515600.6545622,759221000.0,711955606.68981,56265000.0,178503245.52002805,333008000.0,189730285.26566434,251870000.0,216700238.58625054,16750000.0,29960552.322751448,39515000.0,166066661.5900749,16750000.0,41194107.72488935
1182,727,1,8225559.0,931485072.8747935,12447189.0,470887957.7497301,-4221630.0,-15475641.552979946,17564.0,34224948.85924208,106922.0,-10123176.488679767,124486.0,8857941.392588377,-8095209.0,1276887.2148866951,8112773.0,79050310.83062696,-8095209.0,-7255853.153974898
