epiphany24262/financial-performance-prediction/results/oof/m3b_catboost_direct_history_industry.csv
Id,group_id,fold,actual_Q0_TOTAL_ASSETS,pred_Q0_TOTAL_ASSETS,actual_Q0_TOTAL_LIABILITIES,pred_Q0_TOTAL_LIABILITIES,actual_Q0_TOTAL_STOCKHOLDERS_EQUITY,pred_Q0_TOTAL_STOCKHOLDERS_EQUITY,actual_Q0_GROSS_PROFIT,pred_Q0_GROSS_PROFIT,actual_Q0_COST_OF_REVENUES,pred_Q0_COST_OF_REVENUES,actual_Q0_REVENUES,pred_Q0_REVENUES,actual_Q0_OPERATING_INCOME,pred_Q0_OPERATING_INCOME,actual_Q0_OPERATING_EXPENSES,pred_Q0_OPERATING_EXPENSES,actual_Q0_EBITDA,pred_Q0_EBITDA
196,1119,4,1192950000.0,1835814842.614892,1055816000.0,1236093150.780626,137134000.0,928463894.7831979,25598000.0,168133497.1739167,61899000.0,128712006.07023227,42992000.0,255652415.2358322,15222000.0,31230910.60086397,10383000.0,163555452.78338468,15215000.0,44012549.20349245
1568,556,2,1219954000.0,1880376706.501492,835046000.0,1686784721.3748384,384908000.0,824962748.8951222,111786000.0,213785032.59762543,217796000.0,210238448.2660572,329582000.0,333063403.89612544,28908000.0,31631674.378047645,85522000.0,211250216.89898112,26264000.0,70290651.48894434
1218,1577,0,-135820000000.0,-9653481136.535454,-37972000000.0,-6899656385.359522,-97848000000.0,3003230233.8271303,-435000000.0,2674927935.896875,4445000000.0,4275079008.3131576,4010000000.0,7319547311.627533,-1472000000.0,-130517929.46024334,219000000.0,555739629.3412199,-654000000.0,473722311.2857333
23,1062,1,83298000.0,677126046.1854739,16040000.0,520680438.63230085,-31633000.0,161926455.33763957,494000.0,62112064.95922798,3339000.0,13346068.87435925,3833000.0,24510099.929722905,-12348000.0,2508307.5779952407,12842000.0,99183956.02245897,-12348000.0,-3878263.5065486357
783,805,3,148546000.0,1007546614.8662834,56555000.0,634792368.5927134,91991000.0,291557514.92408335,1761000.0,115812095.07830036,-2375000.0,-16570825.668697476,-614000.0,45178114.26858592,-10098000.0,17793237.9457359,11859000.0,145722811.712515,-10098000.0,56465494.807101145
1251,822,1,7304300000.0,5061067870.081973,2451900000.0,2793161024.1173353,4830200000.0,2293810309.161127,578200000.0,404956165.9619948,581100000.0,662855481.2591347,1159300000.0,1164963394.047719,245200000.0,114966704.39135702,333000000.0,340778898.8221699,245200000.0,56651274.3650367
1224,228,0,1976905000.0,2451101602.2648816,699909000.0,1446842514.9972553,1276996000.0,1569055217.0449789,53993000.0,132162808.59062248,315825000.0,211735780.4671231,369818000.0,319115791.337474,-1572000.0,21097975.209690735,371390000.0,162147256.31577477,-317397000.0,-15755293.151309296
1410,1451,2,2097274000.0,2809802175.540814,1132234000.0,1737563032.8813646,965931000.0,1175528828.2271273,70481000.0,268629603.7019304,291052000.0,294031949.78967583,361533000.0,436839552.0083145,58709000.0,48628293.324587725,11772000.0,214305114.75256366,58709000.0,56009473.92268119
529,34,4,31183000.0,865190737.207612,15926000.0,518096779.6264057,15257000.0,464431889.6369411,2456000.0,49545718.10513449,2151000.0,3345321.679930091,4607000.0,33500206.638163686,-2931000.0,17470727.795384645,5387000.0,115244716.39751858,-2931000.0,28671581.719756454
730,909,4,978523000.0,1952112472.3246398,851196000.0,1449658147.652526,-94184000.0,851354713.1354089,24321000.0,166117218.4431572,137937000.0,221870840.24186224,162258000.0,293773723.9831455,-764000.0,24503009.21875851,25085000.0,182969326.74305713,-764000.0,42657654.94337286
1590,1344,4,27253000.0,734828289.9386845,14465193.072010836,513312249.14289284,12787806.927989164,517894174.6937125,-17000.0,62614392.56441671,17493000.0,24183410.818983078,17476000.0,40570826.21500695,1196000.0,9350343.38206853,138000.0,104703883.40408084,-155000.0,22885076.992092468
367,268,0,798398000.0,1691820520.9661684,795372000.0,1299278911.2292473,3026000.0,1464825996.3854551,37121000.0,128822894.95391423,256160000.0,237167112.52199125,293281000.0,350858007.97259605,10257000.0,11989721.373886064,26864000.0,126127011.47595975,10257000.0,21009942.433434725
636,839,4,1059052000.0,1861648155.3874192,883921000.0,1415331495.8985019,175131000.0,979552419.34708,91945000.0,180819571.7012322,202788000.0,223252523.67346716,235132000.0,308205960.9195359,-287000.0,32332080.578086004,84957000.0,179853460.83659336,6988000.0,46619228.35129678
1270,1065,3,11069000000.0,8341717382.440891,5919000000.0,4868985563.494674,5105000000.0,3890743420.2951975,727000000.0,552965905.0473208,1752000000.0,1421497186.2353764,2479000000.0,1991136218.255035,462000000.0,219805315.2193375,265000000.0,246912865.93232572,462000000.0,65572794.94615656
102,712,1,12331000.0,812410237.3786631,10875000.0,638973132.3862348,1456000.0,17170629.96476865,1472000.0,51523116.01994318,1968000.0,-18033648.074784994,3440000.0,18829104.900321364,-4166000.0,47540.82258366048,5638000.0,101771140.72546023,-4166000.0,-10032889.367998533
1658,812,1,180372000.0,1285899606.105206,121221000.0,810708203.4082665,30642000.0,381627878.4597343,18014000.0,93720066.55297601,31653000.0,81231478.77456415,49667000.0,92217931.62306452,-11599000.0,15173313.649034008,29613000.0,120734894.32446787,-11599000.0,33932762.34344083
6,356,2,2319806000.0,3589574657.3928995,1534495000.0,2083165142.4257178,785311000.0,1736072789.2887058,376397000.0,296178571.12399054,415254000.0,567278573.7020241,791651000.0,857107378.7253659,93430000.0,66060714.84664792,288680000.0,268497093.32547385,87717000.0,58093832.19257916
1147,318,0,19295025.0,1332249156.772922,28370931.0,570533751.3140931,-13369686.0,1456278610.569326,2067435.0,32676097.86653459,4847499.0,834575.7261326313,6914934.0,28213954.22437787,-1108124.0,-1622675.8358820975,3175559.0,35729848.09853917,-1108124.0,-3818879.450245261
114,141,2,3549408000.0,3063907243.5798182,2109262000.0,1869410320.6083424,1440146000.0,1097156438.4004202,264579000.0,284901397.8558217,494402000.0,561048917.1337571,758981000.0,830112953.7089007,58594000.0,59508013.31381862,205985000.0,231506007.1087128,58594000.0,72868360.2282908
139,890,3,331401784.0,877152331.1482992,56254670.0,447469689.02909184,275147114.0,332831106.1445954,17982150.0,110057864.74926311,0.0,11679337.157566428,17982150.0,60769586.65014613,-40215832.0,15765418.215648785,58197982.0,128366906.52792034,-40215832.0,32610441.456791192
411,956,2,5533000.0,275989307.7622824,4648000.0,152504312.24294758,885000.0,-12442320.036999464,-1669000.0,32846753.291707933,2438000.0,-7395686.846895337,769000.0,-1940047.448448062,-6339000.0,6618070.632171601,4670000.0,64415649.17077011,-6339000.0,6852754.285674103
681,18,1,36550000000.0,31130160677.27264,16943241279.095451,10630723912.966381,15250000000.0,8932611790.176727,577000000.0,588972087.8299855,3467000000.0,2492377864.82376,4044000000.0,3798501398.298952,714000000.0,156562299.42081824,627000000.0,645020291.8998132,-50000000.0,37377120.92095857
1671,1574,4,100449000.0,978996580.0292463,141057000.0,627862329.1208181,-40608000.0,475297526.71526885,-171000.0,73493572.12139368,512000.0,32811279.91840458,341000.0,39388440.4104116,-48297000.0,9915539.140145406,24344000.0,115867937.92973939,-24515000.0,35010277.842280366
500,1524,4,10599934.0,715992650.3488288,26203416.0,327925847.18591976,-15603482.0,364989505.3252944,-6219.0,54914368.10196787,193120.0,2584454.5207452774,186901.0,-4789544.670939684,-1076399.0,7304977.7795378715,1070180.0,105922413.84885511,-1076399.0,25864412.18148879
1203,855,3,13322000.0,1057053739.0162158,67881000.0,624430600.270844,8277888.77383834,249089537.31677425,3223000.0,125771898.86598492,1889000.0,15838564.26206851,5112000.0,49698916.900244355,-3552000.0,11849564.29686138,8664000.0,151839555.5734323,-5441000.0,39937448.169645585
180,1091,2,635001000.0,1530117072.1637015,115305000.0,1156121472.5806985,502273000.0,680347448.5327854,21465000.0,209172366.3012968,40457000.0,98335390.39139271,61922000.0,225574966.97273386,-143360000.0,24760077.98804207,205282000.0,197026905.56467596,-183817000.0,55028383.237634785
1960,1407,1,2672864000.0,2476475117.669595,288913000.0,1463226392.001309,2383951000.0,1391735165.5538998,132902000.0,248954803.12915596,168499000.0,349207670.47307724,301401000.0,380713757.7225944,55706000.0,61835381.358040206,77196000.0,202322147.4133548,55706000.0,47838787.36814232
356,219,4,8388335000.0,6288011519.77697,5163154000.0,4046567211.730858,3225181000.0,2043104408.751271,313343000.0,420152109.9558472,687959000.0,641812355.2365927,1001302000.0,1270769872.675365,116260000.0,89004710.24925514,85661000.0,283023438.09770644,227682000.0,56398762.46661977
1646,1209,4,1563399000.0,1876069099.6138892,1445358000.0,1491814858.7140646,-136248000.0,1204555539.5213509,72333000.0,177132762.4129967,116682000.0,191226387.0520695,189015000.0,382904867.8715693,23506000.0,35642502.59182638,11423000.0,198426052.5268719,60910000.0,45819010.77561404
1793,1494,4,320019000.0,1690208204.5564218,126984000.0,1154314354.3198,193035000.0,903815107.8441089,177377000.0,194588746.23863882,58492000.0,165391661.29154027,235869000.0,282731260.40325534,25509000.0,43845428.364577994,151868000.0,160512038.05649963,25509000.0,45621376.47579936
235,903,0,0.0,1193636190.864214,0.0,209173003.59421206,-804876.0,1442715942.8071194,0.0,15087419.201868474,0.0,-15350650.625171661,0.0,13188038.222944617,-14550.0,-5912511.641770676,14550.0,26410383.281621277,-14550.0,-10807328.06481351
1668,520,3,267194000.0,1304575988.2332711,175308000.0,837995235.3285599,91886000.0,392550374.16013753,5103000.0,158235301.5584091,0.0,21906118.53250265,5103000.0,76390886.69216383,-32762000.0,22251452.482325226,37865000.0,155260448.62048241,-32762000.0,55228402.61420881
1456,719,4,2249377000.0,3158503083.389096,1923326000.0,2208644549.983032,326519000.0,1232199962.772487,-76300000.0,254708625.99538398,416103000.0,415875263.43652403,339803000.0,561625026.2043643,34941000.0,41893113.867065676,184914000.0,250655713.25478622,-261214000.0,48047258.50403567
1291,57,1,396890000.0,1430397317.5251184,107071000.0,924966039.4263754,289819000.0,489699014.9802176,52569000.0,104099016.82929629,13634000.0,61811016.85321331,66203000.0,106488630.89055908,8375000.0,13060161.45518896,57828000.0,162879344.79435468,-5259000.0,12346308.78557361
1376,344,4,7827000.0,847095318.422082,4744000.0,418827925.4147558,3083000.0,472607797.7094997,1288000.0,65668670.59973675,867000.0,6012788.444370151,2155000.0,10370961.135561228,-3880000.0,16094543.397403136,5168000.0,98226080.57394326,-3880000.0,23926018.63147632
1702,1482,1,11990000.0,733878360.8556643,3030000.0,433064652.12406063,8960000.0,36292167.04533851,1480000.0,42297371.475592256,3017000.0,-3041606.515130043,4497000.0,-3601380.994215727,-944000.0,88602.47738397121,2424000.0,81018765.3728081,-944000.0,7192384.286862038
1591,331,2,7472874.0,418972930.2388983,3243445.0,26325865.047181606,4067990.0,86615056.16445696,3065804.0,28615725.119081557,0.0,-17710652.58558345,3065804.0,-21582482.449361682,-21884.0,-8581580.123745933,3087688.0,68180263.51139903,-21884.0,-25247106.52273926
647,1582,1,2182494000.0,2848021401.212861,2467501000.0,2089563477.013455,-484456000.0,1116347117.515332,389190000.0,294344052.95845413,141172000.0,334721433.436115,531030000.0,582120037.4089396,-54175000.0,35547705.92598718,443365000.0,240353220.29783788,-54175000.0,53496635.860777676
100,1589,2,12166000.0,196727359.6922164,2892000.0,154519756.7339964,9274000.0,-33716337.49560928,5000.0,23779669.498256862,54000.0,-17774140.503106713,59000.0,-25781095.223083258,-3433000.0,1731529.7952533811,3433000.0,70141224.70271116,-3428000.0,-3442318.7714719474
507,336,2,189783000.0,539634207.7504549,45792000.0,803160458.7300658,143991000.0,110345164.23549783,2372000.0,122220064.66531593,0.0,9196346.643298388,2372000.0,29419508.715910316,-18270000.0,12880524.88357474,20642000.0,139798234.66171744,-18270000.0,42953786.55929387
547,1095,3,1072653000.0,1275323155.0314517,455367000.0,481477969.3839221,617286000.0,203004472.70584154,134998000.0,125560560.95108986,27783000.0,27750521.599630117,163452000.0,159192830.10249043,5489000.0,18164908.793026373,129509000.0,139697439.43289962,5489000.0,28198304.574311897
457,886,2,665104000.0,1245994173.893464,575531000.0,1132504637.7605329,89573000.0,331206428.1219052,30803000.0,154628378.5870263,19437000.0,96992483.1016109,50240000.0,146516506.2191465,10357000.0,29198998.500020087,22017000.0,185608030.32260844,8786000.0,55043548.0332112
560,670,3,1900367000.0,2122725612.2325912,289037000.0,1661372616.977465,1613343000.0,951610371.3809173,45433000.0,218809709.20305687,413911000.0,414692289.03776324,459344000.0,680087967.7741926,-6757000.0,77091916.56399307,52246000.0,211379224.24111205,-6813000.0,67212916.85777633
1402,905,3,88944000.0,954841632.4264493,45361000.0,404962683.14627314,43583000.0,164667203.2713914,0.0,106518553.28672826,45000.0,-20242852.27244079,45000.0,-13218960.28036952,-14351000.0,8842590.513777912,14351000.0,137176845.87479538,-14351000.0,33413104.22403957
1274,1040,3,5390785000.0,5116373266.108355,4083098000.0,2718691523.5817003,1050686000.0,2117740743.3725915,352054000.0,380399355.0016945,284900000.0,488922537.5326034,636954000.0,817786282.9861939,120850000.0,86150245.04089758,187232000.0,231756891.8401908,164822000.0,62817600.0461955
799,197,1,18535000.0,773690570.8120661,13748000.0,660902546.9356208,4787000.0,108180117.4015274,2839000.0,57620844.65953922,7502000.0,27223847.58956456,10341000.0,13373062.339646816,-2229000.0,6100389.088629514,3071000.0,87019932.60606712,-232000.0,15716925.277935997
1436,782,1,13281300000.0,8002396020.822754,5777300000.0,4140922838.289908,7484300000.0,3751341316.2869425,1030700000.0,568506656.0482782,1150100000.0,925583218.254857,2180800000.0,2002712020.1005287,687000000.0,297871639.8924973,343700000.0,361921790.50181895,687000000.0,60346254.76328919
1518,137,1,108681735.0,849873223.6763692,9192190.0,477689391.2820716,67531550.37365061,197760500.34974635,2201326.0,68542069.31117886,255772.0,13294923.450136304,2457098.0,23039358.917710304,-8935951.0,6598897.359085605,11137277.0,105656632.66653371,-8935951.0,20034826.223395474
211,1313,0,189692000.0,1629813221.7355433,90178000.0,982671767.2628593,99514000.0,1456278610.569326,-4411000.0,58538257.73324752,24963000.0,78750825.68025744,20552000.0,89468331.72740364,-10000000.0,3355128.730332345,5589000.0,64350319.8471812,-10000000.0,6464233.14492628
1542,188,0,230878000.0,1465817649.79459,57278000.0,1002964360.3076525,173600000.0,1502054292.12851,26973000.0,54607394.27003682,7041000.0,38913997.71737957,34014000.0,65640514.73755801,-11169000.0,-1015682.4418985248,38142000.0,68354198.79703677,-11169000.0,5451601.2242456
1496,602,1,73773000.0,692728910.9147177,50819000.0,597821261.5003562,38847689.64492722,210815210.31376708,5428000.0,56921605.7308861,22481000.0,27807608.707799792,27909000.0,28274123.793694258,-1778000.0,6976172.52401647,7206000.0,105115519.86378568,-1778000.0,16962222.016607784
1891,1386,2,1582767000.0,1651655180.085338,680421000.0,1487893168.3268528,880211000.0,752904637.0356791,56683000.0,205607318.5946794,17637000.0,181236346.87713355,74320000.0,236250294.79428685,-5119000.0,32722405.409571216,35279000.0,196845625.48919111,21404000.0,57082205.918486066
362,63,0,5641000.0,1355530441.1582713,5200000.0,450457927.4066868,-3859000.0,1456278610.569326,1192000.0,29864806.120948493,781000.0,-4334681.141517758,1973000.0,28110478.198339105,-97000.0,3922515.5850164145,2070000.0,39611427.50121844,-878000.0,-5494928.613640845
605,600,3,3208196000.0,3002661177.3885903,2133043000.0,1958548041.7203798,1075153000.0,1263138412.551051,625972000.0,388425118.51045495,1066275000.0,798377706.8028703,1692247000.0,1511427249.1954381,91616000.0,60624890.45544067,497965000.0,250294288.95128357,128007000.0,72610846.75866045
384,240,3,13057000.0,668834437.6057839,4943774.229094189,64127036.621296406,10949000.0,-61236035.49382043,7944000.0,79785075.06731641,0.0,-18983505.312930465,7944000.0,-1172218.094074726,1997000.0,4460675.836019322,5947000.0,129249510.69680548,1997000.0,31208623.88058546
438,681,2,5973000000.0,5627354077.544866,4408000000.0,2857513787.293627,1554000000.0,1948884631.2905688,244000000.0,318128854.6705938,1526000000.0,1169481435.3415082,1770000000.0,1457256787.4817474,147000000.0,106903416.89391036,127000000.0,225316612.93485165,117000000.0,58587182.66202764
1761,1233,0,589088000.0,1739142811.5247874,253950000.0,1286611201.8397758,335138000.0,1552497331.4892979,19294000.0,89184985.26775914,99428000.0,136419968.77563912,118722000.0,175895684.4693421,9057000.0,15999895.03719306,10237000.0,99084754.37826508,9057000.0,11086229.872366883
403,509,4,21286772.0,726906860.1010499,1383236.0,245677489.7491045,19903536.0,433624906.21742034,781782.0,35389952.78326243,421382.0,-2525052.8119032383,1203164.0,8827447.883161545,-1960898.0,13682576.762662306,2742680.0,94208078.0528894,-1960898.0,25378926.1451832
388,1329,4,3445920.0,677890364.0822568,1859560.0,448207887.3598418,1616914.0883314284,325956805.2080251,2970901.0,44903199.88319296,569508.0,7778031.507867217,805185.0,2170404.436307192,2437201.0,2366006.844306037,533700.0,99095906.47712803,2437201.0,17142516.687671907
1452,1493,0,328158000.0,1733750570.1029963,124250521.82515822,1204754332.0252566,270486000.0,1552497331.4892979,24944000.0,79567255.26766807,16521000.0,105924461.47029102,41465000.0,118162123.19611955,-7674000.0,4195194.021529064,24827000.0,83596052.56071952,117000.0,15631532.59625785
1876,217,1,2498305.0,706159754.544765,2997402.0,334848958.0958433,-3454854.0,-110950776.85307407,467340.0,46370817.03070438,346611.0,331601.0509136915,813951.0,-2412427.0883886814,-114631.0,-4247893.104584858,581971.0,83157615.14752215,-114631.0,-16065690.812930077
757,180,3,1288046000.0,2536590044.4671745,649920845.9604261,1715716027.915831,889849000.0,1100887903.9953377,105384000.0,248615182.3755762,285360000.0,247168678.32131588,390744000.0,382003948.1516448,53190000.0,50997098.59941878,52194000.0,195842564.62513265,53190000.0,65572794.94615656
660,425,3,600057000.0,1662724998.8005023,369915000.0,1053837373.8323324,225443000.0,636439572.4918376,43121000.0,166826654.353589,106269000.0,99184992.47555709,149390000.0,170647589.153713,7853000.0,41180856.795263626,30439000.0,169805195.6609487,12682000.0,65572794.94615656
197,250,3,538955000.0,943859357.376728,291671000.0,551135849.218585,247284000.0,264865441.5597688,-14193000.0,116197201.62264293,14235000.0,27863161.290745854,42000.0,92791663.24706805,-51845000.0,6712517.001890719,37652000.0,140636859.6986861,-51845000.0,50021363.960708395
93,807,1,25334074.0,636891169.3242092,18917048.0,567967256.2837605,5501613.0,94652190.37530124,-536032.0,46367681.786859214,4501393.0,6427392.183801174,3965361.0,4490894.558735132,-2975120.0,1287454.4241551757,2439088.0,85194562.69520044,-2975120.0,15020620.050686523
472,555,3,1934400000.0,2939830500.2549076,855887268.5537325,1443857950.5432377,957200000.0,1314729986.9050436,84000000.0,283669195.53171515,375600000.0,249167145.21793878,459600000.0,468737691.1071725,30800000.0,55280004.160604045,59000000.0,196863200.59269887,25000000.0,62817600.0461955
1345,974,4,102973000.0,1074546301.1358027,162948000.0,629993815.7414908,-346214000.0,406443017.6676222,-13037000.0,70599853.36826932,25768000.0,6683220.059116125,12731000.0,11086142.826260567,-23219000.0,3047493.7822307944,35950000.0,108339356.37736782,-48987000.0,20268529.468484618
1672,1178,0,2501300000.0,3139779115.1683784,1075500000.0,1771393944.3159611,1407900000.0,1569055217.0449789,99600000.0,206823474.49648362,151100000.0,363047479.03661674,250700000.0,473756494.69375503,31900000.0,36566463.48611233,67700000.0,164563364.45468548,31900000.0,34527606.5775643
521,196,2,27910000000.0,32542618095.34298,24392000000.0,18664580414.716476,14058781786.346067,10458636004.838297,1525000000.0,901856359.6695675,6421000000.0,4561904470.344387,7946000000.0,6344491974.028054,561000000.0,236513811.70120066,638000000.0,370953191.50491095,887000000.0,68274775.96154296
1143,374,4,105238000.0,1034298843.9575229,42240000.0,647104673.413775,62998000.0,611324411.2466493,8572000.0,87741462.603064,322000.0,28168513.990134478,8894000.0,59042248.94276607,2218000.0,24271046.773162156,6354000.0,127416088.18910354,2218000.0,31299497.64255348
502,643,0,2010176000.0,2724621510.8648233,889414829.379791,1746720430.3578722,1057656000.0,1569055217.0449789,113627000.0,200020590.530325,250202000.0,330141618.10543936,363829000.0,406820366.6535953,44531000.0,49541677.74071224,69096000.0,145977141.59530804,44531000.0,34527606.5775643
319,277,1,15154000000.0,7703772904.702244,5534200000.0,4649892967.38839,9554000000.0,4703042714.365114,739300000.0,543295852.612598,999600000.0,779412399.815896,1738900000.0,1556844586.5343537,318400000.0,113938329.50206849,315200000.0,388354912.5733123,424100000.0,54572253.0424823
471,1421,2,346507000.0,980147122.8199396,100361000.0,870941400.7005005,246146000.0,299141314.1864892,14398000.0,140568480.69973576,62502000.0,82737121.28971493,72480000.0,120620946.14202249,4926000.0,19765997.76873465,9472000.0,184708086.0454426,4926000.0,47925371.92160109
1756,928,0,229309000.0,1453022033.703668,190264000.0,1082766437.579496,-44269000.0,1456278610.569326,9225000.0,66835017.20868039,52669000.0,94795496.74167407,61894000.0,119231358.51104546,1401000.0,620161.5767436475,7511000.0,73756738.44637212,1714000.0,10945080.06727057
848,613,0,101740000.0,1208049247.1597185,28463000.0,497511294.31777716,50734000.0,1483249977.4748769,29850000.0,31872440.97069174,12745000.0,19419094.45483148,40857000.0,30988710.487730384,2689000.0,811931.2090941817,27161000.0,65394219.52334976,2689000.0,-9478492.813347131
1310,607,1,9582645000.0,5483661986.512577,3280269000.0,2350999745.8233275,6302376000.0,2842979498.567168,376175000.0,339791961.46796185,424915000.0,529933228.9360473,801090000.0,723655415.3653748,272965000.0,82242863.77789876,103421000.0,272391797.4709423,272754000.0,50603146.27278733
202,502,1,609678000.0,1833918306.6611133,288631252.1743736,1177107275.1846616,366720000.0,649152299.0173613,84451000.0,140309311.67069876,21802000.0,158018313.1142388,106253000.0,178345778.8096931,5683000.0,22085290.170559272,78768000.0,143778854.25894535,5683000.0,40359352.764225125
1444,124,4,43441700000.0,29011495658.46476,21559314449.01792,17255490151.750374,21882385550.98208,8105973943.371263,1370000000.0,975206356.4582157,587400000.0,934859213.6643703,1957400000.0,2466415093.2835407,472000000.0,197141773.24723485,1485400000.0,1021344902.9559318,-115400000.0,70347224.1547055
1578,1121,2,1146353000.0,1948904403.6338687,752649000.0,1347486078.3180382,393704000.0,794834249.3133934,95229000.0,230590392.85799286,32092000.0,170059843.75875062,127321000.0,352758198.1977804,-58245000.0,25999038.140381068,153474000.0,185078618.29304078,-58245000.0,58365733.720890075
451,840,3,796771.0,627164096.5705314,1072746.0,49870959.67421436,-275975.0,-27728710.97779584,205707.0,36188398.2100181,158335.0,-12892855.116356373,364042.0,19099500.431185126,-168127.0,-5364498.866279483,373834.0,90776006.32967407,-168127.0,-7179902.945492625
35,1605,2,9069035000.0,5566666291.472932,2563480000.0,2494643310.8460035,6505555000.0,3227530758.368498,942419000.0,449699656.67138815,522866000.0,592713793.2109166,1285548000.0,1210640561.8774025,602695000.0,184761216.6986869,339724000.0,241556070.02753824,602695000.0,58587182.66202764
237,1328,0,48924605000.0,40266272636.085815,25766652000.0,21887124832.53441,22441501000.0,5117833390.325331,1560160000.0,1316119034.9500403,915531000.0,920208163.6877024,2475691000.0,2894994327.3611326,558196000.0,445601121.5638871,1001964000.0,1039439577.913601,558196000.0,277381332.48297614
917,299,4,514281000.0,1494923978.3477554,309957000.0,913027720.3086348,198004000.0,806877646.9068278,106985000.0,164564226.0925367,149052000.0,149896798.90042597,309744000.0,221964850.9494723,62399000.0,29633188.204595484,44586000.0,166544588.28610107,62399000.0,45659526.29782215
558,1592,4,17876000000.0,6595464885.898594,4077000000.0,1563606168.6920714,13799000000.0,4542650050.342913,-917000000.0,324352415.95868075,1453000000.0,412005792.31844425,536000000.0,678132702.0096378,-1774000000.0,24027038.68856539,857000000.0,419106378.3602593,-1774000000.0,-20241222.368336096
73,1398,0,218354000.0,1510153913.2245698,62021000.0,941315084.9757066,156333000.0,1530387277.910962,-143000.0,47940108.82416624,848000.0,31692497.227819204,705000.0,53662260.671312094,-31577000.0,-11109275.471090868,40859000.0,65204562.88793033,-41002000.0,-585366.1949862912
532,116,2,2268100000.0,4058170399.509241,1627400000.0,2222827739.4253435,640700000.0,1288885886.2180893,78400000.0,333957439.37111247,665200000.0,550713704.9117026,743600000.0,835820053.7620993,19100000.0,46056009.68223222,724500000.0,357034403.63352495,-646100000.0,56209249.359313235
986,1241,2,49117000.0,312936076.4491396,7104000.0,388632825.6511812,42013000.0,59261556.0716362,1616000.0,76103276.27329242,3273000.0,23123066.964678288,4889000.0,3012596.0796780586,-1489000.0,11260819.125153124,3105000.0,123277861.21565804,-1489000.0,33922856.22573374
252,13,2,12822000.0,171134946.40310097,1624000.0,229146598.1487913,11198000.0,-32130989.013980627,0.0,13137180.875154436,0.0,-27804992.639635444,0.0,-25904381.6068089,-1983000.0,4495747.033475429,1983000.0,71340353.98893279,-1983000.0,1737667.0263373032
982,352,1,543788000.0,1647483456.2965355,205894547.02387,1036793138.3453786,402777000.0,626653714.0412798,1944000.0,133067682.18109328,0.0,65815711.51085079,1944000.0,163114426.0334518,-51279000.0,14817315.749691322,53223000.0,160829039.0912466,-51279000.0,41569932.099110596
1947,1444,4,16965000000.0,15046670023.937256,7506269391.549871,4944193469.776187,7744800000.0,4419261210.140764,1329900000.0,836963525.0029197,1175700000.0,912230684.4012523,2505600000.0,2298029050.8960896,1069200000.0,515784454.16936874,32700000.0,352795118.66615725,1297200000.0,47280817.696937956
1206,430,3,29788000.0,1121588222.267262,27907000.0,646873593.4781036,1881000.0,283696140.98813605,0.0,147677602.03235453,3452000.0,923794.4133586884,3452000.0,49302120.31073642,-23801000.0,14690382.486424908,23801000.0,159712688.42419007,-23801000.0,48437603.57277705
542,123,0,39315010.0,1211778335.1447496,15768167.0,370119797.55826664,23791305.0,1442715942.8071194,7600979.0,23228245.790354967,41810204.0,15878074.995058417,49411183.0,49090613.06810486,-1588725.0,-3366169.835574642,9189704.0,51809910.80441266,-1588725.0,-16194959.626582474
15,385,3,184728000.0,962833986.8888087,40367000.0,639930354.8416672,144361000.0,267574900.5189792,0.0,115107713.18812668,8094000.0,-11344225.73788011,8094000.0,33384189.094489574,-23114000.0,8358640.874255717,23114000.0,141867655.23193341,-23114000.0,19681194.600785732
1754,1014,4,5014090000.0,3785250017.097771,2606263000.0,2208647000.702512,2407827000.0,1760572766.110792,420690000.0,375054176.78164816,905430000.0,541024627.0502379,1326120000.0,831445320.9983083,237492000.0,105789859.89608836,183198000.0,261274305.0090562,237492000.0,56398762.46661977
1448,316,2,3543460000.0,3068644485.4734406,2602227000.0,1710203304.7365272,941233000.0,901015119.4566634,443568000.0,266063680.4206854,134292000.0,344648429.0884119,414603000.0,704929586.6147029,14363000.0,31922190.415274315,429205000.0,233977743.619426,14363000.0,67644499.84708205
459,80,3,747087000.0,1596150037.8031864,79688000.0,1141862459.288342,667399000.0,598942679.2788439,34565000.0,155662832.1859266,22203000.0,59188872.840931654,57261000.0,140682215.8248341,-16306000.0,23708667.067690372,50871000.0,166248141.4952073,-16306000.0,58130272.364561126
1505,982,1,4578121000.0,7166393424.645472,2310023301.364386,4263643881.9114976,2489780000.0,2345360693.336087,2190001000.0,1814673903.0387168,-1465670000.0,-49900003.07567835,724331000.0,1436004116.868043,216069000.0,213368046.53119162,1973932000.0,1379303252.0617375,216069000.0,60467016.25745927
1613,267,1,11895943000.0,7491795058.48818,3479745000.0,3738671104.2768965,8416198000.0,4244882653.512302,335683000.0,464316362.71939063,296441000.0,580855048.4904536,632124000.0,1056443824.7757554,90949000.0,2672693.2326461077,201199000.0,354032017.3266131,134484000.0,55144521.046403356
1214,941,2,1059300000.0,1868610178.8274293,513000000.0,1552986239.626416,545000000.0,837771159.9402013,132000000.0,243774545.0614397,172700000.0,227961600.8254239,304700000.0,316939724.5787158,34700000.0,46153363.89500893,88200000.0,195068437.07055518,43800000.0,58587182.66202764
454,977,1,11204065000.0,8659462440.83358,4242197120.938668,4850846410.257858,3489373000.0,3855797072.2748694,480702000.0,433826635.83831704,457696000.0,549810080.0662483,938398000.0,963606364.9169164,172392000.0,79639755.0654284,308310000.0,402681239.49385303,172392000.0,31511823.869278584
1392,303,0,531121000.0,1985870442.2781959,248900000.0,1431378173.4714692,282221000.0,1569055217.0449789,62379000.0,110600493.93726802,135419000.0,197458594.91255414,197798000.0,252654356.2741661,18703000.0,26583979.954235405,43698000.0,101602168.76191461,18681000.0,20355400.9138866
1519,1560,3,961035000.0,2549156031.9691925,1381722000.0,1755848336.7217143,-420687000.0,1137567823.91326,271111000.0,269820490.9867406,201537000.0,260996781.50795627,472648000.0,537924011.1710029,5387000.0,44423418.68115263,265724000.0,211373153.68342948,5387000.0,67203194.8878318
1060,1032,1,3194462000.0,3002148255.4314184,1643299000.0,1753006875.0973518,1512215000.0,1490106002.7603009,817744000.0,449207538.52459466,0.0,264461193.67438954,817744000.0,704768580.0007849,37900000.0,56614647.192548476,779844000.0,309247315.11038697,37900000.0,51185446.54355015
1100,1277,1,6042273.0,612669701.5576253,3627261.0,291057955.1863165,2415012.0,-18819013.39760804,0.0,38684517.13545382,0.0,-10457187.720122337,0.0,-6125950.8766412735,-1829562.0,-4767393.54003346,1829562.0,77038195.83985955,-1829562.0,-18030743.50579816
203,261,2,76266906.0,557280825.3943224,57438990.0,440838060.6598897,40912361.81482647,92138513.49240828,9146097.0,82776109.16817504,0.0,-3061239.5794719458,9146097.0,9573488.212973833,-2633902.0,11927587.840227649,11779999.0,131811832.13981795,-2633902.0,37625552.40266634
1493,405,3,-3532973000.0,-607924976.2328968,-2747133000.0,-2658965835.145068,-773571000.0,706203816.1764843,87737000.0,242467921.20614702,40236000.0,344423315.7569757,103187000.0,708566624.2614838,7123000.0,13089825.93432954,80614000.0,208822557.39783162,7123000.0,72449848.69269332
543,9,3,846734000.0,1475534823.6543617,635659000.0,942223513.4149652,69332000.0,468924250.281577,204774000.0,160435883.3210104,-13024000.0,29187149.865834713,191750000.0,188023898.43722534,-52860000.0,25922501.262127906,257634000.0,244316070.03818607,-52860000.0,45822725.05286588
1966,415,3,1354514000.0,1612402833.8959203,675720000.0,901534697.6573315,319291000.0,615199601.9417756,-16558000.0,178545053.31937313,64132000.0,109901464.22145033,47574000.0,132571181.25657618,22229000.0,27031133.893912733,13428000.0,174228865.76093784,-29986000.0,52083323.30998096
1802,888,0,270533000.0,1500103909.3114748,240046000.0,1136286134.143106,30487000.0,1456278610.569326,26052000.0,59446549.96567744,12454000.0,64404571.352490306,38506000.0,72667605.77271664,-21038000.0,-3381970.7659151256,47090000.0,70094386.35914135,-21038000.0,5554139.51303833
1372,500,3,583783000.0,1887987839.22828,717382000.0,1211372046.1570501,-133599000.0,656130381.462521,41865000.0,193680428.55944437,32703000.0,139529280.71198338,74568000.0,190265309.4595158,-32006000.0,33893626.988841936,48224000.0,178483813.95503387,-6359000.0,55927951.71612501
1325,678,0,534446.0,1322796031.218462,9794849.0,332401277.0618887,-9132038.0,1456278610.569326,6264.0,13299909.342855811,3881.0,-9968400.217961669,10145.0,15815580.39782083,-961868.0,-4822256.790842861,972013.0,37495785.79258472,-965749.0,-7745563.679950282
1504,581,2,106308000.0,697884243.1883907,29369000.0,874163170.7269802,76939000.0,210261075.16939688,15630000.0,111681880.48844391,0.0,14162621.400065064,15630000.0,34861055.74822116,-23899000.0,12778139.671113089,39529000.0,143754085.599861,-23899000.0,41169534.16222836
1347,435,3,369031000.0,1627692258.6276484,216722530.1814524,1198115690.5189338,188777000.0,674597345.4792798,45044000.0,148837027.42091143,42173000.0,139443188.24808198,87217000.0,222970354.40063727,-3804000.0,30979862.203888223,48848000.0,215830729.29301277,-3804000.0,60196859.19879024
1492,360,3,327784000.0,1351079075.6328511,323919000.0,856758037.8132663,3865000.0,421822535.64826,33496000.0,158081722.70440406,8201000.0,43396224.25894821,41697000.0,94048963.06394374,-4913000.0,29043065.431947812,37287000.0,151629254.5013726,-3791000.0,55904136.36628911
1107,1471,2,85658000000.0,69812397333.35277,88335000000.0,63979917705.19325,-2772000000.0,4643713928.38695,5387000000.0,5861815043.33665,14002000000.0,14445426170.55406,16935000000.0,24926978370.618664,1165000000.0,2213148776.2757645,4222000000.0,3048233945.0494895,1165000000.0,182662948.90159363
1336,16,4,898860000.0,1827633128.4205704,527877640.3036609,955248290.9856572,360528000.0,561860179.9181837,68259000.0,127584150.89694887,42065000.0,109422975.06733155,110324000.0,191525798.07322335,-1325000.0,22408805.375026137,69584000.0,166437292.29053512,-1325000.0,28887703.417429924
599,1259,4,50546000.0,909873899.5913982,5959000.0,429987300.56197786,44587000.0,484386867.708897,1989000.0,47419170.081840396,1909000.0,5077088.830890894,3898000.0,27529374.826919436,-1895000.0,19904122.82904741,3884000.0,114160713.46458936,-1895000.0,24685916.292264685
117,1466,2,939056000.0,1292220684.1304479,419590000.0,1229673190.839466,517473000.0,630278871.5614661,90527000.0,199196633.0354014,120216000.0,165155453.7734484,210268000.0,249771523.86280107,61012000.0,35849303.50733789,29515000.0,204521775.5859913,61012000.0,58587182.66202764
1825,1105,3,20027115000.0,11806702185.66731,12952737000.0,5863696479.96479,5611108000.0,3901528041.8724427,32786000.0,406054903.5234108,283742000.0,523235310.5903725,316528000.0,1013950033.0223986,-1347477000.0,71778374.66393408,1910658000.0,357590210.47035086,-1877872000.0,48979193.59490658
1507,930,3,124094000.0,1090687696.625723,18130000.0,536906140.7539535,105964000.0,144403735.94724035,830000.0,126789772.14552289,0.0,-6551537.8714261055,830000.0,26464295.210656404,-5787000.0,16313475.848339036,6617000.0,138231508.7901423,-5787000.0,52142411.05051984
321,688,0,68675000.0,1531022785.0742803,40331082.646745786,962185225.2105136,53645000.0,1456278610.569326,10938000.0,41819124.33171159,6604000.0,69775080.27297866,17542000.0,66432317.67046428,880000.0,1013739.4376031309,10058000.0,67903509.86947763,880000.0,-20690470.679150313
1482,964,4,1833700000.0,2527175979.1687913,811331929.4597701,1459362857.2581296,482900000.0,1362025335.2005725,110200000.0,231740323.66716456,356000000.0,360194384.800074,466200000.0,558333574.6791852,45700000.0,46042111.29007271,55600000.0,207868567.11367264,54600000.0,52174884.50025188
508,608,0,62515472.0,1345709410.8024535,29595817.732691668,946475004.2566762,21861273.0,1456278610.569326,7032458.0,38517730.05822444,11256239.0,50196329.32538164,18288697.0,42070228.811056495,-1564350.0,2111544.841037452,8596808.0,54747478.68652952,-1564350.0,2177741.1337227747
1411,715,3,33859785.0,704168990.8877673,6178818.0,226520690.47266674,27680967.0,-42170795.07477212,-63384.0,72274224.66487336,87873.0,-22018575.361477137,24489.0,-5166379.556353331,-2675666.0,9157889.372574463,2612282.0,129995863.40121138,-2675666.0,23776702.78311616
718,899,4,770792000.0,1977203845.772873,581187000.0,1453202467.150012,188503000.0,921835137.7044129,456709000.0,202920730.48474798,0.0,185221666.35792774,456709000.0,366564703.2026582,-29756000.0,15728828.235704198,486465000.0,204531376.73184463,-29756000.0,42397904.915452674
1865,42,1,4753100000.0,3379802413.878833,2691038000.0,1981733220.3434286,2062062000.0,1378448173.096601,383135000.0,359107173.0955932,0.0,258622998.56594455,383135000.0,611401762.1656365,126771000.0,70975466.98733376,256364000.0,265872239.5055014,126771000.0,52380713.062421925
710,971,2,9330700000.0,7205952498.500005,4987700000.0,2515792386.8014536,4343000000.0,3105986228.4998074,590200000.0,347232582.83844453,367100000.0,632742853.9251348,444000000.0,1130794065.6578543,121300000.0,82843245.24417393,468900000.0,275501109.16364443,121300000.0,58093832.19257916
285,867,1,1797231000.0,2938966263.3064766,1568932000.0,1472975780.9839313,228299000.0,1012793733.248878,143030000.0,227626023.0654205,0.0,159091645.08051574,143030000.0,508311105.7451178,-113543000.0,24879840.216797844,256573000.0,246694248.14223507,-113543000.0,44657339.39715068
1609,632,1,90048000.0,800392639.3014183,45436321.63528667,689362347.8113866,37547000.0,287435024.72286165,2482000.0,86477300.81768698,9262000.0,30960889.912605524,11744000.0,51741111.117167234,1360000.0,10940718.241663396,2815000.0,133054081.1054487,-333000.0,6461539.415270463
1814,1285,3,190817000.0,1485158075.5536613,91955000.0,739255293.4710326,118567925.39840196,434331158.7690865,16838000.0,160023836.41380844,21962000.0,39061185.15871227,38800000.0,74764467.3575244,3292000.0,29731672.686357096,13546000.0,148452997.56206,3292000.0,63943812.28533668
720,1550,3,24930824.0,898618748.7776556,6278564.0,442208531.1726198,18652260.0,165762614.28842402,7866761.0,90589292.55380356,20382092.0,-4657632.374713659,28248853.0,21934906.072672367,1448213.0,16989936.508211926,6418548.0,139523947.6614536,1448213.0,43401918.1757511
1707,403,0,6071000000.0,7511366139.239746,14261000000.0,7388169312.466028,-8190000000.0,1730859422.8644788,1287000000.0,1404132086.8681827,421000000.0,608149910.9534523,1708000000.0,1604260330.6173987,613000000.0,371428057.9135795,1095000000.0,936468708.3769237,192000000.0,64900342.01343823
485,1126,2,5768300000.0,5424473035.105728,3017800000.0,2501277006.8536215,2739100000.0,2078489623.3188522,487400000.0,350004248.88637674,888400000.0,867362256.2211255,1375800000.0,1298058436.7361455,276300000.0,130363364.96997616,211100000.0,228434190.62029123,276300000.0,58587182.66202764
1364,820,3,3486179000.0,4075898402.164793,1927467000.0,2074471580.6789947,1501742000.0,1588164359.5343506,315111000.0,320067416.99012816,669472000.0,578748052.4337997,949217000.0,874878336.67611,-24190000.0,52741153.02453044,194277000.0,243187188.1851684,120834000.0,40619975.99156671
1943,1443,0,496042000.0,1757101554.96494,349488000.0,1337821428.5857332,146554000.0,1478388664.1476617,33924000.0,120169960.38625222,212763000.0,165127306.43301386,246687000.0,242289258.45099783,12448000.0,16556376.230995744,21476000.0,95631479.78215134,12448000.0,19142030.658268847
708,1395,3,1713800000.0,2799531512.152087,864747334.9608463,1536225176.1019232,585500000.0,1200746984.6926186,141400000.0,277132395.6249623,205900000.0,230504839.76239765,347300000.0,462881929.8256185,100200000.0,56615809.52614124,64600000.0,235409646.29152477,76800000.0,63997023.24290098
1795,402,1,5817000.0,623376109.156354,1413000.0,453507108.3139725,5436000.0,29328866.132065058,5000.0,41702326.040690064,0.0,-11946304.088538885,5000.0,-8213978.868362665,-3525000.0,-3730017.714037791,3530000.0,84986498.66678804,-3525000.0,-4693533.950606495
1196,399,4,4180537.0,916984775.5638962,13379601.0,558239150.1849408,-9199064.0,454044712.61509144,1107842.0,85900010.85929734,974711.0,33873060.01614416,2069845.0,45510457.33807385,-2577294.0,17819971.870312586,3685136.0,116133513.15569216,-2577294.0,29338148.702230223
1785,1101,2,6656000000.0,6978878534.044237,2127000000.0,2681864453.997912,4529000000.0,2812203557.5179577,386000000.0,382284440.8316781,110000000.0,732808125.1319214,496000000.0,1453153500.251423,-53000000.0,64141791.69965672,439000000.0,273799469.43069416,-53000000.0,58343214.43085828
1117,258,0,191593000.0,1647887893.6892028,250675000.0,1247337272.252087,89973054.63642293,1456278610.569326,28173000.0,71154870.29232937,35245000.0,118042449.89490783,63418000.0,112845496.3581568,-6852000.0,-1778806.471248731,35025000.0,83830410.75407147,-6852000.0,10799263.687499546
611,576,2,69753000.0,429662970.59789085,24624000.0,704594908.490736,45129000.0,214826541.7365347,4333000.0,115273652.72843957,3937000.0,40368638.126711965,8270000.0,49362603.18131852,-17948000.0,9468291.959450752,22281000.0,142027779.97422123,-17948000.0,46691825.562597185
1037,1217,1,12798100000.0,8313894799.834091,7698700000.0,5155954323.974016,5099400000.0,3565967263.511521,578600000.0,512028560.51930815,1141600000.0,935923145.5206015,1720200000.0,1914761219.1658478,210200000.0,138338296.02840096,368400000.0,377972099.3421927,210200000.0,50531865.54392114
1049,72,1,41718000.0,737975087.0943666,16883000.0,545910565.2839413,24835000.0,115494562.83260989,4472000.0,56253751.162594974,-7000.0,18198091.71396339,4465000.0,7748771.3055154085,467000.0,5611639.227204829,4005000.0,95174382.2844286,467000.0,17153230.738785855
181,703,0,2175066000.0,2139616305.2753983,720018000.0,1332082261.1651356,1455048000.0,1627809237.8218844,262895000.0,173337974.64631018,0.0,152755572.71467996,262895000.0,303502029.5925802,-74357000.0,-4523306.42750524,337252000.0,144731459.14125353,-74357000.0,4604099.990209401
1530,350,3,432444000.0,1289310102.914689,58115000.0,914555129.2375455,374329000.0,458957876.7203698,30953000.0,154819074.86407095,9019000.0,39037446.40563142,39972000.0,92383371.39039028,-4508000.0,26099954.60958591,35461000.0,158710868.33312488,-4508000.0,64067852.0477505
1172,1288,0,1951144000.0,2682539906.3736935,976648000.0,1687435972.2795522,828149000.0,1552497331.4892979,81471000.0,189264237.24978977,811299000.0,430560938.20644677,892770000.0,466591770.7624228,21174000.0,14995463.842521474,35340000.0,148568312.20331886,46131000.0,37302732.1578936
1844,591,2,5184000.0,316893228.6240907,33317000.0,-26107950.430778027,2568262.933576247,94744986.48168635,28000.0,18794145.179867923,1138000.0,-18122433.763078094,1166000.0,-19975277.61246538,-1174000.0,-6233792.878009886,1202000.0,69311637.33952445,-1174000.0,-36419748.20869845
937,1025,3,30042800000.0,19854395481.075775,15158963259.867964,11082399341.626545,10331300000.0,6784069752.5036,1541600000.0,836523824.2925506,2284300000.0,1629798501.1537101,3825900000.0,2994339573.142214,727800000.0,352968722.20050824,402100000.0,310860405.7268908,1139500000.0,79628924.81126978
1319,64,4,3143366000.0,2359199197.733749,724791000.0,1423009914.6665702,1686216654.8151803,1098054042.250579,293240000.0,277911080.7336943,0.0,194248078.40780157,293240000.0,411154572.96966577,242794000.0,65781429.38107838,50446000.0,228919113.3469954,242794000.0,44795201.30705224
785,477,1,2558318838.0,2305001540.7805986,289865031.0,1464389334.1673164,2268453807.0,1319528146.974394,191440633.0,244962903.79852888,384407857.0,351644944.76521593,575848490.0,382268684.9964918,122416529.0,63956369.595542565,69024104.0,189036363.69299185,122416529.0,51337917.54143898
534,1553,0,355784000.0,1598955256.0705795,359982000.0,1271838847.1212535,21035000.0,1552497331.4892979,21274000.0,87242754.62710363,23247000.0,126983956.7350862,43857000.0,169277823.71595037,-2501000.0,3519121.9185286164,23775000.0,89144699.74620986,-2501000.0,16504966.46461092
1073,476,2,107571000000.0,104049008155.82442,49865975585.04998,53270704205.25915,57705024414.95002,53259047993.406685,4680000000.0,3463036961.5842867,16059000000.0,17820166838.831528,20739000000.0,20020940055.805046,2233000000.0,1470501637.4598448,234000000.0,1218629889.7969842,4446000000.0,482153200.7476915
871,1269,4,357016000.0,1298272782.7553334,134021000.0,846533873.6154032,222995000.0,625780935.3346416,10859000.0,100019480.54358721,60424000.0,59342752.53726268,71283000.0,101878960.22766376,4410000.0,26665501.133031324,6449000.0,140207453.46665096,4410000.0,47381206.64770736
145,789,4,10492900000.0,9862568068.287422,4642648635.342979,4163754027.5096045,7724300000.0,2827450091.111709,1077000000.0,672937469.7006893,2546000000.0,2156529186.261505,3623000000.0,3282517440.434686,389500000.0,289725114.876984,626900000.0,388088204.6392419,450100000.0,55529227.073926896
1137,1457,1,221167000.0,1366478118.294239,272405000.0,926238557.890091,-51238000.0,434825993.890231,26384000.0,114000366.82433313,0.0,64014430.284080744,26384000.0,109772275.10053599,3123000.0,10538607.620880365,23261000.0,166713390.07417372,3123000.0,34192781.174041025
1853,892,1,644700000.0,1903387234.5137992,668700000.0,1177154537.0422196,-24000000.0,603382976.7376812,11300000.0,178174970.1786447,30400000.0,152459511.47823966,40500000.0,209458585.94811976,-2900000.0,28888098.17955658,9300000.0,139167268.16636622,2000000.0,50974529.725800864
1607,1187,1,5733000000.0,5680401195.86222,4386600000.0,3169491741.8989277,1332700000.0,2025038380.8151383,508800000.0,457405155.06608087,1740100000.0,1242603991.6937468,2248900000.0,2094351990.7003188,201100000.0,113616775.20045929,328200000.0,333760698.014356,180600000.0,58740363.1918067
497,794,4,3187469000.0,2712462349.934548,1581882073.387936,1784813196.4250727,1402929000.0,1266477375.9266963,12023000.0,279323096.90823245,118303000.0,302164300.08870524,130326000.0,479789612.28397834,121116000.0,53692526.82182234,236940000.0,255508815.75595456,-224917000.0,43499191.65488474
1789,378,0,160962000.0,1608500343.0238118,136871000.0,837557716.7792354,14091000.0,1488846101.0238702,33234000.0,42888220.83324534,28516000.0,82392868.77799809,61750000.0,76525499.52802217,-4105000.0,364814.13996972144,29699000.0,70810627.27807164,3535000.0,-31348245.861483395
1733,1536,2,1070082000.0,1471832502.8707209,790095000.0,1315945672.826426,279987000.0,566919679.0659115,59499000.0,220984257.38345206,92514000.0,114636023.00185776,152013000.0,218200349.8040427,-6147000.0,23104646.964394614,65646000.0,182653356.64924338,-6147000.0,56958254.29925811
1735,1438,0,55335000.0,1469036209.2104836,11648000.0,801914498.9576049,43687000.0,1456278610.569326,13874000.0,39837037.74341613,0.0,20487433.434752107,13874000.0,48410691.45814669,364000.0,3643068.239815995,13510000.0,56397199.966527164,364000.0,-1051154.4635524899
1273,234,4,8855100000.0,5878930404.411063,4468096700.788768,3427200237.1474023,3543300000.0,2187016252.939692,468100000.0,445192176.41462344,2041800000.0,1049986950.2113979,2509900000.0,1706275402.2929213,256500000.0,85253552.9596407,211600000.0,244480181.20540506,256500000.0,50686645.758270144
226,900,3,1045317000.0,1823822371.872179,491551000.0,931599718.904037,553766000.0,601657886.5615011,49476000.0,161326513.8359354,27012000.0,78791531.13136208,76488000.0,162083019.7355008,5569000.0,23067518.188291967,43907000.0,159570702.04553154,5569000.0,8978168.235844344
856,950,3,3335011000.0,2658402228.4284515,1532336000.0,1515995562.4765055,1376443773.6613572,1005550367.9901415,158805000.0,219638443.1788967,458734000.0,259506245.25484896,617539000.0,461964755.7569009,82276000.0,50272387.31057009,26748000.0,188643113.64238116,132057000.0,41044695.972849615
610,1027,1,50788000000.0,36281534370.6714,23543456582.29001,19522891798.65708,11845000000.0,8670538613.551363,1286000000.0,959321714.3892571,484000000.0,917808015.3914732,1770000000.0,2185347975.0036426,994000000.0,477296286.6408193,146000000.0,580657016.767691,1140000000.0,159316199.86136508
434,784,4,9209798000.0,4136826517.180055,3242862000.0,2313694988.0623507,3654836000.0,1518454752.8437965,758604000.0,399553872.3016224,-63000.0,316422422.59379345,758541000.0,624757476.6840527,306700000.0,94820750.34052499,451904000.0,232374807.4680917,306700000.0,48121500.39485437
1765,676,2,3861516000.0,3825249714.8165483,3060094000.0,1971293618.1514006,801422000.0,1401928656.7104676,246503000.0,317553798.4248397,543454000.0,498506334.8122989,789957000.0,755110757.3454113,-286586000.0,56549677.9516528,130761000.0,207361173.8197393,115742000.0,58108082.307303175
667,1311,2,3117800000.0,2772834254.227682,2444800000.0,2016714484.7429857,673000000.0,1020650963.7495881,86700000.0,279646100.6663327,411500000.0,382524740.08420944,498200000.0,503305225.87255895,-419900000.0,45120316.10967157,63400000.0,211264921.52332833,23300000.0,58587182.66202764
1194,1323,0,84073.0,1041256673.6131811,2814055.0,248581285.13633013,-2729982.0,1483249977.4748769,0.0,3934455.764600098,0.0,-19668415.207180023,0.0,-8251257.869248986,-647078.0,-10366100.781722814,647078.0,33899244.916409194,-647078.0,-20277368.878293857
626,969,4,250689000.0,1328157551.338122,83024000.0,768850685.0071626,167665000.0,526338537.8816787,0.0,96915840.37074953,33193000.0,75758038.95673096,33193000.0,59908375.61444163,-43672000.0,10856375.977365702,43672000.0,135522847.66062936,-43672000.0,39533582.09996479
1654,675,3,2267553000.0,2715550498.1634827,1375272000.0,1463470274.0866604,519294000.0,1125180765.2646856,30179000.0,255228542.39084023,36686000.0,187092221.9197169,66865000.0,372949871.4976231,-15417000.0,55339653.347092055,38864000.0,209206307.46009853,-8685000.0,65572794.94615656
288,444,4,2221575000.0,2668456595.047034,1034139000.0,1706127544.2214465,1187436000.0,1311915259.70931,131964000.0,277598011.4135964,106311000.0,271618470.54771084,188755000.0,434362645.904385,3712000.0,51790886.90220816,128252000.0,219009707.97271377,3712000.0,49386974.35510416
1665,633,0,555271000.0,2002660807.4201875,273881000.0,1328985942.3940086,281390000.0,1569055217.0449789,77610000.0,96733349.17714572,73228000.0,182238040.0254941,150838000.0,213591604.7322756,6400000.0,3558647.6618284583,144438000.0,105626561.141314,-66828000.0,-4753696.621457458
652,1061,2,1810200000.0,1768560238.9616575,1334200000.0,1764056059.4873037,472000000.0,834204097.8913085,111400000.0,215746562.712194,439000000.0,278025912.2974851,550400000.0,333669570.6946008,53300000.0,26876536.73638715,43800000.0,199412428.36166233,67600000.0,35252076.06024219
1078,508,0,339972000.0,1452210438.8212533,145992000.0,984080369.9804282,193980000.0,1502054292.12851,800000.0,52004372.683620274,85000.0,28134419.7780025,885000.0,72218778.47824061,-35502000.0,-8917822.777235419,45899000.0,77389081.84645078,-45099000.0,-5429961.4292450845
778,4,2,992330000.0,2024486636.2113128,401273000.0,1314730235.4302986,544681000.0,711147014.1721845,417282000.0,236984362.6409717,0.0,181267115.43831939,417282000.0,311201760.1039709,5536000.0,31127324.497765265,411746000.0,194308170.03808612,5536000.0,48788061.022716366
29,1129,4,600271000.0,1650321930.7482204,137438000.0,953201056.1394577,462833000.0,648362445.3123242,73869000.0,133519883.45334518,24421000.0,99614499.80955052,98290000.0,168296601.97324634,-8089000.0,26415627.250035703,81958000.0,162796048.4472799,-8089000.0,49386974.35510416
854,1361,2,47193000.0,533395155.62855196,31000000.0,499297690.8151641,16193000.0,58704671.9670732,4954000.0,85256025.75299561,3898000.0,16475080.38795185,8852000.0,4179077.5623568296,-615000.0,13052976.36049831,5569000.0,144134814.8395982,-615000.0,46131300.9412248
1423,1432,1,150549000.0,1179290774.7304378,163792000.0,839242133.4272933,16674000.0,420671564.2375504,28323000.0,107342439.11277825,6429000.0,76482609.73868692,34752000.0,103645918.54208124,-13758000.0,14024724.975201443,21733000.0,129454451.99875033,6590000.0,36435867.51367399
1406,626,2,62996000.0,452249264.45300436,12638000.0,340988348.8764863,50358000.0,97116866.47780871,9919000.0,70657881.46228379,5920000.0,23477932.2411294,13543000.0,24319825.33288634,1979000.0,11807951.876239523,7940000.0,140715725.91743195,1979000.0,42860724.60603087
1624,39,4,56415000000.0,39394901747.85417,26707757359.48695,20047068567.173462,20622000000.0,11531716640.885696,4258000000.0,2514345196.4752054,2744000000.0,2951670617.7347684,7002000000.0,6560889325.040663,471000000.0,459375147.15106696,1302000000.0,918476502.1235701,2956000000.0,602252627.9174914
926,747,1,572995000.0,2003249192.9949183,271264937.13018215,1305912362.7761776,210105000.0,712641164.5405297,-46109000.0,167399320.23403913,111142000.0,156002344.2748062,65033000.0,212157861.67839217,53448000.0,10947829.539309993,184993000.0,216546801.09697017,-231102000.0,38829108.85900811
1324,523,0,11156646.0,1264908883.3002653,14063458.0,445940149.9405203,-2906812.0,1456278610.569326,-483256.0,14932051.800996304,692752.0,-10015605.783316255,209496.0,22778437.129906893,-2378023.0,-4959016.336354181,1407493.0,34502560.960157335,-1890749.0,-4344119.273456261
809,1220,3,746651000.0,2104000965.5259519,563281000.0,1050138687.761683,350347808.70326334,695486382.0813795,20268000.0,198197974.06282818,132273000.0,182236600.3593232,152541000.0,251648265.35018528,1482000.0,35212242.37698317,18377000.0,183696622.99320555,1891000.0,40075992.32156754
492,1190,3,203605000.0,1629779159.3400722,164863000.0,907257299.2590961,38742000.0,546953127.6313616,38308000.0,171635798.83420047,13284000.0,65985570.61003184,51592000.0,103140682.58464944,8585000.0,34620024.93007392,22801000.0,153536339.09588584,15507000.0,64825019.33754513
383,92,1,35610551.0,821768751.0162868,44852933.0,511575597.4715905,-9242382.0,199028829.53959656,3037874.0,70768578.59977436,5691278.0,12919513.254375339,8729152.0,2310409.3151624203,-7028283.0,-724627.4286550581,15757435.0,123658416.71103168,-12719561.0,-15435752.460349858
1250,1564,4,4596600000.0,6205364611.0617485,2319347415.031524,2782169189.1545687,3466600000.0,2069081298.6811771,2555100000.0,646670765.0600193,3033000000.0,1207338181.2952704,5588100000.0,2310312152.8650103,1174900000.0,405019902.5595541,1380200000.0,409426523.910174,1174900000.0,55295174.83382361
229,23,1,3802385000.0,2968481403.5924635,2636965000.0,2131881505.3452969,1165420000.0,1030862966.2536428,157645000.0,299634293.22245467,488142000.0,441805637.4913635,645787000.0,596570323.8269854,66824000.0,64319867.09083147,83253000.0,226660536.426431,74392000.0,54572253.0424823
1531,1500,3,12852000.0,742089946.8201585,5815000.0,284752990.64308214,7037000.0,24505337.216841698,1838000.0,69607348.11562371,1427000.0,-28374712.32196617,400000.0,7152705.489527941,-1116000.0,14109436.512431964,2954000.0,137018248.84553704,-1116000.0,33701448.79996795
1035,1501,2,11747000000.0,13686683142.74026,7158000000.0,5277411093.33791,4503000000.0,4655878886.465254,770000000.0,763090797.3872179,1424000000.0,1381652762.5195107,2194000000.0,2452612650.9242992,154000000.0,157134916.0151356,2040000000.0,907508767.5300237,-1270000000.0,55351849.70358153
1774,999,4,7236206.0,1007486403.2512689,4913744.0,334303479.9905443,2190428.0,344245387.968423,634746.0,52289782.607590616,2326079.0,3330621.580529332,2960825.0,9438892.034391403,-234151.0,3705540.164880708,886442.0,96961476.0584495,-251696.0,8752367.521175317
868,173,0,6411000000.0,4160417001.594239,3370100000.0,2102678938.7364933,3176144611.7201624,1697980405.138542,371800000.0,332890356.85220313,637000000.0,546624619.6294086,1008800000.0,903124384.462343,180100000.0,90131992.31817922,166200000.0,217765950.84885234,205600000.0,64124343.27222905
1391,87,1,345836000.0,1385581451.4910202,48837000.0,1002777693.4040129,296999000.0,522931310.2118161,3870000.0,118136681.03888679,113328000.0,106135826.59940422,116752000.0,124203428.5752945,297000.0,15120938.306364536,3573000.0,131778272.52681047,297000.0,30996111.569177035
1734,908,0,20108000.0,1243695887.8721619,9068000.0,596297344.2650304,11040000.0,1456278610.569326,3847000.0,28111683.5938946,661000.0,4388574.355925441,4508000.0,23541175.76236415,-4126000.0,-8192930.001334414,7973000.0,45082716.554756224,-4126000.0,-5146358.244174138
1416,557,1,1564856000.0,2526597336.885914,1122858000.0,1378135652.5563445,416354000.0,1049852695.5970218,276207000.0,255097445.25793764,-11227000.0,163882388.3401904,264980000.0,398448137.5452255,5657000.0,27749354.19111663,270550000.0,209295908.77117226,5657000.0,49490644.79688307
352,965,3,1125373000.0,1570199578.875822,521681703.6382896,983931620.0690684,29987000.0,645968804.9711828,142411000.0,192997478.6606422,-42080000.0,74685171.9148997,100331000.0,229033734.40009546,17283000.0,34404291.99683774,125128000.0,175359471.44247347,17283000.0,38704328.32284851
135,107,1,630871000.0,1840290660.39685,398464000.0,1155512109.418133,232407000.0,635076459.2658086,80823000.0,150633376.15338165,413091000.0,188560181.87497264,493914000.0,221447690.79542994,-14453000.0,23817613.3634139,95276000.0,144485931.94273686,-14453000.0,34820912.48148456
1338,943,0,123668000.0,1485893571.1197553,40963000.0,781695852.6283636,50285000.0,1456278610.569326,29188000.0,42754078.56600386,11108000.0,70327306.16261852,40296000.0,90441774.56892717,-25553000.0,-4864790.521169275,35508000.0,68294106.59630442,-6320000.0,-9842564.710424632
1076,247,1,34865437.0,696296506.0053601,19085704.0,511253863.5281205,15779733.0,85760893.76935375,0.0,43421840.59010303,1198.0,-17202820.116220236,1198.0,-23632.951560735703,-6520186.0,-261268.4210959375,6520186.0,101290486.27787703,-6520186.0,5657666.084543847
1426,223,0,1275550000.0,2491634672.368464,1504271000.0,1282367748.953198,-228721000.0,1464825996.3854551,-35238000.0,107130981.99927193,59168000.0,130871011.31352198,23930000.0,203070704.0816952,6621000.0,6388908.475216135,102745000.0,118050033.68520242,-137983000.0,17128303.41455844
2023,1260,3,151712000.0,1031667692.5905795,195428000.0,468244650.8642535,28605000.0,316320601.9220917,11588000.0,113712815.41119629,43977000.0,24709812.447405815,55565000.0,39598751.8953526,-8864000.0,7720398.074542716,20452000.0,144218885.22709358,-8864000.0,9518510.876242071
1219,351,2,1812825000.0,2397738291.2510147,1134969000.0,1610983493.238096,677856000.0,825783358.8436667,53184000.0,237968731.56528005,120142000.0,224014243.62683785,173326000.0,298875688.50154746,31929000.0,42520088.95643245,16945000.0,201876505.26465288,36239000.0,56009473.92268119
201,868,0,-1450776000.0,-1295999342.278657,-894261000.0,-220592781.5631895,-556515000.0,1365653956.7817967,162740000.0,267583951.78052226,213058000.0,304912932.3014563,375798000.0,632241815.5113798,-31210000.0,15334301.417890638,193950000.0,186554665.99725527,-31210000.0,20014357.635254614
580,455,3,526507000.0,1664239679.0122352,370554000.0,1019163404.7258499,155953000.0,659895421.8992568,66328000.0,179784873.81373775,107226000.0,133481752.08547181,173554000.0,258709121.46690607,-7923000.0,32724639.42411688,69543000.0,194674252.44774923,-3215000.0,45255525.19425097
268,550,3,3089123000.0,3406975788.177096,1300561000.0,2333138265.1978474,1788562000.0,1449126033.723675,286131000.0,305858112.1729015,850247000.0,505134989.59445655,1136378000.0,886008367.0309182,205227000.0,64372731.74732882,1010678000.0,348903564.08589005,-724547000.0,57048151.67760393
484,1474,4,2026392000.0,2457970535.186207,773709000.0,1637741465.104949,1259138837.126244,1078740257.7913058,36270000.0,183409355.5075369,906000.0,188273350.69708186,37176000.0,323913830.6885884,-286393000.0,25907151.141199306,341823000.0,267424311.91975662,-305553000.0,44476921.711147085
1169,319,4,59798486.0,888276764.4348683,24561228.0,336204057.94548273,24680354.49630476,400444481.2402631,-143441.0,43737375.14389193,231837.0,-2008199.281270504,88396.0,-571391.8966851234,-6239976.0,9551405.065789461,6096535.0,97240955.0121172,-6239976.0,22293430.71937401
595,1472,1,269960000.0,1389610368.676828,370356000.0,871697975.9155293,-100396000.0,352066367.45477605,29296000.0,130806158.19655275,911000.0,49153821.66454756,30207000.0,103535681.09727168,-31260000.0,10232080.979824498,67269000.0,162577291.39732423,-37973000.0,34941751.90447396
1664,644,4,1411497000.0,2100180438.5705166,713457000.0,1523222203.063328,667698000.0,972234491.2554398,123110000.0,216571184.82776487,21917000.0,206049333.42339557,145027000.0,306106645.5900724,16171000.0,35200940.87844443,124278000.0,221029048.81820866,-1168000.0,45111610.901079096
1737,775,3,1068388000.0,1724061967.861342,793168000.0,610083589.0727854,275220000.0,508074393.29016256,1125000.0,165611046.50615573,126961000.0,95154487.9665333,114574000.0,171394354.3418435,-123332000.0,13726251.734548777,124457000.0,171807080.67303354,-123332000.0,48484016.99040245
1105,1008,0,736494000.0,1556708356.0144405,390655000.0,929424796.4985957,345839000.0,1550250902.391346,107458000.0,63240031.318856716,77264000.0,91543746.66990519,184722000.0,122276832.20016658,-21496000.0,-12950957.555375725,128954000.0,100115576.14583498,-21496000.0,-5544027.073037595
366,1418,0,1026034000.0,1858233667.368895,544592518.5648394,1396926264.4445672,829659000.0,1569055217.0449789,179923000.0,172149074.22175255,-1664000.0,175434838.6548183,178259000.0,335851204.380105,43073000.0,34100105.262517706,136850000.0,131126774.76269779,43073000.0,24276512.642655745
847,803,0,2995900000.0,3006242478.096386,1720300000.0,1586823461.3314068,1275600000.0,1555492549.2827723,234800000.0,194182068.7752811,244100000.0,307233206.098544,478900000.0,471873244.9703263,25200000.0,25069024.443787187,209600000.0,151941540.02311864,25200000.0,33742561.841608204
1604,1535,3,700529000.0,1687723277.540111,363632000.0,868540627.1816039,335762000.0,615284579.4603419,46249000.0,161312390.3648448,72678000.0,84583615.38343441,118927000.0,153052062.46296394,-13197000.0,16895056.947396323,59446000.0,170960762.5205332,-13197000.0,28487791.822853558
579,1274,4,5913288000.0,6626921017.196604,5639252000.0,3483386072.18447,274036000.0,2043989182.6656466,470311000.0,402387531.239432,1040995000.0,715519510.1463686,1511306000.0,1350742694.9250891,65962000.0,81545185.17470212,404349000.0,258846936.80633357,65962000.0,49095742.46078469
874,1085,3,232365000.0,1405691961.2196488,164743000.0,854581851.5031338,67622000.0,510079933.19339454,43176000.0,135218837.21673983,202053000.0,49395858.9075948,245229000.0,119389644.09494317,9035000.0,26372343.089814007,31930000.0,152461201.33210766,11246000.0,52786700.93320479
193,58,0,24556000.0,1353278137.2639737,5997000.0,483483375.85832167,18559000.0,1456278610.569326,-561000.0,20019645.780383885,1648000.0,-2086555.9292366505,1087000.0,24657437.11026287,-8770000.0,-6824643.4352929,3225000.0,37127312.49492788,-3786000.0,-8108336.3579555005
680,575,3,7852974.0,664401169.9111819,8726749.0,255914875.78160954,-873775.0,-47150711.043482065,1562860.0,63540462.05423194,0.0,-27694648.185393214,1562860.0,-16185295.712858677,-1603437.0,3266991.3433457166,3166297.0,117230435.56417066,-1603437.0,28070198.859207265
702,290,3,52606000.0,887839264.2396922,31088000.0,437186498.2746954,21518000.0,129880143.80728364,2202000.0,92946129.5169813,21569000.0,-1232796.4119557142,23771000.0,24649020.173056364,-1737000.0,21347078.351993397,2889000.0,137594146.91080043,-687000.0,51248828.09439936
499,1102,1,641605000.0,1938434103.7186956,98505000.0,1133280642.2968488,543100000.0,771280181.917573,35752000.0,167735434.30763054,3063000.0,117727392.51415956,38815000.0,179633244.92936134,-5995000.0,34027211.39569423,24767000.0,139261054.60056472,10985000.0,40775040.234941706
277,132,1,428119000.0,2097223074.0123096,200385000.0,1059665196.1700425,227734000.0,777702025.0725318,32734000.0,159404324.59451157,3693000.0,116957218.17198575,36427000.0,257216847.91951334,-31432000.0,20329555.781120688,67859000.0,193586710.24673867,-35125000.0,42924200.488943435
1540,286,2,1748597000.0,2153229389.4660573,773677579.6790999,1703333058.7298105,871968000.0,913126561.7313538,88936000.0,256295764.88260478,314131000.0,322355416.95459914,403067000.0,359171061.60199094,36520000.0,43713108.87073925,38806000.0,206045340.3391624,50130000.0,58587182.66202764
40,143,0,-12646800000.0,-1490231152.0325823,-10176700000.0,-1276953760.9922447,-2456100000.0,1532404794.2488422,244400000.0,352213861.54183555,496400000.0,574706861.9223773,740800000.0,1105603604.1355202,16300000.0,347031656.7619667,228100000.0,253061150.3049609,16300000.0,65523805.959164955
109,1566,2,1646711000.0,3141558068.609256,1388441000.0,2124050729.068924,258270000.0,880700304.5569364,48094000.0,307579016.8727849,144654000.0,403886928.93286157,147710000.0,625802953.1688933,-42502000.0,28945038.253186584,79586000.0,208437523.73807335,-31492000.0,55642348.92485857
111,128,0,632540000.0,1648082610.6557002,270366000.0,1311688198.0790467,362174000.0,1569055217.0449789,197077000.0,134129449.84509969,14622000.0,122160820.72237915,211699000.0,217914987.37719274,-57776000.0,12865258.796837553,97890000.0,107314859.17867997,99187000.0,17400365.648773998
662,375,3,156269000.0,1510494665.367982,70363000.0,743421206.0094094,85906000.0,530386636.4827224,19503000.0,150841799.19597265,30881000.0,42666361.76877892,50384000.0,80533835.81842995,3657000.0,29731672.686357096,15846000.0,148452997.56206,3657000.0,61551913.25995234
1749,621,2,12875300000.0,14412791730.575663,6095371591.431398,5554550252.577581,1810000000.0,3609054257.7810645,1227700000.0,758371501.9458172,4400600000.0,3544082420.8740473,5628300000.0,5008863392.697479,478400000.0,196077722.83348328,749300000.0,350377925.17957246,478400000.0,57638210.76549584
340,1018,0,441781000.0,1452728368.9728322,86587000.0,797195272.9586544,355194000.0,1596026583.95053,97393000.0,84361267.75718069,44971000.0,76716021.04867828,142364000.0,141376850.24903262,9954000.0,9167546.624850407,87439000.0,93708781.38253018,9954000.0,-3926483.4071880877
811,86,2,1903960000.0,2461636731.620946,1118147333.3250542,1681360348.1586337,464992000.0,1010081702.2857968,314173000.0,247736033.26047286,381360000.0,472788865.85066867,695533000.0,579314230.7107953,49703000.0,55497733.13072598,262823000.0,240615324.4632468,51350000.0,70290651.48894434
1016,70,3,413017000.0,1026567486.0854678,156380700.0672279,679600793.4580841,290614000.0,361861159.70513105,164000.0,127120952.38382632,0.0,-7694161.170941114,164000.0,56995714.25000262,-47612000.0,12619796.021016404,47776000.0,160935375.8203929,-47612000.0,45460303.27779782
1696,1024,4,6459000000.0,4871160061.061194,3814000000.0,2974579149.4021606,2645000000.0,1954725306.712674,417000000.0,463506017.73659396,1137000000.0,753944330.7255929,1554000000.0,1430583085.2713614,109000000.0,92212457.35978241,308000000.0,263406961.70119464,109000000.0,56398762.46661977
200,118,0,6683800000.0,4505623649.881971,2530688381.1304083,2729391448.5377393,4153111618.869592,1776217476.3096623,363300000.0,363532223.33354133,268000000.0,540096674.027245,631300000.0,920135130.3491596,83300000.0,71140114.0833556,257700000.0,273141831.3620944,105600000.0,71138630.87499927
1994,627,1,165094000.0,1075597275.440947,70482000.0,768913754.2543926,94612000.0,377815804.35252845,17629000.0,96799725.21677113,13074000.0,39520392.85864484,30703000.0,59258333.10758197,1152000.0,17900464.27719465,16477000.0,113181782.53053486,1152000.0,29033314.473366935
735,207,1,8604673.0,736769288.7485204,2338502.0,392597892.5306301,6266171.0,11069964.271497011,1119391.0,47293580.83891016,1576117.0,1055283.8006567955,2695508.0,-1969881.594559431,23726.0,-1318264.6545779705,1095665.0,85803462.68076974,23726.0,5688370.229156502
1160,1586,0,30395557000.0,21062463283.845634,16133181687.752192,13256984804.34151,6297705000.0,2593562888.4337687,3044686000.0,3240943297.102279,6751495000.0,5427490340.310586,9796181000.0,8461098483.41795,692314000.0,606608242.5936913,2352372000.0,1966212579.130205,692314000.0,544890325.9651172
2018,200,3,764077821.0,1524223305.2813354,149164973.0,1145713114.0598576,540969385.0,515579743.27623904,20737462.0,156019568.96878645,3810639.0,64144663.659468174,24548101.0,106953048.08178937,-1942729.0,32700192.901446924,26490830.0,183224337.60744262,-5753368.0,61332086.87372555
597,335,3,19932000000.0,17028244257.974348,15924000000.0,10089601069.421137,3938000000.0,4250999955.8526616,677000000.0,534294611.4439715,2894000000.0,2674384061.8196225,3571000000.0,3320042182.3111696,325000000.0,164304038.01027194,132000000.0,293262579.2446962,545000000.0,38150506.994029246
1089,311,2,114455000.0,603297106.7368755,66800000.0,546830164.6478615,47655000.0,78731099.3451308,-324000.0,76768603.02198082,692000.0,8068815.323798895,368000.0,39622164.06627619,-4444000.0,8925044.428150997,6127000.0,129252302.94309682,-6451000.0,34192732.73176244
1635,384,4,123009000000.0,61699980934.935974,61047097858.95223,35416089637.391205,24132000000.0,12238781312.21661,3661000000.0,2518429018.852603,846000000.0,1080520764.736151,4507000000.0,4605471594.706815,401000000.0,397730287.5352815,5487000000.0,2795570844.2780375,-1826000000.0,-123250116.33326375
394,1561,2,1472222000.0,1828373922.108572,444895000.0,1211973359.0088,1027327000.0,858390466.4482269,423804000.0,256154859.44389597,0.0,204601685.63390356,423804000.0,343972175.16374874,44683000.0,43631058.275726035,379121000.0,196101414.33648458,44683000.0,49033419.09587066
176,827,1,1707972000.0,2743539708.650422,826699000.0,1498260081.668362,881273000.0,964616905.2305019,161237000.0,223947908.10622332,18721000.0,260572680.51833767,179958000.0,382692867.8261684,-38330000.0,43545309.92525452,218288000.0,259730033.11310315,-57051000.0,49422522.95947912
958,1401,2,140348000.0,870943778.515974,22627000.0,442272077.99403,117721000.0,301302721.60724115,18849000.0,131392378.06601834,19797000.0,43431097.74431944,38646000.0,47777668.39320731,5179000.0,11047060.710529909,24028000.0,170390938.66937357,-5179000.0,26178054.615008682
651,759,4,68862000000.0,53183750477.13029,37281000000.0,27571070603.987087,30258000000.0,19244835542.279816,682000000.0,1544365951.557555,1405000000.0,1590097691.7821736,2087000000.0,3411507155.0120597,938000000.0,576602944.975393,2969000000.0,1167811551.546945,-2287000000.0,-116187162.24130648
648,821,2,484306000.0,1086678055.5350914,160149000.0,1050792548.3062575,324110000.0,426782500.0409255,35935000.0,167989593.46850252,49919000.0,109410885.40678072,85854000.0,155926932.8006959,8224000.0,29060780.520371094,26558000.0,194049427.16790423,9377000.0,55868284.22802195
1124,1533,0,263629355.0,1592848112.0571437,139827658.8984726,1084654175.4643054,106790041.0,1456278610.569326,4718481.0,60594678.28398782,-3354938.0,36629669.11448705,1363543.0,64597937.69918418,2345966.0,4003963.065854907,2372515.0,68202268.58937854,2345966.0,-328790.5626855418
1983,1255,3,22654400000.0,17264992734.92958,10023579681.929111,7799257867.594723,12050300000.0,6405621030.280362,409600000.0,597857315.3137887,3138700000.0,2758396241.609892,3548300000.0,3479427896.582603,145800000.0,240249155.59241995,119900000.0,325727010.6593211,289700000.0,62817600.0461955
1330,697,1,55695000.0,980901911.049571,80300000.0,636137884.321198,-24605000.0,237703239.52181733,-33328000.0,63041060.68048662,45694000.0,35624786.27277088,12366000.0,56102675.327895045,-48025000.0,-7023511.561377943,14697000.0,112879023.91155934,-48025000.0,25574238.432864916
445,492,1,33248145.0,716511756.997621,21743057.0,635150082.9824095,11505088.0,51022236.46465111,1461398.0,58344190.51384908,569502.0,-24363094.302481294,2030900.0,23964833.665158153,-12979193.0,-465469.3815457523,15010093.0,136169236.35561287,-13548695.0,-20412816.59935467
908,1499,4,19900000000.0,12993257327.110243,10348000000.0,5183944474.077279,9552000000.0,3461369027.0579333,2649000000.0,1378298515.1567433,0.0,601055035.6840353,2649000000.0,1932499959.418569,467000000.0,248749124.46451545,2182000000.0,910625408.8820359,467000000.0,50777209.07801281
1585,1050,3,2485319000.0,2741406095.546752,1254039550.5762374,2098653654.9947617,1849463000.0,1293804292.3187447,775144000.0,324708283.16614944,0.0,234337261.88051814,775144000.0,562314192.8881791,128435000.0,59342218.00173269,646709000.0,265258827.97848806,128435000.0,61011036.82217547
643,1128,0,959084000.0,1830404189.2276487,491986000.0,1354649422.7397802,395838334.6316486,1569055217.0449789,56609000.0,116505018.68175805,47928000.0,189546071.76485038,104537000.0,260089277.85239756,-22287000.0,-641044.1396989971,141301000.0,120875526.99671453,-84692000.0,-9595775.72646153
1240,14,4,1657157000.0,3542272056.7247324,2335507000.0,1942191572.0674076,-678350000.0,1638116561.3385372,-96698000.0,261288538.70857018,98929000.0,342467415.82909006,2231000.0,671753203.8303571,-125632000.0,43374677.75434244,312618000.0,313928379.0059398,-409316000.0,42624507.65594642
64,275,3,1590600000.0,2161902561.016381,748600000.0,1288078572.6732416,842000000.0,790451097.5598716,59700000.0,238779386.1217061,141700000.0,203591951.70891148,201400000.0,290984121.7264807,13800000.0,48116703.34437043,37700000.0,203398515.89402166,22000000.0,68217007.59255266
1027,1230,3,919607000.0,1911058992.3157845,266509000.0,1208961238.3210433,653098000.0,682746988.393858,68886000.0,180050200.99206373,19532000.0,92103118.47039616,84131000.0,216755264.56804347,-18050000.0,27366721.108280852,86936000.0,166927458.56531402,-18050000.0,59963611.40505968
1034,198,0,121754701.0,1482039664.7193866,28424394.0,697041262.5206728,93330307.0,1475283433.2616637,1406469.0,36156106.19825995,-1378985.0,9555732.141104698,27484.0,42712384.37656808,-14928443.0,-35456573.147877514,16334912.0,60133587.1647383,-14928443.0,-43778737.08646399
802,1578,1,12973000000.0,7148702746.033243,6013807636.489885,4553509395.554199,6537000000.0,2046435705.10471,82000000.0,390632255.30631,545000000.0,671566799.6965574,627000000.0,1242131979.1652856,7000000.0,166765532.78815734,46000000.0,344372693.0119959,36000000.0,44952311.66725213
981,1120,3,613608000.0,1639777243.429617,391072000.0,1093546271.35051,222536000.0,775022226.0479754,1437000.0,165924217.00639138,10955000.0,131702358.02524066,12392000.0,258976772.70627677,-84729000.0,34427736.20930771,40703000.0,178322961.86814117,-39266000.0,32474676.38806408
1046,343,0,102303000.0,1402784230.0848231,104192000.0,949192933.7040315,-1889000.0,1456278610.569326,12811000.0,55695234.32175386,42439000.0,53412043.207301736,55250000.0,85453122.9920001,700000.0,3272553.2033293843,12111000.0,66000029.97511178,700000.0,6085947.704237334
581,848,0,1023085000.0,1875054871.5040593,937155000.0,1390840768.8317592,85930000.0,1527159563.5003204,87759000.0,213891070.52437675,257840000.0,361322275.13156307,345599000.0,523357725.16953886,-36941000.0,44493572.10491774,111965000.0,164062019.76159537,-24206000.0,28760092.52707798
1033,894,4,822101000.0,1385160510.3306499,260505000.0,859008809.1470752,561596000.0,595599995.2540019,113425000.0,110685925.9102388,-8261000.0,83802781.76201081,105164000.0,115536736.08431792,25956000.0,15754420.991912648,87469000.0,161224982.33686835,25956000.0,40422572.811389446
1908,1021,2,972779000.0,1818685171.0566897,674585000.0,1677358598.878538,298194000.0,706193862.1801829,81122000.0,231858337.67449895,33069000.0,146046269.92970365,114191000.0,281467248.5910765,-12742000.0,27995243.71317886,93864000.0,175978396.56152317,-12742000.0,56958254.29925811
1486,183,0,505122000.0,2003100618.2180352,329765000.0,1447072724.384421,175357000.0,1569055217.0449789,66862000.0,112870477.8756789,-15726000.0,120278056.09834695,51136000.0,155758621.49857068,-8784000.0,14726848.383947566,75646000.0,103126333.54342428,-8784000.0,13207527.192549832
640,736,2,420505000.0,1152551841.8084655,230508000.0,692967720.6904254,189997000.0,431550357.81792045,53603000.0,132503208.94211668,71511000.0,73400811.5967946,125114000.0,97531274.77685952,16734000.0,11633849.046593264,36869000.0,193651674.2538393,16734000.0,14007549.531335808
1988,338,0,216274000000.0,133387525093.29227,73401000000.0,25063883763.30977,142873000000.0,11125423305.214054,27936000000.0,12550471603.129934,6210000000.0,5995072142.78847,34146000000.0,23527508992.52813,13748000000.0,3727647715.3172464,20398000000.0,8186393839.08015,7538000000.0,1486276107.338309
469,991,2,122531000000.0,37823579220.801506,74517000000.0,30848945511.813236,57494689417.43809,4481564973.037519,11370000000.0,5177230839.401485,10501000000.0,6870435289.0133095,21871000000.0,12331747054.830553,5767000000.0,3539629629.9079075,5604000000.0,4396169279.332794,5766000000.0,718607141.3798347
606,673,0,5723214000.0,3951764371.415965,2776207000.0,2175477439.0158987,2947007000.0,1676442922.199138,448941000.0,458235918.8959452,516900000.0,578886713.1027198,865197000.0,1086515101.1001983,78214000.0,89525941.57706018,370727000.0,368445305.5579226,78214000.0,62133477.96096198
1877,27,2,689227000.0,926438590.5469427,562767000.0,727693619.8196425,126460000.0,218989622.96245205,40662000.0,121523126.80367726,11086000.0,49852269.952649355,47740000.0,109548456.22846699,-28335000.0,18207655.997032955,68997000.0,153035825.27608114,-28335000.0,48519478.04302344
1148,532,1,600857000.0,1166637255.2240553,331349000.0,860104014.8519187,269508000.0,353000695.20719314,50595000.0,84958015.9338482,6532000.0,18810987.5372504,57127000.0,73202995.88485372,-62120000.0,12258108.636560082,83188000.0,128177802.93153179,-32593000.0,21488732.780942447
1653,1310,3,56794000.0,1031452488.8647175,12682000.0,438924538.77045536,44112000.0,162807273.7251209,25087000.0,108442810.7840957,14791000.0,-3835369.7623614073,39878000.0,55755333.003245115,-4627000.0,17646119.80326672,44505000.0,164293002.0174114,-19418000.0,22620229.340725183
1205,1096,2,3747000.0,246056797.51855803,4407000.0,129656560.86753654,-660000.0,-10788388.393887997,-1515000.0,25376396.413183153,1515000.0,-14408858.956555963,0.0,-8021134.373613954,-2598000.0,5375578.12740472,1083000.0,58011721.832327485,-2598000.0,-1271303.6248707324
1612,76,2,3505835000.0,3819581197.5329638,1860807256.214476,2173883411.715498,1470074000.0,1430619303.3241417,601953000.0,315296533.18513775,626097000.0,720944690.4884739,1228050000.0,1227539850.3333783,88554000.0,72865440.85770205,475916000.0,292313723.62178075,126037000.0,72868360.2282908
1894,1257,1,203011000.0,1130044751.8346634,255300000.0,898020532.6920485,-52289000.0,264353240.56928945,8409000.0,80226912.24286878,25579000.0,59492976.22329736,33988000.0,82180214.21338701,-8212000.0,5087606.15321584,15533000.0,117420415.56026122,-7124000.0,17135037.091098458
458,865,3,3126495000.0,2660661922.9166536,2137404000.0,1675030523.3081877,989091000.0,945166602.8380849,70679000.0,235696816.07210007,930828000.0,330374163.6281526,1001507000.0,557002761.4911785,21039000.0,42014235.12425143,49640000.0,204116526.31963688,21039000.0,65572794.94615656
782,1593,3,36175654.0,1037251424.6136961,19187381.496044576,525416700.9984026,18868678.0,126579746.89069176,22295962.0,117072671.2700147,2274626.0,-7915029.75512898,24570588.0,14040487.389320016,-1191082.0,22133282.141818896,23487044.0,143102350.83426574,-1191082.0,51427410.88392056
21,1011,2,3642433000.0,5240330121.949102,1611617055.0351417,2293710590.0426474,2307595000.0,1682994343.252809,392263000.0,590223300.6566193,1442178000.0,1126258089.0242448,1834441000.0,1567169363.5000815,185633000.0,90866436.96004583,1648808000.0,767383637.6461444,-1256545000.0,54131711.18896492
323,232,1,102171000.0,1152809204.4360704,80142000.0,553679159.2691178,22029000.0,279320729.65068185,11994000.0,94703216.16871125,1280000.0,13764884.912714362,12084000.0,41245291.86117244,-8453000.0,4403377.076067582,20447000.0,119335763.4161269,-8453000.0,-6455495.607363775
1847,774,4,11562769000.0,8478711298.838085,8634392000.0,5377623581.012459,2928377000.0,2299873438.9842367,696915000.0,935879148.6624444,4617768000.0,3231318354.241501,5314683000.0,4342324504.09154,87484000.0,96383477.17675641,6096071000.0,3432607653.289068,-5399156000.0,-266986034.6112439
1304,960,3,1061958000.0,1703271020.0728135,603583000.0,761759821.4185252,275904000.0,428127164.27960193,75380000.0,150907588.2146944,85007000.0,84629036.00735426,160387000.0,163417940.51614475,19279000.0,20373784.69778046,56101000.0,171254950.06945246,19279000.0,29818544.682634085
1031,669,4,1709464000.0,1881837415.5105453,792444897.6724385,1236299795.676724,917019102.3275616,999052100.5422351,-50089000.0,199541415.65605715,206500000.0,172701986.7585984,156411000.0,319013088.5922979,62554000.0,41850829.95841183,32611000.0,178075364.751312,-82700000.0,47686910.89451895
1109,313,0,1182200000.0,2486907688.275084,559672263.5892134,1656957022.178061,993300000.0,1569055217.0449789,77500000.0,176411931.79405898,102700000.0,259731763.4408788,175100000.0,347594676.24854755,21600000.0,20293133.52729009,55900000.0,129489767.86145115,21600000.0,29060849.413249016
1483,305,3,15318000000.0,13672744211.942816,8995872209.433592,6611514720.1475525,2835000000.0,3143310442.4788055,2220000000.0,1779539036.8537621,7363000000.0,8488916928.397484,9583000000.0,8963805040.066278,348000000.0,357273031.2451037,1879000000.0,990937383.5544577,341000000.0,116695431.42401837
739,408,0,2898416000.0,1475037136.9143991,2080781000.0,963390580.0391855,476998000.0,1456278610.569326,19746000.0,38644384.21606535,-19746000.0,32066143.56328678,0.0,50845697.87455332,-16089000.0,-1207395.4659093618,35835000.0,66901695.8951692,-16089000.0,1710502.2624346167
1565,386,2,37777000.0,508105997.0085993,8088000.0,774805337.9560809,29689000.0,92992123.49923837,1942000.0,94245939.01607585,1878000.0,13222494.258013844,3820000.0,18422223.227671266,-3377000.0,9919193.179930791,5319000.0,138959827.28689426,-3377000.0,45870382.28163463
1547,329,4,350115000.0,1632610126.261949,124447000.0,940938678.0991306,144501356.0121529,772651084.9250883,23341000.0,136496413.05839473,74465000.0,244636004.098076,97806000.0,243004554.15449548,1273000.0,22887075.233365715,21144000.0,135617767.75396985,2197000.0,47801087.876229465
1772,203,0,60756000.0,1653472780.7287216,14120000.0,964910189.402739,46636000.0,1472836496.125007,39398000.0,60569191.56404352,0.0,20687237.810475588,39398000.0,72934704.9290117,1277000.0,5405619.15933013,38121000.0,67455711.57657176,1277000.0,2066109.7171691582
396,883,0,2329417000.0,2992090898.5068154,1103945000.0,1668500949.2455087,1225472000.0,1540722231.262527,201803000.0,219485998.51619166,84310000.0,306449115.487851,286113000.0,411009803.8779212,4458000.0,39332767.17337835,134794000.0,157479545.15647325,67009000.0,34527770.63793126
370,1540,3,322707000.0,1747901216.5202966,203952000.0,1062729889.6943967,133189378.04611006,782436266.1200033,59563000.0,182006684.34627414,32549000.0,86974968.31181264,92112000.0,178097210.9014939,2829000.0,39575343.962208785,56734000.0,171387170.28202876,2829000.0,65747538.595015176
1387,213,0,16986396.0,1206480180.859374,28398941.0,298948694.8279047,7976898.609990532,1442715942.8071194,-2992.0,5073166.387379169,2987192.0,-1107329.3058822155,2984200.0,16049409.62534213,-2823081.0,-9245337.490279466,2820089.0,36926921.467314005,-2823081.0,-21060229.724579275
1633,1397,1,5507733.0,739517227.6532564,3754986.0,324895860.29523945,1752747.0,53284836.34103596,77969.0,64192721.65886581,690.0,-21871817.65675831,78659.0,-2465351.2234170437,-1288944.0,-4604720.345579475,1288944.0,91590902.24486482,-1210975.0,-29649412.93791364
1459,1488,0,2951779000.0,2803054214.8198805,1733504809.66769,1313523855.3909774,-705417000.0,1509716867.7235882,103159000.0,165631614.3310213,95357000.0,268354292.91791666,198516000.0,400790120.8778914,63542000.0,46498492.92787028,39617000.0,136874784.26569563,63542000.0,30155933.28009423
447,948,0,1389340000.0,2181474544.866212,870172000.0,1568416418.2341983,518687000.0,1569055217.0449789,122910000.0,176602333.33598158,509918000.0,323964559.0583132,632828000.0,448337550.92342746,77637000.0,48253390.996669814,35836000.0,124676022.27866024,87074000.0,35577054.281165466
1342,1529,4,670100000.0,1616666364.1773043,96919000.0,740322788.9803295,573181000.0,511819453.51388764,45369000.0,86714429.00949591,10723000.0,69251210.39090931,56092000.0,104806425.94584787,-44376000.0,11933988.442940831,100468000.0,158629506.8337486,-55099000.0,27549783.120100565
1101,802,1,796235000.0,625184642.3297639,203741000.0,781207015.5541759,463390000.0,131566984.03401053,475000.0,78253750.68032306,0.0,18936366.41437173,475000.0,33862981.28579044,-25797000.0,4380928.910895497,26272000.0,88941961.1850279,-25797000.0,18037128.770778716
1559,864,4,243654000.0,1060847569.2762814,108112000.0,498768000.59641075,135542000.0,332603202.5348853,37230000.0,74557819.73722929,3845000.0,40195721.36593592,4798000.0,53207039.871172905,-21869000.0,1786008.836848542,59099000.0,120738932.44887817,-21869000.0,9012547.841172643
1859,1238,0,63057347.0,1417266562.6390471,37031977.76980746,804247095.7680745,50373559.0,1442715942.8071194,5114390.0,40653335.297095835,9540399.0,49704133.301699996,14654789.0,43208612.024715066,3126608.0,4928367.9656289965,1987782.0,49333041.607426584,3126608.0,181044.68444149196
625,871,2,2120798000.0,1783048937.0873117,1472395000.0,1214985292.220572,648403000.0,620829353.9531083,67913000.0,175230339.21551952,30767000.0,173315815.93175852,98680000.0,298898401.2942195,-9629000.0,14947533.815931544,77542000.0,194681638.59411183,-9629000.0,16437844.762931965
1728,482,1,706517000.0,1877857560.440176,905805000.0,1010926809.7411585,-199288000.0,492974091.73777735,73709000.0,166054766.62321335,16853000.0,80428821.56730199,90562000.0,158359147.0595436,38915000.0,14857800.879098639,34794000.0,151173959.73591352,38915000.0,2400335.9180179685
1404,565,3,76126346.0,865232180.800251,61120101.0,427429431.94872,15006245.0,166043803.0643562,2282652.0,95388325.9628709,31006950.0,-6035501.543624163,33289602.0,23056816.659693718,-2890968.0,17841058.382854015,5173620.0,127483685.47428507,-2890968.0,43130802.990262315
1515,604,4,156303000.0,1326610546.1087527,83901000.0,801219494.7533307,72402000.0,565624084.1636448,17689000.0,106211790.94664705,41469000.0,66364936.96324694,59158000.0,103756062.52876246,-2517000.0,28755684.400037557,20206000.0,141857373.603125,-2517000.0,41883432.12962915
1800,67,1,3271200000.0,3369042303.9667416,1447362713.447565,1902937102.1370664,-21400000.0,1233289698.422245,31300000.0,308065718.07211447,847700000.0,705752381.3773993,879000000.0,1072618784.7396286,-16400000.0,87468316.81856094,66600000.0,249295024.02428424,-35300000.0,49192860.17976204
4,992,1,7361000.0,585765609.3307714,2671000.0,347647619.8452759,4573903.262590003,-13211156.75355649,349000.0,31003920.59576559,109000.0,-17059777.21717286,458000.0,-5859357.324226618,-670000.0,-6512776.37091665,1019000.0,72787349.04853755,-670000.0,-11599543.289157301
1400,1108,0,-4860602000.0,-808805633.9540672,-990657000.0,-430811734.2475333,-3869945000.0,1355617015.413773,193881000.0,242072900.08122376,378009000.0,425469531.1962209,571890000.0,620910541.3205845,36078000.0,54145769.89522842,124685000.0,169296318.86882222,69196000.0,62722641.029437885
617,961,2,5475000000.0,5536463844.682446,4861300000.0,3055711082.5398035,613700000.0,1853855136.8521094,130600000.0,335518732.2946092,1421300000.0,1090139902.5489166,1551900000.0,1332613781.2137394,23900000.0,92512539.01712076,81800000.0,219890780.59722516,48800000.0,58587182.66202764
570,257,1,9643000.0,688657382.7571063,6164000.0,463080980.89232063,3479000.0,59385342.21803701,1843000.0,45844095.199006796,2246000.0,-2373698.231838107,4089000.0,-9984645.51291132,-437000.0,2273759.226004109,2240000.0,93294797.08536875,-397000.0,15878338.811587863
2015,880,3,12012800000.0,4374026335.738382,6608200000.0,1815435349.1541805,4911800000.0,1778702670.278837,457000000.0,311004530.1751921,316800000.0,336470173.64131814,773800000.0,653168118.6129444,145800000.0,84460377.74643278,203500000.0,220788471.46085414,253500000.0,65572794.94615656
576,1076,2,6644800000.0,5263556150.801609,3248100000.0,2091259509.2589521,2786600000.0,1837345538.3213737,345800000.0,313498941.8490355,33000000.0,391229643.7455125,378800000.0,744319735.3561808,36000000.0,60854882.42736429,342800000.0,265594177.74907696,3000000.0,58587182.66202764
1397,722,1,136174000.0,1215490262.340633,62163000.0,646722680.3244653,72304000.0,396088607.99760604,10072000.0,126381756.80175918,-3712000.0,25266845.22226572,6360000.0,48014808.21513224,-12604000.0,1990782.118161559,22676000.0,125483755.53687435,-12604000.0,10801513.819467843
1134,1495,3,160043000.0,993282165.2442617,101422000.0,614490092.5464344,58621000.0,352453798.123392,15202000.0,111758691.48652732,-14386000.0,-8650245.461068988,816000.0,34875645.43283832,-14398000.0,11182692.554828182,29600000.0,145224261.41448498,-14398000.0,13276532.403144792
188,487,1,9282000.0,668025164.8214641,3493000.0,463080980.89232063,5789000.0,64616699.94989514,355000.0,44598776.723177314,552000.0,925929.8011597395,907000.0,4993047.750226736,-972000.0,4271366.43282935,1327000.0,85562799.87673634,-972000.0,11630469.91246248
488,150,3,16124000000.0,7937134863.951696,13383000000.0,4087469570.614311,2741000000.0,2263293287.1524496,5251000000.0,1085313267.1724443,4961000000.0,2033462320.8312547,9233000000.0,4207084091.767463,1583000000.0,263415072.08317363,3668000000.0,663545073.1015604,1583000000.0,59407497.28228554
1211,1554,4,1601068000.0,2148665409.5593495,1081707000.0,1653601974.7316868,519361000.0,982788015.3969327,248876000.0,250558060.0845152,-34521000.0,181736315.53026426,214355000.0,364847165.4163786,19006000.0,47402346.46320683,229870000.0,211299659.04962695,19006000.0,45717252.91687693
1580,1079,4,779622000.0,1794957284.1726441,153452000.0,1091640053.2033298,626170000.0,939558646.5339298,134561000.0,159703080.86240572,57608000.0,166325825.89579606,192169000.0,257705818.25728226,56917000.0,39157208.58196313,77644000.0,169526017.48463097,56917000.0,44544393.03944741
1533,499,4,4162272000.0,3470790280.501169,862254000.0,2167238680.6817155,3299439000.0,1887231475.9804313,357871000.0,348500401.6968632,794265000.0,491674595.3492213,1152136000.0,857410416.9565297,114028000.0,88865705.92790101,194829000.0,234551560.87424338,163042000.0,52174884.50025188
818,1555,3,13900400000.0,8396840159.9728775,12204100000.0,4893329874.740797,7319729781.089915,3963597977.391591,78200000.0,405257993.29975903,235100000.0,699034167.6373476,313300000.0,1190116945.013877,174900000.0,75598003.97325215,116600000.0,331143571.599219,-38400000.0,61881263.22026262
50,579,4,594022000.0,1343578249.8072414,132343000.0,847562166.4056163,461679000.0,629160790.8496535,121956000.0,108537532.4010387,1645000.0,37848278.25488627,123601000.0,118248775.3351717,31177000.0,12376498.723668024,45262000.0,174114729.13825387,76694000.0,10523912.829338938
590,21,3,1341960000.0,2421203575.3407054,666970000.0,1391339801.1801875,674990000.0,879398028.4639246,55930000.0,219399253.11593872,179410000.0,169721715.07674205,235340000.0,329859485.75954103,23760000.0,41716308.393268935,32290000.0,191723599.48185304,23640000.0,65747538.595015176
377,1125,3,52901000.0,936905215.808209,24522965.98920461,478717784.8906102,33404000.0,206652682.0929159,-1183000.0,117469018.5017944,24144000.0,3968194.1633001566,22961000.0,25157537.42043197,-5692000.0,14827244.438483298,28653000.0,154504417.04973993,-29836000.0,51519977.640743434
1953,549,4,877565000.0,2199893303.2484846,1336553000.0,1647886594.056152,-475192000.0,1030691465.8767135,522812000.0,271283021.95184124,-345617000.0,217032790.1626513,177195000.0,470596210.64251363,31868000.0,40623977.13680951,490944000.0,217643884.7866317,31868000.0,39551607.19098714
1018,1347,1,26568400000.0,23090185845.248806,13080400000.0,9497226440.978943,13246000000.0,8327406719.556144,1346200000.0,819795867.0052059,1952200000.0,1437511457.712844,3298400000.0,2817026673.2706347,592200000.0,171974755.96503648,746800000.0,511468780.9797975,599400000.0,65747071.30637802
709,1365,3,2933971000.0,2840299451.5781217,2618511000.0,1410866028.8135738,315460000.0,934111587.8917166,65062000.0,245975056.8975654,2191000.0,190522600.18372846,67253000.0,373837473.2161969,-143265000.0,45972398.8441334,69951000.0,194600125.79995695,-4889000.0,55179631.62033117
1121,1252,1,27828200000.0,19584510326.10986,13810622382.415062,7806946078.148137,7212400000.0,6161406614.421192,821300000.0,601298741.9671413,181300000.0,802604185.382875,1002600000.0,1504757732.9520702,233000000.0,128261012.47467194,794400000.0,648835238.2877326,26900000.0,64398951.06394293
1026,769,4,2788943000.0,3461517575.7145967,2662320000.0,2037041634.7623293,126623000.0,1333226769.063041,299166000.0,316542396.3355558,0.0,250997995.1194787,299166000.0,515764608.28114545,-281667000.0,46171901.597288296,580833000.0,224082692.562249,-281667000.0,45984449.26759804
1015,823,0,2489159000.0,2955768974.8396025,1954765000.0,1936868511.0642452,488897000.0,1558942217.3716748,294443000.0,276328482.76885116,370069000.0,490184096.1096512,636496000.0,790734013.1544718,64600000.0,54241981.219721615,229652000.0,259415996.19050395,64791000.0,39803389.76723176
1575,241,2,11961066.0,134413937.8602543,1068497.0,123778218.02495241,10892569.0,-28717368.05090952,611174.0,8029834.957513809,0.0,-8412449.570005417,611174.0,-26138742.49612546,-1146685.0,1445428.0190194398,1757859.0,72568635.32692438,-1146685.0,-8195039.704031885
826,242,1,93941000000.0,60648804366.45863,39446000000.0,30240880639.270184,53466000000.0,28952346013.840626,4178000000.0,3817829875.9159293,15656000000.0,11856117334.71899,18582000000.0,23350401899.84005,1764000000.0,2572934446.181245,2414000000.0,1978214612.0019016,1764000000.0,492707004.1948961
463,1402,1,32097000000.0,26493872667.193012,20419000000.0,12952558027.617245,10658000000.0,6857767436.823013,2071000000.0,1293266959.3038034,6360000000.0,4571920691.0079365,8431000000.0,6359090173.074193,950000000.0,506724677.9914614,831000000.0,576888878.3425063,1240000000.0,201760802.4703065
1660,25,4,6578196.0,545410227.8073249,4441488.0,288081939.1729083,2465776.0,336538041.5395019,2008368.0,35959201.48929405,923641.0,-5664989.568598151,2932009.0,14860894.430790424,-1328968.0,7098421.914016053,3337336.0,109263972.72838649,-1328968.0,922583.5941402316
700,526,2,1658042000.0,2102413215.6748362,1223260000.0,1720864414.168391,434782000.0,734221617.6916137,207698000.0,228771544.85243455,674127000.0,386252198.80315304,881825000.0,419104233.2160207,25549000.0,47021841.21149618,179614000.0,195506328.9485147,28084000.0,58093832.19257916
402,371,2,9094896.0,243540423.89784336,13593163.0,581362686.7077112,-4498267.0,160905735.5746355,-928960.0,60232915.458776236,1115703.0,14998448.922957659,186743.0,11990561.290126562,-5136642.0,8456778.80236797,4207682.0,124208316.6496611,-5136642.0,11346265.23606471
591,184,4,16788482.0,866322985.4940734,821758.0,324017620.8232455,15966723.0,325069133.15514445,906228.0,45503573.46298355,333325.0,-21094760.27436638,1239553.0,-12024574.888055563,-1096396.0,-14316879.051164538,2002625.0,89873797.9448989,-1096397.0,-19071240.940641314
412,923,0,1678241000.0,2454846156.4066267,730813000.0,1531138707.2399297,947428000.0,1569055217.0449789,62311000.0,130216987.31460875,89643000.0,230155391.1056003,127553000.0,290061166.4474094,-24195000.0,3877794.3848321736,86506000.0,129325485.31068876,-24195000.0,19937710.434044763
26,1111,2,1363308942.0,1256524175.5775013,629855415.0,1082173514.6832976,733453527.0,536814914.1095497,93681798.0,176321393.00005028,0.0,96225614.14313602,93681798.0,166119328.86058044,39573525.0,26649742.170163803,54108273.0,187968332.31908426,39573525.0,50122004.77599354
205,666,2,15264467000.0,9832594849.252691,7226441209.924589,4924881326.601027,3059451000.0,4352433133.804452,592816000.0,502009923.10201865,378076000.0,629054659.0274891,970892000.0,1741203958.279697,444977000.0,145629179.41572443,147839000.0,243571324.7137605,444977000.0,58587182.66202764
699,1149,4,65987000.0,996963637.3063335,35279000.0,651826640.8293056,30708000.0,554674490.3334097,5319000.0,75395076.40534651,28050000.0,26151275.20896697,33369000.0,73940462.2815069,1124000.0,23694303.268172294,4195000.0,125293023.82205725,1124000.0,31715572.19461196
550,437,1,31945000000.0,32197026115.394184,26424000000.0,20853324319.840824,5506000000.0,6569033769.990899,1191000000.0,862340553.1200426,2895000000.0,2277003656.833269,4086000000.0,3671420610.019579,834000000.0,186636663.5167026,357000000.0,502361106.4404298,834000000.0,107436612.50053415
140,1473,0,2655001000.0,3007259505.2726245,1989549000.0,2281694721.6457787,665452000.0,1552497331.4892979,67554000.0,211400445.13699898,403267000.0,361125679.25624025,470821000.0,510537651.0223398,-3426000.0,27664579.480935544,30096000.0,162565970.15057236,37458000.0,5258675.898399293
2004,877,1,9403000.0,668025164.8214641,5511000.0,422919825.9780426,3892000.0,28350526.805237055,-48000.0,41067048.62379402,1387000.0,-8622906.584850788,1339000.0,-4061396.2282698154,-903000.0,1356254.9118715674,855000.0,77384441.82944357,-903000.0,1862086.5311384872
28,31,3,551232000.0,1473447268.5808706,628224000.0,950432918.1384854,-138322000.0,569352359.7012423,23716000.0,183813530.2591844,12709000.0,80570406.20540977,36425000.0,146435025.71052766,7478000.0,22431455.601659432,48579000.0,186828597.06261224,-24863000.0,44770184.72370812
844,288,0,435750000.0,1759367430.7942986,62826000.0,1061671945.634686,372924000.0,1530387277.910962,28152000.0,69072823.44331598,49267000.0,86772410.70242465,77419000.0,104744713.29078817,143000.0,3835359.779533252,28009000.0,80023860.00917915,143000.0,6871414.359069161
967,1117,1,367699000.0,1386117254.780332,382822000.0,860195963.8756537,-15123000.0,404708078.0762297,310000.0,113252139.4358899,0.0,55395851.34195256,310000.0,128538176.94006419,-47413000.0,12163957.203896075,47723000.0,140244967.6849228,-47413000.0,31665280.714287747
433,917,1,3810682000.0,2364814494.9955115,2050315000.0,1674968887.9880946,1303319000.0,729763430.5703969,110314000.0,198424865.19340244,71850000.0,193022146.3804912,148990000.0,300279144.21363115,11661000.0,19030614.57265441,98653000.0,189051399.59486246,11661000.0,13917267.60762453
228,131,2,2333529000.0,2847947967.41053,1032484368.2283514,1995596825.173491,1202771000.0,1360770394.960093,71236000.0,301142488.3244165,490990000.0,446885075.1867746,562226000.0,576478058.3806103,19517000.0,64470709.78402707,46091000.0,222627706.8587289,25145000.0,57370741.24747951
1855,1604,3,20737275.0,684261721.0747337,10788720.0,1073594987.9469683,10368036.0,168672008.32941866,562564.0,47928872.78642148,77061.0,3061640.5623590946,87201.0,6481633.119999886,-4142505.0,-3854176.63876383,4705069.0,264936298.0818915,-4142505.0,-116323299.5256421
776,654,4,386844000.0,1432005777.585857,412960000.0,1093319238.7643704,-26116000.0,771599120.7102771,16927000.0,148214053.77385807,91131000.0,141625430.68191993,108058000.0,256589053.7548256,-813000.0,24023293.824179098,13060000.0,170039973.05745107,3867000.0,46592554.75634036
839,662,1,6911775000.0,4450507358.965587,5109042000.0,2960022767.931289,1802733000.0,1697452090.6959267,225256000.0,383381134.64899355,195092000.0,539337726.8735312,420348000.0,696881305.5348935,132530000.0,75978705.11471067,92726000.0,278928581.6940145,132530000.0,53376986.523610525
793,1426,2,2883631000.0,4335309307.144791,1772390000.0,2524957061.607314,1110345000.0,1500924916.879578,319055000.0,252886899.5571552,1257690000.0,1361767268.3636847,1576745000.0,1664098000.6943476,38222000.0,76632383.64688392,280833000.0,224268667.1177957,38222000.0,53832551.270403944
820,1376,2,133032000.0,1472329648.162591,232711000.0,1185347733.4452395,-16246000.0,434275947.8130393,12296000.0,160468424.51838633,62277000.0,114839973.4639312,74573000.0,180412473.19184148,-14749000.0,21740740.676838994,89322000.0,190303956.04870084,-77026000.0,52460016.986481115
2016,162,1,296638000.0,1305606405.614091,208509000.0,900357118.7899323,88129000.0,436198712.79720354,7319000.0,101137031.86660999,0.0,37465780.07173419,7319000.0,76307996.7556479,-46633000.0,7183672.292260602,53952000.0,136360756.65857828,-46633000.0,34566979.90168594
1438,2,4,38809000.0,918283756.7401319,43090000.0,562839040.4054475,-4281000.0,511821193.18708944,7318000.0,68942068.61085439,25818000.0,53756757.85948539,33136000.0,90777584.19471455,-933000.0,9103928.233626932,8251000.0,129470778.61733449,-933000.0,32313520.541903637
866,365,1,2376172000.0,2407972599.3033757,1870972000.0,1589481584.5100358,486613000.0,830232727.4514471,-5214000.0,211421541.16429928,182832000.0,296668079.82722765,304976000.0,400720674.61491084,-103708000.0,31713253.49225855,98494000.0,184573071.932982,-103708000.0,50032699.83964708
689,978,0,3719784000.0,3928264328.514265,3332984000.0,2249132883.0546947,286813000.0,1638217252.7390692,2618169000.0,1364753354.3658159,-531777000.0,359106152.8274888,2086392000.0,1044461285.6795075,44074000.0,55412891.32704837,2574095000.0,1658044172.377094,44074000.0,52287174.28993855
919,362,1,1537935000.0,2874479214.6274076,1281456000.0,1609515138.9001362,256479000.0,1220111601.3682358,229699000.0,249860220.3651653,0.0,192593993.94840038,229699000.0,505115350.4692651,-26947000.0,32200481.27757425,256646000.0,241291269.16433957,-26947000.0,47216339.77385518
1827,972,1,1182488000.0,1730694806.2797155,303489000.0,1126437306.221051,759221000.0,688749965.9843988,56265000.0,155829895.9630344,333008000.0,208789192.84336507,251870000.0,218681125.15088117,16750000.0,34929666.69617448,39515000.0,145875743.93969953,16750000.0,38877035.835419014
1182,727,1,8225559.0,613746786.4491701,12447189.0,332116906.15424633,-4221630.0,9065231.26415801,17564.0,47511438.02620238,106922.0,-15205617.294031143,124486.0,-11025124.575920343,-8095209.0,-2863701.2329085767,8112773.0,79227842.35055864,-8095209.0,-11316140.39293237
