epiphany24262/financial-performance-prediction/results/oof/m3b_catboost_direct_history_industry.csv
Id,group_id,fold,actual_Q0_TOTAL_ASSETS,pred_Q0_TOTAL_ASSETS,actual_Q0_TOTAL_LIABILITIES,pred_Q0_TOTAL_LIABILITIES,actual_Q0_TOTAL_STOCKHOLDERS_EQUITY,pred_Q0_TOTAL_STOCKHOLDERS_EQUITY,actual_Q0_GROSS_PROFIT,pred_Q0_GROSS_PROFIT,actual_Q0_COST_OF_REVENUES,pred_Q0_COST_OF_REVENUES,actual_Q0_REVENUES,pred_Q0_REVENUES,actual_Q0_OPERATING_INCOME,pred_Q0_OPERATING_INCOME,actual_Q0_OPERATING_EXPENSES,pred_Q0_OPERATING_EXPENSES,actual_Q0_EBITDA,pred_Q0_EBITDA
196,314,4,1192950000.0,2724790508.224436,1055816000.0,1829359060.6938505,137134000.0,954098614.9716941,25598000.0,165458200.65016675,61899000.0,312588592.8715434,42992000.0,397581396.8252835,15222000.0,44684409.477639385,10383000.0,241612331.4782847,15215000.0,26496951.322838657
1568,1318,0,1219954000.0,3960661942.011156,835046000.0,1825130800.8674688,384908000.0,1897596009.1692772,111786000.0,266050312.30386215,217796000.0,326611935.07038635,329582000.0,518929005.1958295,28908000.0,62715631.60713309,85522000.0,249972489.57537857,26264000.0,75104753.63822399
1218,1523,0,-135820000000.0,10805834069.392897,-37972000000.0,10025885159.803993,-97848000000.0,2492440972.050427,-435000000.0,1940345672.566718,4445000000.0,4347407402.988975,4010000000.0,6565125370.147096,-1472000000.0,308674068.77694064,219000000.0,687176113.9848118,-654000000.0,60652334.05709701
23,1421,2,83298000.0,1490294814.7708755,16040000.0,1053850747.1112072,-31633000.0,444469095.996722,494000.0,121712316.63683999,3339000.0,161798054.20891756,3833000.0,225586881.86644316,-12348000.0,12811672.60843733,12842000.0,184483804.7688075,-12348000.0,51286556.8819212
783,1306,2,148546000.0,1454378072.1530323,56555000.0,1091586144.0782573,91991000.0,464730681.650475,1761000.0,145654096.1358924,-2375000.0,183435995.74201804,-614000.0,240285261.55124092,-10098000.0,9445514.612033308,11859000.0,174062666.42122963,-10098000.0,57510414.14438271
1251,1292,1,7304300000.0,6031614321.321864,2451900000.0,2583930120.1523128,4830200000.0,2565085587.7773123,578200000.0,426884902.7776154,581100000.0,682305428.6324486,1159300000.0,1261934314.9936674,245200000.0,85674850.1252016,333000000.0,290594000.4600482,245200000.0,61915861.32138746
1224,1572,2,1976905000.0,2503711003.701412,699909000.0,1845191976.2489426,1276996000.0,946577979.6022899,53993000.0,241782882.31524554,315825000.0,313943421.11059743,369818000.0,572001976.5781481,-1572000.0,33517514.99135802,371390000.0,210778299.02102816,-317397000.0,62721449.971186884
1410,638,0,2097274000.0,4700829764.66542,1132234000.0,2420323805.994092,965931000.0,1897596009.1692772,70481000.0,298899116.5244832,291052000.0,376062544.47157913,361533000.0,647171103.7088745,58709000.0,62499392.96260036,11772000.0,263712318.9244138,58709000.0,73624161.67808701
529,10,4,31183000.0,1550698054.1753063,15926000.0,990640281.7213001,15257000.0,442893172.6239127,2456000.0,131274866.85350576,2151000.0,159061446.54711592,4607000.0,228435160.27612877,-2931000.0,38795409.10116072,5387000.0,196780674.36024493,-2931000.0,28868430.164295167
730,598,0,978523000.0,3911019796.8574615,851196000.0,1810170892.9122293,-94184000.0,1910955820.802818,24321000.0,232170845.35496983,137937000.0,306821649.4901385,162258000.0,552040233.8602235,-764000.0,45463769.239812054,25085000.0,221098189.44377774,-764000.0,65806609.22248958
1590,740,3,27253000.0,1377995660.94483,14465193.072010836,1536923106.049837,12787806.927989164,413679379.4833602,-17000.0,148741368.4408757,17493000.0,157597758.595479,17476000.0,233724089.41074204,1196000.0,25127521.515350655,138000.0,110113100.49764073,-155000.0,72449831.88240537
367,140,3,798398000.0,2532575876.7561073,795372000.0,1785590038.5706465,3026000.0,906637677.5358329,37121000.0,233434511.59921527,256160000.0,275880498.0609568,293281000.0,401192337.72413194,10257000.0,45887757.13136939,26864000.0,160247508.82555485,10257000.0,80409360.0353615
636,741,2,1059052000.0,2294099341.524669,883921000.0,1512522417.3529942,175131000.0,769388748.6820374,91945000.0,205165918.7379626,202788000.0,289280203.33927566,235132000.0,458341410.87658703,-287000.0,37034782.669527926,84957000.0,214917348.38160202,6988000.0,62856435.837503165
1270,1352,1,11069000000.0,9586041675.110033,5919000000.0,3605251329.405883,5105000000.0,3840593873.3856845,727000000.0,535010188.4886626,1752000000.0,1040206218.7326922,2479000000.0,2106238669.8961473,462000000.0,198341840.36089408,265000000.0,300743614.8380156,462000000.0,64400081.50472942
102,263,0,12331000.0,3478146945.9954615,10875000.0,1045919577.3592358,1456000.0,1855012685.388737,1472000.0,145215764.75762188,1968000.0,171328510.00135094,3440000.0,289446300.7758771,-4166000.0,39594063.86591467,5638000.0,189989791.78967157,-4166000.0,56761484.717586815
1658,1092,1,180372000.0,1671304533.7266316,121221000.0,1554101957.7854238,30642000.0,508099673.576138,18014000.0,197276879.65782645,31653000.0,204179867.28510624,49667000.0,312573128.1603775,-11599000.0,36692512.40206415,29613000.0,209841309.01482978,-11599000.0,56903479.3718815
6,33,0,2319806000.0,4759556464.039822,1534495000.0,2631974308.54669,785311000.0,1910955820.802818,376397000.0,355694367.8013177,415254000.0,486675588.3826847,791651000.0,996919707.630089,93430000.0,87872974.34256911,288680000.0,283943913.530726,87717000.0,74886409.10623014
1147,1055,3,19295025.0,1308320695.5998569,28370931.0,1424399820.2707512,-13369686.0,392564207.1738615,2067435.0,121534293.67650384,4847499.0,131305900.99634665,6914934.0,207040127.16566122,-1108124.0,27767774.54343909,3175559.0,108768275.65162149,-1108124.0,73666063.48031363
114,1011,2,3549408000.0,3403230375.9002376,2109262000.0,2197348100.230845,1440146000.0,1417449169.0738478,264579000.0,346323220.0309146,494402000.0,438541782.4622405,758981000.0,729124820.0283263,58594000.0,62508334.206573345,205985000.0,253269745.67751485,58594000.0,61019272.057393
139,1334,4,331401784.0,1615306201.0767117,56254670.0,1258315992.5110488,275147114.0,466327411.54032576,17982150.0,145767548.07928795,0.0,196840220.51417857,17982150.0,255391155.8522401,-40215832.0,32068597.225919448,58197982.0,189769780.253518,-40215832.0,24080645.073311906
411,814,4,5533000.0,1374019886.5216398,4648000.0,879390674.9368033,885000.0,407743469.7090007,-1669000.0,123839149.56595662,2438000.0,141636161.4259975,769000.0,217609040.25578618,-6339000.0,32764070.36750666,4670000.0,180758776.22465363,-6339000.0,25811258.463185888
681,761,2,36550000000.0,26346734526.164894,16943241279.095451,7698427505.831287,15250000000.0,9488061722.759064,577000000.0,754330461.4292789,3467000000.0,1585816427.220336,4044000000.0,2838188864.9422536,714000000.0,274626638.375708,627000000.0,612808957.1088955,-50000000.0,63008934.96284188
1671,696,2,100449000.0,1463819389.3506918,141057000.0,994014272.4380376,-40608000.0,484625752.3592409,-171000.0,148866776.6789891,512000.0,190202491.5994094,341000.0,246217042.1954701,-48297000.0,7660678.531735241,24344000.0,181735651.2348979,-24515000.0,57510414.14438271
500,1236,2,10599934.0,1304777427.0022726,26203416.0,950394138.1060982,-15603482.0,324482753.1661074,-6219.0,123184100.64901483,193120.0,155260754.12249237,186901.0,216327843.21517825,-1076399.0,16051479.181701124,1070180.0,165835394.48388594,-1076399.0,57788494.00886154
1203,449,4,13322000.0,1625550812.0962758,67881000.0,1182719495.7217116,8277888.77383834,400377065.70776856,3223000.0,143404691.73256645,1889000.0,198710547.59341198,5112000.0,247133100.5823033,-3552000.0,37327425.15610587,8664000.0,216614226.70964035,-5441000.0,28773799.19895921
180,11,3,635001000.0,2538648435.2733803,115305000.0,1872929626.853384,502273000.0,671645143.7408855,21465000.0,247581259.6861776,40457000.0,238297864.20652997,61922000.0,445055279.2475977,-143360000.0,46627864.03772933,205282000.0,186650967.81086978,-183817000.0,77382046.11294752
1960,1026,2,2672864000.0,3153027573.4421916,288913000.0,1815384131.9051232,2383951000.0,1271378398.8345106,132902000.0,274261306.9771807,168499000.0,370589541.7137437,301401000.0,603196268.4709795,55706000.0,52644843.77958516,77196000.0,226039269.08029678,55706000.0,62721449.971186884
356,863,0,8388335000.0,5863437426.60527,5163154000.0,3810041848.8884516,3225181000.0,1910955820.802818,313343000.0,472276653.31006837,687959000.0,568891133.7363098,1001302000.0,1542815220.7990496,116260000.0,86197254.29077959,85661000.0,267561994.33864564,227682000.0,75302530.88093548
1646,1578,1,1563399000.0,2234716766.343925,1445358000.0,1977988418.9355135,-136248000.0,767639159.8014364,72333000.0,274696438.6883482,116682000.0,292091082.72217244,189015000.0,461120808.37612534,23506000.0,52460335.47720735,11423000.0,230930495.35120392,60910000.0,63000823.53118343
1793,1064,4,320019000.0,1990618725.273737,126984000.0,1834183727.6062112,193035000.0,799330672.0995648,177377000.0,232395472.2579317,58492000.0,289501987.4217205,235869000.0,414594120.99917936,25509000.0,50115233.060593285,151868000.0,240765035.08798975,25509000.0,34215293.402839445
235,94,4,0.0,1247865925.3512635,0.0,818588050.3503628,-804876.0,430395566.49206877,0.0,115397337.20131806,0.0,138370166.72319084,0.0,211041914.74727595,-14550.0,30477685.70835325,14550.0,173473677.86709216,-14550.0,21851662.69726171
1668,245,3,267194000.0,2006109621.1962857,175308000.0,1588515404.6521661,91886000.0,521493854.5173181,5103000.0,169576959.77515554,0.0,177314003.75024378,5103000.0,269500599.68651164,-32762000.0,35169287.7758557,37865000.0,137347184.91786334,-32762000.0,72119445.91080327
1456,1010,3,2249377000.0,3350847056.4134507,1923326000.0,2081150553.4303274,326519000.0,1145808628.0238256,-76300000.0,287164427.2263314,416103000.0,365971881.8086454,339803000.0,552390222.6380007,34941000.0,51923813.48206382,184914000.0,226115489.64175308,-261214000.0,77382046.11294752
1291,1021,2,396890000.0,1720643869.3353791,107071000.0,1355147654.532637,289819000.0,654789717.013653,52569000.0,166923983.5662946,13634000.0,248748338.88978535,66203000.0,316209305.1991279,8375000.0,17638383.54281622,57828000.0,212948317.442455,-5259000.0,58839693.87466197
1376,1176,2,7827000.0,1451638757.5799427,4744000.0,999150336.9900472,3083000.0,428358607.6089463,1288000.0,141404551.6219737,867000.0,158577782.26934105,2155000.0,224221248.89051843,-3880000.0,9209533.682328448,5168000.0,180895301.65348926,-3880000.0,53933634.406685404
1702,1493,0,11990000.0,3362488746.482155,3030000.0,851208512.9286261,8960000.0,1855012685.388737,1480000.0,118923428.10939616,3017000.0,129230393.71761656,4497000.0,291488248.90726674,-944000.0,43495808.53323334,2424000.0,175315246.48357242,-944000.0,68189864.8525469
1591,1286,2,7472874.0,1310971436.218553,3243445.0,899868394.3885846,4067990.0,286932788.8970969,3065804.0,135704424.22111988,0.0,138464526.62379903,3065804.0,197652475.55455387,-21884.0,11667758.862425238,3087688.0,182502351.5275073,-21884.0,54521586.406412065
647,1028,0,2182494000.0,4767645970.18639,2467501000.0,2554870526.6567693,-484456000.0,1910955820.802818,389190000.0,334807523.8561963,141172000.0,419100346.34487975,531030000.0,745510040.656609,-54175000.0,69374144.4443565,443365000.0,268075302.14143085,-54175000.0,63476360.41008209
100,1407,1,12166000.0,1362761560.1509943,2892000.0,1078254691.9042068,9274000.0,325190717.51558983,5000.0,137340536.3452394,54000.0,143426394.29815316,59000.0,214797526.57716477,-3433000.0,35102809.744713955,3433000.0,180278172.83282283,-3428000.0,30226357.862439945
507,447,1,189783000.0,1666652722.2000728,45792000.0,1485776401.2382798,143991000.0,452276749.58138597,2372000.0,185761893.84891188,0.0,157591394.51201737,2372000.0,244521551.9509257,-18270000.0,37411125.45583911,20642000.0,200551699.93178514,-18270000.0,50875947.1338093
547,960,3,1072653000.0,2033661179.7009873,455367000.0,1533655269.5930696,617286000.0,475296389.24749064,134998000.0,173373123.26932243,27783000.0,230936732.44455886,163452000.0,317868651.3220215,5489000.0,39243650.380064964,129509000.0,137895141.21354282,5489000.0,75378030.86333561
457,632,1,665104000.0,1941949432.5580087,575531000.0,1811364138.2354279,89573000.0,522022561.5262612,30803000.0,219129162.18926722,19437000.0,214961191.35305852,50240000.0,345577330.96346116,10357000.0,46139987.14208006,22017000.0,227402576.64724758,8786000.0,61613576.66339777
560,618,0,1900367000.0,3998420551.8638554,289037000.0,1774137356.3491848,1613343000.0,1855012685.388737,45433000.0,275676590.6541674,413911000.0,386960208.35984844,459344000.0,853065878.9825206,-6757000.0,68432908.99224992,52246000.0,230838500.864221,-6813000.0,75423104.55328676
1402,1560,4,88944000.0,1586882526.5899682,45361000.0,978398125.8448822,43583000.0,423172937.476246,0.0,138537548.5368479,45000.0,152189848.5730462,45000.0,215739413.93679893,-14351000.0,34928393.548850656,14351000.0,195115799.5915466,-14351000.0,26965984.373151142
1274,683,0,5390785000.0,4897319769.9307,4083098000.0,3285466591.2466407,1050686000.0,1910955820.802818,352054000.0,408019671.5707186,284900000.0,529558686.42157304,636954000.0,1198173993.4739108,120850000.0,77807766.83972463,187232000.0,281292206.65678513,164822000.0,70443527.88057502
799,1475,3,18535000.0,1440967182.0165014,13748000.0,1607434657.6988163,4787000.0,484301148.5494257,2839000.0,144944377.98466557,7502000.0,161928227.47163266,10341000.0,217967880.09893715,-2229000.0,35016152.47868412,3071000.0,116375862.70460865,-232000.0,75928877.6425509
1436,366,2,13281300000.0,7990684654.320174,5777300000.0,3667973066.695859,7484300000.0,3104150095.0408087,1030700000.0,497111461.103272,1150100000.0,741817645.8838849,2180800000.0,1760128779.201857,687000000.0,308294652.9476501,343700000.0,353252001.75872314,687000000.0,62721449.971186884
1518,564,4,108681735.0,1667826045.2446122,9192190.0,996687545.771668,67531550.37365061,524073555.45477533,2201326.0,139740822.90355733,255772.0,170614468.96975678,2457098.0,241992953.57213652,-8935951.0,39245547.799350314,11137277.0,199544971.01383504,-8935951.0,25329083.03361963
211,1245,3,189692000.0,1794470600.127462,90178000.0,1809133760.4035738,99514000.0,609281619.0391753,-4411000.0,182442332.07788104,24963000.0,180382529.53063202,20552000.0,252466278.89474487,-10000000.0,41023073.82261418,5589000.0,131430449.56634787,-10000000.0,74537775.09192455
1542,539,4,230878000.0,1785053993.561355,57278000.0,1335858062.6120172,173600000.0,530942959.41107774,26973000.0,156100897.34163538,7041000.0,207226005.04374355,34014000.0,265413040.0770439,-11169000.0,40052898.633395724,38142000.0,208447422.37417397,-11169000.0,30102499.60329738
1496,129,4,73773000.0,1573088803.4829283,50819000.0,1058113662.142679,38847689.64492722,454355559.2575263,5428000.0,139879231.75201228,22481000.0,178009148.7802561,27909000.0,249127439.7235278,-1778000.0,34424137.664789215,7206000.0,199237395.97034988,-1778000.0,23674017.364638094
1891,794,4,1582767000.0,2708985019.5241117,680421000.0,2124522110.1468673,880211000.0,922073979.1038551,56683000.0,188280540.0923218,17637000.0,307505367.92973137,74320000.0,392090567.4170848,-5119000.0,46306706.20494507,35279000.0,234773002.5531967,21404000.0,31042739.697505593
362,1155,3,5641000.0,1403897235.1454449,5200000.0,1421908086.4914498,-3859000.0,395202818.1044172,1192000.0,123173848.3744672,781000.0,146582000.34974873,1973000.0,216878519.03631282,-97000.0,31907419.270427674,2070000.0,114851492.96139312,-878000.0,75228339.11447051
605,905,3,3208196000.0,3274890325.0736465,2133043000.0,2409455751.3778377,1075153000.0,1837520440.181554,625972000.0,417949953.80900145,1066275000.0,763797780.8132937,1692247000.0,1269771991.0930853,91616000.0,79707581.50396007,497965000.0,267362335.42706138,128007000.0,80409360.0353615
384,713,0,13057000.0,3329630025.226306,4943774.229094189,769680067.7271543,10949000.0,1855012685.388737,7944000.0,129367442.50066727,0.0,115945102.57864034,7944000.0,289806044.13321495,1997000.0,37798976.55298069,5947000.0,158746214.8957268,1997000.0,67859765.22640446
438,1575,4,5973000000.0,5246009668.836193,4408000000.0,2295876726.7293124,1554000000.0,1989390638.7196176,244000000.0,304303306.1200752,1526000000.0,718510295.7617475,1770000000.0,1282496328.0815973,147000000.0,60802596.75828014,127000000.0,267752746.94971126,117000000.0,28246688.627111785
1761,738,0,589088000.0,3730248730.478214,253950000.0,1462712525.7616558,335138000.0,1855012685.388737,19294000.0,184872638.35137007,99428000.0,235561009.34769493,118722000.0,356764680.5902629,9057000.0,57940693.34821911,10237000.0,225481069.7644058,9057000.0,75368058.08643438
403,525,3,21286772.0,1434689930.8582196,1383236.0,1417272528.2297578,19903536.0,414121020.5970373,781782.0,127124099.0957706,421382.0,147811370.322753,1203164.0,214974741.75798666,-1960898.0,33833610.451586,2742680.0,106587440.54224905,-1960898.0,74421281.11420453
388,1349,4,3445920.0,1344526281.5429463,1859560.0,1160922245.1369715,1616914.0883314284,434928611.1591375,2970901.0,126345769.56681338,569508.0,144505739.44906878,805185.0,222905580.69424307,2437201.0,36062375.55516498,533700.0,181309495.6425647,2437201.0,24911383.741558284
1452,124,4,328158000.0,2034646849.0916495,124250521.82515822,1545721231.6265664,270486000.0,630435669.7023337,24944000.0,159964216.00282267,16521000.0,218686445.53489673,41465000.0,277651251.23337317,-7674000.0,46136789.52600229,24827000.0,223768379.3672042,117000.0,29232773.195375852
1876,412,1,2498305.0,1390614392.251153,2997402.0,1113030194.7259502,-3454854.0,346525471.0068238,467340.0,123278807.35420948,346611.0,145939127.40815473,813951.0,230258539.69930017,-114631.0,34091781.73108367,581971.0,164193248.7768019,-114631.0,23607699.024279363
757,651,2,1288046000.0,2536037926.349947,649920845.9604261,1871034829.0908346,889849000.0,936909393.1530975,105384000.0,243431157.83554778,285360000.0,367183574.13525563,390744000.0,516529197.97618806,53190000.0,44143371.70739445,52194000.0,225478065.15345043,53190000.0,62721449.971186884
660,226,2,600057000.0,2151850744.587084,369915000.0,1475668273.226487,225443000.0,760063054.5146655,43121000.0,204917313.4388822,106269000.0,280564198.83692104,149390000.0,418653168.75978565,7853000.0,28299261.39642325,30439000.0,194825505.07546604,12682000.0,61159295.108477026
197,709,4,538955000.0,1636910114.9803233,291671000.0,1262463728.389382,247284000.0,404168114.067121,-14193000.0,135195884.72058675,14235000.0,181662923.79855996,42000.0,253203660.93442774,-51845000.0,26647714.3483309,37652000.0,204170521.15739712,-51845000.0,29130038.692300424
93,962,1,25334074.0,1390614392.251153,18917048.0,1198634967.3534446,5501613.0,352085398.73502266,-536032.0,156946553.19520646,4501393.0,157277717.5519668,3965361.0,232343837.8039893,-2975120.0,39370457.25559677,2439088.0,184791870.11925977,-2975120.0,50908715.21652537
472,1463,0,1934400000.0,4422212605.555227,855887268.5537325,2490331519.0145445,957200000.0,1910955820.802818,84000000.0,291048420.1149025,375600000.0,365443835.63794035,459600000.0,750237318.4639328,30800000.0,68077089.4680439,59000000.0,252715132.8220151,25000000.0,75302530.88093548
1345,573,0,102973000.0,3553087136.9562397,162948000.0,1057706090.1671124,-346214000.0,1841652873.755196,-13037000.0,153891108.01750445,25768000.0,160031889.19564235,12731000.0,305595550.41595316,-23219000.0,32142014.872805953,35950000.0,189334377.8525343,-48987000.0,57267589.495710954
1672,351,2,2501300000.0,3169270088.8335466,1075500000.0,1985483617.432956,1407900000.0,1361139262.419566,99600000.0,265940093.96570373,151100000.0,419260500.194556,250700000.0,582133767.6652318,31900000.0,47476483.60949449,67700000.0,228341499.323704,31900000.0,62721449.971186884
521,298,0,27910000000.0,16640142786.009085,24392000000.0,11284651613.455908,14058781786.346067,1897596009.1692772,1525000000.0,927362477.9101315,6421000000.0,3079525308.159999,7946000000.0,3442649667.746263,561000000.0,207128798.8960964,638000000.0,337774238.5310969,887000000.0,43414736.43457107
1143,519,4,105238000.0,1634930324.612041,42240000.0,1130230309.1925418,62998000.0,563541291.3388598,8572000.0,153700877.37266487,322000.0,184046174.49063456,8894000.0,255231902.180727,2218000.0,42290230.64674809,6354000.0,202064231.93485683,2218000.0,27929835.37608278
502,1365,3,2010176000.0,2976128858.2141447,889414829.379791,2112206942.3376415,1057656000.0,1175605806.4110522,113627000.0,290597196.06370074,250202000.0,382996264.8763255,363829000.0,611157308.2810106,44531000.0,64866574.78201933,69096000.0,213072440.4868068,44531000.0,77382046.11294752
319,621,2,15154000000.0,8278166701.561168,5534200000.0,4398636917.7527075,9554000000.0,4608351316.173231,739300000.0,559390935.4633849,999600000.0,663696562.9519348,1738900000.0,1409720211.595548,318400000.0,196945916.50121754,315200000.0,347682782.5908492,424100000.0,62721449.971186884
471,516,2,346507000.0,1798620141.3250394,100361000.0,1355147654.532637,246146000.0,591839309.4373295,14398000.0,185449836.45304477,62502000.0,242339287.36297184,72480000.0,348671834.855572,4926000.0,21635226.23435186,9472000.0,189585101.15925512,4926000.0,62721449.971186884
1756,421,2,229309000.0,1734188941.7049747,190264000.0,1174968399.7398427,-44269000.0,472524978.6930592,9225000.0,177799767.932764,52669000.0,213709021.2143584,61894000.0,328379309.51983833,1401000.0,25611581.017608672,7511000.0,189969273.9144688,1714000.0,54690297.544258915
848,415,3,101740000.0,1613138913.1450262,28463000.0,1392341036.2758179,50734000.0,410229294.9978963,29850000.0,170485226.6064529,12745000.0,160358691.4188661,40857000.0,213399360.23614144,2689000.0,34835023.06486789,27161000.0,139667391.59587437,2689000.0,68208073.23331046
1310,660,3,9582645000.0,4434548766.907891,3280269000.0,1991496401.0401187,6302376000.0,2825522672.3205004,376175000.0,339404748.5919293,424915000.0,536712275.90358394,801090000.0,975017281.1577469,272965000.0,65898806.27791452,103421000.0,255480676.2171126,272754000.0,77382046.11294752
202,496,2,609678000.0,2210286965.5629005,288631252.1743736,1579373261.6762178,366720000.0,799998457.998821,84451000.0,209568795.45823595,21802000.0,296649127.0876886,106253000.0,428184149.19371414,5683000.0,27454228.341363773,78768000.0,208318541.3401748,5683000.0,62721449.971186884
1444,1250,3,43441700000.0,33380603551.296993,21559314449.01792,8644190786.296436,21882385550.98208,6651625402.821947,1370000000.0,679186539.2185013,587400000.0,883131846.1655556,1957400000.0,2368668498.7830524,472000000.0,84723108.48283745,1485400000.0,977833016.179102,-115400000.0,76888504.19987737
1578,687,1,1146353000.0,2369930052.441277,752649000.0,1845186689.8884459,393704000.0,782786942.5741014,95229000.0,250399435.6203855,32092000.0,265472601.33055472,127321000.0,413574534.53302526,-58245000.0,46763078.38318153,153474000.0,242277711.23204705,-58245000.0,62318961.0759661
451,1036,2,796771.0,1336239670.5823588,1072746.0,908468633.8374243,-275975.0,318594509.7277373,205707.0,118258435.68522704,158335.0,131356538.95075649,364042.0,202644287.25179935,-168127.0,18392810.40232417,373834.0,167139668.74044886,-168127.0,45900082.44368604
35,1172,1,9069035000.0,5277600170.870514,2563480000.0,2753714551.632155,6505555000.0,2460322182.2172375,942419000.0,482335402.39765596,522866000.0,586309380.4754109,1285548000.0,1110138066.8300915,602695000.0,156850785.51986787,339724000.0,275079936.23461235,602695000.0,64400081.50472942
237,194,4,48924605000.0,34981226339.569214,25766652000.0,10638727969.652456,22441501000.0,10353427378.04706,1560160000.0,705806420.8538492,915531000.0,803534430.2881534,2475691000.0,2511238752.859976,558196000.0,186601315.71361652,1001964000.0,353782634.32758546,558196000.0,33144506.83019819
917,1116,2,514281000.0,2050535772.8214927,309957000.0,1517671274.2243383,198004000.0,701593677.5311909,106985000.0,210814826.65936184,149052000.0,287304087.5070544,309744000.0,439074882.292691,62399000.0,29321024.22489378,44586000.0,198514174.11309916,62399000.0,60638386.921743885
558,251,2,17876000000.0,5704774196.029561,4077000000.0,2242237071.454956,13799000000.0,3998048260.5633883,-917000000.0,236716669.40543318,1453000000.0,356587407.43530566,536000000.0,772655621.7152451,-1774000000.0,20620445.208183542,857000000.0,331468089.13008434,-1774000000.0,55139317.86220697
73,532,1,218354000.0,1786257748.3337703,62021000.0,1473057775.0997205,156333000.0,464876701.5366175,-143000.0,186716495.21575543,848000.0,173793296.93869734,705000.0,248920110.74332166,-31577000.0,38602172.66743768,40859000.0,212880875.5626959,-41002000.0,53757823.70646268
532,205,3,2268100000.0,3582825654.183678,1627400000.0,2123515889.7060723,640700000.0,1095732833.688018,78400000.0,321111351.8625742,665200000.0,445663322.7471504,743600000.0,845197464.4526646,19100000.0,53619828.58815148,724500000.0,423699514.39841914,-646100000.0,77382046.11294752
986,275,3,49117000.0,1490650179.0151238,7104000.0,1475668815.8380766,42013000.0,475040450.60345685,1616000.0,143308375.8101166,3273000.0,152151399.77110285,4889000.0,220498581.7193662,-1489000.0,34944923.30452361,3105000.0,115783461.63121006,-1489000.0,74361931.83357094
252,1030,3,12822000.0,1384391788.069201,1624000.0,1321925516.788733,11198000.0,342119785.482942,0.0,127995921.73268688,0.0,122831304.62437445,0.0,204697553.51423037,-1983000.0,33695033.54562359,1983000.0,111065771.20105708,-1983000.0,69460838.25237466
982,1392,1,543788000.0,2052922937.7977629,205894547.02387,1716274788.252314,402777000.0,675115305.8696697,1944000.0,225402865.0773027,0.0,208195194.9470889,1944000.0,322808085.00242233,-51279000.0,40200315.74627017,53223000.0,242751407.43800977,-51279000.0,60404226.05063649
1947,616,2,16965000000.0,10460682527.87521,7506269391.549871,4803291689.921785,7744800000.0,4580905144.129576,1329900000.0,717658719.6653408,1175700000.0,819964335.53669,2505600000.0,1752226526.5110865,1069200000.0,390618310.0330186,32700000.0,326601850.32979006,1297200000.0,58657593.024630785
1206,918,0,29788000.0,3538713788.0844903,27907000.0,1314630022.0049253,1881000.0,1841652873.755196,0.0,145771469.56232357,3452000.0,164261689.98337036,3452000.0,326172558.92095447,-23801000.0,46607401.29175616,23801000.0,209609371.25148284,-23801000.0,60040397.58401998
542,1191,2,39315010.0,1477840924.554164,15768167.0,942975179.2125173,23791305.0,367655393.4477403,7600979.0,137553423.75600517,41810204.0,160790431.72913033,49411183.0,221747771.61594605,-1588725.0,19738534.013977513,9189704.0,190924657.97720677,-1588725.0,48681249.976141885
15,899,4,184728000.0,1730278604.8219767,40367000.0,1330443757.6843882,144361000.0,467948292.10285807,0.0,152727028.48452199,8094000.0,205841382.73230118,8094000.0,249524581.0933497,-23114000.0,34640797.03194032,23114000.0,218956206.17852712,-23114000.0,27499325.20522571
1754,856,2,5014090000.0,3618651902.6695976,2606263000.0,2198528525.5874543,2407827000.0,1780177029.0750108,420690000.0,371460033.3167711,905430000.0,603009289.7242584,1326120000.0,779397577.3513193,237492000.0,97814872.73797013,183198000.0,238528827.3428686,237492000.0,62721449.971186884
1448,1495,3,3543460000.0,3004367129.1037807,2602227000.0,2047545140.4381042,941233000.0,1050946612.8060011,443568000.0,273712487.25233686,134292000.0,386917558.19665396,414603000.0,682151479.4187168,14363000.0,48153665.28890683,429205000.0,231648881.1397242,14363000.0,80409360.0353615
459,1563,1,747087000.0,2090334220.745551,79688000.0,1802501385.6822295,667399000.0,631599630.4149315,34565000.0,224201383.28643876,22203000.0,198892983.28937978,57261000.0,307075199.4045546,-16306000.0,43375231.24341015,50871000.0,223568098.34732524,-16306000.0,61169762.14781041
1505,8,3,4578121000.0,5278976614.234928,2310023301.364386,3037112727.9199967,2489780000.0,3419518754.1218796,2190001000.0,1233203064.2194672,-1465670000.0,600283952.9103618,724331000.0,1517840874.7844157,216069000.0,193252670.16028196,1973932000.0,1382026371.4406161,216069000.0,75328784.751176
1613,399,4,11895943000.0,9329095625.371979,3479745000.0,3237164702.5228667,8416198000.0,2972104372.154781,335683000.0,459974400.67967486,296441000.0,563478588.8610939,632124000.0,1073118163.1645379,90949000.0,50290548.90317167,201199000.0,304188110.58463633,134484000.0,29047659.28273621
1214,1410,3,1059300000.0,2683000438.3480024,513000000.0,2024696557.0582213,545000000.0,1053535033.0655035,132000000.0,268644180.6807255,172700000.0,358561663.08879673,304700000.0,494921273.86005485,34700000.0,62603274.43562002,88200000.0,189107757.4843633,43800000.0,77382046.11294752
454,235,3,11204065000.0,8419590411.827396,4242197120.938668,3464788796.1215873,3489373000.0,3333896141.9990654,480702000.0,369334189.11741835,457696000.0,528660043.36532176,938398000.0,945440273.4241724,172392000.0,71444290.4114567,308310000.0,289939767.9866935,172392000.0,72015533.98585254
1392,34,4,531121000.0,2272577467.0232673,248900000.0,1831021217.3361762,282221000.0,859550606.1741333,62379000.0,176450110.4055592,135419000.0,280972698.0948757,197798000.0,335085354.0108038,18703000.0,51116612.68384023,43698000.0,232892015.12637186,18681000.0,35361336.871974744
1519,1545,4,961035000.0,2566845344.6049757,1381722000.0,2210938171.554805,-420687000.0,1112233445.6117492,271111000.0,282918507.3214594,201537000.0,366571653.6494204,472648000.0,551470394.5812013,5387000.0,42880846.12575758,265724000.0,243565452.40968806,5387000.0,37184586.121281385
1060,432,1,3194462000.0,3156924874.1073594,1643299000.0,2345066061.5828514,1512215000.0,1225367738.8180227,817744000.0,333816156.1246719,0.0,377247721.46997464,817744000.0,674400133.3002181,37900000.0,56137880.92335422,779844000.0,286613304.5844174,37900000.0,60404226.05063649
1100,895,3,6042273.0,1308320695.5998569,3627261.0,1247795016.4577768,2415012.0,325333260.3114455,0.0,119924000.7226507,0.0,119899366.09201938,0.0,201996060.82127714,-1829562.0,25299846.767859608,1829562.0,105125040.3062776,-1829562.0,75020226.05281249
203,426,2,76266906.0,1538565172.968996,57438990.0,1128284993.0855834,40912361.81482647,399477838.24812067,9146097.0,155361661.90541762,0.0,184835906.94601816,9146097.0,231501585.2138958,-2633902.0,20205954.798231423,11779999.0,176997577.06636602,-2633902.0,55071182.67990802
1493,1399,4,-3532973000.0,2088240483.7868414,-2747133000.0,1833789204.607668,-773571000.0,976325499.8096862,87737000.0,239496081.6463689,40236000.0,479449385.39144385,103187000.0,590672208.1161513,7123000.0,40270033.41467572,80614000.0,203662741.3595692,7123000.0,35378291.1728968
543,815,3,846734000.0,1647534611.0348406,635659000.0,1524906476.2643595,69332000.0,576837386.300098,204774000.0,200644588.34213972,-13024000.0,189087678.04399073,191750000.0,333219396.6487124,-52860000.0,30603364.29702045,257634000.0,215172850.3673396,-52860000.0,71198509.37931156
1966,624,4,1354514000.0,2530870045.722536,675720000.0,1581136627.7522771,319291000.0,905185985.1804333,-16558000.0,151765720.13006383,64132000.0,283172125.70552397,47574000.0,316537252.8070067,22229000.0,39152421.648072995,13428000.0,235773483.0164848,-29986000.0,28750463.326115973
1802,437,1,270533000.0,1786994584.6303935,240046000.0,1559893462.64775,30487000.0,515300615.1591364,26052000.0,209414018.7714777,12454000.0,190819438.35281557,38506000.0,291496961.765996,-21038000.0,38602172.66743768,47090000.0,215198407.70560905,-21038000.0,61033315.2245897
1372,1341,2,583783000.0,2139172889.4454036,717382000.0,1445559814.3576782,-133599000.0,687115951.9446167,41865000.0,227604703.81449082,32703000.0,271364164.7560517,74568000.0,395823193.2611573,-32006000.0,22205238.467596382,48224000.0,209435721.50758716,-6359000.0,57556457.36914608
1325,1439,4,534446.0,1241219117.0098906,9794849.0,839246196.2853642,-9132038.0,389782179.85330725,6264.0,124802755.53752339,3881.0,133002482.5311938,10145.0,217059327.32347953,-961868.0,31755360.39781969,972013.0,181313230.61646545,-965749.0,27163887.984979082
1504,1241,2,106308000.0,1643615433.2663999,29369000.0,1151481458.3012378,76939000.0,541040263.3114938,15630000.0,174102095.99879858,0.0,211992961.146138,15630000.0,282063487.270756,-23899000.0,13903590.391612098,39529000.0,179285145.44469783,-23899000.0,61019272.057393
1347,1518,0,369031000.0,3770002382.8486977,216722530.1814524,1446074369.1170394,188777000.0,1855012685.388737,45044000.0,216961851.08328113,42173000.0,264539314.7130813,87217000.0,413355245.18261814,-3804000.0,58007138.4864627,48848000.0,243495532.71442753,-3804000.0,71984468.97462764
1492,872,1,327784000.0,1795474248.5515027,323919000.0,1572114356.1972966,3865000.0,497029010.7455329,33496000.0,207353655.13641798,8201000.0,199642658.99955428,41697000.0,294396711.3125247,-4913000.0,41818923.79567112,37287000.0,215386832.70172253,-3791000.0,61170635.93419513
1107,1504,4,85658000000.0,22334915684.760067,88335000000.0,24568004526.02068,-2772000000.0,5840176129.262395,5387000000.0,3874481743.5479774,14002000000.0,8939814559.67014,16935000000.0,16294282883.507473,1165000000.0,737549704.6568377,4222000000.0,1477923085.8601522,1165000000.0,235991579.6073009
1336,431,2,898860000.0,2121466577.742342,527877640.3036609,1497837338.3320882,360528000.0,646515614.6296073,68259000.0,196869176.80947685,42065000.0,234884470.65810233,110324000.0,344916633.56848764,-1325000.0,29104399.897408172,69584000.0,216565015.96719384,-1325000.0,55668779.158418655
599,1357,1,50546000.0,1443062081.6216364,5959000.0,1252480778.0174031,44587000.0,380163004.6655296,1989000.0,163584358.88236785,1909000.0,149123327.8951789,3898000.0,234417161.7719648,-1895000.0,37979553.8855947,3884000.0,184754340.15072075,-1895000.0,51761222.67655125
117,630,3,939056000.0,2386312151.2646084,419590000.0,2024696557.0582213,517473000.0,754291613.5573206,90527000.0,231237437.80051938,120216000.0,271794961.773198,210268000.0,384043778.9460169,61012000.0,56504342.16624566,29515000.0,173887052.9255912,61012000.0,77382046.11294752
1825,1520,3,20027115000.0,9679829019.789364,12952737000.0,3177407625.3111615,5611108000.0,3572451475.0149374,32786000.0,403328697.5493662,283742000.0,508919547.37780315,316528000.0,1011566564.7986058,-1347477000.0,52363390.87411987,1910658000.0,468359159.51725876,-1877872000.0,77382046.11294752
1507,300,3,124094000.0,1678647798.9103336,18130000.0,1570933094.3193583,105964000.0,446800560.41059625,830000.0,156228427.80203292,0.0,135958088.41873074,830000.0,224385069.97755527,-5787000.0,36681093.26898963,6617000.0,126403247.8793514,-5787000.0,73364789.5099415
321,587,1,68675000.0,1555721844.084474,40331082.646745786,1520994800.3596191,53645000.0,380829073.58879936,10938000.0,178026177.3710527,6604000.0,161922069.8617282,17542000.0,244422344.70757568,880000.0,41452486.97094737,10058000.0,214780833.2803204,880000.0,43633560.697357565
1482,433,0,1833700000.0,4202699688.087062,811331929.4597701,2360562595.1745253,482900000.0,1855012685.388737,110200000.0,276575738.9881591,356000000.0,369823532.0519157,466200000.0,704566993.8826859,45700000.0,69129059.26526847,55600000.0,255900635.48798358,54600000.0,75302530.88093548
508,1187,1,62515472.0,1390614392.251153,29595817.732691668,1251471943.0126357,21861273.0,382203106.62325,7032458.0,168937457.65434724,11256239.0,157931840.11916602,18288697.0,235300701.48643863,-1564350.0,37906869.72334427,8596808.0,201947790.99189308,-1564350.0,52891076.81618008
1411,610,3,33859785.0,1312725295.84191,6178818.0,1390828784.577485,27680967.0,388489145.9223933,-63384.0,131182204.86243367,87873.0,123180235.57685792,24489.0,205425135.31247842,-2675666.0,30531380.22166188,2612282.0,114297756.53208104,-2675666.0,70913283.69445436
718,1603,3,770792000.0,2897691483.5490394,581187000.0,1934984743.8137002,188503000.0,889748327.015187,456709000.0,242310035.49646485,0.0,247834065.36993194,456709000.0,432331939.9941772,-29756000.0,48599811.75899961,486465000.0,211356775.45945433,-29756000.0,75328784.751176
1865,1457,1,4753100000.0,3642465293.684841,2691038000.0,2345066061.5828514,2062062000.0,1205335099.7072282,383135000.0,341244095.17393565,0.0,435264063.53355813,383135000.0,664743771.4310365,126771000.0,51382288.025963,256364000.0,261888588.51421565,126771000.0,60930091.6427757
710,1426,2,9330700000.0,5128766806.577519,4987700000.0,2907461808.9717345,4343000000.0,2288875641.4584994,590200000.0,400011314.03593844,367100000.0,510215740.7343308,444000000.0,1101506838.7594082,121300000.0,76770082.51213928,468900000.0,315403670.0656509,121300000.0,62856435.837503165
285,985,3,1797231000.0,2808406133.8017845,1568932000.0,1895688525.2530525,228299000.0,840983471.9319623,143030000.0,258967467.408506,0.0,291920097.55404204,143030000.0,522799262.3621273,-113543000.0,43862805.53823425,256573000.0,206038577.3861074,-113543000.0,76109479.37206942
1609,179,4,90048000.0,1732624458.6099129,45436321.63528667,1194448445.059902,37547000.0,507834925.3872824,2482000.0,148087131.4832595,9262000.0,203764925.6970976,11744000.0,262235128.97910511,1360000.0,39909861.48492507,2815000.0,206299378.71159753,-333000.0,30811140.797202677
1814,1095,3,190817000.0,1832710222.1679506,91955000.0,1821522408.2086892,118567925.39840196,532978570.6400254,16838000.0,192628217.19355816,21962000.0,181105569.57599407,38800000.0,244415393.01140046,3292000.0,40593568.62511479,13546000.0,131845414.6926572,3292000.0,74537775.09192455
720,50,3,24930824.0,1440967182.0165014,6278564.0,1559732190.517231,18652260.0,427378181.8042419,7866761.0,145676953.12015373,20382092.0,154646718.44902092,28248853.0,214554779.0220827,1448213.0,31901138.996343955,6418548.0,111630381.5249714,1448213.0,74259429.46116014
1707,149,4,6071000000.0,8912637382.496208,14261000000.0,3370888066.599677,-8190000000.0,1969300142.4527998,1287000000.0,549491951.2166634,421000000.0,604350558.9387605,1708000000.0,1302038142.134599,613000000.0,153722506.76562366,1095000000.0,339402186.0587019,192000000.0,37957971.97041075
485,1443,0,5768300000.0,5158614829.160035,3017800000.0,3018848004.3690395,2739100000.0,1910955820.802818,487400000.0,365256653.1811988,888400000.0,614221677.2518597,1375800000.0,1405223852.3640327,276300000.0,76258092.6883262,211100000.0,284528460.16962767,276300000.0,75302530.88093548
1364,1252,1,3486179000.0,4163044352.241661,1927467000.0,2231175406.0968738,1501742000.0,1424417917.6763084,315111000.0,366025827.7456547,669472000.0,538943855.6926587,949217000.0,963194050.1025385,-24190000.0,63609933.06059714,194277000.0,288222033.6798473,120834000.0,59511160.49941643
1943,1464,4,496042000.0,1992676489.0205975,349488000.0,1656642705.3445997,146554000.0,767924422.5475925,33924000.0,166750282.61319095,212763000.0,274354678.7284972,246687000.0,311534469.52004087,12448000.0,47729337.7116663,21476000.0,224166702.2877757,12448000.0,35361336.871974744
708,512,1,1713800000.0,2501127086.1579356,864747334.9608463,2092570603.9124467,585500000.0,1085286830.280309,141400000.0,262009985.7780404,205900000.0,333070369.6686334,347300000.0,565728728.1566786,100200000.0,59585628.67557784,64600000.0,258343515.19866297,76800000.0,62765344.38456637
1795,256,2,5817000.0,1338527249.364913,1413000.0,933547833.9323287,5436000.0,360907040.2243215,5000.0,122469357.58997256,0.0,146362080.80580622,5000.0,211434280.02239084,-3525000.0,10608625.823208809,3530000.0,174924404.23673466,-3525000.0,53171548.2804263
1196,860,3,4180537.0,1490650179.0151238,13379601.0,1537901898.5649946,-9199064.0,416225602.5874537,1107842.0,149581961.20900005,974711.0,150026270.31850374,2069845.0,224281883.6062188,-2577294.0,30425438.48372546,3685136.0,117320312.72932056,-2577294.0,70195614.25307626
1785,368,0,6656000000.0,5770470517.290343,2127000000.0,3400351185.5913105,4529000000.0,1910955820.802818,386000000.0,429536761.4692787,110000000.0,709852446.2267964,496000000.0,1231748167.3712475,-53000000.0,71595621.94945647,439000000.0,278924711.12869334,-53000000.0,71173218.10679391
1117,1482,1,191593000.0,1839290603.360083,250675000.0,1568739460.8115697,89973054.63642293,502616123.99343693,28173000.0,207259505.36390615,35245000.0,200141329.75086987,63418000.0,318824216.4857844,-6852000.0,36058208.04494211,35025000.0,220476906.3693385,-6852000.0,61629377.77879135
611,528,0,69753000.0,3677426625.7775884,24624000.0,1201003825.211399,45129000.0,1841652873.755196,4333000.0,154309479.46317935,3937000.0,171110160.6485721,8270000.0,320947926.4344413,-17948000.0,45729191.54976176,22281000.0,206105196.31183842,-17948000.0,67525931.45064628
1037,1096,2,12798100000.0,8776901406.249098,7698700000.0,4350673071.483977,5099400000.0,2846624968.0900507,578600000.0,485908750.2626729,1141600000.0,773939864.2871227,1720200000.0,1580390807.723835,210200000.0,157453809.11914757,368400000.0,360266145.3864049,210200000.0,62721449.971186884
1049,1368,0,41718000.0,3422297647.5896916,16883000.0,934083191.1040635,24835000.0,1841652873.755196,4472000.0,127909192.52567685,-7000.0,137161173.25514436,4465000.0,303225136.05148005,467000.0,44989286.78684069,4005000.0,202244410.01026472,467000.0,67441554.26444595
181,192,1,2175066000.0,2558034901.9381,720018000.0,1980172087.8406417,1455048000.0,857778142.0239451,262895000.0,289557679.16647124,0.0,298790295.8333851,262895000.0,472922059.6362052,-74357000.0,38772705.927529745,337252000.0,262272212.7141068,-74357000.0,47861096.598644145
1530,1427,1,432444000.0,1830417185.4335675,58115000.0,1559893462.64775,374329000.0,515954569.3790921,30953000.0,206954617.90044022,9019000.0,198494528.79615283,39972000.0,286233917.37742317,-4508000.0,40065760.199690185,35461000.0,223409426.90583628,-4508000.0,60202124.21701966
1172,703,0,1951144000.0,4204390803.2608833,976648000.0,2525099464.4442477,828149000.0,1910955820.802818,81471000.0,293680405.8600539,811299000.0,408854764.70538855,892770000.0,920751576.263581,21174000.0,63364963.8504116,35340000.0,255331239.91663483,46131000.0,71278931.30127211
1844,177,1,5184000.0,1402820755.1733088,33317000.0,1025528522.0531898,2568262.933576247,385567466.7011771,28000.0,131019001.67207122,1138000.0,142805966.62019408,1166000.0,213226022.69246602,-1174000.0,29978776.10397023,1202000.0,188278632.6682412,-1174000.0,8872952.267502412
937,1211,2,30042800000.0,19066671502.325935,15158963259.867964,6663556278.031312,10331300000.0,6127841158.134012,1541600000.0,606921052.1984837,2284300000.0,1003446800.9144506,3825900000.0,2429780291.441416,727800000.0,431686731.9354834,402100000.0,378348309.68014425,1139500000.0,62721449.971186884
1319,819,4,3143366000.0,3326265653.503258,724791000.0,2151484282.606662,1686216654.8151803,1360378809.6299934,293240000.0,257773375.21993607,0.0,336071029.98995954,293240000.0,470428702.2675363,242794000.0,46568464.6430854,50446000.0,256011894.0525525,242794000.0,35361336.871974744
785,508,0,2558318838.0,4463994747.316397,289865031.0,2029232976.2038586,2268453807.0,1855012685.388737,191440633.0,298681499.2404392,384407857.0,338253235.38181275,575848490.0,675196960.2320164,122416529.0,71488755.06452551,69024104.0,261400999.82189184,122416529.0,75302530.88093548
534,742,1,355784000.0,1988091279.6354003,359982000.0,1674571995.4744115,21035000.0,556445625.4274327,21274000.0,217551773.8091611,23247000.0,224395857.6488757,43857000.0,320329674.1563355,-2501000.0,38602172.66743768,23775000.0,225472809.58913958,-2501000.0,64536383.007986955
1073,970,3,107571000000.0,84754640993.3514,49865975585.04998,28497938177.29953,57705024414.95002,35506310145.35619,4680000000.0,2310453603.4249935,16059000000.0,10785799222.312605,20739000000.0,14374040638.267868,2233000000.0,649878503.489372,234000000.0,499615443.04353815,4446000000.0,213997044.72411397
871,1115,3,357016000.0,1940420624.9640698,134021000.0,1825404513.4778216,222995000.0,580959551.5834917,10859000.0,183518668.86007476,60424000.0,197129901.2432084,71283000.0,274699843.24472725,4410000.0,43254939.37492914,6449000.0,144890355.779531,4410000.0,77382046.11294752
145,1561,3,10492900000.0,8202085916.705208,4642648635.342979,2981073321.9993196,7724300000.0,3268189046.640704,1077000000.0,519953234.0765798,2546000000.0,1433158936.36529,3623000000.0,3048303158.793974,389500000.0,120648507.06940715,626900000.0,361050269.07356185,450100000.0,76888504.19987737
1137,1231,2,221167000.0,1988160793.2933455,272405000.0,1354640058.8610556,-51238000.0,631740203.638675,26384000.0,204453519.51798227,0.0,253978597.26302677,26384000.0,327763132.37896895,3123000.0,18162605.02077815,23261000.0,190828829.53174362,3123000.0,58272500.27064182
1853,1087,1,644700000.0,1833345160.0960646,668700000.0,1891865285.0777164,-24000000.0,573398314.9653146,11300000.0,221676313.89937255,30400000.0,251276583.342632,40500000.0,383907537.1168076,-2900000.0,43235234.49799209,9300000.0,217617137.39445895,2000000.0,64706059.41915627
1607,435,3,5733000000.0,4828345190.792706,4386600000.0,2496682340.288169,1332700000.0,2129588463.239185,508800000.0,345982509.5954411,1740100000.0,947342094.0906537,2248900000.0,1775784179.972693,201100000.0,95447621.2712977,328200000.0,287471857.1541629,180600000.0,77382046.11294752
497,361,2,3187469000.0,3181352898.4215727,1581882073.387936,2030571735.5664213,1402929000.0,1487090200.6856287,12023000.0,281778047.2173458,118303000.0,401953255.5615213,130326000.0,736663175.6342669,121116000.0,47012638.67434555,236940000.0,254853760.447888,-224917000.0,62721449.971186884
1789,988,0,160962000.0,3557731456.3332324,136871000.0,1291070816.908607,14091000.0,1855012685.388737,33234000.0,155159208.1007409,28516000.0,225939157.21847123,61750000.0,336254137.71141183,-4105000.0,33935832.91124499,29699000.0,211920595.13383022,3535000.0,65543915.924348116
1733,155,3,1070082000.0,2319179649.7697296,790095000.0,1955280235.0329866,279987000.0,831712783.4719446,59499000.0,240608649.6587411,92514000.0,271334588.76589185,152013000.0,407510400.2848891,-6147000.0,44853452.21989562,65646000.0,167059238.60319838,-6147000.0,77382046.11294752
1735,42,1,55335000.0,1616630662.6868944,11648000.0,1190740852.2948637,43687000.0,381283860.9865297,13874000.0,176497833.31392682,0.0,145513416.29990876,13874000.0,228459337.92539084,364000.0,38840992.5320802,13510000.0,186160444.5882732,364000.0,54045385.83600931
1273,370,3,8855100000.0,4901069133.335531,4468096700.788768,2613665052.8107567,3543300000.0,1985942295.4609385,468100000.0,358185386.1770516,2041800000.0,1195742774.325356,2509900000.0,1839723191.4879699,256500000.0,101252280.317729,211600000.0,267089582.9981532,256500000.0,78480815.80985242
226,1510,3,1045317000.0,1990329594.5654588,491551000.0,1581407671.39136,553766000.0,653971795.0993791,49476000.0,225294408.48600164,27012000.0,214765785.9256044,76488000.0,343840164.22796893,5569000.0,36518275.87352297,43907000.0,164847122.77038887,5569000.0,71413998.3210976
856,682,1,3335011000.0,2942303617.346549,1532336000.0,1916058348.604804,1376443773.6613572,1117396289.4561052,158805000.0,305333892.53648925,458734000.0,405341499.73679966,617539000.0,600577025.3038803,82276000.0,57423035.55164281,26748000.0,272864695.31173956,132057000.0,50170202.48104259
610,1489,4,50788000000.0,31411603959.675667,23543456582.29001,10089371890.819088,11845000000.0,7786831829.50817,1286000000.0,624997122.1974914,484000000.0,744770695.0992029,1770000000.0,2252108984.0872974,994000000.0,240292504.51896736,146000000.0,349122141.3976352,1140000000.0,33852436.52327426
434,1542,2,9209798000.0,4105615958.206919,3242862000.0,2783414435.934836,3654836000.0,1666929886.3751266,758604000.0,356083893.8961025,-63000.0,366862075.30517524,758541000.0,696692497.7449065,306700000.0,69753288.76156786,451904000.0,250188744.97118247,306700000.0,65208030.79375505
1765,981,2,3861516000.0,3821545758.3702564,3060094000.0,2072038450.175825,801422000.0,1624557411.2238946,246503000.0,356733768.88201034,543454000.0,441155151.89935887,789957000.0,888277712.1197667,-286586000.0,45679888.94925943,130761000.0,288798296.4618057,115742000.0,58696154.898867145
667,231,2,3117800000.0,3215799820.830475,2444800000.0,1985483617.432956,673000000.0,1227547531.3829753,86700000.0,258864180.74095365,411500000.0,409359198.7025484,498200000.0,562974403.2624164,-419900000.0,47678376.70613738,63400000.0,226010835.6110023,23300000.0,62721449.971186884
1194,1588,3,84073.0,1451208321.1043258,2814055.0,1132640345.5961223,-2729982.0,347532374.36500025,0.0,137514848.61494583,0.0,122396202.43116605,0.0,198306156.15165734,-647078.0,22328670.84832643,647078.0,118298167.90130937,-647078.0,67245890.07476643
626,281,2,250689000.0,1617356905.3610177,83024000.0,1195079515.7189038,167665000.0,583443130.9167495,0.0,172663005.34290197,33193000.0,227818905.555142,33193000.0,267332184.43622804,-43672000.0,13487681.80450821,43672000.0,175779020.10024473,-43672000.0,59969640.99966795
1654,95,3,2267553000.0,2781529087.7164116,1375272000.0,1991496401.0401187,519294000.0,1253167001.7917378,30179000.0,262002029.20377266,36686000.0,293490890.41010195,66865000.0,475147267.8739495,-15417000.0,53978549.352213435,38864000.0,185000007.86373678,-8685000.0,77382046.11294752
288,1008,0,2221575000.0,4170438587.69292,1034139000.0,2431037706.0590196,1187436000.0,1910955820.802818,131964000.0,288043558.6313309,106311000.0,377709287.86251515,188755000.0,669753497.5234603,3712000.0,63796736.19411607,128252000.0,252020723.74927938,3712000.0,74857173.92028771
1665,605,3,555271000.0,2153916537.718684,273881000.0,1918751199.6460037,281390000.0,703669843.5184089,77610000.0,218591262.39596343,73228000.0,247443843.25075942,150838000.0,358132772.6844814,6400000.0,43291621.99504813,144438000.0,175762300.20851618,-66828000.0,74172707.27257481
652,935,3,1810200000.0,2605719347.198227,1334200000.0,2030334525.9962568,472000000.0,916078584.4408643,111400000.0,258516719.85154122,439000000.0,278744743.64381164,550400000.0,480532101.0680976,53300000.0,44048222.7788804,43800000.0,185258440.7404117,67600000.0,67269815.73079228
1078,46,2,339972000.0,1737941328.9416347,145992000.0,1214118123.5249074,193980000.0,543788725.3541114,800000.0,179578207.25098857,85000.0,198632721.29055446,885000.0,262797980.2559762,-35502000.0,12798642.184656352,45899000.0,191048657.8951338,-45099000.0,58688267.05699705
778,1331,2,992330000.0,2513732551.186784,401273000.0,1728969405.149432,544681000.0,1071754792.6532078,417282000.0,283900038.8005607,0.0,283738430.75022715,417282000.0,564367246.536196,5536000.0,38731071.5808777,411746000.0,236752508.7861972,5536000.0,62721449.971186884
29,1129,4,600271000.0,2132515830.9737506,137438000.0,1804059044.8763816,462833000.0,580418216.3135875,73869000.0,167698530.69102198,24421000.0,233188975.84259015,98290000.0,300638855.67965543,-8089000.0,41054278.25664267,81958000.0,217591055.27001703,-8089000.0,31248543.07243268
854,464,4,47193000.0,1512624850.36624,31000000.0,1036310220.1226985,16193000.0,473322001.6854416,4954000.0,140909693.27847406,3898000.0,175746087.59816676,8852000.0,240445408.2162857,-615000.0,40587065.573860645,5569000.0,197714653.90417102,-615000.0,25651381.275132068
1423,1344,4,150549000.0,1910629660.020321,163792000.0,1580050945.7365184,16674000.0,604401819.6688293,28323000.0,153541244.09951997,6429000.0,233193446.47892946,34752000.0,277814583.4665228,-13758000.0,42919431.23277114,21733000.0,215096787.1807184,6590000.0,29038478.552356593
1406,183,0,62996000.0,3399004367.8738236,12638000.0,930623868.3488393,50358000.0,1855012685.388737,9919000.0,133632894.46653587,5920000.0,133649861.50133634,13543000.0,305804338.022562,1979000.0,46563057.372276336,7940000.0,200504503.5064872,1979000.0,72670907.94590226
1624,411,2,56415000000.0,42311101150.14833,26707757359.48695,18414053276.228455,20622000000.0,12275464186.427988,4258000000.0,2019490639.7309916,2744000000.0,1744443901.5210316,7002000000.0,4597757959.612291,471000000.0,572560416.6123846,1302000000.0,864157019.9362197,2956000000.0,62721449.971186884
926,211,2,572995000.0,2016980383.4666595,271264937.13018215,1460778560.4709446,210105000.0,871850406.3367031,-46109000.0,221417201.11485475,111142000.0,279055068.0106905,65033000.0,401308878.68130445,53448000.0,34457747.21522111,184993000.0,207987091.2037335,-231102000.0,61159295.108477026
1324,186,2,11156646.0,1272899350.1060162,14063458.0,950394138.1060982,-2906812.0,315804188.5425489,-483256.0,120018934.0423981,692752.0,148720536.5364719,209496.0,221369874.8412025,-2378023.0,13047036.179027483,1407493.0,166333006.65614232,-1890749.0,57788494.00886154
809,491,2,746651000.0,2362860266.107433,563281000.0,1492227741.3675063,350347808.70326334,828715004.108296,20268000.0,215358196.0736621,132273000.0,321361167.9667012,152541000.0,484158001.6117513,1482000.0,36649120.522243194,18377000.0,201777448.86875698,1891000.0,58657593.024630785
492,346,2,203605000.0,1837449633.4120984,164863000.0,1311423609.0214708,38742000.0,545038772.4055203,38308000.0,203302880.00662884,13284000.0,254713115.90199763,51592000.0,348832864.319999,8585000.0,27151805.6421199,22801000.0,190339579.15334693,15507000.0,59153194.735398814
383,831,2,35610551.0,1455877184.1371713,44852933.0,967272028.4918127,-9242382.0,354504118.7219056,3037874.0,143914324.14528626,5691278.0,166639802.97377688,8729152.0,219304969.15442014,-7028283.0,15194070.327925563,15757435.0,186719461.5169493,-12719561.0,53853858.69603024
1250,12,2,4596600000.0,5719103221.104779,2319347415.031524,2838963590.457654,3466600000.0,2204412383.8691163,2555100000.0,575565289.9077278,3033000000.0,926662577.0971514,5588100000.0,2389541316.397656,1174900000.0,303255312.73548496,1380200000.0,495872387.70071507,1174900000.0,60715349.59810868
229,649,4,3802385000.0,3830568312.9135323,2636965000.0,2198368036.6534452,1165420000.0,1676160309.353831,157645000.0,282940008.7160746,488142000.0,460020917.4760076,645787000.0,661880466.3676443,66824000.0,58083456.19232281,83253000.0,243429442.76972806,74392000.0,35361336.871974744
1531,264,4,12852000.0,1374019886.5216398,5815000.0,906363544.0971742,7037000.0,420777138.51584566,1838000.0,128755802.17665651,1427000.0,156789431.82730776,400000.0,226525356.3186512,-1116000.0,32149277.72392679,2954000.0,184426672.13901082,-1116000.0,24920303.891566657
1035,1424,4,11747000000.0,9226917458.736948,7158000000.0,4669298459.6063385,4503000000.0,3158899115.745598,770000000.0,607711256.6530478,1424000000.0,956181064.1075294,2194000000.0,1900885908.082224,154000000.0,67919340.17042126,2040000000.0,683139482.653976,-1270000000.0,32491902.381353363
1774,1335,3,7236206.0,1442213594.7854996,4913744.0,1278889092.9154832,2190428.0,411909841.3805512,634746.0,139491269.61784905,2326079.0,140207389.960806,2960825.0,201897705.73566377,-234151.0,29540595.386887133,886442.0,122827379.5499936,-251696.0,69374310.35109195
868,1093,0,6411000000.0,5158614829.160035,3370100000.0,2974727141.299909,3176144611.7201624,1897596009.1692772,371800000.0,380689036.21692216,637000000.0,528902731.672974,1008800000.0,1203171773.939853,180100000.0,78606696.13812059,166200000.0,274254837.8898217,205600000.0,60267225.161571026
1391,1232,1,345836000.0,1662461679.846126,48837000.0,1595420419.66781,296999000.0,525914349.06118333,3870000.0,185115303.7942954,113328000.0,207873407.7321381,116752000.0,302775163.71223986,297000.0,39700083.83810352,3573000.0,210149567.00834286,297000.0,60456148.53459392
1734,577,1,20108000.0,1390614392.251153,9068000.0,1198634967.3534446,11040000.0,378623296.9773841,3847000.0,161583495.54285842,661000.0,151366643.74800873,4508000.0,230904234.290164,-4126000.0,37102470.617069304,7973000.0,183513142.05570972,-4126000.0,47278411.94953322
1416,1268,0,1564856000.0,4166673500.142931,1122858000.0,2086784998.082326,416354000.0,1910955820.802818,276207000.0,280355433.6982218,-11227000.0,317456553.8780444,264980000.0,564856487.1724167,5657000.0,63502765.02965308,270550000.0,253099372.47561127,5657000.0,73661833.16971351
352,288,0,1125373000.0,3773533512.7789707,521681703.6382896,1619183719.8278153,29987000.0,1841652873.755196,142411000.0,217590802.68254772,-42080000.0,248113467.4346891,100331000.0,510909257.82729805,17283000.0,54073563.13104098,125128000.0,222873862.0002172,17283000.0,69219349.83299096
135,561,2,630871000.0,2433993874.8435297,398464000.0,1509074045.5412762,232407000.0,796031867.0673745,80823000.0,206946019.07121798,413091000.0,310976748.50212985,493914000.0,466584857.87486196,-14453000.0,27079446.74838786,95276000.0,203268779.59312502,-14453000.0,60715349.59810868
1338,659,4,123668000.0,1776481643.0461469,40963000.0,1410960048.8825767,50285000.0,517836037.7360958,29188000.0,155271732.30386317,11108000.0,199813338.96700758,40296000.0,293005388.55736446,-25553000.0,37939993.89941556,35508000.0,208936673.02346107,-6320000.0,27380491.06576146
1076,444,4,34865437.0,1444921247.2979755,19085704.0,979888169.1704376,15779733.0,408093624.1466857,0.0,134927321.3530253,1198.0,152782570.10186386,1198.0,220405671.99724078,-6520186.0,35115740.33175661,6520186.0,191839643.72731414,-6520186.0,24954481.553921357
1426,1104,4,1275550000.0,2537433407.0206947,1504271000.0,1839962752.7857785,-228721000.0,865342551.0557346,-35238000.0,185375496.1416213,59168000.0,279159592.7070424,23930000.0,377739433.0003433,6621000.0,35036305.753421456,102745000.0,218909829.45943454,-137983000.0,34121461.72927868
2023,1321,2,151712000.0,1539317021.2648234,195428000.0,1067784876.5771453,28605000.0,354326027.76490414,11588000.0,156451974.74570692,43977000.0,181620810.09069568,55565000.0,235361222.51958346,-8864000.0,13845820.60477662,20452000.0,187792248.9775706,-8864000.0,52115387.901557036
1219,102,1,1812825000.0,2505728805.3101654,1134969000.0,2117866492.2123127,677856000.0,984217651.8379161,53184000.0,242362064.86034706,120142000.0,326211724.6877433,173326000.0,517093082.31189454,31929000.0,50368678.98200751,16945000.0,231206643.40982908,36239000.0,63394638.65630438
201,633,0,-1450776000.0,4156933518.2224426,-894261000.0,1862356031.0822878,-556515000.0,1841652873.755196,162740000.0,239316059.08183354,213058000.0,350907734.68667716,375798000.0,740865179.5666173,-31210000.0,61753930.5993794,193950000.0,249199944.39894384,-31210000.0,71688933.82837886
580,782,1,526507000.0,2022989015.0384836,370554000.0,1856362434.4156027,155953000.0,567415774.4994581,66328000.0,240555289.46037355,107226000.0,271973865.6914405,173554000.0,389618781.88759077,-7923000.0,46978950.50123143,69543000.0,230603392.13730785,-3215000.0,69652205.11763002
268,1214,4,3089123000.0,3467845794.5502176,1300561000.0,2436411368.2845535,1788562000.0,1407312657.9043396,286131000.0,302990605.5593701,850247000.0,530708900.2683001,1136378000.0,750617706.2506907,205227000.0,61979804.039433405,1010678000.0,319527787.37817925,-724547000.0,33852436.52327426
484,1597,4,2026392000.0,2835240154.9533186,773709000.0,2187805517.419281,1259138837.126244,915477328.0080119,36270000.0,213814256.9685588,906000.0,331675659.5090691,37176000.0,449004392.158342,-286393000.0,33252926.53692057,341823000.0,270823874.32166886,-305553000.0,23757067.116487008
1169,141,2,59798486.0,1370004587.969758,24561228.0,994014272.4380376,24680354.49630476,361361213.7428303,-143441.0,119123058.15374517,231837.0,162689066.48205942,88396.0,218518987.7967615,-6239976.0,11692005.809243694,6096535.0,166637506.83617082,-6239976.0,54103480.45602912
595,745,3,269960000.0,1695226329.0273108,370356000.0,1700893325.2920787,-100396000.0,661003689.7792279,29296000.0,159804947.82091582,911000.0,190090744.98315567,30207000.0,282290052.18639636,-31260000.0,34664172.24651376,67269000.0,135305479.23844644,-37973000.0,75019631.38002473
1664,134,4,1411497000.0,2932065685.0056343,713457000.0,2157264537.5792885,667698000.0,980532299.9751674,123110000.0,226238217.71624145,21917000.0,294922678.6640249,145027000.0,461605583.80776167,16171000.0,42755587.56454677,124278000.0,243688277.47668356,-1168000.0,27851052.217830483
1737,1476,2,1068388000.0,1964035005.691297,793168000.0,1287190875.7843416,275220000.0,565529670.0727165,1125000.0,183741039.38623184,126961000.0,273942844.0859552,114574000.0,360809105.98414993,-123332000.0,12016823.107638016,124457000.0,198483097.93806475,-123332000.0,55407926.24513605
1105,754,4,736494000.0,2151938152.507747,390655000.0,1641635868.5396025,345839000.0,780237811.2441595,107458000.0,167391198.41800487,77264000.0,244446187.64952898,184722000.0,365096461.0534959,-21496000.0,40776666.90173004,128954000.0,228346883.4279378,-21496000.0,16542392.889317166
366,1105,3,1026034000.0,2485748510.8460197,544592518.5648394,2047455455.4578896,829659000.0,858088662.095251,179923000.0,268997647.33803046,-1664000.0,282966542.5862785,178259000.0,472191589.9596205,43073000.0,50810028.62034551,136850000.0,208090914.63606676,43073000.0,75328784.751176
847,1594,2,2995900000.0,2561292593.349858,1720300000.0,1920126492.3630638,1275600000.0,1076207465.674211,234800000.0,248666436.27610666,244100000.0,363614435.72292656,478900000.0,612155748.4225346,25200000.0,43876812.38522818,209600000.0,230162109.46709433,25200000.0,56651492.65155257
1604,937,1,700529000.0,1836804584.289106,363632000.0,1636765591.6384108,335762000.0,699515145.8763955,46249000.0,231572315.97640008,72678000.0,221033119.67632443,118927000.0,312981877.6484014,-13197000.0,32625362.669115193,59446000.0,241216712.71573624,-13197000.0,50678204.31960322
579,168,0,5913288000.0,5152866378.662894,5639252000.0,3653018272.036095,274036000.0,1897596009.1692772,470311000.0,443582686.07043123,1040995000.0,684173641.2014283,1511306000.0,1555436183.4971204,65962000.0,87858920.83452214,404349000.0,282803692.5381863,65962000.0,73671645.17153917
874,482,1,232365000.0,1670260792.6885476,164743000.0,1617750009.5827255,67622000.0,504969250.4895607,43176000.0,198897368.66787824,202053000.0,208240665.57347065,245229000.0,307279125.5704049,9035000.0,42701413.85242299,31930000.0,202561880.07167763,11246000.0,55546390.38827389
193,38,0,24556000.0,3384631019.0020747,5997000.0,775467521.6845546,18559000.0,1855012685.388737,-561000.0,109772177.16367036,1648000.0,127473889.65062892,1087000.0,286252681.0484427,-8770000.0,36855085.36365074,3225000.0,175111692.8342835,-3786000.0,53365786.00051431
680,820,3,7852974.0,1395807661.2260213,8726749.0,1321424099.3884873,-873775.0,405745081.88098013,1562860.0,121232596.6908384,0.0,116179222.75806528,1562860.0,207279076.9853474,-1603437.0,30372000.7647838,3166297.0,113483921.72713634,-1603437.0,75746913.97031851
702,1325,3,52606000.0,1500841298.6468482,31088000.0,1690129679.803058,21518000.0,503280456.5699934,2202000.0,151278164.9714535,21569000.0,153761872.86194623,23771000.0,223222978.53921616,-1737000.0,32722412.603007153,2889000.0,116536313.69124874,-687000.0,75529327.56436822
499,967,1,641605000.0,2043442122.5586758,98505000.0,1980600341.8174314,543100000.0,632136357.5222452,35752000.0,214273916.65607274,3063000.0,218143620.19321465,38815000.0,296077517.5726752,-5995000.0,48497771.077906124,24767000.0,230507205.9430825,10985000.0,59579041.02544806
277,961,2,428119000.0,2454144089.835598,200385000.0,1388933486.7479408,227734000.0,928227160.6747196,32734000.0,210240738.57789525,3693000.0,280142426.568155,36427000.0,464413311.59836864,-31432000.0,26581292.72310336,67859000.0,209407163.86420605,-35125000.0,59225616.195078835
1540,700,3,1748597000.0,2821319067.561612,773677579.6790999,2112206942.3376415,871968000.0,951050175.8750194,88936000.0,290597196.06370074,314131000.0,360274024.09401244,403067000.0,495833999.1316279,36520000.0,60072339.00081308,38806000.0,190439249.3270605,50130000.0,77382046.11294752
40,1512,1,-12646800000.0,2282528590.6011896,-10176700000.0,1060001820.4903288,-2456100000.0,1641506187.001094,244400000.0,375962199.9697784,496400000.0,588769267.6852033,740800000.0,1070301268.3410598,16300000.0,270174388.82894737,228100000.0,276610968.87244445,16300000.0,61229588.773263976
109,958,0,1646711000.0,4508246389.083587,1388441000.0,2795995700.9731174,258270000.0,1897596009.1692772,48094000.0,263990976.33927554,144654000.0,417381056.682689,147710000.0,868037842.0096836,-42502000.0,62531475.8984925,79586000.0,255487703.96320605,-31492000.0,65389206.58248898
111,1108,0,632540000.0,4029408206.244401,270366000.0,1850643696.1501043,362174000.0,1841652873.755196,197077000.0,229611978.1296921,14622000.0,261618968.3088482,211699000.0,458950902.5031016,-57776000.0,55226126.25088825,97890000.0,231563652.72446507,99187000.0,70515093.20749803
662,285,3,156269000.0,1719559685.9258218,70363000.0,1863887744.484434,85906000.0,584909051.2507424,19503000.0,188623460.28479025,30881000.0,188761054.81792682,50384000.0,256121654.9136591,3657000.0,44784628.163188,15846000.0,136250167.1537255,3657000.0,74714148.91297117
1749,1091,2,12875300000.0,7895883096.263558,6095371591.431398,4755063180.822044,1810000000.0,2412627466.6689835,1227700000.0,597388304.2248895,4400600000.0,2064365613.7871535,5628300000.0,3516549125.4958816,478400000.0,268385056.20062613,749300000.0,480695336.397956,478400000.0,62721449.971186884
340,1347,1,441781000.0,1923232824.6211514,86587000.0,1656822407.5923407,355194000.0,623937860.8845744,97393000.0,222081631.6655371,44971000.0,230983208.25976604,142364000.0,272668927.0618504,9954000.0,36817221.72644888,87439000.0,232221488.25089175,9954000.0,51103231.39598912
811,109,4,1903960000.0,3130732615.0950823,1118147333.3250542,2090321809.2595835,464992000.0,1048256153.286032,314173000.0,286750392.78007007,381360000.0,474206029.78962004,695533000.0,699220099.1148343,49703000.0,46063024.038207114,262823000.0,228892206.059012,51350000.0,39492803.01971891
1016,567,1,413017000.0,1713544820.386948,156380700.0672279,1403482418.0981936,290614000.0,463411738.1050539,164000.0,188473516.31555516,0.0,161054825.65394366,164000.0,240376208.6118176,-47612000.0,34121250.032414824,47776000.0,206700760.55890092,-47612000.0,54982555.63150573
1696,268,0,6459000000.0,5357328056.729909,3814000000.0,3036528339.2568574,2645000000.0,1910955820.802818,417000000.0,403699836.8989795,1137000000.0,731208418.6964964,1554000000.0,1686006450.4822679,109000000.0,88755117.89503714,308000000.0,282648995.6994162,109000000.0,75302530.88093548
200,763,0,6683800000.0,5788016033.263562,2530688381.1304083,2908974029.694509,4153111618.869592,1910955820.802818,363300000.0,390163846.33901834,268000000.0,509877369.1741953,631300000.0,1078503190.0680845,83300000.0,77807766.83972463,257700000.0,278220664.7241772,105600000.0,75302530.88093548
1994,1188,0,165094000.0,3591138494.09588,70482000.0,1159569937.6309514,94612000.0,1855012685.388737,17629000.0,155739791.1454562,13074000.0,164486828.37442613,30703000.0,334847272.8977301,1152000.0,45148003.0106147,16477000.0,227154141.74895412,1152000.0,71913365.0220529
735,352,1,8604673.0,1390614392.251153,2338502.0,1112499341.8132305,6266171.0,354450865.54489243,1119391.0,146747855.74854434,1576117.0,144599857.53685904,2695508.0,231854698.34988654,23726.0,37717811.812044755,1095665.0,181299648.62936717,23726.0,38113015.64462152
1160,1540,4,30395557000.0,16409122352.319813,16133181687.752192,3696667025.5285664,6297705000.0,3367362412.3212175,3044686000.0,1962044262.1071768,6751495000.0,3838988922.533604,9796181000.0,5346945993.829952,692314000.0,345942392.547292,2352372000.0,668405733.5839121,692314000.0,141291200.84136042
2018,841,2,764077821.0,2282056033.4251375,149164973.0,1557884555.3146164,540969385.0,820096184.5985708,20737462.0,201559440.8679196,3810639.0,259718239.26964825,24548101.0,361653020.4164481,-1942729.0,26813803.747441888,26490830.0,191295870.743492,-5753368.0,62721449.971186884
597,1362,1,19932000000.0,14977511840.510391,15924000000.0,7110062927.651215,3938000000.0,4368986069.096926,677000000.0,592726752.8121653,2894000000.0,2008337565.59403,3571000000.0,3132636730.1007113,325000000.0,180952937.09616137,132000000.0,325895453.9775835,545000000.0,61995380.68275839
1089,365,3,114455000.0,1788771312.5425363,66800000.0,1451658013.850261,47655000.0,519092092.5414928,-324000.0,153309562.2734092,692000.0,132320683.64762068,368000.0,220414640.2264701,-4444000.0,30635369.75957483,6127000.0,123682279.7599934,-6451000.0,72105779.90883122
1635,1058,0,123009000000.0,24319508116.164642,61047097858.95223,23928066067.138924,24132000000.0,1867040717.4271433,3661000000.0,1460592313.0054822,846000000.0,1221408938.8302584,4507000000.0,3595211918.9952846,401000000.0,302061120.68543065,5487000000.0,1139371369.77977,-1826000000.0,65619748.95984402
394,898,0,1472222000.0,4484082441.72121,444895000.0,1851901515.473293,1027327000.0,1841652873.755196,423804000.0,281958469.6697928,0.0,293244484.73235625,423804000.0,533293970.80799997,44683000.0,65859855.8888362,379121000.0,255527849.99435595,44683000.0,72757938.82625787
176,1342,1,1707972000.0,2443262036.926637,826699000.0,2004957381.4034235,881273000.0,858856261.8690286,161237000.0,286177838.34814394,18721000.0,321416263.02518094,179958000.0,507367435.9468757,-38330000.0,50739048.01958785,218288000.0,271749476.0986872,-57051000.0,63555468.862408385
958,1209,4,140348000.0,1984498279.4920344,22627000.0,1404619708.6468127,117721000.0,527229285.74309766,18849000.0,145389589.29957232,19797000.0,187129671.49354088,38646000.0,276642395.2734425,5179000.0,38193814.14421595,24028000.0,230649691.8680612,-5179000.0,21132133.281078633
651,1103,0,68862000000.0,22092640613.074966,37281000000.0,22113724250.088047,30258000000.0,2661785616.64405,682000000.0,1183800073.1435366,1405000000.0,1146435084.3697758,2087000000.0,2311679294.8123574,938000000.0,320183533.9089312,2969000000.0,553905575.5121667,-2287000000.0,75192001.415091
648,1099,4,484306000.0,2128344890.6854687,160149000.0,1714190047.8857045,324110000.0,719590840.2547698,35935000.0,167206618.32670823,49919000.0,250855686.2544195,85854000.0,307022810.46553516,8224000.0,49076765.727057174,26558000.0,232892015.12637186,9377000.0,33345566.99491792
1124,928,0,263629355.0,3565441705.20642,139827658.8984726,1286078116.2206964,106790041.0,1855012685.388737,4718481.0,163003196.75714582,-3354938.0,181481287.90588576,1363543.0,326148663.16141295,2345966.0,45655623.562519,2372515.0,225188986.9478699,2345966.0,69947371.51863424
1983,736,2,22654400000.0,14542991394.519287,10023579681.929111,5247603078.932787,12050300000.0,5330016824.53268,409600000.0,592614401.2954485,3138700000.0,1303575302.0790238,3548300000.0,2533883213.4428825,145800000.0,325233411.51531476,119900000.0,335739993.22537446,289700000.0,62721449.971186884
1330,241,2,55695000.0,1511431761.1830459,80300000.0,1130956528.8716395,-24605000.0,470465877.592715,-33328000.0,148435657.91366184,45694000.0,198438485.97190088,12366000.0,284051250.9582548,-48025000.0,10539154.832062468,14697000.0,181741272.84326807,-48025000.0,58272500.27064182
445,395,3,33248145.0,1469223030.113377,21743057.0,1383794704.2471733,11505088.0,382558206.59265566,1461398.0,143459599.24808836,569502.0,126794123.81983179,2030900.0,210642071.05760002,-12979193.0,26953662.797928423,15010093.0,130099472.25319779,-13548695.0,65117218.90631375
908,1449,4,19900000000.0,7993338810.027634,10348000000.0,4077589828.4557905,9552000000.0,2888199500.315299,2649000000.0,1185305579.4993916,0.0,582639310.6826166,2649000000.0,1842387814.3704665,467000000.0,98496825.944258,2182000000.0,661403917.3586972,467000000.0,4734587.609614853
1585,674,4,2485319000.0,3233554143.507258,1254039550.5762374,2405147900.754338,1849463000.0,1381283467.4615295,775144000.0,365659098.96190554,0.0,380656872.0692303,775144000.0,778910441.9831526,128435000.0,49859508.71173069,646709000.0,283431439.85259116,128435000.0,35361336.871974744
643,1569,0,959084000.0,4080702177.123375,491986000.0,2034586082.8186755,395838334.6316486,1841652873.755196,56609000.0,219523005.96160305,47928000.0,311099537.49385935,104537000.0,482715613.8478739,-22287000.0,51333913.65260503,141301000.0,242466935.51444864,-84692000.0,58794357.431085795
1240,1570,4,1657157000.0,3447082992.449459,2335507000.0,2235312525.006214,-678350000.0,1647690872.161749,-96698000.0,286203921.1651375,98929000.0,407707681.3209663,2231000.0,730794606.8389685,-125632000.0,40562705.88062837,312618000.0,285032881.61262864,-409316000.0,38684677.20533517
64,427,1,1590600000.0,2108394100.3958416,748600000.0,1975319585.4397664,842000000.0,666044125.0154445,59700000.0,260819335.9320863,141700000.0,301424270.69655937,201400000.0,438148078.7302444,13800000.0,52020719.75585018,37700000.0,252650789.28958026,22000000.0,61915861.32138746
1027,658,0,919607000.0,4080702177.123375,266509000.0,1857092690.7154396,653098000.0,1855012685.388737,68886000.0,221216391.744268,19532000.0,264272029.80449528,84131000.0,399105790.7454083,-18050000.0,49767082.148834325,86936000.0,231007236.48307136,-18050000.0,74538692.7871614
1034,320,3,121754701.0,1617144963.4624681,28424394.0,1431582671.9343557,93330307.0,407095640.3516443,1406469.0,145864535.74986148,-1378985.0,165168653.84433538,27484.0,232690229.17466962,-14928443.0,27653488.039151862,16334912.0,134208379.70980471,-14928443.0,73479671.53368877
802,514,4,12973000000.0,5576576006.36392,6013807636.489885,2605134487.567366,6537000000.0,2315156317.6230583,82000000.0,403540514.1602187,545000000.0,736424661.0188812,627000000.0,1396688806.8044758,7000000.0,52510812.74504903,46000000.0,292695264.1626407,36000000.0,38201045.754576884
981,945,3,613608000.0,2343015803.1225333,391072000.0,1726384598.7483816,222536000.0,612225114.611547,1437000.0,198310430.96139374,10955000.0,232731533.92800552,12392000.0,392337570.4350915,-84729000.0,34695137.39119839,40703000.0,156447441.8459503,-39266000.0,74172707.27257481
1046,867,1,102303000.0,1626444437.8799672,104192000.0,1512066579.6967502,-1889000.0,500074988.2347733,12811000.0,197481948.77012345,42439000.0,183148256.68085325,55250000.0,278033596.51789975,700000.0,39091205.12539097,12111000.0,208161929.28338334,700000.0,53063180.41890852
581,454,4,1023085000.0,2328948633.515863,937155000.0,1841491457.3929353,85930000.0,1017240690.9065986,87759000.0,238390496.04605642,257840000.0,296895115.23145294,345599000.0,602252706.83845,-36941000.0,38918688.82111726,111965000.0,207258356.10566297,-24206000.0,35380009.220176846
1033,472,1,822101000.0,1877108868.794098,260505000.0,1578752448.3697276,561596000.0,477301226.68803704,113425000.0,218683613.4693987,-8261000.0,183707317.97523803,105164000.0,287173466.44930744,25956000.0,39053389.895004846,87469000.0,249082678.72409374,25956000.0,57101447.12091485
1908,1238,0,972779000.0,4170438587.69292,674585000.0,2214189838.677313,298194000.0,1897596009.1692772,81122000.0,243315301.53672367,33069000.0,306975795.12001413,114191000.0,476836664.7782227,-12742000.0,49767082.148834325,93864000.0,230140586.21872306,-12742000.0,75302530.88093548
1486,904,4,505122000.0,2085503183.9583879,329765000.0,1885212296.2197363,175357000.0,666388740.5103351,66862000.0,172112636.3664606,-15726000.0,251228958.73165065,51136000.0,310612733.21815515,-8784000.0,46584698.308552444,75646000.0,227754403.98377162,-8784000.0,33088699.26029986
640,990,3,420505000.0,1869535046.93119,230508000.0,1493897286.1119397,189997000.0,536914224.3893677,53603000.0,201709299.2525657,71511000.0,201344352.7678823,125114000.0,254282987.60150445,16734000.0,42487228.340384446,36869000.0,148910192.75249004,16734000.0,71272826.06797561
1988,706,2,216274000000.0,103947616835.93964,73401000000.0,29742071653.61574,142873000000.0,42250089107.090965,27936000000.0,9366211634.891184,6210000000.0,3682498846.305811,34146000000.0,20023188538.015766,13748000000.0,2354984157.480606,20398000000.0,7420836606.366188,7538000000.0,68287493.48527102
469,262,1,122531000000.0,1589603353.2180667,74517000000.0,12748658479.206018,57494689417.43809,251399995.45001614,11370000000.0,3495065990.6912193,10501000000.0,4603378273.066269,21871000000.0,9007832962.52123,5767000000.0,2215952414.9305024,5604000000.0,2094054755.1665342,5766000000.0,102463672.07280412
606,1374,4,5723214000.0,3970311985.368479,2776207000.0,2023898592.039345,2947007000.0,1835784641.5377326,448941000.0,345296233.39395666,516900000.0,510621893.73755956,865197000.0,750456233.0483371,78214000.0,57913833.84445827,370727000.0,240842942.00030112,78214000.0,37982184.62373838
1877,1138,0,689227000.0,3542286174.5754924,562767000.0,1354591755.837836,126460000.0,1910955820.802818,40662000.0,160693359.86872345,11086000.0,187912617.53148007,47740000.0,351657065.3455193,-28335000.0,46945535.53672022,68997000.0,224757019.85892045,-28335000.0,71347188.68214878
1148,1255,3,600857000.0,1704423764.0739965,331349000.0,1554447809.5944114,269508000.0,466022735.4463171,50595000.0,157987317.5869123,6532000.0,162699096.49169827,57127000.0,253672989.74704647,-62120000.0,31915841.566605538,83188000.0,133493190.36077482,-32593000.0,68589464.13296431
1653,1150,3,56794000.0,1634571472.4556851,12682000.0,1608980683.3085506,44112000.0,432439307.5801803,25087000.0,142841495.45270485,14791000.0,158344920.64461058,39878000.0,225326831.88337672,-4627000.0,28145245.92652628,44505000.0,120232574.10788584,-19418000.0,69982305.3643282
1205,743,0,3747000.0,3384631019.0020747,4407000.0,770255338.0445118,-660000.0,1855012685.388737,-1515000.0,121909240.51650363,1515000.0,123325613.38131881,0.0,285884778.09347045,-2598000.0,35940244.41617468,1083000.0,156477031.38563666,-2598000.0,59610648.93600593
1612,891,2,3505835000.0,3755169371.0591955,1860807256.214476,2252705189.9528675,1470074000.0,1717333237.6979277,601953000.0,403957828.73242277,626097000.0,489143155.3778568,1228050000.0,966162604.6147683,88554000.0,41935117.086037844,475916000.0,336155874.6810994,126037000.0,61019272.057393
1894,1039,4,203011000.0,1939708758.143238,255300000.0,1307135312.2034965,-52289000.0,540559256.013205,8409000.0,152045818.9910819,25579000.0,198935957.65663856,33988000.0,273709186.21280456,-8212000.0,35156697.474466,15533000.0,202695247.74450916,-7124000.0,27772619.448034633
458,712,1,3126495000.0,3034816673.648302,2137404000.0,1827101436.051909,989091000.0,861573624.0552182,70679000.0,296670043.76540124,930828000.0,404294966.10388714,1001507000.0,713030288.8196886,21039000.0,56662841.78139343,49640000.0,240503381.74552462,21039000.0,64400081.50472942
782,165,3,36175654.0,1527083800.0080147,19187381.496044576,1612951979.9174206,18868678.0,454186885.24022746,22295962.0,151430874.37352377,2274626.0,160181319.37691092,24570588.0,229846022.56860793,-1191082.0,35647723.70668313,23487044.0,117849267.98381314,-1191082.0,74361931.83357094
21,232,1,3642433000.0,4848028839.844996,1611617055.0351417,2665357911.3316813,2307595000.0,1547278731.2733111,392263000.0,467970383.98854625,1442178000.0,918952656.117762,1834441000.0,1622645566.9159,185633000.0,86623768.29051702,1648808000.0,378002522.00408274,-1256545000.0,61995380.68275839
323,342,1,102171000.0,1582278829.5145068,80142000.0,1346338345.3221686,22029000.0,429887283.9291371,11994000.0,203343788.86061728,1280000.0,180299054.71868372,12084000.0,226061050.22064984,-8453000.0,30800146.90129912,20447000.0,234865454.55873755,-8453000.0,37965061.857878625
1847,1419,4,11562769000.0,6704137716.062672,8634392000.0,3735604213.357318,2928377000.0,2231673334.4784513,696915000.0,522173627.875931,4617768000.0,2173449602.698173,5314683000.0,2964335203.8374977,87484000.0,85190148.81299865,6096071000.0,1877628885.2137437,-5399156000.0,-116714516.23462492
1304,989,4,1061958000.0,2251427227.4222875,603583000.0,1658316934.6361043,275904000.0,711822318.3223146,75380000.0,172827167.10055107,85007000.0,262749159.08931065,160387000.0,360140663.30531406,19279000.0,40970177.433987156,56101000.0,235226662.95714805,19279000.0,31323248.73170857
1031,77,1,1709464000.0,2380758754.236763,792444897.6724385,1848260925.8857245,917019102.3275616,834432719.1731755,-50089000.0,242025349.2560024,206500000.0,259748457.10815716,156411000.0,417076683.2350068,62554000.0,46939271.360509746,32611000.0,242026725.35713464,-82700000.0,61689549.51406235
1109,1048,0,1182200000.0,4170438587.69292,559672263.5892134,2260894879.470743,993300000.0,1910955820.802818,77500000.0,272940613.2879946,102700000.0,333581616.66685385,175100000.0,541004724.3103409,21600000.0,56554901.19621267,55900000.0,243580520.68980795,21600000.0,71229328.44048646
1483,1507,1,15318000000.0,9855253024.707733,8995872209.433592,4352670279.834772,2835000000.0,2764427046.466116,2220000000.0,1014248331.7992437,7363000000.0,4715229982.409529,9583000000.0,5886815648.770154,348000000.0,198827466.36159176,1879000000.0,553163209.4325688,341000000.0,73011721.38014808
739,1417,1,2898416000.0,1673645808.4271703,2080781000.0,1446355751.1588502,476998000.0,434288062.87283957,19746000.0,186014136.2137448,-19746000.0,166017315.22027516,0.0,259756106.7632022,-16089000.0,38415208.338517174,35835000.0,240765720.96947318,-16089000.0,55141545.96580048
1565,1261,2,37777000.0,1444964913.1502595,8088000.0,1085413531.5665238,29689000.0,430884396.9447386,1942000.0,146365547.67373407,1878000.0,161652711.67134148,3820000.0,242840336.35877132,-3377000.0,9267994.661744192,5319000.0,175260236.69337505,-3377000.0,58132477.219557784
1547,48,0,350115000.0,3758199486.4480896,124447000.0,1562879591.7989464,144501356.0121529,1841652873.755196,23341000.0,202393775.39359674,74465000.0,264045811.28389102,97806000.0,380022031.1699399,1273000.0,60198773.7755628,21144000.0,217943901.85482913,2197000.0,76963626.17662609
1772,61,2,60756000.0,1637907503.920918,14120000.0,1121644355.8207486,46636000.0,484681780.886894,39398000.0,171076125.30682757,0.0,200409839.0931229,39398000.0,242061516.66924834,1277000.0,29214529.39126806,38121000.0,173569669.6567149,1277000.0,58132477.219557784
396,1484,4,2329417000.0,3053070669.3199515,1103945000.0,2198368036.6534452,1225472000.0,1319777025.6977096,201803000.0,250035315.2805036,84310000.0,372807680.95710826,286113000.0,590529115.3508211,4458000.0,50821729.98534424,134794000.0,244561351.33230945,67009000.0,35361336.871974744
370,1128,0,322707000.0,4080702177.123375,203952000.0,1750229921.9981332,133189378.04611006,1855012685.388737,59563000.0,220414828.77530253,32549000.0,264390361.56218725,92112000.0,405793389.97507155,2829000.0,60507006.50252078,56734000.0,234556821.89149934,2829000.0,74143407.44853449
1387,362,1,16986396.0,1362761560.1509943,28398941.0,1051685615.9423738,7976898.609990532,328549224.4973929,-2992.0,130839583.20726132,2987192.0,140929133.56917298,2984200.0,221182936.61881268,-2823081.0,33110809.455040574,2820089.0,175069252.89655748,-2823081.0,21550218.253349945
1633,1474,4,5507733.0,1561670427.0929255,3754986.0,924378073.5747042,1752747.0,495577516.426286,77969.0,122316289.96307182,690.0,136368332.74466002,78659.0,229146349.1241567,-1288944.0,32358061.87761271,1288944.0,200807717.21241817,-1210975.0,23654215.045790657
1459,843,0,2951779000.0,3932717902.805209,1733504809.66769,1771307186.8208277,-705417000.0,1910955820.802818,103159000.0,284177412.15951866,95357000.0,391809462.558368,198516000.0,672961041.1215116,63542000.0,71393888.72917049,39617000.0,259735519.02880383,63542000.0,77804048.21014693
447,15,2,1389340000.0,2609727179.0830173,870172000.0,1888261193.1651196,518687000.0,907244948.0734367,122910000.0,251366997.8420306,509918000.0,437002411.3135848,632828000.0,543882418.3843727,77637000.0,45958110.77675883,35836000.0,226770952.74176744,87074000.0,62721449.971186884
1342,527,1,670100000.0,1939047525.3992567,96919000.0,1568581437.0296338,573181000.0,564038966.7651345,45369000.0,203453148.8915993,10723000.0,195964668.31737804,56092000.0,280136517.5238588,-44376000.0,27680536.285373986,100468000.0,240311882.56042296,-55099000.0,39444689.59554715
1101,1050,3,796235000.0,1480357033.390657,203741000.0,1459566976.9737558,463390000.0,407590907.97140265,475000.0,139261827.4198057,0.0,145124609.35236925,475000.0,218870713.1298151,-25797000.0,27574459.57094851,26272000.0,115758618.73543024,-25797000.0,73245531.13578996
1559,148,0,243654000.0,3353307871.9313903,108112000.0,944357748.6833825,135542000.0,1841652873.755196,37230000.0,125241798.90003908,3845000.0,154586597.48265326,4798000.0,318043927.86714923,-21869000.0,35805473.89753394,59099000.0,197476996.21007043,-21869000.0,64099761.819722146
1859,83,0,63057347.0,3404601842.8103647,37031977.76980746,875486437.5946441,50373559.0,1855012685.388737,5114390.0,132542355.54882228,9540399.0,148700238.1117741,14654789.0,315699660.40783083,3126608.0,46448839.92263126,1987782.0,195983160.65289024,3126608.0,71212125.05112214
625,862,1,2120798000.0,2703790683.4122686,1472395000.0,1714384669.6513107,648403000.0,928185365.7346141,67913000.0,282551481.7301018,30767000.0,278128428.790933,98680000.0,471479189.802881,-9629000.0,34867864.66191874,77542000.0,253926350.71346796,-9629000.0,43355444.12310246
1728,309,4,706517000.0,2416559141.691683,905805000.0,1794479534.0183322,-199288000.0,741611438.4644367,73709000.0,163044587.18590575,16853000.0,255133630.70562845,90562000.0,395711406.94201887,38915000.0,44535510.38208976,34794000.0,230134819.92494145,38915000.0,26342570.48642499
1404,810,3,76126346.0,1444147028.7334585,61120101.0,1615999179.4721017,15006245.0,455065257.71074164,2282652.0,145895130.31694573,31006950.0,147315389.63119406,33289602.0,213491139.5494944,-2890968.0,33815106.25334221,5173620.0,116438129.93311095,-2890968.0,76314581.17407729
1515,939,4,156303000.0,1837927052.6451635,83901000.0,1509045969.7657757,72402000.0,529077142.1424376,17689000.0,155739395.30808625,41469000.0,226896930.42881435,59158000.0,286025297.4528743,-2517000.0,40052898.633395724,20206000.0,205355374.66769534,-2517000.0,30102499.60329738
1800,66,2,3271200000.0,3613031711.2951527,1447362713.447565,2179489917.7814507,-21400000.0,1492811412.001872,31300000.0,273231374.1196079,847700000.0,616047838.8252373,879000000.0,802039400.9946983,-16400000.0,64946471.13452194,66600000.0,258126410.22368634,-35300000.0,62721449.971186884
4,694,4,7361000.0,1368163182.2459154,2671000.0,874084162.5775037,4573903.262590003,407743469.7090007,349000.0,124301288.23555043,109000.0,141084461.91832197,458000.0,211819712.89089096,-670000.0,30315870.363905475,1019000.0,173371179.44841298,-670000.0,21917477.413509473
1400,327,1,-4860602000.0,1933087359.8783026,-990657000.0,358945247.3027415,-3869945000.0,1043830029.3276279,193881000.0,272168961.3959422,378009000.0,525130137.2988465,571890000.0,974662190.792732,36078000.0,52049233.640160844,124685000.0,270848487.94834393,69196000.0,61229588.773263976
617,1153,0,5475000000.0,4897319769.9307,4861300000.0,3665704830.35033,613700000.0,1910955820.802818,130600000.0,366474364.78567743,1421300000.0,646986680.9596426,1551900000.0,1418258747.2882853,23900000.0,77851190.05256018,81800000.0,260849280.24384302,48800000.0,75302530.88093548
570,813,0,9643000.0,3399004367.8738236,6164000.0,868888224.4093542,3479000.0,1855012685.388737,1843000.0,119819528.7213878,2246000.0,136173852.21093154,4089000.0,303081167.1628324,-437000.0,43079831.07974864,2240000.0,186614684.17835942,-397000.0,69229326.97246218
2015,17,2,12012800000.0,4021303014.214526,6608200000.0,2311239170.3887644,4911800000.0,1753212133.7815084,457000000.0,295467891.08315516,316800000.0,449400451.35307896,773800000.0,795264247.4526032,145800000.0,82497039.5477681,203500000.0,237131711.04594052,253500000.0,62721449.971186884
576,1047,1,6644800000.0,5485851377.167708,3248100000.0,3006016090.0735373,2786600000.0,1817494636.4806323,345800000.0,380064297.18656075,33000000.0,488617866.5193596,378800000.0,779881087.4431074,36000000.0,62074106.712272234,342800000.0,277821679.2262088,3000000.0,64400081.50472942
1397,68,0,136174000.0,3592051644.1301622,62163000.0,1027042091.9150429,72304000.0,1841652873.755196,10072000.0,169906703.5953536,-3712000.0,161186728.98232234,6360000.0,315368884.65587306,-12604000.0,36643779.914146855,22676000.0,227703488.23957103,-12604000.0,68741928.45820633
1134,1221,2,160043000.0,1502507769.7221594,101422000.0,1136481545.4852502,58621000.0,423219243.1750916,15202000.0,152906202.4565342,-14386000.0,181452338.929331,816000.0,246884937.29101944,-14398000.0,8902053.578970686,29600000.0,201190401.56914222,-14398000.0,53261086.84464803
188,196,2,9282000.0,1386010858.3210454,3493000.0,1015996641.1638172,5789000.0,340531181.38481855,355000.0,144389869.5629087,552000.0,158282563.4161672,907000.0,228628161.97990036,-972000.0,16600299.0901106,1327000.0,174767239.9288603,-972000.0,59200032.37344819
488,145,3,16124000000.0,7598109520.818535,13383000000.0,3451946957.6693554,2741000000.0,3258467048.9543624,5251000000.0,875706667.6883812,4961000000.0,1563671881.2344427,9233000000.0,2566475206.64843,1583000000.0,280496500.11259365,3668000000.0,856395825.7429601,1583000000.0,73781644.60409248
1211,498,0,1601068000.0,4131344186.8621254,1081707000.0,2138127719.987151,519361000.0,1910955820.802818,248876000.0,292990058.6411416,-34521000.0,301718900.4442406,214355000.0,560995980.0115182,19006000.0,66181539.367474526,229870000.0,255997110.83631253,19006000.0,72918831.51201788
1580,184,4,779622000.0,2363571303.3478103,153452000.0,1874044723.1382978,626170000.0,907794475.9503392,134561000.0,189403680.80836254,57608000.0,296909594.12401205,192169000.0,408761299.98571324,56917000.0,47088088.7322262,77644000.0,229399951.73345664,56917000.0,36855065.1652531
1533,213,0,4162272000.0,4881579550.599728,862254000.0,2770390671.9504075,3299439000.0,1855012685.388737,357871000.0,356243409.28734946,794265000.0,474846050.31900966,1152136000.0,1255392871.5388858,114028000.0,83942357.05840093,194829000.0,280625394.196982,163042000.0,75302530.88093548
818,583,0,13900400000.0,6429037028.554705,12204100000.0,4715591079.232951,7319729781.089915,1910955820.802818,78200000.0,395595255.9485264,235100000.0,550907808.9165387,313300000.0,1162291248.5706844,174900000.0,71162349.88755688,116600000.0,290578545.9627394,-38400000.0,75302530.88093548
50,537,1,594022000.0,1933169089.7337484,132343000.0,1657626508.1493804,461679000.0,654779487.1224837,121956000.0,189371003.3710345,1645000.0,211438025.53023112,123601000.0,319508530.9628333,31177000.0,41494778.01848358,45262000.0,243400246.35273975,76694000.0,43980182.153408036
590,1171,2,1341960000.0,2655057080.703634,666970000.0,1773551777.2837741,674990000.0,926199988.5426198,55930000.0,242369562.6881469,179410000.0,358197216.47273624,235340000.0,502201686.6552745,23760000.0,47779917.38097597,32290000.0,223291737.5766543,23640000.0,62721449.971186884
377,276,2,52901000.0,1490253567.243384,24522965.98920461,1104452139.3725274,33404000.0,443760303.35672545,-1183000.0,154078296.57309812,24144000.0,192391468.23783058,22961000.0,262809020.4267571,-5692000.0,12808366.856067419,28653000.0,177290284.71275574,-29836000.0,58132477.219557784
1953,1136,2,877565000.0,2688402641.8370943,1336553000.0,2070695851.7197304,-475192000.0,1345206409.3224046,522812000.0,364095027.9373007,-345617000.0,314615571.8569512,177195000.0,634915367.0177991,31868000.0,47398847.02797266,490944000.0,329157531.2815873,31868000.0,60346798.421567954
1018,1253,0,26568400000.0,13079518828.451973,13080400000.0,8100070917.204618,13246000000.0,1910955820.802818,1346200000.0,831237460.2052225,1952200000.0,1232307254.7178364,3298400000.0,2163031211.298704,592200000.0,168087946.06988797,746800000.0,304540369.0479667,599400000.0,70443527.88057502
709,868,0,2933971000.0,4186049323.7696896,2618511000.0,2269985820.7092876,315460000.0,1897596009.1692772,65062000.0,249759205.66227967,2191000.0,332038566.2457774,67253000.0,663972559.1431288,-143265000.0,56421136.497285515,69951000.0,246548564.12986565,-4889000.0,68264996.73360848
1121,747,1,27828200000.0,16916849945.279562,13810622382.415062,7066027095.515025,7212400000.0,4408602867.914465,821300000.0,507137088.05793965,181300000.0,715421351.9817277,1002600000.0,1706852893.8788188,233000000.0,78974433.73916233,794400000.0,352306645.38887554,26900000.0,64400081.50472942
1026,1037,1,2788943000.0,3608566000.15377,2662320000.0,2255607713.1723204,126623000.0,1222053629.212269,299166000.0,326539009.2954016,0.0,413893043.9777375,299166000.0,656021243.9752244,-281667000.0,50879451.22382949,580833000.0,260416813.3500713,-281667000.0,59530833.669229716
1015,242,1,2489159000.0,3395850841.496161,1954765000.0,2183054813.038278,488897000.0,986887851.4091783,294443000.0,315736637.46431786,370069000.0,550066214.434017,636496000.0,852190838.0672474,64600000.0,57546804.12774534,229652000.0,278450682.29528195,64791000.0,71051463.091176
1575,208,0,11961066.0,3320114706.4472995,1068497.0,775389308.7324972,10892569.0,1855012685.388737,611174.0,108138798.3088932,0.0,119701102.38243866,611174.0,284806559.6405189,-1146685.0,34419494.01638873,1757859.0,158883896.31503472,-1146685.0,44834989.72330264
826,84,4,93941000000.0,42690255506.945786,39446000000.0,16438641850.028217,53466000000.0,20192526776.077496,4178000000.0,2967048078.9546094,15656000000.0,7673616996.179451,18582000000.0,17538218173.139656,1764000000.0,1137607820.17094,2414000000.0,1117684834.9977493,1764000000.0,207706696.69967481
463,901,2,32097000000.0,18995423409.5614,20419000000.0,6833558584.171394,10658000000.0,5646892066.831475,2071000000.0,1092182278.8304605,6360000000.0,3122405541.3316092,8431000000.0,4141070172.474273,950000000.0,490687011.0960016,831000000.0,576139111.5721289,1240000000.0,62191988.6749752
1660,1497,1,6578196.0,1419049351.3262157,4441488.0,1177104018.2643194,2465776.0,356454894.8549355,2008368.0,148583749.70442712,923641.0,159196586.68457782,2932009.0,237464652.1950307,-1328968.0,36499166.75470036,3337336.0,184811983.10736468,-1328968.0,31997364.777123835
700,60,3,1658042000.0,2726308438.0081677,1223260000.0,1834650257.5648394,434782000.0,878762106.2535517,207698000.0,266006582.9246369,674127000.0,384050351.363344,881825000.0,629744317.4944003,25549000.0,57548058.56553044,179614000.0,190910286.19177818,28084000.0,78974357.7229226
402,1152,1,9094896.0,1436817476.6976428,13593163.0,1189908098.7602,-4498267.0,357357335.5606135,-928960.0,154558825.11564732,1115703.0,177394016.80690408,186743.0,255377769.95157456,-5136642.0,36468286.80855146,4207682.0,210189129.63517913,-5136642.0,33899825.85559465
591,406,2,16788482.0,1316315445.3262353,821758.0,880829786.582581,15966723.0,284932271.2503742,906228.0,139447016.1521253,333325.0,138128586.53465384,1239553.0,203107790.6314118,-1096396.0,16665769.927585393,2002625.0,182736280.8969465,-1096397.0,53630956.228558555
412,1415,3,1678241000.0,2847288403.433983,730813000.0,1912914898.7572417,947428000.0,810683610.9539213,62311000.0,257467337.06734332,89643000.0,274754924.70349467,127553000.0,512827981.3037796,-24195000.0,45449339.259127,86506000.0,184825261.90755206,-24195000.0,77382046.11294752
26,113,0,1363308942.0,3871925396.0266666,629855415.0,1800956806.1078646,733453527.0,1897596009.1692772,93681798.0,226073894.15501794,0.0,281811589.2929222,93681798.0,451284853.6619477,39573525.0,62786004.07370642,54108273.0,241977533.90572244,39573525.0,71138108.58603938
205,526,2,15264467000.0,8680204054.443455,7226441209.924589,3923196861.9999704,3059451000.0,2414720586.5003796,592816000.0,519181009.66618526,378076000.0,681647816.4982016,970892000.0,1398618512.6504366,444977000.0,241377559.33680084,147839000.0,321316093.12444884,444977000.0,62721449.971186884
699,1263,0,65987000.0,3457472283.9256206,35279000.0,1035358257.6662083,30708000.0,1855012685.388737,5319000.0,142772766.0293182,28050000.0,156072565.71875787,33369000.0,324766524.7413676,1124000.0,48240306.786972396,4195000.0,203630046.11078373,1124000.0,70564098.38324109
550,304,4,31945000000.0,24466613196.48818,26424000000.0,9787984735.553059,5506000000.0,3440770392.2312055,1191000000.0,709812137.169951,2895000000.0,1719812336.1185498,4086000000.0,2772741363.6263814,834000000.0,169508995.50747508,357000000.0,300550892.7978588,834000000.0,28403416.388889365
140,207,1,2655001000.0,3112610504.1251564,1989549000.0,2310633033.651102,665452000.0,1131580215.295608,67554000.0,294018015.9470841,403267000.0,401807590.4030126,470821000.0,551898794.7657773,-3426000.0,53699629.826858476,30096000.0,256084851.94896036,37458000.0,54002410.19492311
2004,586,2,9403000.0,1315676320.5208526,5511000.0,950394138.1060982,3892000.0,340531181.38481855,-48000.0,128364275.63353515,1387000.0,145159056.281828,1339000.0,206963729.7828536,-903000.0,15511542.901469946,855000.0,170021481.87777793,-903000.0,58309402.19559468
28,456,2,551232000.0,1906232069.189283,628224000.0,1430655116.6860106,-138322000.0,537377431.756147,23716000.0,196895749.8145852,12709000.0,222114614.76208693,36425000.0,334451191.93176246,7478000.0,23877931.631688774,48579000.0,212403790.13716635,-24863000.0,57401584.77168261
844,949,4,435750000.0,1880557377.0239425,62826000.0,1583497172.192986,372924000.0,515718183.33046615,28152000.0,161711626.27545246,49267000.0,227054832.0862664,77419000.0,274358894.21207404,143000.0,43273896.91226481,28009000.0,213724871.10563198,143000.0,32450830.20935079
967,1059,4,367699000.0,1801353733.330957,382822000.0,1597453809.6261835,-15123000.0,582423368.4990745,310000.0,158294818.89277083,0.0,239626387.82702297,310000.0,283010969.9120345,-47413000.0,37883254.609157495,47723000.0,222135939.89525026,-47413000.0,32724057.35349908
433,1396,2,3810682000.0,2473331672.6912622,2050315000.0,1901975660.9729373,1303319000.0,853782668.6034994,110314000.0,227793267.9528079,71850000.0,280546553.7035548,148990000.0,438517942.620708,11661000.0,34222266.97615476,98653000.0,226985242.12721947,11661000.0,55668779.158418655
228,315,3,2333529000.0,3220333777.2413025,1032484368.2283514,2112206942.3376415,1202771000.0,1242445593.3847897,71236000.0,315152173.225265,490990000.0,385425736.4299474,562226000.0,721987981.9836712,19517000.0,62335639.3472124,46091000.0,202322302.21691203,25145000.0,77382046.11294752
1855,735,3,20737275.0,1495485017.435195,10788720.0,1376282944.4342604,10368036.0,357970386.7024838,562564.0,156002640.0725589,77061.0,154216675.51501936,87201.0,216677351.20230854,-4142505.0,25193694.61540903,4705069.0,146926961.6871775,-4142505.0,60470030.592609674
776,330,3,386844000.0,1850595994.388092,412960000.0,1785306242.2015572,-26116000.0,692242811.8478491,16927000.0,177376092.07864118,91131000.0,202602983.7769367,108058000.0,280670485.4957799,-813000.0,44105667.665120505,13060000.0,137098097.88222453,3867000.0,77072892.74179626
839,1420,3,6911775000.0,5197348722.10225,5109042000.0,2309787104.13822,1802733000.0,1839015166.9227111,225256000.0,344056237.94024956,195092000.0,532918778.5802375,420348000.0,883653042.9991181,132530000.0,83215557.48417792,92726000.0,269827757.0968803,132530000.0,77382046.11294752
793,1146,2,2883631000.0,3515090399.8872294,1772390000.0,1775668259.4804287,1110345000.0,1432882241.1235933,319055000.0,324118382.26226926,1257690000.0,563736988.4469693,1576745000.0,1177974574.0979311,38222000.0,68291549.5757794,280833000.0,329062721.978881,38222000.0,59163130.44849533
820,846,2,133032000.0,1980410707.7971568,232711000.0,1267192803.2966025,-16246000.0,576955009.9382321,12296000.0,206079196.14378884,62277000.0,273226156.5851031,74573000.0,415754323.08444905,-14749000.0,33744051.43794529,89322000.0,200495333.7659041,-77026000.0,60638386.921743885
2016,513,0,296638000.0,3696370194.422817,208509000.0,1512592608.2339787,88129000.0,1841652873.755196,7319000.0,159256610.51682782,0.0,191478142.10778612,7319000.0,358398836.09228384,-46633000.0,45798543.93336388,53952000.0,224522614.26441061,-46633000.0,69870374.56898756
1438,1294,4,38809000.0,1678156156.6896935,43090000.0,1120011026.487705,-4281000.0,442893172.6239127,7318000.0,130877295.11996925,25818000.0,190579003.4851268,33136000.0,260674400.3228538,-933000.0,34266652.81291155,8251000.0,193739686.34344333,-933000.0,30731747.170578033
866,229,1,2376172000.0,2880715849.08084,1870972000.0,1800539031.5376143,486613000.0,857980758.2512012,-5214000.0,294253649.9291781,182832000.0,323729117.0168067,304976000.0,581049416.7979672,-103708000.0,46442433.80689332,98494000.0,259041775.69634277,-103708000.0,67268655.0015917
689,1207,1,3719784000.0,4276678962.0981326,3332984000.0,3009845673.323979,286813000.0,1136889294.5899825,2618169000.0,868859833.1987691,-531777000.0,559588743.2460355,2086392000.0,875127273.8913255,44074000.0,55272805.86439367,2574095000.0,498441009.70536447,44074000.0,60404226.05063649
919,481,2,1537935000.0,3219804716.568059,1281456000.0,2069438649.7215285,256479000.0,1410672616.261635,229699000.0,268514069.81814647,0.0,332471481.03187925,229699000.0,643077359.2622466,-26947000.0,35731052.29098369,256646000.0,245197951.50917304,-26947000.0,62721449.971186884
1827,890,3,1182488000.0,2271677198.668831,303489000.0,1867769849.7535665,759221000.0,696672526.0343862,56265000.0,235669299.1789937,333008000.0,275942840.61401606,251870000.0,375837641.03619957,16750000.0,51999416.63873642,39515000.0,165086633.28234392,16750000.0,77382046.11294752
1182,716,2,8225559.0,1272899350.1060162,12447189.0,950394138.1060982,-4221630.0,325672410.2677183,17564.0,115043562.05398124,106922.0,146372543.21786577,124486.0,226889437.75687122,-8095209.0,10576900.037987709,8112773.0,168290815.36064073,-8095209.0,55645636.74452364
