epiphany24262/financial-performance-prediction/results/oof/m3b_catboost_direct_history_industry.csv
Id,group_id,fold,actual_Q0_TOTAL_ASSETS,pred_Q0_TOTAL_ASSETS,actual_Q0_TOTAL_LIABILITIES,pred_Q0_TOTAL_LIABILITIES,actual_Q0_TOTAL_STOCKHOLDERS_EQUITY,pred_Q0_TOTAL_STOCKHOLDERS_EQUITY,actual_Q0_GROSS_PROFIT,pred_Q0_GROSS_PROFIT,actual_Q0_COST_OF_REVENUES,pred_Q0_COST_OF_REVENUES,actual_Q0_REVENUES,pred_Q0_REVENUES,actual_Q0_OPERATING_INCOME,pred_Q0_OPERATING_INCOME,actual_Q0_OPERATING_EXPENSES,pred_Q0_OPERATING_EXPENSES,actual_Q0_EBITDA,pred_Q0_EBITDA
196,1243,1,1192950000.0,1758214387.0145578,1055816000.0,1258565942.3117492,137134000.0,665039841.6765072,25598000.0,120331478.10753924,61899000.0,153959617.05192876,42992000.0,193594505.8474127,15222000.0,35976946.68649312,10383000.0,194012238.30344287,15215000.0,50801717.937210836
1568,1229,0,1219954000.0,5024274581.411905,835046000.0,3038136480.0174894,384908000.0,1892553489.6005754,111786000.0,246140071.19662446,217796000.0,324869563.68397915,329582000.0,381813958.78515327,28908000.0,54890449.125395864,85522000.0,190500761.20317566,26264000.0,56854141.49399348
1218,825,0,-135820000000.0,8308231561.606798,-37972000000.0,5520709130.750574,-97848000000.0,3363646567.8726163,-435000000.0,2432335117.9527254,4445000000.0,5938598499.171332,4010000000.0,8504145087.67603,-1472000000.0,577622273.0151749,219000000.0,987176322.3757828,-654000000.0,263979314.82005578
23,1046,3,83298000.0,504434812.8049488,16040000.0,402579343.46326494,-31633000.0,471300348.4418403,494000.0,44430214.3599484,3339000.0,-12847612.435983658,3833000.0,14655507.75589335,-12348000.0,8302441.73427254,12842000.0,85949299.88511139,-12348000.0,20338278.537010476
783,1225,4,148546000.0,984520582.3331132,56555000.0,656139316.5945845,91991000.0,165953141.30273116,1761000.0,104680998.53136796,-2375000.0,28457811.860841632,-614000.0,26949596.333904743,-10098000.0,11345927.459396467,11859000.0,133181458.42732817,-10098000.0,26786964.6809205
1251,187,1,7304300000.0,5621608327.892425,2451900000.0,2382043050.819945,4830200000.0,2796937946.6343365,578200000.0,427082979.67784894,581100000.0,651754112.3721197,1159300000.0,1222915529.2323422,245200000.0,76334861.89659601,333000000.0,240843051.35690022,245200000.0,48131307.745555066
1224,1227,2,1976905000.0,2146529716.477725,699909000.0,1434489279.0689816,1276996000.0,820260693.3045157,53993000.0,192045654.2675376,315825000.0,224439754.27046221,369818000.0,305623941.0474591,-1572000.0,28294622.119978458,371390000.0,163016533.59871906,-317397000.0,93402052.7014551
1410,1310,4,2097274000.0,2607024203.732196,1132234000.0,1702105910.9531128,965931000.0,1176370927.3959432,70481000.0,233858259.31387308,291052000.0,259301185.36266422,361533000.0,475363114.28819597,58709000.0,57839156.89178547,11772000.0,190329780.99567503,58709000.0,40904058.98068213
529,1050,4,31183000.0,874232449.1819639,15926000.0,361510467.22547674,15257000.0,46358370.50675428,2456000.0,90649373.13305414,2151000.0,1610492.4279333353,4607000.0,5962339.208745122,-2931000.0,-9202316.399428502,5387000.0,117496078.25069275,-2931000.0,25182230.06800974
730,26,3,978523000.0,2178462957.861125,851196000.0,1355518963.1848967,-94184000.0,884185666.604616,24321000.0,154084303.1560052,137937000.0,174905116.3704036,162258000.0,199704564.42835033,-764000.0,11743498.311106399,25085000.0,174724889.2051791,-764000.0,38087826.369178206
1590,422,1,27253000.0,729350488.9269991,14465193.072010836,550522746.664854,12787806.927989164,383647862.95426023,-17000.0,79875838.33719438,17493000.0,26012410.962323666,17476000.0,25475585.358933806,1196000.0,17861631.687373146,138000.0,138129856.50779825,-155000.0,16912849.29407496
367,1125,4,798398000.0,1780549719.6625986,795372000.0,1312724223.8979468,3026000.0,340331081.71335185,37121000.0,159503005.1220086,256160000.0,278323797.6852947,293281000.0,261808476.37914014,10257000.0,10510648.039025113,26864000.0,153469529.93553406,10257000.0,45851350.803207316
636,1129,0,1059052000.0,4741110466.723062,883921000.0,2940289430.312554,175131000.0,1867950983.5834708,91945000.0,204669320.26150766,202788000.0,222277342.9559415,235132000.0,297013228.26922905,-287000.0,49144097.807840966,84957000.0,162306018.25876442,6988000.0,44402584.83570842
1270,19,0,11069000000.0,5824909556.579681,5919000000.0,3570926953.11114,5105000000.0,2127081409.9630935,727000000.0,538815055.1760982,1752000000.0,1161674464.523904,2479000000.0,2402290148.8882346,462000000.0,200065231.65570676,265000000.0,282170139.5928318,462000000.0,59354137.63356353
102,1269,0,12331000.0,4462763871.671002,10875000.0,2683158600.516074,1456000.0,1827711588.2385519,1472000.0,81775486.34159774,1968000.0,-22418938.80300641,3440000.0,41631302.1756978,-4166000.0,5884691.028402686,5638000.0,108870758.37900108,-4166000.0,21532344.56426788
1658,1552,3,180372000.0,903597601.1296048,121221000.0,748598212.5163388,30642000.0,646452275.1157275,18014000.0,112652493.62155879,31653000.0,53293338.73235452,49667000.0,64333246.612939596,-11599000.0,15264283.381771788,29613000.0,142363839.52241468,-11599000.0,30762756.548506342
6,890,4,2319806000.0,3264326595.2406864,1534495000.0,1642113229.7153542,785311000.0,1436818163.8904977,376397000.0,297254632.16546017,415254000.0,466101800.8821975,791651000.0,725218820.7732968,93430000.0,70427424.36591373,288680000.0,236005069.25683394,87717000.0,47666592.763821825
1147,631,2,19295025.0,672036727.1860862,28370931.0,673512990.6017952,-13369686.0,64874112.86504972,2067435.0,50685430.13200045,4847499.0,-9610942.680352926,6914934.0,14071910.004912019,-1108124.0,12274251.704607323,3175559.0,43717565.53769612,-1108124.0,92434846.99442409
114,414,4,3549408000.0,2578422715.9532385,2109262000.0,1890846359.7801178,1440146000.0,1260753149.4398243,264579000.0,302982071.8662567,494402000.0,536520480.11968344,758981000.0,693541808.2233454,58594000.0,70588705.97637607,205985000.0,216910354.6876502,58594000.0,55755662.83214838
139,527,1,331401784.0,781970700.8024306,56254670.0,711745348.1030536,275147114.0,424264746.68607616,17982150.0,89014973.69200552,0.0,45091218.35659802,17982150.0,41723376.361089945,-40215832.0,15396313.353195608,58197982.0,138723311.89597705,-40215832.0,14831481.114866626
411,1365,4,5533000.0,773999156.2351146,4648000.0,33698069.5988245,885000.0,11947800.479398489,-1669000.0,73319466.58006006,2438000.0,-7661482.013272762,769000.0,-13890381.36735034,-6339000.0,-12081914.648886159,4670000.0,111202302.5400244,-6339000.0,11940339.970208958
681,209,4,36550000000.0,26137157233.689888,16943241279.095451,12239383764.139046,15250000000.0,9065275419.10582,577000000.0,545109662.6372204,3467000000.0,2565450326.9983664,4044000000.0,3712680640.6069427,714000000.0,308770084.16943836,627000000.0,455479841.09563345,-50000000.0,30987965.31758569
1671,1512,2,100449000.0,862028709.1058202,141057000.0,729237682.3651347,-40608000.0,251276256.57367277,-171000.0,78749628.41767305,512000.0,-8138051.295988202,341000.0,34400365.64079857,-48297000.0,5367562.867303461,24344000.0,59178229.80450094,-24515000.0,93402052.7014551
500,1478,1,10599934.0,547718818.6637549,26203416.0,320443686.894434,-15603482.0,312366467.5788591,-6219.0,78789215.93114477,193120.0,-3653009.1717835665,186901.0,4276186.831513286,-1076399.0,10427710.748420179,1070180.0,125388246.98932406,-1076399.0,20045644.1972094
1203,270,3,13322000.0,781855080.3594456,67881000.0,656330290.8677406,8277888.77383834,460200314.85014117,3223000.0,63722269.478125215,1889000.0,16077130.76579535,5112000.0,20294115.38185346,-3552000.0,5189808.901777372,8664000.0,112855242.91906813,-5441000.0,27513546.945059575
180,1235,4,635001000.0,1799067606.3763347,115305000.0,1455677250.3146713,502273000.0,614675143.010539,21465000.0,134420574.20353454,40457000.0,164796667.11301178,61922000.0,225582616.66064322,-143360000.0,992762.102447778,205282000.0,181447189.7910494,-183817000.0,25653729.688915044
1960,439,4,2672864000.0,2507711422.319951,288913000.0,1576893741.6802087,2383951000.0,1328411068.9519367,132902000.0,238128347.67474,168499000.0,303412810.52292883,301401000.0,471073664.66196835,55706000.0,47878705.32892358,77196000.0,210196867.9113937,55706000.0,43419381.78308093
356,1240,4,8388335000.0,6442916183.0338,5163154000.0,3828798438.002732,3225181000.0,2773414500.4282827,313343000.0,352781367.9760051,687959000.0,709859433.843159,1001302000.0,1266299722.6938844,116260000.0,83436602.53656746,85661000.0,278365819.04801756,227682000.0,44979757.51350943
1646,390,3,1563399000.0,2376735342.2865624,1445358000.0,1478297718.2360053,-136248000.0,1053545791.4429679,72333000.0,207001225.67851418,116682000.0,175230247.64840811,189015000.0,258055882.12715662,23506000.0,36235200.550741225,11423000.0,182088480.7332718,60910000.0,40932308.9292063
1793,1131,3,320019000.0,1905124924.0291486,126984000.0,1653084861.5678136,193035000.0,1009454214.1011823,177377000.0,226382696.7172094,58492000.0,160975235.60521096,235869000.0,372971471.16597176,25509000.0,46344438.60900419,151868000.0,212016437.72893196,25509000.0,58090191.21769819
235,326,2,0.0,573723421.4304299,0.0,384245875.63069534,-804876.0,-306048.3430521488,0.0,20839009.342217088,0.0,-2671748.0954704285,0.0,-1785953.3162124157,-14550.0,-2819767.777874708,14550.0,23246630.28429085,-14550.0,92434846.99442409
1668,1076,3,267194000.0,990770891.3116908,175308000.0,745295866.5500765,91886000.0,574602249.6385285,5103000.0,93321019.2642203,0.0,8965392.30515778,5103000.0,70850038.34017813,-32762000.0,4649280.426647782,37865000.0,140834406.05829582,-32762000.0,40629006.560075685
1456,751,2,2249377000.0,2786425645.1025853,1923326000.0,1876923375.002474,326519000.0,1231597883.3496463,-76300000.0,248799621.8119382,416103000.0,370971616.35214525,339803000.0,659098754.6850438,34941000.0,49336921.28668734,184914000.0,209835047.2330423,-261214000.0,93402052.7014551
1291,431,2,396890000.0,1423473201.3552089,107071000.0,987981339.9854875,289819000.0,434204286.3430674,52569000.0,90857766.70424819,13634000.0,63338322.020426154,66203000.0,83743744.11758411,8375000.0,24305023.009519592,57828000.0,90490726.64935601,-5259000.0,92865975.70726061
1376,362,1,7827000.0,662612830.273449,4744000.0,475806865.7383604,3083000.0,364183306.2204602,1288000.0,87257035.851129,867000.0,4357232.1106648445,2155000.0,7572243.597484469,-3880000.0,15668867.739088267,5168000.0,156058367.178172,-3880000.0,33443940.089227177
1702,824,4,11990000.0,935045843.9724407,3030000.0,206145570.8125682,8960000.0,50489844.44537175,1480000.0,85395209.01278293,3017000.0,3039788.455650449,4497000.0,-1875806.972264886,-944000.0,-7816848.082096413,2424000.0,119372116.4127405,-944000.0,20155234.672967955
1591,1418,1,7472874.0,565304564.7446198,3243445.0,27579841.12361431,4067990.0,316027797.6818569,3065804.0,72269051.30196619,0.0,14908276.52255249,3065804.0,-14491394.977004051,-21884.0,1158063.5585968196,3087688.0,145058922.2133785,-21884.0,-27367410.04754366
647,811,2,2182494000.0,2556614341.6870666,2467501000.0,1782003970.4648004,-484456000.0,1108646521.6347022,389190000.0,251205038.05701238,141172000.0,368140743.58478814,531030000.0,562375050.2996595,-54175000.0,40253908.054152384,443365000.0,276717776.15101963,-54175000.0,93402052.7014551
100,1335,4,12166000.0,700866904.0184684,2892000.0,-74965709.92777157,9274000.0,-13473937.882832289,5000.0,60401994.39768231,54000.0,-4594064.905126929,59000.0,-11652423.659210801,-3433000.0,-11387555.800076887,3433000.0,104141698.27618787,-3428000.0,-1253338.6983676478
507,1497,2,189783000.0,1077688434.1624756,45792000.0,909177156.1763937,143991000.0,249914607.23123264,2372000.0,86477468.84320629,0.0,-4320212.154626012,2372000.0,41854757.61878574,-18270000.0,7829978.717893466,20642000.0,70444659.1554572,-18270000.0,91530332.19391346
547,1103,1,1072653000.0,1209374902.8174882,455367000.0,417093875.2575488,617286000.0,447857400.5285394,134998000.0,109406062.09940648,27783000.0,112601922.41278684,163452000.0,124660859.85919595,5489000.0,12847074.632494956,129509000.0,165764416.28582796,5489000.0,-3910780.842929907
457,190,3,665104000.0,1198180573.3028922,575531000.0,1241529316.2501817,89573000.0,871580529.5828424,30803000.0,168023654.02055025,19437000.0,41628726.82572734,50240000.0,171109976.69363856,10357000.0,26228930.388257995,22017000.0,189424881.15509194,8786000.0,49754364.781546965
560,550,3,1900367000.0,2477763698.152339,289037000.0,1522985247.2157352,1613343000.0,1089733459.1328578,45433000.0,186974392.20913553,413911000.0,374796397.27098465,459344000.0,510034050.3476701,-6757000.0,86673525.44598725,52246000.0,164046143.24547932,-6813000.0,58850913.431110315
1402,175,3,88944000.0,448465845.40484047,45361000.0,386636912.55756426,43583000.0,485876723.59631956,0.0,36569416.39389384,45000.0,-16682766.243090034,45000.0,-161012.00680279732,-14351000.0,-3581624.0595796406,14351000.0,81969719.17903358,-14351000.0,16097432.228634998
1274,853,1,5390785000.0,6140204566.193152,4083098000.0,2651969786.8883405,1050686000.0,1741094988.7750406,352054000.0,324216628.46386015,284900000.0,486910277.9966712,636954000.0,881376504.0367002,120850000.0,74231998.29564182,187232000.0,256998089.14710525,164822000.0,62891218.32514837
799,622,1,18535000.0,991254641.593545,13748000.0,506234399.7678304,4787000.0,409075602.4629723,2839000.0,89422714.01082873,7502000.0,28964890.57496953,10341000.0,39076666.86531758,-2229000.0,23256825.268846467,3071000.0,140094872.26412696,-232000.0,28373548.503092945
1436,688,0,13281300000.0,6172595539.335789,5777300000.0,3570926953.11114,7484300000.0,1942016485.6667135,1030700000.0,656328125.7977738,1150100000.0,881814698.195241,2180800000.0,2235665420.781108,687000000.0,270276345.1969338,343700000.0,285445580.77857274,687000000.0,59354137.63356353
1518,1574,1,108681735.0,748007379.4114866,9192190.0,454245068.42496634,67531550.37365061,378780661.8227854,2201326.0,94071274.186679,255772.0,27310224.295326114,2457098.0,37140520.00091553,-8935951.0,17493365.62269105,11137277.0,157532285.6938793,-8935951.0,35938233.026865326
211,332,1,189692000.0,1093718628.8581648,90178000.0,837547408.8231959,99514000.0,469430280.56981206,-4411000.0,98523976.69350863,24963000.0,77540520.70179474,20552000.0,61343545.37814164,-10000000.0,26795313.8493997,5589000.0,156439472.6075091,-10000000.0,44049519.13105182
1542,1123,1,230878000.0,1298549831.9680476,57278000.0,902789683.6222796,173600000.0,497975440.0954393,26973000.0,110967540.97849637,7041000.0,57838989.268582344,34014000.0,66622035.83288133,-11169000.0,22214262.831990734,38142000.0,160949311.14770988,-11169000.0,45088243.02431603
1496,989,0,73773000.0,4479816943.378986,50819000.0,2746179132.29608,38847689.64492722,1803406523.7637682,5428000.0,93606837.91620672,22481000.0,32930540.576606035,27909000.0,16301021.275436401,-1778000.0,19572445.97240992,7206000.0,111617307.29927802,-1778000.0,22597762.966785952
1891,109,4,1582767000.0,2050119748.8353186,680421000.0,1528326919.678622,880211000.0,501481058.4637573,56683000.0,205802763.11207315,17637000.0,176592693.9726516,74320000.0,274105289.47147787,-5119000.0,7752912.861104652,35279000.0,183603694.51245993,21404000.0,39969738.27215214
362,1142,2,5641000.0,803732972.1823034,5200000.0,591296022.3216772,-3859000.0,37027632.167624354,1192000.0,50335217.34294933,781000.0,-4766629.054632664,1973000.0,6468058.509165049,-97000.0,8840754.791174471,2070000.0,44801768.88273263,-878000.0,92434846.99442409
605,1206,3,3208196000.0,3816555047.122299,2133043000.0,2742047006.649925,1075153000.0,1762342385.6994092,625972000.0,410006725.2022357,1066275000.0,1006019408.8265438,1692247000.0,1253892173.4745226,91616000.0,107910052.57050793,497965000.0,275817185.24350893,128007000.0,64584484.13273582
384,525,3,13057000.0,417453843.9687395,4943774.229094189,392751408.1409311,10949000.0,357945945.28312457,7944000.0,37108453.841168225,0.0,-10340166.948627234,7944000.0,4640795.763646364,1997000.0,-2215647.312479675,5947000.0,92429983.18009466,1997000.0,15740793.268183716
438,445,3,5973000000.0,5367481653.158828,4408000000.0,2635801498.2517195,1554000000.0,1603792038.4698665,244000000.0,352593006.96896863,1526000000.0,1005939553.6506906,1770000000.0,1316577158.1314895,147000000.0,100427943.78286915,127000000.0,236833730.93339583,117000000.0,58786140.30827598
1761,460,3,589088000.0,1409519064.7435637,253950000.0,1101621515.2923207,335138000.0,887364401.8146749,19294000.0,161235712.47916478,99428000.0,94373218.32801867,118722000.0,180537911.42247963,9057000.0,28315632.029850006,10237000.0,174333894.8599218,9057000.0,58133810.09373429
403,1033,1,21286772.0,622983682.8548074,1383236.0,293676449.6082945,19903536.0,343373549.9806272,781782.0,85913914.62780094,421382.0,15183304.314837456,1203164.0,1445493.6394096613,-1960898.0,12815254.924500853,2742680.0,134261395.3351754,-1960898.0,22720484.830326766
388,1582,2,3445920.0,1337889242.1263695,1859560.0,698342165.0616908,1616914.0883314284,56456764.23085022,2970901.0,57278373.33124441,569508.0,8957926.935384512,805185.0,12032431.380039454,2437201.0,8587621.236837119,533700.0,52036986.72604817,2437201.0,92434846.99442409
1452,905,4,328158000.0,1163685900.6464658,124250521.82515822,1123495587.0720727,270486000.0,268596600.18089485,24944000.0,148898659.0848502,16521000.0,83602267.86919999,41465000.0,99611682.93414986,-7674000.0,6949255.335211322,24827000.0,134610278.03475922,117000.0,38430531.75096603
1876,1436,3,2498305.0,546078802.5838518,2997402.0,395190415.7869587,-3454854.0,384375893.8027345,467340.0,28692662.923275173,346611.0,-15130316.61592853,813951.0,-11419762.55445528,-114631.0,-353853.56653518975,581971.0,65854225.75409931,-114631.0,-8947253.112878457
757,1113,1,1288046000.0,1870606952.4444346,649920845.9604261,1388755893.7190828,889849000.0,1044646557.5448219,105384000.0,190464056.1117644,285360000.0,218691660.1433047,390744000.0,357592355.3780608,53190000.0,50658659.09184629,52194000.0,203528390.87286735,53190000.0,51892476.09946165
660,1392,2,600057000.0,1553653818.2338643,369915000.0,1071829067.5159421,225443000.0,597613801.8363278,43121000.0,146142315.28538054,106269000.0,140806826.98530293,149390000.0,157115100.89816284,7853000.0,32742676.336672626,30439000.0,92531315.81097388,12682000.0,93402052.7014551
197,473,0,538955000.0,4450226477.955893,291671000.0,2770777391.230151,247284000.0,1840812483.9155247,-14193000.0,114063080.05811244,14235000.0,32774525.40985596,42000.0,85613746.9971453,-51845000.0,11814188.377423227,37652000.0,160448182.10767844,-51845000.0,27207998.925504617
93,1329,0,25334074.0,4350086971.057828,18917048.0,2692648254.527054,5501613.0,1803406523.7637682,-536032.0,74564681.59168226,4501393.0,2310728.7114100456,3965361.0,10157841.964754462,-2975120.0,11377113.451174185,2439088.0,104398197.16733998,-2975120.0,39157752.7328151
472,794,4,1934400000.0,2690061432.6388807,855887268.5537325,1753586769.1495214,957200000.0,990150114.626902,84000000.0,247431263.66993642,375600000.0,321021742.2316757,459600000.0,489641367.7215793,30800000.0,46547317.54681908,59000000.0,190037920.26687598,25000000.0,41430289.95677392
1345,82,1,102973000.0,747970416.8598266,162948000.0,385053587.51750135,-346214000.0,413199205.58956194,-13037000.0,75714465.48491764,25768000.0,35147785.54332554,12731000.0,19455470.493948698,-23219000.0,9900605.642297953,35950000.0,178379630.70603028,-48987000.0,-16507048.3765333
1672,1282,2,2501300000.0,2568036771.87916,1075500000.0,1688852311.870103,1407900000.0,1254141137.0359519,99600000.0,268089151.33012947,151100000.0,371568451.06534845,250700000.0,450793208.86720526,31900000.0,56900063.49126268,67700000.0,175203977.5515426,31900000.0,93402052.7014551
521,626,2,27910000000.0,33682494494.655045,24392000000.0,16719441355.668388,14058781786.346067,9162522373.314028,1525000000.0,998355727.941716,6421000000.0,4118614922.2519693,7946000000.0,5712682042.718612,561000000.0,245877986.7339529,638000000.0,556280485.8053527,887000000.0,93516211.1175063
1143,1122,2,105238000.0,922598275.2237458,42240000.0,731416321.2387161,62998000.0,279294481.6179408,8572000.0,85518428.64107925,322000.0,12832626.092010498,8894000.0,42855233.96752584,2218000.0,14558918.982630312,6354000.0,58857764.62137818,2218000.0,91120835.3568013
502,513,0,2010176000.0,5151812247.47863,889414829.379791,3234205695.3607244,1057656000.0,1942016485.6667135,113627000.0,276191071.7768089,250202000.0,266566703.90118563,363829000.0,394311427.2016218,44531000.0,54567244.754375465,69096000.0,210484315.70268276,44531000.0,59354137.63356353
319,221,2,15154000000.0,9844841789.057613,5534200000.0,4015684996.5837007,9554000000.0,4037424045.278863,739300000.0,553398393.0099533,999600000.0,792096465.2368507,1738900000.0,1802883379.9953058,318400000.0,139418886.50145963,315200000.0,327705862.3053242,424100000.0,93402052.7014551
471,269,4,346507000.0,1171405926.1185741,100361000.0,1012625630.5191665,246146000.0,264683197.01197243,14398000.0,120014567.28088129,62502000.0,84117176.62656665,72480000.0,103627292.02828467,4926000.0,7291216.1279242635,9472000.0,142919411.64152738,4926000.0,37190433.48624672
1756,13,3,229309000.0,1017658172.7865,190264000.0,874442074.66784,-44269000.0,512393332.6335045,9225000.0,121476843.34557813,52669000.0,71973833.2444799,61894000.0,88979985.6005702,1401000.0,18977510.554495826,7511000.0,142128140.97969425,1714000.0,41449631.900092915
848,345,3,101740000.0,687732380.7483048,28463000.0,319054401.1796088,50734000.0,622433383.7632505,29850000.0,54751653.42877138,12745000.0,9119208.961549282,40857000.0,30247911.661194682,2689000.0,3005068.3576497585,27161000.0,115520550.76443326,2689000.0,-13039567.1920757
1310,964,0,9582645000.0,5303017649.932022,3280269000.0,3381912415.2090993,6302376000.0,2127081409.9630935,376175000.0,411476579.0990658,424915000.0,518209833.60918015,801090000.0,880848237.7394615,272965000.0,67469845.2638022,103421000.0,223590215.82096162,272754000.0,57410122.86913465
202,346,2,609678000.0,1809169510.2910113,288631252.1743736,1033845525.1752374,366720000.0,667976766.5740471,84451000.0,156549583.65258127,21802000.0,166104285.1934387,106253000.0,212644780.74030852,5683000.0,29578919.133053645,78768000.0,106394216.06728673,5683000.0,93402052.7014551
1444,1049,0,43441700000.0,15012830204.507376,21559314449.01792,7483592995.989542,21882385550.98208,2703640979.618896,1370000000.0,1095892315.361118,587400000.0,820793744.6907147,1957400000.0,2708572750.86687,472000000.0,290114323.30524844,1485400000.0,901192253.320891,-115400000.0,32601773.02289833
1578,1254,0,1146353000.0,5052463945.8298435,752649000.0,3234205695.3607244,393704000.0,1843645919.108687,95229000.0,212902854.22431815,32092000.0,206477203.12352663,127321000.0,282107475.94136465,-58245000.0,30770217.31985095,153474000.0,167078507.34442887,-58245000.0,51251297.29548401
451,377,1,796771.0,516826273.3754606,1072746.0,1940126.0343990326,-275975.0,306365096.76590085,205707.0,57815696.53149295,158335.0,18765059.822138548,364042.0,5051680.19037652,-168127.0,2408866.822529778,373834.0,96115392.3311657,-168127.0,-8280575.31633693
35,195,3,9069035000.0,6453809497.461011,2563480000.0,3308699872.4117026,6505555000.0,2256120616.754142,942419000.0,440323067.77096015,522866000.0,552700685.0766304,1285548000.0,1143832174.7937188,602695000.0,157328577.27777418,339724000.0,279543647.7751493,602695000.0,62558182.8038933
237,1499,0,48924605000.0,15575434125.465046,25766652000.0,7690303355.891405,22441501000.0,2703640979.618896,1560160000.0,1209927017.8699863,915531000.0,948836950.9447129,2475691000.0,3251665704.940174,558196000.0,346691499.17258024,1001964000.0,601316796.0204561,558196000.0,51540446.60754465
917,546,2,514281000.0,1896883630.163818,309957000.0,1217917974.8760817,198004000.0,648019827.7157764,106985000.0,147882374.36998582,149052000.0,177474092.23358423,309744000.0,234253485.8715242,62399000.0,30096144.89949335,44586000.0,101438665.83978659,62399000.0,91530332.19391346
558,843,1,17876000000.0,8621800509.258617,4077000000.0,2992393952.7795315,13799000000.0,2895088987.7727766,-917000000.0,255218721.19878933,1453000000.0,378182797.09251744,536000000.0,599684422.7549114,-1774000000.0,40404573.31681207,857000000.0,427965512.52176714,-1774000000.0,3703560.663621925
73,1211,3,218354000.0,743252210.3721557,62021000.0,696454779.1224613,156333000.0,553670129.7037371,-143000.0,88633232.23529565,848000.0,5271278.384002686,705000.0,53411677.61576271,-31577000.0,3059138.563523799,40859000.0,139481631.29212797,-41002000.0,36043130.63753135
532,177,1,2268100000.0,2846756188.765685,1627400000.0,1949369412.3730204,640700000.0,1128439839.6532056,78400000.0,305455566.06312305,665200000.0,455502299.2138979,743600000.0,706056318.6750834,19100000.0,66831890.89533925,724500000.0,377584800.339168,-646100000.0,50651350.00278761
986,1164,0,49117000.0,4404450546.606367,7104000.0,2694949777.394862,42013000.0,1803406523.7637682,1616000.0,79887940.15073305,3273000.0,2539748.9639509916,4889000.0,16451774.277680516,-1489000.0,10569400.397582874,3105000.0,114483249.55066425,-1489000.0,41162005.3707959
252,510,3,12822000.0,391543130.19428253,1624000.0,355126553.55806684,11198000.0,451885294.58219206,0.0,26203357.159133375,0.0,-25342021.873169065,0.0,-9366847.992796421,-1983000.0,-3915197.4087886363,1983000.0,81231046.3458122,-1983000.0,13238797.282088228
982,1272,2,543788000.0,1872740436.0466995,205894547.02387,1131332541.402989,402777000.0,601102416.8733177,1944000.0,142802694.69336313,0.0,62530293.6980772,1944000.0,147790951.22090042,-51279000.0,13153378.94458805,53223000.0,104522999.94980186,-51279000.0,93402052.7014551
1947,1128,1,16965000000.0,11453852518.705101,7506269391.549871,6305020119.562629,7744800000.0,3418905588.68803,1329900000.0,935723097.2572302,1175700000.0,1189222720.058228,2505600000.0,2457935740.7524757,1069200000.0,518974068.2175393,32700000.0,273325766.74597156,1297200000.0,327862687.4319259
1206,1591,0,29788000.0,4512634892.65998,27907000.0,2843684536.4782977,1881000.0,1827711588.2385519,0.0,111125075.22004443,3452000.0,17028486.855003595,3452000.0,53055307.06877911,-23801000.0,9139379.596944064,23801000.0,128601294.29606378,-23801000.0,21313942.57385338
542,616,2,39315010.0,778216759.3528905,15768167.0,626805955.0381851,23791305.0,130152996.06385744,7600979.0,39814898.585170984,41810204.0,721175.4229806662,49411183.0,27101148.759501576,-1588725.0,10597848.264962569,9189704.0,50620573.57402712,-1588725.0,91771070.76704699
15,532,1,184728000.0,934414945.5720844,40367000.0,588807215.7999611,144361000.0,435329778.6610091,0.0,100576121.36663604,8094000.0,19283483.79861164,8094000.0,33165214.759881735,-23114000.0,7615517.278384343,23114000.0,155400263.59685057,-23114000.0,24324387.70085253
1754,129,4,5014090000.0,4035624340.413763,2606263000.0,2357233357.995205,2407827000.0,2066751387.112911,420690000.0,333251185.8090718,905430000.0,622328724.880238,1326120000.0,877315627.8653858,237492000.0,119215828.83947268,183198000.0,256762301.81853795,237492000.0,43419381.78308093
1448,1196,3,3543460000.0,3319245430.0703926,2602227000.0,2097165883.2849503,941233000.0,1028811442.7585471,443568000.0,293813645.045408,134292000.0,396190667.09891963,414603000.0,696159457.237694,14363000.0,35841201.49611086,429205000.0,233743111.46848482,14363000.0,48781938.36864701
459,123,0,747087000.0,4608036999.278909,79688000.0,2966203428.6882195,667399000.0,1803406523.7637682,34565000.0,154239653.06001294,22203000.0,122945513.02812737,57261000.0,131294511.84769714,-16306000.0,18963896.002903864,50871000.0,150024652.06538677,-16306000.0,45413652.346851975
1505,40,3,4578121000.0,6550196857.599217,2310023301.364386,3763278748.4612827,2489780000.0,2498596820.5625267,2190001000.0,2262156263.285541,-1465670000.0,-69634749.8848511,724331000.0,1543617565.0943651,216069000.0,213338735.77338335,1973932000.0,1185445072.3199584,216069000.0,25938560.42989856
1613,893,1,11895943000.0,10031939132.834204,3479745000.0,4097100919.0016174,8416198000.0,3395887102.988304,335683000.0,428614233.28416497,296441000.0,487910391.80081403,632124000.0,1119953771.5380473,90949000.0,63654599.43455894,201199000.0,320844066.02234167,134484000.0,59449530.841279075
1214,1324,0,1059300000.0,5045620926.861564,513000000.0,3159808707.4401665,545000000.0,1901777090.3217945,132000000.0,234583010.22623038,172700000.0,270459328.1994416,304700000.0,343561891.13770986,34700000.0,56227495.26742346,88200000.0,186364107.72303396,43800000.0,57622934.23653954
454,235,3,11204065000.0,8955112500.883892,4242197120.938668,4621736239.361828,3489373000.0,4413926881.826998,480702000.0,519035796.9872008,457696000.0,427912982.5275731,938398000.0,1047762626.6636957,172392000.0,67580685.77335453,308310000.0,364639831.5048404,172392000.0,66735533.26079941
1392,433,0,531121000.0,4763139202.0059185,248900000.0,2983263779.08669,282221000.0,1827711588.2385519,62379000.0,175433351.11413747,135419000.0,193479099.02558076,197798000.0,278791912.1729088,18703000.0,51145662.079057746,43698000.0,165147232.40427715,18681000.0,53194728.68202528
1519,921,3,961035000.0,2898582508.489602,1381722000.0,2112233375.6691906,-420687000.0,1085827162.1282423,271111000.0,310820303.96305525,201537000.0,270692686.85155255,472648000.0,610527104.3171163,5387000.0,42028758.77484809,265724000.0,242088033.61817095,5387000.0,61151053.370238945
1060,425,3,3194462000.0,3856894019.316763,1643299000.0,2267620977.767872,1512215000.0,1605423071.1598644,817744000.0,385860829.3661515,0.0,278630424.70444727,817744000.0,696603218.512256,37900000.0,72534063.86885668,779844000.0,360069262.2224839,37900000.0,57928718.8127329
1100,1380,4,6042273.0,677233040.8163018,3627261.0,-178300892.32397985,2415012.0,-14428960.3937428,0.0,59707947.179557264,0.0,-22902077.201497555,0.0,-24226098.6270051,-1829562.0,-13531874.263706535,1829562.0,98278763.66012585,-1829562.0,-17612057.727382034
203,608,0,76266906.0,4393413144.144633,57438990.0,2807382932.3327417,40912361.81482647,1803406523.7637682,9146097.0,96840078.02775306,0.0,-1042567.1995795965,9146097.0,13333184.578456521,-2633902.0,17332070.23627451,11779999.0,111006560.0501492,-2633902.0,12584728.212198734
1493,1364,0,-3532973000.0,4647311364.827029,-2747133000.0,3001809110.124852,-773571000.0,1942016485.6667135,87737000.0,239924639.50207365,40236000.0,482599953.9210626,103187000.0,804561282.5668807,7123000.0,41187727.241839185,80614000.0,209040719.32471758,7123000.0,57844576.42307195
543,733,0,846734000.0,4509269438.264729,635659000.0,2830577188.118515,69332000.0,1858278635.4622102,204774000.0,148236839.7132814,-13024000.0,70908971.19360375,191750000.0,185707659.76934838,-52860000.0,1633601.487994969,257634000.0,236527098.62319326,-52860000.0,40934458.71730961
1966,607,1,1354514000.0,1407551440.1963067,675720000.0,964494262.8372753,319291000.0,568974881.905256,-16558000.0,115084243.72040296,64132000.0,118210284.5789249,47574000.0,104440173.72182775,22229000.0,25412774.80011642,13428000.0,201966243.3433641,-29986000.0,32818473.097568933
1802,1454,0,270533000.0,4479816943.378986,240046000.0,2816366590.884943,30487000.0,1803406523.7637682,26052000.0,124343358.38373572,12454000.0,52024151.523496866,38506000.0,102581875.57412755,-21038000.0,13416251.025093034,47090000.0,142960672.07354835,-21038000.0,50436995.26039034
1372,1186,3,583783000.0,1253718203.9256358,717382000.0,962979460.6053243,-133599000.0,731128443.597989,41865000.0,162708826.22180116,32703000.0,85333325.99346435,74568000.0,174981016.0240724,-32006000.0,25219668.62751852,48224000.0,158581664.29252765,-6359000.0,39808582.279792294
1325,1592,4,534446.0,748677583.5119762,9794849.0,-14132923.084672451,-9132038.0,-10612869.783261418,6264.0,64865114.26941657,3881.0,-15660670.353507161,10145.0,-18368388.692076445,-961868.0,-8836811.474787518,972013.0,104669251.72900018,-965749.0,-922508.3122387975
1504,875,4,106308000.0,974892850.9787083,29369000.0,765795920.3669257,76939000.0,179490161.21445107,15630000.0,116131251.87077105,0.0,37042859.052765965,15630000.0,32660597.08900261,-23899000.0,-4396817.148270935,39529000.0,131880237.48457128,-23899000.0,30731300.192394786
1347,166,2,369031000.0,1497293184.9585657,216722530.1814524,1044532775.5482228,188777000.0,514249525.17562246,45044000.0,133089474.28778094,42173000.0,161115676.3752632,87217000.0,145291696.8082043,-3804000.0,18799128.719397485,48848000.0,99833360.58871865,-3804000.0,92741625.95954008
1492,321,2,327784000.0,1458079759.2486157,323919000.0,1042441691.7368824,3865000.0,473268873.44052184,33496000.0,108933262.01229733,8201000.0,40725375.811067104,41697000.0,83107235.74104476,-4913000.0,19754851.920975298,37287000.0,81843700.51925471,-3791000.0,91741087.24125817
1107,1425,4,85658000000.0,35541463792.98476,88335000000.0,52772217915.09503,-2772000000.0,1096435387.5154588,5387000000.0,5679328083.066754,14002000000.0,16435432767.078123,16935000000.0,20022308513.866,1165000000.0,2199636062.522496,4222000000.0,3267301256.493479,1165000000.0,361706299.2675898
1336,933,1,898860000.0,1467169452.8104382,527877640.3036609,910700783.3118954,360528000.0,637874161.1433144,68259000.0,128769483.41223696,42065000.0,139557972.6798966,110324000.0,148578852.79550898,-1325000.0,25815076.38535224,69584000.0,210212782.26223758,-1325000.0,-1051492.8879763857
599,143,0,50546000.0,4404450546.606367,5959000.0,2730711306.423111,44587000.0,1803406523.7637682,1989000.0,80004170.21266204,1909000.0,9607894.467830539,3898000.0,6370928.701817751,-1895000.0,9472996.016004384,3884000.0,101034676.59552795,-1895000.0,36405440.844336204
117,929,0,939056000.0,4674169009.574964,419590000.0,2908678213.8583193,517473000.0,1827711588.2385519,90527000.0,180303622.46324223,120216000.0,195734137.48021102,210268000.0,244102454.5064571,61012000.0,50083565.3695813,29515000.0,164052529.6148032,61012000.0,54419567.566066146
1825,1165,4,20027115000.0,14510710675.614464,12952737000.0,7679206776.428142,5611108000.0,4292451423.5144053,32786000.0,377891107.7386806,283742000.0,496930973.8663517,316528000.0,1144443240.830029,-1347477000.0,53229606.363934904,1910658000.0,419932299.1595181,-1877872000.0,30840484.328163084
1507,1277,2,124094000.0,874396955.3352757,18130000.0,829170267.1561153,105964000.0,221792363.29647386,830000.0,73736647.23488039,0.0,13668796.933347344,830000.0,35055194.22007322,-5787000.0,14235188.02586259,6617000.0,65787854.59692627,-5787000.0,91656912.35099581
321,630,3,68675000.0,734896539.9244685,40331082.646745786,590102834.4190984,53645000.0,622665293.9080226,10938000.0,87473262.84928125,6604000.0,23345018.227968335,17542000.0,51710736.15167081,880000.0,12440341.008735746,10058000.0,165750086.77943105,880000.0,23262811.915877216
1482,275,3,1833700000.0,2881267749.739191,811331929.4597701,1548094544.3607352,482900000.0,1211523183.4876602,110200000.0,254260715.97972608,356000000.0,290031213.01421577,466200000.0,365691983.6280439,45700000.0,57287775.940834,55600000.0,186483279.38869113,54600000.0,61337104.54403228
508,159,4,62515472.0,899167683.9549212,29595817.732691668,586239756.6347561,21861273.0,56228140.95281029,7032458.0,89165819.48120326,11256239.0,15246049.123909235,18288697.0,23250224.79776287,-1564350.0,-3088560.9632342607,8596808.0,118637922.58565253,-1564350.0,30263365.448742926
1411,387,1,33859785.0,561631596.8040895,6178818.0,386231064.8784504,27680967.0,312366467.5788591,-63384.0,79855217.07224327,87873.0,5801505.221467495,24489.0,-1646170.2873517275,-2675666.0,7684027.649628341,2612282.0,134445962.62278357,-2675666.0,21401810.133498438
718,531,2,770792000.0,2038141728.1225944,581187000.0,1264109781.7721903,188503000.0,808229763.9428256,456709000.0,197668300.31700116,0.0,170870268.27121764,456709000.0,357510301.33630645,-29756000.0,27464228.19602093,486465000.0,226846745.1670257,-29756000.0,93402052.7014551
1865,1220,4,4753100000.0,3818070275.953391,2691038000.0,1784443482.883624,2062062000.0,1529911182.5900865,383135000.0,278648722.0292629,0.0,289792004.4612785,383135000.0,601622385.6220459,126771000.0,53903740.55744171,256364000.0,231226913.73567495,126771000.0,31468179.29323732
710,1029,0,9330700000.0,5495267061.443369,4987700000.0,3234803210.5085278,4343000000.0,1972583532.8903718,590200000.0,437800491.5011061,367100000.0,505019826.87731504,444000000.0,952136953.8937273,121300000.0,79928487.50143477,468900000.0,290910073.6380271,121300000.0,59479159.00376787
285,1605,2,1797231000.0,2689133734.8826127,1568932000.0,1364089884.7700922,228299000.0,1071420475.0141501,143030000.0,261234099.18553263,0.0,216894828.58259422,143030000.0,483991324.9256253,-113543000.0,25150578.919913888,256573000.0,205621577.86121225,-113543000.0,93516211.1175063
1609,35,3,90048000.0,719690542.3920817,45436321.63528667,568091415.7950315,37547000.0,523214073.2320845,2482000.0,64902512.55458468,9262000.0,25582098.941559672,11744000.0,32715874.26155293,1360000.0,13262467.60132961,2815000.0,147635209.72144184,-333000.0,27753651.74776025
1814,800,3,190817000.0,795101144.2990885,91955000.0,764831441.8620982,118567925.39840196,664304950.6702102,16838000.0,103816901.16347826,21962000.0,36526261.58491039,38800000.0,77984895.48204553,3292000.0,18204705.101662114,13546000.0,152741769.14755738,3292000.0,42227825.10204254
720,1034,0,24930824.0,4387707947.884202,6278564.0,2746179132.29608,18652260.0,1803406523.7637682,7866761.0,78814103.49331725,20382092.0,12083515.228438854,28248853.0,14178615.482300162,1448213.0,8871858.560168192,6418548.0,99833095.27973676,1448213.0,35543031.54079222
1707,1515,4,6071000000.0,8113025461.714549,14261000000.0,7151240683.637302,-8190000000.0,2683805334.2764835,1287000000.0,646092156.9202715,421000000.0,631543741.7420852,1708000000.0,1536015870.0735788,613000000.0,409803875.9390359,1095000000.0,630964846.5390265,192000000.0,35755474.400940046
485,1437,2,5768300000.0,4898294752.148657,3017800000.0,2159471690.590625,2739100000.0,2029905903.3091881,487400000.0,415983073.48686045,888400000.0,618610976.3654819,1375800000.0,1223842910.9669938,276300000.0,121962278.49304307,211100000.0,241195055.0083905,276300000.0,93402052.7014551
1364,309,4,3486179000.0,3668977265.277956,1927467000.0,2085283577.0402384,1501742000.0,1688941641.7613986,315111000.0,323768508.4547823,669472000.0,508098916.53316575,949217000.0,848418954.0941781,-24190000.0,70661358.8451794,194277000.0,239964784.86407727,120834000.0,33690649.22267912
1943,429,4,496042000.0,1525225195.2622356,349488000.0,1226522646.4776645,146554000.0,379376625.6930772,33924000.0,146536476.412941,212763000.0,104773812.46455705,246687000.0,169817794.33364844,12448000.0,17696001.009950012,21476000.0,150233622.02683324,12448000.0,38589088.279245816
708,1070,4,1713800000.0,2446773951.6500874,864747334.9608463,1499482849.9612978,585500000.0,754700267.7987176,141400000.0,220768267.9633616,205900000.0,203328767.99490887,347300000.0,336449777.1133249,100200000.0,39154298.04614776,64600000.0,208885616.0049453,76800000.0,39924153.856782496
1795,72,1,5817000.0,592998456.9161496,1413000.0,250266332.03869534,5436000.0,316175314.7275518,5000.0,77020260.47554332,0.0,154568.62796914577,5000.0,-3601789.815957427,-3525000.0,12367928.9507159,3530000.0,137545329.03961733,-3525000.0,18913790.431527875
1196,288,0,4180537.0,4404450546.606367,13379601.0,2694949777.394862,-9199064.0,1803406523.7637682,1107842.0,81121963.80859679,974711.0,-2033307.0237982273,2069845.0,21823689.93537259,-2577294.0,11381790.330056965,3685136.0,99809354.38112265,-2577294.0,21809147.12388526
1785,1155,4,6656000000.0,5015480908.346034,2127000000.0,3347185828.582958,4529000000.0,3032588784.288708,386000000.0,377551234.75011873,110000000.0,799530618.4210969,496000000.0,1327671059.5756352,-53000000.0,34458521.57710506,439000000.0,329586496.3094989,-53000000.0,34649939.3920314
1117,684,4,191593000.0,1179813768.5373583,250675000.0,915197057.72981,89973054.63642293,198187078.3754648,28173000.0,140722640.34582278,35245000.0,64127707.46030009,63418000.0,76216451.37506068,-6852000.0,-850600.400592804,35025000.0,147363613.88803077,-6852000.0,21688858.42113193
611,1394,0,69753000.0,4576367058.007274,24624000.0,2858851846.1564612,45129000.0,1803406523.7637682,4333000.0,102547676.01270086,3937000.0,36375132.173745275,8270000.0,59999530.51748371,-17948000.0,5837399.549148083,22281000.0,125442238.35272503,-17948000.0,43620454.79106138
1037,357,1,12798100000.0,11235928768.646994,7698700000.0,5528736914.952808,5099400000.0,3198006630.3808036,578600000.0,553197325.9866748,1141600000.0,1167432660.6891336,1720200000.0,1900176582.0976012,210200000.0,121074948.99296096,368400000.0,281730617.0484975,210200000.0,52050612.90778676
1049,900,4,41718000.0,1002600795.1582255,16883000.0,473347289.463819,24835000.0,79982756.86251259,4472000.0,92747742.68326753,-7000.0,18502447.297511578,4465000.0,14034866.849254966,467000.0,-3501181.2468580604,4005000.0,119065079.23755679,467000.0,36505687.42871023
181,524,4,2175066000.0,2376330696.6938534,720018000.0,1327547099.28326,1455048000.0,867266928.9037367,262895000.0,198171970.44605815,0.0,155077628.73673016,262895000.0,333925295.871434,-74357000.0,-4729578.07746008,337252000.0,207702010.07008287,-74357000.0,397113.26161492616
1530,406,2,432444000.0,1534383244.9011974,58115000.0,1008040794.8013947,374329000.0,483008175.0240629,30953000.0,101957216.40411437,9019000.0,63947078.422777295,39972000.0,106949330.27508986,-4508000.0,26036110.748325527,35461000.0,90877710.41475946,-4508000.0,91307728.11905983
1172,992,2,1951144000.0,2593884881.5711484,976648000.0,1698653458.64236,828149000.0,1094117379.675039,81471000.0,242491218.52266845,811299000.0,437399884.7940986,892770000.0,516090327.86765826,21174000.0,54200775.87765317,35340000.0,150458388.35618028,46131000.0,93402052.7014551
1844,1351,3,5184000.0,375194170.2518215,33317000.0,147673951.98419333,2568262.933576247,391919087.8974391,28000.0,15262347.100502312,1138000.0,-18334362.56199491,1166000.0,-5447376.301947355,-1174000.0,-4689532.08910574,1202000.0,70125076.60065049,-1174000.0,-32599204.554800257
937,50,3,30042800000.0,21340834722.212646,15158963259.867964,11122447650.003685,10331300000.0,5403477328.312506,1541600000.0,1048095625.2765024,2284300000.0,1964860895.3953016,3825900000.0,2991992552.8567657,727800000.0,481127875.03760403,402100000.0,383264591.1002877,1139500000.0,141589450.24411064
1319,1061,3,3143366000.0,2817945314.2144527,724791000.0,1649940121.5751045,1686216654.8151803,1224753061.187249,293240000.0,244831998.05650797,0.0,92407178.1154617,293240000.0,270316138.2236067,242794000.0,54349283.82150564,50446000.0,198584014.36287,242794000.0,57250942.84438674
785,1059,0,2558318838.0,5045620926.861564,289865031.0,3089621248.851303,2268453807.0,1901777090.3217945,191440633.0,275818686.8248538,384407857.0,265532225.68833488,575848490.0,426374842.7894876,122416529.0,52649037.1732417,69024104.0,215153644.5845943,122416529.0,55792444.14781934
534,1153,1,355784000.0,1474100986.3242755,359982000.0,1209579880.8310347,21035000.0,586806209.2174321,21274000.0,117238371.8417218,23247000.0,108129287.7201649,43857000.0,124399052.21702874,-2501000.0,29750538.274952568,23775000.0,174506063.8275626,-2501000.0,48107727.25151805
1073,1304,0,107571000000.0,35652822160.64049,49865975585.04998,15961625594.873667,57705024414.95002,5913954274.487199,4680000000.0,3031097516.620588,16059000000.0,16177474338.615324,20739000000.0,20665628994.98346,2233000000.0,1266970339.1650374,234000000.0,1262307881.4184742,4446000000.0,832260619.5206766
871,573,0,357016000.0,4588001289.432598,134021000.0,2859152362.351267,222995000.0,1827711588.2385519,10859000.0,125524272.91892552,60424000.0,81755563.69668436,71283000.0,103762535.08859491,4410000.0,30532442.599485695,6449000.0,136068535.90067542,4410000.0,51813491.637354724
145,899,0,10492900000.0,6172595539.335789,4642648635.342979,3570926953.11114,7724300000.0,2127081409.9630935,1077000000.0,583829245.3581014,2546000000.0,2162549558.2393174,3623000000.0,3166018438.7629576,389500000.0,267794927.65348062,626900000.0,338817738.3966933,450100000.0,25502867.555379197
1137,130,3,221167000.0,1139510534.4593568,272405000.0,1936055803.0789962,-51238000.0,1159627843.9319627,26384000.0,119893995.16862094,0.0,10166377.57648158,26384000.0,82409365.44224894,3123000.0,11474438.32524331,23261000.0,149701431.88986424,3123000.0,35889004.27707106
1853,1302,2,644700000.0,1719599674.1659575,668700000.0,1214040422.6482353,-24000000.0,570255505.793488,11300000.0,158192236.32727122,30400000.0,168719219.47234434,40500000.0,210805392.29711747,-2900000.0,35028720.83482385,9300000.0,99736401.8825171,2000000.0,92308266.83734174
1607,1188,1,5733000000.0,5611269925.730637,4386600000.0,2677711588.5166206,1332700000.0,2065545000.4943469,508800000.0,420007923.38043666,1740100000.0,1156549032.4611163,2248900000.0,1899939503.649001,201100000.0,100711431.29706223,328200000.0,259028688.15198958,180600000.0,56441248.478972435
497,750,3,3187469000.0,3486996635.7413363,1581882073.387936,2251860527.735241,1402929000.0,1297942298.588923,12023000.0,291064054.4395857,118303000.0,275192514.7021902,130326000.0,431438152.2219701,121116000.0,67413462.5903883,236940000.0,262654298.62451887,-224917000.0,55793482.47880921
1789,1580,4,160962000.0,1056763774.6174607,136871000.0,952512878.7326572,14091000.0,215087719.53129745,33234000.0,109096127.17871219,28516000.0,56805152.331909776,61750000.0,58266834.52741325,-4105000.0,3221610.972931057,29699000.0,157431737.6739289,3535000.0,-1173733.2322055176
1733,1470,4,1070082000.0,1987080158.0122333,790095000.0,1393266618.8668694,279987000.0,485767096.2926778,59499000.0,170479413.35990664,92514000.0,148468030.5644883,152013000.0,261438812.56730473,-6147000.0,11514613.36893253,65646000.0,174639085.6847907,-6147000.0,39876312.65107255
1735,521,2,55335000.0,1014636608.3233252,11648000.0,833184873.4979496,43687000.0,206288287.63423932,13874000.0,76819139.94788516,0.0,7175123.754527926,13874000.0,39642782.7950691,364000.0,15819153.634079665,13510000.0,55158127.55203897,364000.0,91656912.35099581
1273,277,1,8855100000.0,6322464583.302988,4468096700.788768,2534090936.0041647,3543300000.0,2072903320.89563,468100000.0,383783853.9736794,2041800000.0,1176977899.2732553,2509900000.0,1868466986.5759883,256500000.0,90484028.85045817,211600000.0,232325658.37134415,256500000.0,46660435.49721502
226,876,3,1045317000.0,1481844115.2796478,491551000.0,909723073.5117083,553766000.0,785497472.6535183,49476000.0,129069276.15132582,27012000.0,70088291.9636401,76488000.0,148288621.0525627,5569000.0,7658585.279124901,43907000.0,176220177.88497633,5569000.0,1633366.6476850063
856,675,3,3335011000.0,3055878048.7051926,1532336000.0,1550447135.7099705,1376443773.6613572,1198397561.4668849,158805000.0,267302021.43721205,458734000.0,249414600.27802026,617539000.0,333135120.9566959,82276000.0,71367913.55267234,26748000.0,194051431.8971659,132057000.0,35204337.06841283
610,1118,1,50788000000.0,38227906706.05095,23543456582.29001,19697011384.40306,11845000000.0,6625864961.222314,1286000000.0,1002509777.7071131,484000000.0,883196268.4968451,1770000000.0,2138715134.5882854,994000000.0,446214998.14671975,146000000.0,389381254.68709534,1140000000.0,320121736.37161994
434,894,0,9209798000.0,5316343861.815387,3242862000.0,3270275796.9594526,3654836000.0,1942016485.6667135,758604000.0,353104984.7444823,-63000.0,267562838.99701935,758541000.0,621927531.4717245,306700000.0,86026580.54136279,451904000.0,234336482.40796587,306700000.0,30177556.692494065
1765,596,2,3861516000.0,3644828143.9733386,3060094000.0,2018149825.893301,801422000.0,1199654212.4843743,246503000.0,281447217.37158585,543454000.0,392715443.2347622,789957000.0,932612945.0723567,-286586000.0,54651902.24240866,130761000.0,217884510.44569683,115742000.0,93402052.7014551
667,70,3,3117800000.0,3302807058.4061737,2444800000.0,1758768700.4356518,673000000.0,1285148337.678384,86700000.0,274910706.1168646,411500000.0,365216866.4033468,498200000.0,520743381.5361242,-419900000.0,48173696.7610452,63400000.0,203587494.6938257,23300000.0,62558182.8038933
1194,565,3,84073.0,355217422.21689224,2814055.0,144723050.95896816,-2729982.0,367079385.1548401,0.0,11785767.220678031,0.0,-16015283.522513866,0.0,-9668607.53456688,-647078.0,-5363551.450758934,647078.0,63998854.05760223,-647078.0,-35972650.62243897
626,179,4,250689000.0,975800914.658052,83024000.0,797817991.0125737,167665000.0,176858778.00815296,0.0,105923418.27546066,33193000.0,32030140.078902483,33193000.0,49613081.44439471,-43672000.0,-9567862.726055518,43672000.0,140878921.67191693,-43672000.0,26967489.525355533
1654,506,2,2267553000.0,2774521611.685149,1375272000.0,1706790793.7346587,519294000.0,1313928116.355957,30179000.0,310415342.1658768,36686000.0,326808703.6407704,66865000.0,434117796.05110705,-15417000.0,63034965.91388467,38864000.0,160498160.44458702,-8685000.0,93402052.7014551
288,770,3,2221575000.0,3015922467.39909,1034139000.0,1793886114.7038012,1187436000.0,1106487518.9133086,131964000.0,265133496.5775796,106311000.0,263643588.62491393,188755000.0,354601719.23152196,3712000.0,42841033.62957998,128252000.0,217776213.99347115,3712000.0,62558182.8038933
1665,164,4,555271000.0,1600613719.6384912,273881000.0,1309203528.1343925,281390000.0,521282068.7917179,77610000.0,158946058.70581916,73228000.0,144865608.43851715,150838000.0,199139494.4521464,6400000.0,11530647.794153184,144438000.0,194516809.82625335,-66828000.0,23550141.73962249
652,559,4,1810200000.0,2485793012.496276,1334200000.0,1591311509.3272836,472000000.0,668730081.5915293,111400000.0,214646979.7224776,439000000.0,241379063.956136,550400000.0,375802063.8977431,53300000.0,22607470.437580526,43800000.0,187290192.65540645,67600000.0,10743678.819916464
1078,1192,2,339972000.0,1354875191.909038,145992000.0,1030673891.7634442,193980000.0,427933590.6398823,800000.0,89241178.68065763,85000.0,19643629.808305025,885000.0,51800356.63040221,-35502000.0,10589961.83474259,45899000.0,76082268.24862334,-45099000.0,91307728.11905983
778,140,3,992330000.0,2176361697.6236167,401273000.0,1604792195.4764547,544681000.0,1000008284.261987,417282000.0,258723627.0575373,0.0,69351701.95399785,417282000.0,377661588.26363754,5536000.0,23418887.326809317,411746000.0,217474593.38854656,5536000.0,49860167.24596462
29,1570,0,600271000.0,4676971481.863553,137438000.0,2933737927.5796375,462833000.0,1827711588.2385519,73869000.0,161207955.01941526,24421000.0,145296428.22913998,98290000.0,174627271.80232084,-8089000.0,27079977.147965178,81958000.0,153918772.9098414,-8089000.0,46011999.64673093
854,146,2,47193000.0,877133477.7504005,31000000.0,816017518.3633592,16193000.0,210708684.33452487,4954000.0,64898957.67982757,3898000.0,8711265.15002954,8852000.0,41936305.4370569,-615000.0,18595336.40987973,5569000.0,57900296.793338954,-615000.0,91656912.35099581
1423,617,1,150549000.0,1330258021.6546807,163792000.0,1097133332.7075393,16674000.0,559756091.5667068,28323000.0,126214316.39027876,6429000.0,75995087.28135097,34752000.0,91786195.61292458,-13758000.0,29481897.675077043,21733000.0,171060606.8125358,6590000.0,51567162.86519678
1406,1496,3,62996000.0,682769804.4776044,12638000.0,502898018.26609135,50358000.0,580533961.4703603,9919000.0,68225720.52427328,5920000.0,24535732.742506266,13543000.0,26014651.384130955,1979000.0,14022663.707526505,7940000.0,116441719.6593743,1979000.0,32309163.139682204
1624,1312,2,56415000000.0,47482811890.12698,26707757359.48695,19690372106.1898,20622000000.0,12958982762.034403,4258000000.0,2562095282.6472526,2744000000.0,2760348563.199426,7002000000.0,5781644040.333039,471000000.0,569483337.4648571,1302000000.0,1321183776.1283205,2956000000.0,93402052.7014551
926,1378,1,572995000.0,1472771399.8614607,271264937.13018215,1325568359.4665256,210105000.0,687465881.8399596,-46109000.0,152515304.43723592,111142000.0,190933621.08877307,65033000.0,238284984.55642867,53448000.0,32307141.925173104,184993000.0,199506945.11155465,-231102000.0,46873357.57837517
1324,380,3,11156646.0,384741461.6413088,14063458.0,322766540.15343237,-2906812.0,387281253.7684082,-483256.0,28043752.374056816,692752.0,-26570532.064007282,209496.0,-8526072.023745775,-2378023.0,3292142.8620322645,1407493.0,70601791.35847783,-1890749.0,10928743.407360487
809,835,4,746651000.0,1873876369.4260669,563281000.0,1404956957.217022,350347808.70326334,517280833.08870524,20268000.0,176640967.23178735,132273000.0,133938337.3075077,152541000.0,217620869.24996173,1482000.0,14239275.323129952,18377000.0,150856231.93441695,1891000.0,32281551.59862576
492,1598,3,203605000.0,1107752840.7479286,164863000.0,810167504.8771248,38742000.0,659979585.3661569,38308000.0,127978951.4738707,13284000.0,26992950.104171276,51592000.0,94475685.86866486,8585000.0,18257394.930455074,22801000.0,135498847.89861745,15507000.0,48463073.36743561
383,300,3,35610551.0,532692329.2996702,44852933.0,299846190.8984518,-9242382.0,361262160.71350014,3037874.0,30529135.872794867,5691278.0,-6767572.715302825,8729152.0,17935547.636525393,-7028283.0,1342348.2938986719,15757435.0,104143784.99417976,-12719561.0,-5358789.841936246
1250,484,4,4596600000.0,4734198695.700833,2319347415.031524,2312661811.794114,3466600000.0,2341912250.927149,2555100000.0,708272503.3525468,3033000000.0,1159243102.8098712,5588100000.0,2392054894.0467167,1174900000.0,547191550.4011817,1380200000.0,408154260.53727216,1174900000.0,31638894.25230819
229,141,2,3802385000.0,2926623954.6272793,2636965000.0,1842132009.9139955,1165420000.0,1329174879.53714,157645000.0,290493859.8260064,488142000.0,409576904.6746719,645787000.0,679344840.243505,66824000.0,64716777.85731054,83253000.0,190005235.4998013,74392000.0,93402052.7014551
1531,1067,2,12852000.0,717362406.937357,5815000.0,703578218.6128979,7037000.0,40286985.92196405,1838000.0,36879282.49861157,1427000.0,-5709264.714418888,400000.0,23363955.789708614,-1116000.0,11357852.53179954,2954000.0,52729273.33480817,-1116000.0,91656912.35099581
1035,1337,2,11747000000.0,12251555198.757149,7158000000.0,5000978768.283409,4503000000.0,4272632584.236771,770000000.0,808099705.4539275,1424000000.0,1328519973.825904,2194000000.0,2481445697.284133,154000000.0,182597101.68623272,2040000000.0,1707925526.3932693,-1270000000.0,93402052.7014551
1774,25,4,7236206.0,1114349532.1043081,4913744.0,136097363.8432927,2190428.0,119384173.9974972,634746.0,75328641.01131803,2326079.0,-1755977.2523070574,2960825.0,-10495551.571465254,-234151.0,-11425981.347545415,886442.0,148159948.04599717,-251696.0,-13764227.506453484
868,1290,4,6411000000.0,4920681077.219625,3370100000.0,2925242676.7319345,3176144611.7201624,2393018380.75616,371800000.0,346377031.44596094,637000000.0,581624459.1124294,1008800000.0,986386219.7765937,180100000.0,92133208.14886507,166200000.0,249266612.57495588,205600000.0,29443438.24193824
1391,310,3,345836000.0,958447412.8343868,48837000.0,731453144.4189191,296999000.0,673224190.4928889,3870000.0,113970917.18674517,113328000.0,78829986.75409973,116752000.0,100695215.80302072,297000.0,24152093.20393282,3573000.0,146427035.33726144,297000.0,41003219.61024307
1734,1112,2,20108000.0,864343069.7652369,9068000.0,657269993.9863577,11040000.0,78822615.17713416,3847000.0,46174706.5414989,661000.0,-15514035.887865782,4508000.0,13036704.665253043,-4126000.0,10871155.028737426,7973000.0,51738748.92226416,-4126000.0,91771070.76704699
1416,822,1,1564856000.0,1763353695.0497875,1122858000.0,1420359904.3414452,416354000.0,761584692.6152539,276207000.0,219192313.33899117,-11227000.0,175995147.68340933,264980000.0,324027256.69751465,5657000.0,31809287.544537097,270550000.0,174064464.18735576,5657000.0,41258034.323606044
352,1249,0,1125373000.0,4566430974.262562,521681703.6382896,2929823875.5313625,29987000.0,1833973570.9874265,142411000.0,199997284.9205915,-42080000.0,166722141.11715633,100331000.0,294776641.03207815,17283000.0,32093510.51400526,125128000.0,187622094.2537302,17283000.0,37352716.46547692
135,858,1,630871000.0,1833412735.3230658,398464000.0,1260154835.4664454,232407000.0,677770263.6353371,80823000.0,139855637.2945136,413091000.0,175365492.6775487,493914000.0,288359916.92530704,-14453000.0,33215193.933720723,95276000.0,167748857.39362216,-14453000.0,44800675.94685111
1338,133,0,123668000.0,4580679446.717098,40963000.0,2820071100.9521112,50285000.0,1803406523.7637682,29188000.0,122177648.82497597,11108000.0,107512225.01754415,40296000.0,96973457.605991,-25553000.0,15130119.505910799,35508000.0,156635355.91307378,-6320000.0,33760064.944133125
1076,500,3,34865437.0,496798771.1520195,19085704.0,455171149.7070551,15779733.0,418616818.38172066,0.0,55718642.22531682,1198.0,-25830718.69831586,1198.0,1116556.2107646465,-6520186.0,2780309.899060577,6520186.0,89736297.3452065,-6520186.0,19986580.780915417
1426,709,4,1275550000.0,1993698959.5881448,1504271000.0,1151652420.6817508,-228721000.0,465916633.1283517,-35238000.0,176257566.66363415,59168000.0,119194064.18623221,23930000.0,245403773.55028653,6621000.0,10232770.683874518,102745000.0,155185227.2604194,-137983000.0,25945639.342962433
2023,503,0,151712000.0,4519066806.847954,195428000.0,2961805322.048712,28605000.0,1803406523.7637682,11588000.0,107810905.26435989,43977000.0,47234779.515662074,55565000.0,45434581.8812865,-8864000.0,5822484.081915811,20452000.0,144867733.31291622,-8864000.0,1098709.3875712007
1219,1417,2,1812825000.0,2462687474.444689,1134969000.0,1562115903.5580595,677856000.0,1074452000.1205008,53184000.0,212080106.85810792,120142000.0,310017748.0848303,173326000.0,368119647.43997633,31929000.0,51196211.91721821,16945000.0,164718703.03684607,36239000.0,93402052.7014551
201,703,0,-1450776000.0,4633229039.704746,-894261000.0,2927412122.204294,-556515000.0,1901777090.3217945,162740000.0,237307686.9222918,213058000.0,429390504.7455231,375798000.0,723935913.9775672,-31210000.0,39077783.138425484,193950000.0,241003234.7594232,-31210000.0,48134108.24882677
580,994,0,526507000.0,4736464039.277306,370554000.0,2963739492.096931,155953000.0,1840812483.9155247,66328000.0,188250037.80784816,107226000.0,267728065.43666905,173554000.0,266417718.3118304,-7923000.0,39157687.53982265,69543000.0,149937888.6687121,-3215000.0,25245839.292476572
268,852,2,3089123000.0,2591796753.179018,1300561000.0,1761812948.4275599,1788562000.0,1196950873.5712373,286131000.0,291251579.69121313,850247000.0,505280774.143139,1136378000.0,689980824.76558,205227000.0,71462630.54306206,1010678000.0,539270526.6164593,-724547000.0,93402052.7014551
484,1237,2,2026392000.0,1877706381.6249633,773709000.0,1162224689.7180922,1259138837.126244,770423548.4788636,36270000.0,207005940.6769645,906000.0,178905097.41831833,37176000.0,234820577.81950498,-286393000.0,10906333.159600958,341823000.0,210822081.90300786,-305553000.0,93402052.7014551
1169,1062,2,59798486.0,736898927.8502026,24561228.0,574205420.0874796,24680354.49630476,59906722.446873665,-143441.0,60149171.28940636,231837.0,-17847303.240866065,88396.0,12449169.695545435,-6239976.0,8545910.143121839,6096535.0,52048080.8937099,-6239976.0,91771070.76704699
595,1408,1,269960000.0,1152554934.4530497,370356000.0,951063677.7876992,-100396000.0,524349299.76145244,29296000.0,125324178.57161403,911000.0,57134567.899475455,30207000.0,112144376.08178186,-31260000.0,17345424.32563065,67269000.0,163838672.68806854,-37973000.0,37809669.04452751
1664,170,3,1411497000.0,2114644544.9828248,713457000.0,1644297400.2788067,667698000.0,1059628261.3157852,123110000.0,218143404.76323196,21917000.0,171927799.2403918,145027000.0,318149644.8144431,16171000.0,37850024.01590071,124278000.0,209126801.8246336,-1168000.0,44062584.63799691
1737,151,2,1068388000.0,1285322748.0657544,793168000.0,787473489.1132679,275220000.0,377312082.05055416,1125000.0,132926870.32182038,126961000.0,95511179.48307872,114574000.0,139066603.661,-123332000.0,8128848.793648154,124457000.0,82850967.72401893,-123332000.0,94613346.46708174
1105,1079,0,736494000.0,4704472098.54789,390655000.0,3042234965.6706796,345839000.0,1803406523.7637682,107458000.0,161469905.77457273,77264000.0,133028538.57863104,184722000.0,164510375.60814536,-21496000.0,13475454.401958317,128954000.0,159078636.33740342,-21496000.0,2216703.431967035
366,1521,4,1026034000.0,2281399288.1817036,544592518.5648394,1519567247.7848666,829659000.0,682021189.8188688,179923000.0,210979012.26484218,-1664000.0,175261238.94226062,178259000.0,338455433.81038797,43073000.0,30107217.295518138,136850000.0,195001042.44468775,43073000.0,33418559.133519687
847,248,0,2995900000.0,5080028482.4901285,1720300000.0,3087096490.6601534,1275600000.0,1867950983.5834708,234800000.0,278545108.3267019,244100000.0,336887428.4637501,478900000.0,430020460.28487694,25200000.0,35026169.54700428,209600000.0,206886399.60527775,25200000.0,20580146.27816169
1604,3,4,700529000.0,1732610234.2417135,363632000.0,804530330.9704561,335762000.0,387417498.3303374,46249000.0,116051971.24268883,72678000.0,103757247.23131323,118927000.0,150791870.53157902,-13197000.0,-10890362.812754065,59446000.0,180127641.95061463,-13197000.0,-308005.96836365014
579,122,1,5913288000.0,6935866833.716724,5639252000.0,2856978773.5387387,274036000.0,1788406923.5568252,470311000.0,463989737.3705786,1040995000.0,997456481.5556295,1511306000.0,1578231969.5848558,65962000.0,77320452.70296454,404349000.0,235665351.33290502,65962000.0,44681687.45774575
874,107,1,232365000.0,1111321836.858687,164743000.0,930029500.4592752,67622000.0,572355386.0630763,43176000.0,106492267.6295737,202053000.0,86094261.59042156,245229000.0,99374818.25699484,9035000.0,27535370.757947266,31930000.0,155825274.4229546,11246000.0,38014240.366482325
193,152,1,24556000.0,611831921.3917274,5997000.0,206543547.94128418,18559000.0,316154277.2560669,-561000.0,77359926.47147256,1648000.0,-10442976.876030564,1087000.0,-9589654.890707731,-8770000.0,8179532.846888989,3225000.0,138705835.42502308,-3786000.0,16224660.402514119
680,348,0,7852974.0,4393413144.144633,8726749.0,2694837439.2850814,-873775.0,1803406523.7637682,1562860.0,66553578.350859284,0.0,-13893704.386772871,1562860.0,-7060574.496319294,-1603437.0,2556837.914302349,3166297.0,71351618.0095368,-1603437.0,25649614.674859986
702,1541,4,52606000.0,935198393.5759573,31088000.0,558293567.7202005,21518000.0,134879356.6367576,2202000.0,101270885.98317122,21569000.0,37205723.33307123,23771000.0,51346913.996928096,-1737000.0,-1731771.4394802898,2889000.0,118321614.6940651,-687000.0,43028981.01858989
499,115,3,641605000.0,1514818617.6020627,98505000.0,1200749785.770977,543100000.0,939356673.1496081,35752000.0,185007088.84889534,3063000.0,94530305.98635459,38815000.0,187811995.72542262,-5995000.0,35008987.07962255,24767000.0,169934945.3441928,10985000.0,53729741.921951234
277,374,4,428119000.0,1547182560.2407122,200385000.0,1215267503.227796,227734000.0,474896679.9061907,32734000.0,159149885.83780843,3693000.0,124595936.81840682,36427000.0,232401373.81070995,-31432000.0,1575821.3011162728,67859000.0,190644764.7836146,-35125000.0,31487114.183632597
1540,388,0,1748597000.0,5050949744.140518,773677579.6790999,3160313726.704694,871968000.0,1942016485.6667135,88936000.0,235204525.88453618,314131000.0,313163340.1421954,403067000.0,417232202.64676034,36520000.0,57831562.80510481,38806000.0,201580226.11229184,50130000.0,55195012.2673833
40,226,2,-12646800000.0,-328378177.89377975,-10176700000.0,-747188869.4202695,-2456100000.0,1395773163.9208288,244400000.0,327428817.8180243,496400000.0,579655749.3306723,740800000.0,1314768231.5578399,16300000.0,204229294.610686,228100000.0,284340551.43307644,16300000.0,94613346.46708174
109,954,0,1646711000.0,5121398428.414488,1388441000.0,3234205695.3607244,258270000.0,1867950983.5834708,48094000.0,282121608.5060652,144654000.0,408460932.2824314,147710000.0,530095011.64346707,-42502000.0,43431438.0453918,79586000.0,221401889.00475383,-31492000.0,40512041.70353253
111,1503,1,632540000.0,1788969674.398682,270366000.0,1389067971.3805926,362174000.0,691868209.31972,197077000.0,180308339.6280403,14622000.0,160382637.73436165,211699000.0,241370046.4858886,-57776000.0,39210820.221348986,97890000.0,182997873.23958698,99187000.0,53047212.68891668
662,871,3,156269000.0,912878738.6783142,70363000.0,763408100.9955163,85906000.0,642323783.3349296,19503000.0,119492227.90094513,30881000.0,43515406.15584624,50384000.0,77304023.29443622,3657000.0,22120256.964138165,15846000.0,151310340.4820183,3657000.0,41245287.58417837
1749,523,0,12875300000.0,5938976181.900082,6095371591.431398,3570926953.11114,1810000000.0,1942016485.6667135,1227700000.0,587861473.4508824,4400600000.0,3643154420.7698193,5628300000.0,5334287606.891388,478400000.0,205143976.44325423,749300000.0,392157183.0633113,478400000.0,78275603.56558703
340,820,3,441781000.0,1006772890.9834161,86587000.0,749914713.4194698,355194000.0,740235257.8772677,97393000.0,117937794.63203806,44971000.0,52537457.44060099,142364000.0,146302384.89242244,9954000.0,14184895.917154893,87439000.0,164173245.7117989,9954000.0,19852030.736286454
811,953,1,1903960000.0,2490238750.7954392,1118147333.3250542,1689562148.2835314,464992000.0,888225105.6028986,314173000.0,264288484.0213039,381360000.0,385807559.93873036,695533000.0,638008921.9280658,49703000.0,41639714.98969388,262823000.0,190794994.95308506,51350000.0,50350265.129288495
1016,1350,4,413017000.0,946045521.9267039,156380700.0672279,656830563.1861367,290614000.0,180123543.10675144,164000.0,115360133.16382313,0.0,50450321.40741539,164000.0,58469810.06039071,-47612000.0,-10227285.838481992,47776000.0,130030087.13572106,-47612000.0,17435702.117902122
1696,821,2,6459000000.0,5313184556.877158,3814000000.0,2963433363.291864,2645000000.0,2194970220.0502405,417000000.0,437637207.941859,1137000000.0,801212285.3592955,1554000000.0,1483576260.6301858,109000000.0,82924779.36441107,308000000.0,256759067.70967954,109000000.0,93402052.7014551
200,1197,2,6683800000.0,4974700219.251498,2530688381.1304083,2434712825.3195868,4153111618.869592,2215735433.5976934,363300000.0,443897925.8510254,268000000.0,543531201.479684,631300000.0,1054825553.0088761,83300000.0,76815401.25663713,257700000.0,278530744.2363042,105600000.0,93402052.7014551
1994,728,0,165094000.0,4479816943.378986,70482000.0,2746179132.29608,94612000.0,1803406523.7637682,17629000.0,106627256.19173676,13074000.0,35954076.103776336,30703000.0,78073872.66561782,1152000.0,18840877.51009485,16477000.0,133106082.00040841,1152000.0,49973228.37732814
735,1476,3,8604673.0,645618766.1800213,2338502.0,358307447.0587177,6266171.0,427383627.38974,1119391.0,20988734.28338617,1576117.0,-18650679.994876266,2695508.0,-2913745.383244157,23726.0,4595251.995661944,1095665.0,90358191.52123159,23726.0,15618705.930176564
1160,102,1,30395557000.0,23100889320.542164,16133181687.752192,8828890870.310287,6297705000.0,3983044814.1314473,3044686000.0,1883994923.6710038,6751495000.0,5447885924.881898,9796181000.0,7758520568.68048,692314000.0,524450211.8352759,2352372000.0,1042317156.6152242,692314000.0,96217750.27301513
2018,396,2,764077821.0,1895631687.5090528,149164973.0,1139596807.3710685,540969385.0,634204548.7124801,20737462.0,139821650.44460052,3810639.0,94629930.99637544,24548101.0,133151608.08138347,-1942729.0,21512024.016140446,26490830.0,99925026.54935008,-5753368.0,91307728.11905983
597,1134,0,19932000000.0,9570620550.982487,15924000000.0,4884324316.846009,3938000000.0,2126622588.7877653,677000000.0,794843772.4400213,2894000000.0,2305714260.962023,3571000000.0,3539385932.500113,325000000.0,164432967.76887292,132000000.0,315214783.2808716,545000000.0,25502867.555379197
1089,291,2,114455000.0,793458175.3054166,66800000.0,874021172.4169166,47655000.0,148820441.76185465,-324000.0,70231512.9581179,692000.0,12373976.446379066,368000.0,34891870.40714407,-4444000.0,10728496.192521766,6127000.0,67640675.40535471,-6451000.0,91656912.35099581
1635,1117,2,123009000000.0,54912968005.869,61047097858.95223,17554100727.8332,24132000000.0,5518661210.765424,3661000000.0,2270154549.1843243,846000000.0,1424032190.436256,4507000000.0,4575294184.128359,401000000.0,495983469.53443307,5487000000.0,3564822750.7781453,-1826000000.0,94727504.88313292
394,217,1,1472222000.0,1724889510.372643,444895000.0,1525820980.6056504,1027327000.0,885918670.446174,423804000.0,240386704.7842051,0.0,175550416.1013432,423804000.0,322268649.68860936,44683000.0,42910780.98262148,379121000.0,203452100.71854833,44683000.0,46890158.56754883
176,502,1,1707972000.0,1697528028.362001,826699000.0,1451023255.5432923,881273000.0,867723979.4596106,161237000.0,211459819.4524446,18721000.0,210834162.9388972,179958000.0,348406815.6456362,-38330000.0,41545159.305717796,218288000.0,190855024.6888192,-57051000.0,49109720.61421061
958,1232,2,140348000.0,1210585137.4541793,22627000.0,831227473.7115686,117721000.0,305778137.8634895,18849000.0,109787574.48942548,19797000.0,22365321.805971384,38646000.0,52552996.320165396,5179000.0,16349750.234568536,24028000.0,78907248.36259782,-5179000.0,90687476.23460296
651,1456,3,68862000000.0,63217716132.771736,37281000000.0,32816521528.951607,30258000000.0,18109276661.814636,682000000.0,1252214738.1416254,1405000000.0,1865750253.7083316,2087000000.0,2741285683.1060214,938000000.0,525070747.42708284,2969000000.0,1556969317.224772,-2287000000.0,80815929.10653362
648,172,1,484306000.0,1640315543.416852,160149000.0,1410550315.371795,324110000.0,648016763.5233741,35935000.0,129890832.84661394,49919000.0,125082888.48836744,85854000.0,106015727.47552598,8224000.0,30321767.76786089,26558000.0,171345054.4863052,9377000.0,48407208.259068124
1124,285,3,263629355.0,787055940.1848164,139827658.8984726,754555899.5621805,106790041.0,560194394.3589728,4718481.0,101643985.92733127,-3354938.0,-19380325.48169613,1363543.0,38628426.49187958,2345966.0,15132215.406637639,2372515.0,148889881.18082067,2345966.0,37084257.35793579
1983,1040,4,22654400000.0,16028048766.714308,10023579681.929111,7418734198.100188,12050300000.0,8109857735.550445,409600000.0,537625278.8920904,3138700000.0,2185705580.7751274,3548300000.0,3509948516.5619874,145800000.0,285346562.0213194,119900000.0,321193180.8833879,289700000.0,44979757.51350943
1330,1193,1,55695000.0,898966960.9177861,80300000.0,624574526.1249027,-24605000.0,384794344.04152584,-33328000.0,104600585.60302806,45694000.0,32940695.38761711,12366000.0,44500615.14843726,-48025000.0,14981334.340066299,14697000.0,165876689.3813235,-48025000.0,39206536.822726995
445,897,2,33248145.0,871240693.0651011,21743057.0,597124661.3836126,11505088.0,70064055.71922004,1461398.0,35666592.98066831,569502.0,-5083097.806065559,2030900.0,19526100.959357142,-12979193.0,10325702.170208633,15010093.0,64275929.14858711,-13548695.0,91898770.00022958
908,958,1,19900000000.0,12481650108.17875,10348000000.0,6680147539.504791,9552000000.0,4228672003.3543835,2649000000.0,1444685035.8496122,0.0,439206568.33283424,2649000000.0,1962630915.1211586,467000000.0,239920222.50300705,2182000000.0,947938165.9946221,467000000.0,56281195.73473032
1585,417,1,2485319000.0,2142736906.0921307,1254039550.5762374,1809924505.7468216,1849463000.0,1252599528.3286476,775144000.0,378192989.87127143,0.0,259134782.59740925,775144000.0,552794550.9951085,128435000.0,52186841.00036855,646709000.0,258740443.64247954,128435000.0,51145149.763004705
643,410,3,959084000.0,1917022260.4396424,491986000.0,1429289604.319848,395838334.6316486,794494140.3352953,56609000.0,192392926.25122172,47928000.0,186621084.96792752,104537000.0,249098043.67261326,-22287000.0,23014379.61125733,141301000.0,203055710.99215415,-84692000.0,41989374.64050673
1240,831,3,1657157000.0,3603180581.606837,2335507000.0,1969340226.9431114,-678350000.0,1094723862.9558713,-96698000.0,313993310.171035,98929000.0,284999750.04971206,2231000.0,610591036.3132951,-125632000.0,33406339.073060393,312618000.0,296032844.4530967,-409316000.0,37106910.00697955
64,717,1,1590600000.0,1741526939.2259712,748600000.0,1266603010.2969427,842000000.0,894164815.1780169,59700000.0,167331345.4830165,141700000.0,222831825.74671263,201400000.0,289866156.72715926,13800000.0,43302990.47146712,37700000.0,193154294.31913453,22000000.0,47425770.59963952
1027,331,2,919607000.0,1847857259.6487975,266509000.0,1101586753.387279,653098000.0,558196577.9030681,68886000.0,143709972.2356574,19532000.0,113838022.75061816,84131000.0,172087149.47589636,-18050000.0,21259431.10924208,86936000.0,107172529.20311433,-18050000.0,93402052.7014551
1034,927,2,121754701.0,888541464.0495791,28424394.0,673730944.2352881,93330307.0,226430261.74731922,1406469.0,46841292.07236993,-1378985.0,23743292.363273263,27484.0,24075705.70461476,-14928443.0,-14634813.112078354,16334912.0,74908676.3086718,-14928443.0,92434846.99442409
802,776,2,12973000000.0,6150493416.388495,6013807636.489885,3731809279.074879,6537000000.0,2440534415.9017324,82000000.0,433042716.4393975,545000000.0,723236144.1812993,627000000.0,1416258155.2914584,7000000.0,138481847.64451534,46000000.0,232624631.75841203,36000000.0,94179987.34488338
981,117,1,613608000.0,1592730632.4171815,391072000.0,1182013193.5860372,222536000.0,778555191.768038,1437000.0,162201218.13152632,10955000.0,133103626.62295222,12392000.0,215064393.56523502,-84729000.0,14587431.017823175,40703000.0,194861340.5317563,-39266000.0,47774556.23087516
1046,284,4,102303000.0,1059949599.9678974,104192000.0,632285188.4278417,-1889000.0,145516095.35227942,12811000.0,102429361.557549,42439000.0,49382804.703873396,55250000.0,51019895.12150371,700000.0,-1656325.174398765,12111000.0,132948292.08977276,700000.0,30803861.86216431
581,1366,3,1023085000.0,2104567341.189396,937155000.0,2107260356.2687016,85930000.0,1069839197.2512107,87759000.0,232692404.25882295,257840000.0,371841878.61038685,345599000.0,551116761.1084669,-36941000.0,64144084.028492264,111965000.0,191076708.79996938,-24206000.0,60749959.33666908
1033,202,1,822101000.0,1133360737.0581474,260505000.0,898121752.9462428,561596000.0,525473632.5676516,113425000.0,132251628.87559631,-8261000.0,31664305.839116216,105164000.0,83739213.78439915,25956000.0,14883094.368676007,87469000.0,166830262.5315328,25956000.0,38924063.762973145
1908,1345,4,972779000.0,2080796474.1002326,674585000.0,1548121588.5797522,298194000.0,564685973.5430076,81122000.0,195826782.67936623,33069000.0,177569793.76777256,114191000.0,357284027.5195714,-12742000.0,9071676.776977956,93864000.0,180634300.00556532,-12742000.0,41430289.95677392
1486,1438,1,505122000.0,1489604229.791987,329765000.0,1030135159.3896644,175357000.0,624761124.113035,66862000.0,149788366.4918672,-15726000.0,109300399.27578592,51136000.0,159387449.2683183,-8784000.0,28273532.29261732,75646000.0,163187216.90458268,-8784000.0,38234228.13224365
640,1407,2,420505000.0,1478708879.3896923,230508000.0,846913786.2008588,189997000.0,525483929.700349,53603000.0,120933875.07985133,71511000.0,80177235.15057611,125114000.0,99762970.14971125,16734000.0,21471218.888932496,36869000.0,99951208.93286595,16734000.0,90687476.23460296
1988,349,4,216274000000.0,148730956472.17725,73401000000.0,59677645560.905205,142873000000.0,54860655639.47781,27936000000.0,14251634603.4692,6210000000.0,4873410059.156509,34146000000.0,24444394083.950382,13748000000.0,4208253337.9764457,20398000000.0,12797928879.3942,7538000000.0,572012897.3869808
469,1360,4,122531000000.0,-6418683028.424038,74517000000.0,12717133820.8447,57494689417.43809,-1881920047.1130219,11370000000.0,5477617297.038863,10501000000.0,7932788951.120431,21871000000.0,15442992210.318539,5767000000.0,2854203037.5525694,5604000000.0,3686694201.310098,5766000000.0,1192457447.3557627
606,323,0,5723214000.0,5024274581.411905,2776207000.0,3001809110.124852,2947007000.0,1972583532.8903718,448941000.0,374537849.80937964,516900000.0,496312600.8869988,865197000.0,702569551.0559232,78214000.0,59566591.81488532,370727000.0,270609531.40241295,78214000.0,59575779.82009594
1877,719,4,689227000.0,1269762709.9555407,562767000.0,773504202.0285516,126460000.0,238992397.56417382,40662000.0,123145298.19125962,11086000.0,94880537.44333208,47740000.0,103413646.76276493,-28335000.0,2548087.181894496,68997000.0,144724006.11540025,-28335000.0,31383764.3893869
1148,367,1,600857000.0,1009342886.8544292,331349000.0,827022723.3119993,269508000.0,436686369.1023755,50595000.0,101903192.70224112,6532000.0,32231993.504149556,57127000.0,20061159.733493447,-62120000.0,15143383.045190915,83188000.0,161922035.8424999,-32593000.0,27653148.594295077
1653,968,1,56794000.0,944220390.0825753,12682000.0,534221971.5887346,44112000.0,359508973.68788564,25087000.0,93996357.30081213,14791000.0,27908144.698681355,39878000.0,58419147.945788145,-4627000.0,21635039.091041744,44505000.0,161110568.9740139,-19418000.0,19073177.02073963
1205,729,4,3747000.0,871561697.4537292,4407000.0,-38825208.36591816,-660000.0,37256748.045990944,-1515000.0,62707625.34706247,1515000.0,-4564391.115420699,0.0,-9838703.494572043,-2598000.0,-9698047.854039907,1083000.0,101265721.69014126,-2598000.0,-11176760.635258302
1612,1007,2,3505835000.0,3478594432.6186495,1860807256.214476,1763423179.7751975,1470074000.0,1562531999.0798159,601953000.0,356861466.53295606,626097000.0,737181836.1091242,1228050000.0,1335412621.604221,88554000.0,81645122.92053601,475916000.0,320677174.13620245,126037000.0,94613346.46708174
1894,1482,2,203011000.0,1203557093.5269022,255300000.0,798357967.9758811,-52289000.0,295876361.69900477,8409000.0,87854232.86546558,25579000.0,57291887.34209061,33988000.0,81671713.36789942,-8212000.0,19906123.006782264,15533000.0,74780753.70735049,-7124000.0,91307728.11905983
458,1511,3,3126495000.0,2398097898.2343383,2137404000.0,1650858982.9681978,989091000.0,1219210854.0679047,70679000.0,229938952.33272666,930828000.0,323899283.6082829,1001507000.0,473415214.1077299,21039000.0,41565603.43681767,49640000.0,178924652.33934444,21039000.0,58983566.571369626
782,1508,1,36175654.0,820483067.5750718,19187381.496044576,574300838.9035931,18868678.0,378181234.99378717,22295962.0,92631324.81483924,2274626.0,23073685.465087056,24570588.0,34051581.90955138,-1191082.0,23461452.484150395,23487044.0,148326973.71664122,-1191082.0,37018432.65161344
21,595,3,3642433000.0,4706225267.4258,1611617055.0351417,2602639578.185256,2307595000.0,1526847849.1638837,392263000.0,490331488.0448889,1442178000.0,1067264769.1940031,1834441000.0,1350267557.1767583,185633000.0,119206515.26326108,1648808000.0,740028083.0681286,-1256545000.0,46413747.35066573
323,1596,0,102171000.0,4454117721.335053,80142000.0,2936335766.5033236,22029000.0,1803406523.7637682,11994000.0,115060956.21495974,1280000.0,33271062.557339787,12084000.0,39150666.469954014,-8453000.0,-2395666.8618219495,20447000.0,147051013.97245297,-8453000.0,15673717.280208185
1847,665,3,11562769000.0,7894388758.354898,8634392000.0,4556586283.749653,2928377000.0,2531966563.4964495,696915000.0,901323118.91625,4617768000.0,3621471432.9034743,5314683000.0,4689775205.470626,87484000.0,130069894.68654375,6096071000.0,2679614289.5554986,-5399156000.0,-19897408.011491135
1304,233,0,1061958000.0,4632799063.650604,603583000.0,2864221968.855193,275904000.0,1827711588.2385519,75380000.0,143576761.5040943,85007000.0,127374047.77849448,160387000.0,157324089.5629965,19279000.0,23620423.930450752,56101000.0,168156049.36066717,19279000.0,24290835.08577121
1031,1045,4,1709464000.0,2158927602.3608074,792444897.6724385,1367401166.658862,917019102.3275616,635666265.9881482,-50089000.0,209881364.02098384,206500000.0,145898755.34545988,156411000.0,266017656.43197143,62554000.0,28891747.19151239,32611000.0,177729327.19628194,-82700000.0,15351641.150109418
1109,886,3,1182200000.0,3160887750.6210833,559672263.5892134,1480526695.3633528,993300000.0,1029377442.2347698,77500000.0,229012179.20805964,102700000.0,216468300.58823508,175100000.0,316832961.4223939,21600000.0,34353207.5612472,55900000.0,199452699.25329214,21600000.0,50860210.93649402
1483,86,2,15318000000.0,12271130799.32954,8995872209.433592,6435842663.770769,2835000000.0,3228991888.960847,2220000000.0,1828431841.2620635,7363000000.0,7411241873.692233,9583000000.0,8074797944.248842,348000000.0,212147203.16876906,1879000000.0,1725742643.0071454,341000000.0,94613346.46708174
739,955,4,2898416000.0,970781971.0350509,2080781000.0,765399398.9423923,476998000.0,105457300.69368148,19746000.0,93834901.00259954,-19746000.0,19520263.343401432,0.0,20611124.833479524,-16089000.0,-3487849.0097994655,35835000.0,123529957.0360493,-16089000.0,15822251.280882388
1565,624,4,37777000.0,953650536.0888896,8088000.0,641324470.2171779,29689000.0,118915254.70182955,1942000.0,107034553.53278333,1878000.0,25225447.501234293,3820000.0,22660670.88871336,-3377000.0,-7388346.96349901,5319000.0,130407366.29504803,-3377000.0,29190318.945116617
1547,1221,3,350115000.0,1388755027.7225494,124447000.0,1034825490.5374403,144501356.0121529,756695087.7371868,23341000.0,156602453.52697718,74465000.0,152847142.82487953,97806000.0,184348790.6833868,1273000.0,29129075.327043474,21144000.0,158920727.44824213,2197000.0,61350653.10316065
1772,120,3,60756000.0,908099166.4919157,14120000.0,575888967.4088602,46636000.0,718946435.2048506,39398000.0,95738128.463027,0.0,10515787.432502031,39398000.0,74560681.52280152,1277000.0,14311559.37256506,38121000.0,125899220.13327083,1277000.0,27169222.53257274
396,430,3,2329417000.0,3095364989.684171,1103945000.0,1836616805.2677917,1225472000.0,1113633765.7046704,201803000.0,268687848.624256,84310000.0,245242739.408777,286113000.0,387216794.00898147,4458000.0,47632773.85927945,134794000.0,213309046.4398052,67009000.0,59624439.18886877
370,1317,2,322707000.0,1636811049.405972,203952000.0,1121580913.666944,133189378.04611006,660898087.6852195,59563000.0,147361642.89347363,32549000.0,141470643.90244013,92112000.0,157125063.26533425,2829000.0,33740469.30033094,56734000.0,100927285.34753138,2829000.0,91307728.11905983
1387,145,3,16986396.0,516730958.2681942,28398941.0,238463533.03550434,7976898.609990532,359844021.93914115,-2992.0,6945629.590036511,2987192.0,-18617792.96251762,2984200.0,-6095930.859002948,-2823081.0,-4738842.275338337,2820089.0,77642022.88209242,-2823081.0,-16659245.7679144
1633,383,0,5507733.0,4395042030.787228,3754986.0,2752921493.3462353,1752747.0,1803406523.7637682,77969.0,73155742.65035951,690.0,-6896369.085919261,78659.0,67263.51838183403,-1288944.0,-6474622.890616357,1288944.0,81702041.5187267,-1210975.0,-2373821.3137701303
1459,1331,3,2951779000.0,2386830126.069386,1733504809.66769,1611594054.120507,-705417000.0,1145199386.217937,103159000.0,237734825.46687588,95357000.0,194813318.85770255,198516000.0,350054989.4725578,63542000.0,55473738.866924815,39617000.0,166492971.64147356,63542000.0,58946905.27469151
447,1571,4,1389340000.0,2320394898.387863,870172000.0,1828980724.913679,518687000.0,884564032.4581143,122910000.0,240070456.7920919,509918000.0,310862795.900613,632828000.0,438152772.48683226,77637000.0,42646268.532354586,35836000.0,185410621.4461609,87074000.0,40303632.6697768
1342,580,3,670100000.0,1181140870.5226798,96919000.0,650507242.786046,573181000.0,692168663.3618114,45369000.0,100574838.09429693,10723000.0,33642799.479043126,56092000.0,119114455.66010785,-44376000.0,5924840.979184732,100468000.0,149579734.43188754,-55099000.0,-3447994.3338625133
1101,415,3,796235000.0,708167366.6743989,203741000.0,777040228.340024,463390000.0,467129057.3641633,475000.0,91533727.24244696,0.0,9348910.295407891,475000.0,45189302.827498555,-25797000.0,2707776.3495308906,26272000.0,122274374.95804814,-25797000.0,28880556.819973156
1559,790,3,243654000.0,719305143.5915236,108112000.0,426052484.2198429,135542000.0,490971499.8283106,37230000.0,48073317.70181823,3845000.0,2651062.6743941307,4798000.0,56042143.12484968,-21869000.0,-3996674.8168206066,59099000.0,120087468.95863968,-21869000.0,8245159.247070052
1859,667,1,63057347.0,826422012.8807678,37031977.76980746,550674745.217401,50373559.0,374691740.58921134,5114390.0,98310381.93772405,9540399.0,29140915.807098985,14654789.0,29371785.63414812,3126608.0,19625713.387920305,1987782.0,155421130.20506614,3126608.0,38917082.75757184
625,466,2,2120798000.0,2188060549.221852,1472395000.0,1099703816.581359,648403000.0,625990284.9103812,67913000.0,146365751.25119913,30767000.0,181196860.29592198,98680000.0,128800889.02195382,-9629000.0,15609679.717192888,77542000.0,135458212.14597592,-9629000.0,90314579.48508525
1728,343,0,706517000.0,4881222833.530142,905805000.0,3159620130.1323543,-199288000.0,1867950983.5834708,73709000.0,204805549.73400936,16853000.0,158217380.43726683,90562000.0,239179941.19939208,38915000.0,26806130.027168065,34794000.0,164819930.6966974,38915000.0,20523156.60525932
1404,413,0,76126346.0,4442195966.552611,61120101.0,2692648254.527054,15006245.0,1803406523.7637682,2282652.0,78114265.11814481,31006950.0,18850120.73196578,33289602.0,25518841.697966695,-2890968.0,20612945.64083965,5173620.0,107504042.1684308,-2890968.0,42661144.89089
1515,1449,0,156303000.0,4479816943.378986,83901000.0,2746179132.29608,72402000.0,1803406523.7637682,17689000.0,112755920.8000642,41469000.0,58610050.27712202,59158000.0,87892003.06743205,-2517000.0,19278317.222649798,20206000.0,131949200.78582576,-2517000.0,46993050.97349435
1800,1493,1,3271200000.0,3243105358.6171713,1447362713.447565,1866005504.2418003,-21400000.0,1511590255.8940086,31300000.0,285251506.2975076,847700000.0,827897597.7595078,879000000.0,968737590.6857464,-16400000.0,88267766.86870503,66600000.0,246963763.3944931,-35300000.0,52772888.497559056
4,1448,1,7361000.0,517667861.18576,2671000.0,150155640.03339815,4573903.262590003,306608393.5080731,349000.0,72855503.80223638,109000.0,11694339.339342594,458000.0,-8418446.381142378,-670000.0,9319022.154139742,1019000.0,118154296.23770416,-670000.0,6897937.359419439
1400,1011,3,-4860602000.0,662496713.6024685,-990657000.0,46574817.68437433,-3869945000.0,1239481080.3118339,193881000.0,272234193.4301644,378009000.0,388655029.2209685,571890000.0,718420972.262325,36078000.0,58094823.033860296,124685000.0,220514703.09044966,69196000.0,64925269.335684314
617,1,3,5475000000.0,5533345725.914283,4861300000.0,3016281650.1665225,613700000.0,1614375219.0604038,130600000.0,407110127.3457515,1421300000.0,1006741570.7265359,1551900000.0,1266846745.0398068,23900000.0,100693795.79348645,81800000.0,217951218.88952398,48800000.0,62558182.8038933
570,1413,1,9643000.0,796597849.4452457,6164000.0,408408111.8014455,3479000.0,356302000.75097394,1843000.0,82480728.18513572,2246000.0,35827041.79146075,4089000.0,9345328.139348745,-437000.0,14320547.645967096,2240000.0,134310146.88726753,-397000.0,32210022.580482773
2015,916,3,12012800000.0,4168145673.5467167,6608200000.0,2596757683.05322,4911800000.0,1528390095.1554778,457000000.0,311215726.32998955,316800000.0,338959573.64187074,773800000.0,623468239.7405471,145800000.0,88113183.52710027,203500000.0,216010595.52116656,253500000.0,62558182.8038933
576,313,0,6644800000.0,5385431604.914338,3248100000.0,3279259455.511654,2786600000.0,1942016485.6667135,345800000.0,350885429.28216684,33000000.0,339642501.1065842,378800000.0,658335319.1833732,36000000.0,83385352.86482818,342800000.0,300378677.33381224,3000000.0,58578692.93224638
1397,1258,1,136174000.0,1011032646.3886452,62163000.0,598819747.575839,72304000.0,414102298.7102605,10072000.0,96248814.40721643,-3712000.0,28077127.506647944,6360000.0,45050420.38608754,-12604000.0,15192954.163752764,22676000.0,188119256.8754928,-12604000.0,11120622.13161999
1134,408,0,160043000.0,4355792167.318259,101422000.0,2753852054.563716,58621000.0,1803406523.7637682,15202000.0,93328758.57547289,-14386000.0,3258619.64086318,816000.0,55565107.00189686,-14398000.0,-426823.8253264278,29600000.0,175511730.13423675,-14398000.0,15416448.297144458
188,55,3,9282000.0,581900674.0496874,3493000.0,473582011.2643609,5789000.0,380716049.5807594,355000.0,53908471.75863069,552000.0,6438157.590322614,907000.0,6128180.6934610605,-972000.0,11599065.781654656,1327000.0,98077585.03985506,-972000.0,31211643.678095445
488,1314,0,16124000000.0,6162170090.54329,13383000000.0,3806952056.305852,2741000000.0,2025114205.9336221,5251000000.0,1145038180.5391235,4961000000.0,2193693092.993471,9233000000.0,4645763663.179352,1583000000.0,342258974.26520604,3668000000.0,847873799.4017313,1583000000.0,58405545.942729875
1211,1483,1,1601068000.0,1802043322.6330914,1081707000.0,1571680871.8878365,519361000.0,804052790.8702964,248876000.0,211369046.43354607,-34521000.0,178875546.33793932,214355000.0,331730612.2138456,19006000.0,38879981.92104518,229870000.0,192807499.5915727,19006000.0,45332015.981127605
1580,1585,1,779622000.0,1716624586.769948,153452000.0,1262871182.0666852,626170000.0,846981926.4540426,134561000.0,173895547.4430876,57608000.0,213532385.24494654,192169000.0,278699835.3185482,56917000.0,39998841.2473014,77644000.0,175795011.1812651,56917000.0,53004699.76373701
1533,494,4,4162272000.0,3096820329.005365,862254000.0,2215280900.1748967,3299439000.0,1984563470.0529604,357871000.0,311258693.0642973,794265000.0,561222773.6644809,1152136000.0,872246466.6362894,114028000.0,86392245.43652873,194829000.0,239155205.07089382,163042000.0,43419381.78308093
818,276,2,13900400000.0,8603865505.97828,12204100000.0,3936155906.602886,7319729781.089915,2942451690.396998,78200000.0,393739968.4408436,235100000.0,581550812.5170958,313300000.0,1185181516.676911,174900000.0,63369940.64913113,116600000.0,283280564.3545209,-38400000.0,93402052.7014551
50,327,1,594022000.0,1345057868.3639355,132343000.0,1196290240.3252468,461679000.0,559656904.3421823,121956000.0,131684739.47268933,1645000.0,110975027.45251513,123601000.0,117675729.32081604,31177000.0,22095807.136998415,45262000.0,187523204.38547558,76694000.0,-1212240.785670802
590,539,4,1341960000.0,2029726218.9451156,666970000.0,1566214057.2419198,674990000.0,635985479.5270643,55930000.0,202836518.9782315,179410000.0,177234191.15277243,235340000.0,306095691.73283184,23760000.0,30171611.23290611,32290000.0,179709027.73710164,23640000.0,40303632.6697768
377,101,2,52901000.0,1043562925.3558216,24522965.98920461,855463005.8129025,33404000.0,263855644.77087367,-1183000.0,100843042.19407994,24144000.0,23368155.43198371,22961000.0,39224501.723034024,-5692000.0,14456874.271390721,28653000.0,67728661.36294553,-29836000.0,91741087.24125817
1953,83,0,877565000.0,4840794349.021843,1336553000.0,3105312114.155699,-475192000.0,1867950983.5834708,522812000.0,239123266.30475044,-345617000.0,196100694.2271856,177195000.0,468358395.6021832,31868000.0,49154070.137546696,490944000.0,256209368.590948,31868000.0,53951709.84246889
1018,1295,4,26568400000.0,22338940632.072197,13080400000.0,11868355301.83255,13246000000.0,8648689908.129364,1346200000.0,640179225.9644223,1952200000.0,1468028944.299635,3298400000.0,2779545314.2668486,592200000.0,343898833.4985174,746800000.0,360398421.8674443,599400000.0,43175443.1811481
709,1565,0,2933971000.0,5178788885.739466,2618511000.0,3111022101.4981356,315460000.0,1867950983.5834708,65062000.0,296499715.38834906,2191000.0,284869432.7454797,67253000.0,467934050.6538992,-143265000.0,30111671.601209566,69951000.0,211067299.62897506,-4889000.0,45734268.6140248
1121,428,0,27828200000.0,10953906869.684574,13810622382.415062,5242330985.110042,7212400000.0,2535707878.3973427,821300000.0,807963603.0045733,181300000.0,516050957.6211842,1002600000.0,1674777739.849161,233000000.0,137318655.37009734,794400000.0,544967847.9781317,26900000.0,59354137.63356353
1026,720,3,2788943000.0,3401541627.460479,2662320000.0,2278121089.233591,126623000.0,1304947770.3723192,299166000.0,299105305.84877443,0.0,196171494.52365124,299166000.0,577582652.9832852,-281667000.0,33675985.28430562,580833000.0,253776536.30434924,-281667000.0,41215946.5562143
1015,836,3,2489159000.0,3579235460.705288,1954765000.0,2494309281.6056633,488897000.0,1274394411.8570664,294443000.0,340709631.32923675,370069000.0,505073400.2127663,636496000.0,774697868.0664387,64600000.0,73803571.19143058,229652000.0,236915964.4411937,64791000.0,62945297.53679618
1575,234,4,11961066.0,822509115.3626723,1068497.0,54144562.676361084,10892569.0,8821467.843369484,611174.0,69674844.02849638,0.0,-15489891.69467473,611174.0,-24399552.547942877,-1146685.0,-15225310.75089638,1757859.0,105052975.15313944,-1146685.0,-15186755.71594347
826,674,4,93941000000.0,56414343410.99361,39446000000.0,24062153353.324135,53466000000.0,27968718556.456615,4178000000.0,4119504948.386885,15656000000.0,14254455842.237537,18582000000.0,23440724864.820644,1764000000.0,2555465580.6179976,2414000000.0,1789635487.2972,1764000000.0,756190864.187793
463,1303,1,32097000000.0,25299831004.519,20419000000.0,12582050830.91089,10658000000.0,5210999416.6047535,2071000000.0,1359744924.2867641,6360000000.0,4150908553.544012,8431000000.0,6743082005.48138,950000000.0,525037793.6904194,831000000.0,383999592.2363448,1240000000.0,353753655.24490803
1660,1073,1,6578196.0,734244706.5151234,4441488.0,339896530.80292034,2465776.0,343676546.1008704,2008368.0,74877482.58090776,923641.0,12749707.059359074,2932009.0,-316048.4363486767,-1328968.0,11672298.780816242,3337336.0,159299079.3450863,-1328968.0,-1522083.5931053087
700,1026,3,1658042000.0,2103854433.3864832,1223260000.0,1628343135.9268017,434782000.0,1108607474.6480315,207698000.0,233631949.08968428,674127000.0,263677206.35990047,881825000.0,341650191.4765458,25549000.0,38053178.42444391,179614000.0,184899414.20821497,28084000.0,63433849.058692105
402,1575,0,9094896.0,4446181363.624355,13593163.0,2665240969.2870054,-4498267.0,1827711588.2385519,-928960.0,75526047.03329247,1115703.0,6759538.241878748,186743.0,57944968.07745433,-5136642.0,13464510.420785114,4207682.0,145894236.3907607,-5136642.0,31512084.688029706
591,1551,4,16788482.0,899529591.8652225,821758.0,55031718.8181119,15966723.0,94460626.29103696,906228.0,69846019.99444765,333325.0,-11756957.546736121,1239553.0,-20840855.852267504,-1096396.0,-15214740.249955326,2002625.0,118718147.26189339,-1096397.0,-26267253.02524756
412,240,3,1678241000.0,2751689309.0704374,730813000.0,1395315078.2372262,947428000.0,962391264.2092758,62311000.0,210630830.61920294,89643000.0,216029878.0908966,127553000.0,261272247.5992874,-24195000.0,25589818.8367718,86506000.0,183324419.1320685,-24195000.0,49063667.554070994
26,1187,2,1363308942.0,1839637837.3154626,629855415.0,1153364209.3402805,733453527.0,827615149.076432,93681798.0,200240385.23090464,0.0,163678758.2241158,93681798.0,167433182.37005603,39573525.0,38092860.6738124,54108273.0,133572548.35955492,39573525.0,91307728.11905983
205,805,3,15264467000.0,10615341415.734018,7226441209.924589,4607283358.659936,3059451000.0,2642489838.5873327,592816000.0,542985387.5069058,378076000.0,675463969.5280677,970892000.0,1558590313.754382,444977000.0,125415881.7119868,147839000.0,284319599.8466248,444977000.0,62558182.8038933
699,612,1,65987000.0,876913385.5903745,35279000.0,565850690.5237656,30708000.0,437397562.2167076,5319000.0,98584861.43749094,28050000.0,31935370.68290043,33369000.0,43606921.29791641,1124000.0,25062005.783496886,4195000.0,151734198.85567293,1124000.0,39842571.27373198
550,144,4,31945000000.0,28754494869.582268,26424000000.0,20355909105.574104,5506000000.0,5627747539.261543,1191000000.0,884107856.6025219,2895000000.0,2360087805.5842276,4086000000.0,3594416373.3508954,834000000.0,414683551.1037559,357000000.0,323756080.3201542,834000000.0,41374924.67554033
140,755,3,2655001000.0,3024783465.1984997,1989549000.0,1869216983.4901834,665452000.0,1208545405.841698,67554000.0,309464206.39924896,403267000.0,387721638.08579326,470821000.0,490067255.26570845,-3426000.0,67020298.029090494,30096000.0,199151975.78631234,37458000.0,58310431.18904018
2004,1576,4,9403000.0,899282399.4955215,5511000.0,189991986.17426872,3892000.0,29785614.326215625,-48000.0,67848214.04322666,1387000.0,4364153.1917696,1339000.0,-13762510.48845303,-903000.0,-9034401.681721449,855000.0,110197152.86561373,-903000.0,17475162.10646087
28,81,2,551232000.0,1531015623.298452,628224000.0,833716750.1532269,-138322000.0,408298156.90091276,23716000.0,123433488.07410961,12709000.0,75828414.69087434,36425000.0,79693204.31603515,7478000.0,23235131.70220156,48579000.0,97767392.29388407,-24863000.0,91465410.87803124
844,1555,0,435750000.0,4588001289.432598,62826000.0,2788964903.7624035,372924000.0,1827711588.2385519,28152000.0,122245215.17602217,49267000.0,64978889.59407973,77419000.0,81572319.37922907,143000.0,22793264.566241592,28009000.0,124885565.84767258,143000.0,41573446.26216403
967,685,3,367699000.0,1282763572.9786701,382822000.0,879935430.0720224,-15123000.0,688636785.4549984,310000.0,130320529.05907303,0.0,31462420.388288975,310000.0,116987610.41989195,-47413000.0,2667714.462274283,47723000.0,145973686.02628767,-47413000.0,34337520.46815718
433,467,1,3810682000.0,2911936233.174958,2050315000.0,1154704116.9839942,1303319000.0,988378132.3438231,110314000.0,188603875.99606368,71850000.0,268890279.31205857,148990000.0,413321384.7959728,11661000.0,40142704.63356254,98653000.0,223684791.80655295,11661000.0,11739074.377232928
228,1385,4,2333529000.0,3040397440.689227,1032484368.2283514,1807734564.7511814,1202771000.0,1056911284.356801,71236000.0,228904879.1485904,490990000.0,329458868.690863,562226000.0,561225659.1697304,19517000.0,46601680.34784075,46091000.0,201473219.9335156,25145000.0,41278699.29755509
1855,1286,3,20737275.0,976365148.7948546,10788720.0,351574810.0215845,10368036.0,822842218.1185462,562564.0,20351929.22184789,77061.0,-46175046.1966629,87201.0,-1369686.3673189878,-4142505.0,-10360100.008807868,4705069.0,159852895.12137863,-4142505.0,-33442040.317233637
776,1406,3,386844000.0,1228622813.013648,412960000.0,1068545184.5722146,-26116000.0,640054486.2669092,16927000.0,148292742.15846783,91131000.0,91312120.49777591,108058000.0,136767368.4674145,-813000.0,27438817.951108858,13060000.0,161849933.7933493,3867000.0,54895550.53551374
839,358,0,6911775000.0,5673704154.12629,5109042000.0,3381912415.2090993,1802733000.0,1942016485.6667135,225256000.0,396988725.27363384,195092000.0,376503303.5374545,420348000.0,723268536.9619889,132530000.0,73858491.22418115,92726000.0,247077723.51995388,132530000.0,59354137.63356353
793,1300,4,2883631000.0,3249179200.3467174,1772390000.0,2016450003.8389444,1110345000.0,1144235311.997346,319055000.0,241523033.508808,1257690000.0,1160967473.772912,1576745000.0,1285175615.4532082,38222000.0,85391693.19474977,280833000.0,268100133.71577302,38222000.0,62249344.29936795
820,1015,4,133032000.0,1273106552.4139771,232711000.0,1056153020.3125963,-16246000.0,411767152.84374404,12296000.0,148334138.87693167,62277000.0,120274688.71614945,74573000.0,188192771.39710987,-14749000.0,6159183.659633055,89322000.0,168425144.1025211,-77026000.0,30576840.027593732
2016,1233,1,296638000.0,1268911979.3416996,208509000.0,948940350.9885662,88129000.0,566373445.1043165,7319000.0,131595203.3489179,0.0,51157386.324844,7319000.0,81546520.03415346,-46633000.0,17409366.912406832,53952000.0,169115134.11836195,-46633000.0,42469296.12806444
1438,8,2,38809000.0,1012081320.1293974,43090000.0,843323620.8484235,-4281000.0,202995536.5736153,7318000.0,85573036.10272646,25818000.0,85560357.2716304,33136000.0,99558805.47571552,-933000.0,14348492.785880193,8251000.0,64189940.42417979,-933000.0,92434846.99442409
866,1517,1,2376172000.0,1855458693.5982223,1870972000.0,1427844193.1342263,486613000.0,931160287.394366,-5214000.0,170692279.6447042,182832000.0,252859206.88523346,304976000.0,379818165.9132954,-103708000.0,33685259.07070218,98494000.0,224192545.7754081,-103708000.0,42687645.29652863
689,516,2,3719784000.0,3664790292.9076676,3332984000.0,2112325562.3797436,286813000.0,1518179903.9343429,2618169000.0,848323469.0240989,-531777000.0,355284973.5687522,2086392000.0,1145925330.2521648,44074000.0,60938206.551733635,2574095000.0,1571903438.6885169,44074000.0,93402052.7014551
919,1156,3,1537935000.0,3449601910.980265,1281456000.0,2024569731.9945126,256479000.0,1102267766.8397477,229699000.0,285986196.32470274,0.0,185965927.5429374,229699000.0,481580012.060225,-26947000.0,25225315.737229943,256646000.0,226422551.9382767,-26947000.0,43101242.404005244
1827,1294,0,1182488000.0,4674169009.574964,303489000.0,2908678213.8583193,759221000.0,1827711588.2385519,56265000.0,181921704.94363463,333008000.0,206759563.92313337,251870000.0,281029631.66607904,16750000.0,39893453.67799547,39515000.0,157785931.60305718,16750000.0,52535431.30262128
1182,296,2,8225559.0,581983424.5591292,12447189.0,555138490.4503741,-4221630.0,-5980326.163588524,17564.0,29756749.37632042,106922.0,-12540711.001706481,124486.0,-4820473.023567319,-8095209.0,4756153.699392974,8112773.0,41902828.73490441,-8095209.0,91656912.35099581
