epiphany24262/financial-performance-prediction/results/oof/m3c_catboost_direct_history_metadata.csv
Id,group_id,fold,actual_Q0_TOTAL_ASSETS,pred_Q0_TOTAL_ASSETS,actual_Q0_TOTAL_LIABILITIES,pred_Q0_TOTAL_LIABILITIES,actual_Q0_TOTAL_STOCKHOLDERS_EQUITY,pred_Q0_TOTAL_STOCKHOLDERS_EQUITY,actual_Q0_GROSS_PROFIT,pred_Q0_GROSS_PROFIT,actual_Q0_COST_OF_REVENUES,pred_Q0_COST_OF_REVENUES,actual_Q0_REVENUES,pred_Q0_REVENUES,actual_Q0_OPERATING_INCOME,pred_Q0_OPERATING_INCOME,actual_Q0_OPERATING_EXPENSES,pred_Q0_OPERATING_EXPENSES,actual_Q0_EBITDA,pred_Q0_EBITDA
196,314,4,1192950000.0,2341006571.8763433,1055816000.0,1782014062.2754805,137134000.0,680580276.2092643,25598000.0,184459231.8180942,61899000.0,309954020.13119704,42992000.0,338773671.4850638,15222000.0,50059124.82338193,10383000.0,222779765.62975848,15215000.0,28642159.40018358
1568,1318,0,1219954000.0,4423747010.233393,835046000.0,1828711455.314144,384908000.0,1900737640.5912087,111786000.0,256318098.75420097,217796000.0,346536356.92447823,329582000.0,521023488.8484229,28908000.0,77856319.02076355,85522000.0,220875800.5956897,26264000.0,75774249.06294085
1218,1523,0,-135820000000.0,12171248985.532543,-37972000000.0,11786967071.73244,-97848000000.0,2194992075.8596334,-435000000.0,1629558225.6793954,4445000000.0,4414751571.156588,4010000000.0,6185304710.24505,-1472000000.0,366014493.34083843,219000000.0,655357247.2784152,-654000000.0,67418063.9613341
23,1421,2,83298000.0,1434875518.3110023,16040000.0,1053110048.1928768,-31633000.0,377764962.73224044,494000.0,129466511.75091797,3339000.0,146205609.98341054,3833000.0,239393381.40476406,-12348000.0,9935194.59561111,12842000.0,168621598.25901484,-12348000.0,55391442.778201014
783,1306,2,148546000.0,1633123744.7575116,56555000.0,1145777910.0104413,91991000.0,390545085.2904717,1761000.0,146781426.96655214,-2375000.0,171063665.61951566,-614000.0,257253984.42458785,-10098000.0,12471852.175372168,11859000.0,176216203.332233,-10098000.0,56030157.343556955
1251,1292,1,7304300000.0,5279256263.898103,2451900000.0,2772067127.285979,4830200000.0,2550325951.360821,578200000.0,392930573.48007333,581100000.0,651443636.0151477,1159300000.0,1158084014.4490001,245200000.0,167162848.99795896,333000000.0,308631863.52299976,245200000.0,70065040.6929947
1224,1572,2,1976905000.0,2638398908.958355,699909000.0,1794468058.0397243,1276996000.0,811841918.2323794,53993000.0,240875552.5016479,315825000.0,368175028.27810466,369818000.0,548535032.6139574,-1572000.0,45664833.1305442,371390000.0,231708417.7284943,-317397000.0,61293680.64716255
1410,638,0,2097274000.0,4526831369.654142,1132234000.0,2748414813.191394,965931000.0,1900737640.5912087,70481000.0,324499615.2974187,291052000.0,438050427.81702596,361533000.0,580910492.4435,58709000.0,69401297.70133151,11772000.0,258850994.93205836,58709000.0,74049289.9452494
529,10,4,31183000.0,1576724620.255118,15926000.0,1177488281.9708688,15257000.0,432334850.73078287,2456000.0,137241287.43867397,2151000.0,175519995.41303766,4607000.0,223706582.27510095,-2931000.0,28197363.921411365,5387000.0,179689155.6027633,-2931000.0,30339179.55930894
730,598,0,978523000.0,4144741085.0039644,851196000.0,1491866811.5639842,-94184000.0,1900737640.5912087,24321000.0,205306294.29853672,137937000.0,243027056.51889813,162258000.0,460388085.57249284,-764000.0,33149704.72395584,25085000.0,232140779.11684656,-764000.0,66761504.352955565
1590,740,3,27253000.0,1597174319.7715478,14465193.072010836,1171803285.1736045,12787806.927989164,437719636.49402213,-17000.0,124148234.3166399,17493000.0,138061548.2376827,17476000.0,252829233.76345897,1196000.0,17901169.94519013,138000.0,123906652.84378687,-155000.0,98511996.54332371
367,140,3,798398000.0,2192714458.8534145,795372000.0,1434630797.8944314,3026000.0,890297019.0593728,37121000.0,210437443.1578928,256160000.0,318166042.13239026,293281000.0,451143167.13050246,10257000.0,33280744.095050856,26864000.0,164679644.98446807,10257000.0,98511996.54332371
636,741,2,1059052000.0,2432890721.5529475,883921000.0,1815894335.4019182,175131000.0,915253537.7655677,91945000.0,246783002.41181508,202788000.0,342531607.8927808,235132000.0,490197237.3728548,-287000.0,44013212.37306682,84957000.0,205458288.91939884,6988000.0,58830585.78777021
1270,1352,1,11069000000.0,6959481605.422903,5919000000.0,3217250480.2718635,5105000000.0,3065417665.5297785,727000000.0,445649334.8397294,1752000000.0,982020125.400368,2479000000.0,1742300454.473296,462000000.0,189692758.222646,265000000.0,292552500.7070657,462000000.0,69940245.85437156
102,263,0,12331000.0,3664437795.716303,10875000.0,883857902.2511659,1456000.0,1876015074.0246158,1472000.0,113974012.75702363,1968000.0,137376649.3452208,3440000.0,263594173.9782163,-4166000.0,31812873.846098274,5638000.0,147666155.36476198,-4166000.0,62512799.73640056
1658,1092,1,180372000.0,1880690941.1037583,121221000.0,1544041131.6765416,30642000.0,446386382.21636057,18014000.0,178362998.45147297,31653000.0,195674119.90631288,49667000.0,292262512.03039837,-11599000.0,44219948.52104005,29613000.0,222797908.4667829,-11599000.0,61897568.36911226
6,33,0,2319806000.0,4854307192.323834,1534495000.0,2773472582.3578343,785311000.0,1900737640.5912087,376397000.0,374294304.1912037,415254000.0,528522109.79224473,791651000.0,824193253.4793556,93430000.0,89759198.15516992,288680000.0,262384876.70608813,87717000.0,76055434.58322203
1147,1055,3,19295025.0,1377874508.2636309,28370931.0,1069330207.4369581,-13369686.0,406006548.07320464,2067435.0,112334204.16666394,4847499.0,120543949.42997652,6914934.0,233636209.11974728,-1108124.0,17579357.186090082,3175559.0,119813471.35876966,-1108124.0,99507152.29172762
114,1011,2,3549408000.0,3710360251.969091,2109262000.0,2209921161.4077835,1440146000.0,1299967436.0280128,264579000.0,345430375.25313425,494402000.0,496864639.6992501,758981000.0,725515424.5517014,58594000.0,70171174.05084354,205985000.0,284831017.4444355,58594000.0,62146999.2356452
139,1334,4,331401784.0,1749342714.7158437,56254670.0,1345370025.1092794,275147114.0,487783475.7967248,17982150.0,151400647.38611838,0.0,177828784.8729372,17982150.0,245973977.97373033,-40215832.0,23211672.026652724,58197982.0,222813558.387723,-40215832.0,27365976.9005867
411,814,4,5533000.0,1551940392.830875,4648000.0,1104089614.6060686,885000.0,432334850.73078287,-1669000.0,128182524.32394126,2438000.0,167681496.60183614,769000.0,213953976.2712127,-6339000.0,23611734.283015355,4670000.0,195101151.57285583,-6339000.0,23843173.350789722
681,761,2,36550000000.0,24335766113.617695,16943241279.095451,10737343293.026909,15250000000.0,8164802165.293999,577000000.0,633178301.2835834,3467000000.0,1521699904.896561,4044000000.0,3148553043.524913,714000000.0,281966989.2403446,627000000.0,415047269.9600898,-50000000.0,60847724.07591333
1671,696,2,100449000.0,1570377254.3356452,141057000.0,1130900749.5317874,-40608000.0,402886068.5851289,-171000.0,143998736.1738963,512000.0,188921894.92231447,341000.0,273182844.77437127,-48297000.0,10416456.499919057,24344000.0,198835471.00240168,-24515000.0,57226207.59703237
500,1236,2,10599934.0,1382240607.5326571,26203416.0,973986495.7445669,-15603482.0,317875786.41858995,-6219.0,114736319.74540919,193120.0,129374351.62248915,186901.0,205154293.6104697,-1076399.0,11069925.225848988,1070180.0,157350399.73568976,-1076399.0,55391442.778201014
1203,449,4,13322000.0,1701462229.659184,67881000.0,1257753130.2441823,8277888.77383834,548064642.0643066,3223000.0,141382115.58709562,1889000.0,197152594.68245596,5112000.0,249434118.29995704,-3552000.0,30424600.266395047,8664000.0,248665296.61917314,-5441000.0,26381839.722488362
180,11,3,635001000.0,2615928219.6502914,115305000.0,1711202093.3032131,502273000.0,996417248.4194994,21465000.0,220614435.68514833,40457000.0,259595504.05226856,61922000.0,415399694.9771584,-143360000.0,14039003.080945387,205282000.0,192362185.3253147,-183817000.0,100607541.44827299
1960,1026,2,2672864000.0,3508608495.3480835,288913000.0,2450722337.0941806,2383951000.0,1483345682.3358665,132902000.0,317495699.8428592,168499000.0,440027485.3163948,301401000.0,697594405.3796597,55706000.0,58001849.52548311,77196000.0,235311626.69055092,55706000.0,63798379.8593258
356,863,0,8388335000.0,5701037680.241822,5163154000.0,3491118854.486141,3225181000.0,1900737640.5912087,313343000.0,475279661.4100141,687959000.0,610456894.2536075,1001302000.0,1106431549.0684865,116260000.0,108529776.21641429,85661000.0,300312318.7321168,227682000.0,76055434.58322203
1646,1578,1,1563399000.0,2449334364.7932687,1445358000.0,2002645751.799543,-136248000.0,838739145.9968367,72333000.0,236554190.15287086,116682000.0,301755705.95439875,189015000.0,483809458.64860237,23506000.0,50004448.80896324,11423000.0,248440383.86473894,60910000.0,65971854.65457535
1793,1064,4,320019000.0,2807227105.1742125,126984000.0,1730057527.1120589,193035000.0,996391844.1047596,177377000.0,247921029.42011374,58492000.0,265024483.2842716,235869000.0,447722767.08201027,25509000.0,64289442.75975378,151868000.0,273722616.14345515,25509000.0,30359714.968099132
235,94,4,0.0,1507265942.5572839,0.0,997270997.1696217,-804876.0,432028827.2600225,0.0,133144201.7933076,0.0,150903358.51287526,0.0,209460699.79446435,-14550.0,21543854.64558152,14550.0,157867187.39283526,-14550.0,17637367.435158394
1668,245,3,267194000.0,1840873135.620625,175308000.0,1373197506.6724505,91886000.0,539068651.7749943,5103000.0,189170496.77048063,0.0,176123875.59585905,5103000.0,287402253.05300224,-32762000.0,27047579.250963554,37865000.0,147052379.14717242,-32762000.0,101296440.65810183
1456,1010,3,2249377000.0,3779185816.21872,1923326000.0,1939145405.5915043,326519000.0,1412352915.3023162,-76300000.0,293568860.4168899,416103000.0,465627154.4494912,339803000.0,675107407.8209118,34941000.0,49313819.91202894,184914000.0,232291970.1013668,-261214000.0,100607541.44827299
1291,1021,2,396890000.0,1862613916.4324307,107071000.0,1232965957.6341617,289819000.0,513393208.848835,52569000.0,184630440.5103019,13634000.0,224248707.34668916,66203000.0,342912264.7247659,8375000.0,25021309.037577122,57828000.0,212986278.5496991,-5259000.0,55846668.71715461
1376,1176,2,7827000.0,1519318786.0623574,4744000.0,1032602337.7481074,3083000.0,415297782.6737306,1288000.0,126084199.3708461,867000.0,156668518.96797436,2155000.0,236085308.72350144,-3880000.0,10737398.481140167,5168000.0,168045249.31157535,-3880000.0,58454895.02699328
1702,1493,0,11990000.0,3680437480.6198072,3030000.0,844220686.3703566,8960000.0,1876015074.0246158,1480000.0,113275267.04778701,3017000.0,140651668.42304444,4497000.0,240659845.93506467,-944000.0,33795513.742343396,2424000.0,160257289.39350218,-944000.0,64029701.297404066
1591,1286,2,7472874.0,1529448704.5417314,3243445.0,1022575889.1457484,4067990.0,328816138.5884162,3065804.0,139984087.28306627,0.0,113297307.42940092,3065804.0,201761782.94160306,-21884.0,12052577.349260643,3087688.0,153564253.59950548,-21884.0,54593630.24664793
647,1028,0,2182494000.0,4661765774.536097,2467501000.0,2149332356.54685,-484456000.0,1900737640.5912087,389190000.0,315460017.2041721,141172000.0,399626738.56306696,531030000.0,652447355.9003797,-54175000.0,50732756.10554054,443365000.0,249896999.56124407,-54175000.0,67027696.75931546
100,1407,1,12166000.0,1630159839.9825387,2892000.0,1087049767.6294346,9274000.0,374090020.2818029,5000.0,130921772.04771698,54000.0,147180277.28116643,59000.0,224339881.44192493,-3433000.0,33160983.199544244,3433000.0,180390526.40087128,-3428000.0,31957489.493860405
507,447,1,189783000.0,1849920068.4593167,45792000.0,1524366704.8041537,143991000.0,429377232.6141803,2372000.0,188471787.6853508,0.0,168318600.81700552,2372000.0,312576531.1467669,-18270000.0,38016537.49284695,20642000.0,230274488.4732117,-18270000.0,59215327.48098475
547,960,3,1072653000.0,1791937560.6006312,455367000.0,1358852280.067117,617286000.0,512783816.0435928,134998000.0,193801584.325778,27783000.0,223090699.48803127,163452000.0,335078956.56303465,5489000.0,30076554.62768744,129509000.0,154230381.73957995,5489000.0,101678183.46314567
457,632,1,665104000.0,1922025352.5464206,575531000.0,1806543779.3700216,89573000.0,507897283.2277632,30803000.0,218250510.1787675,19437000.0,233307342.75351334,50240000.0,336638997.91330516,10357000.0,43273386.30408428,22017000.0,238124718.30007792,8786000.0,68111912.46584097
560,618,0,1900367000.0,4562951271.4414215,289037000.0,1760279488.3698123,1613343000.0,1900737640.5912087,45433000.0,250708165.34863305,413911000.0,359294499.876426,459344000.0,642103798.55555,-6757000.0,61350580.68553614,52246000.0,264118633.95319474,-6813000.0,76486996.98934525
1402,1560,4,88944000.0,1542734484.8277783,45361000.0,1259494852.1024215,43583000.0,435256885.1317673,0.0,136226976.66338855,45000.0,178189960.7107947,45000.0,214589947.37144315,-14351000.0,21692618.106820524,14351000.0,188060930.04499578,-14351000.0,21807048.58317592
1274,683,0,5390785000.0,5386001922.649675,4083098000.0,3097071827.795998,1050686000.0,1900737640.5912087,352054000.0,417568386.9859157,284900000.0,578443876.3480977,636954000.0,900329843.8055989,120850000.0,91820735.4117787,187232000.0,295306973.6456431,164822000.0,77058683.01773676
799,1475,3,18535000.0,1555250006.8388414,13748000.0,1192991177.3729126,4787000.0,444314798.1699877,2839000.0,115663172.67430687,7502000.0,131515141.9538405,10341000.0,234051069.28463566,-2229000.0,18920626.367350087,3071000.0,124828096.6924569,-232000.0,98511996.54332371
1436,366,2,13281300000.0,6663379948.588534,5777300000.0,4486252029.181007,7484300000.0,3212079490.1766453,1030700000.0,501226471.4600861,1150100000.0,679370180.7731011,2180800000.0,1792766444.795888,687000000.0,281712460.49672896,343700000.0,311949002.905747,687000000.0,60847724.07591333
1518,564,4,108681735.0,1542734484.8277783,9192190.0,1220403857.827585,67531550.37365061,471514133.54451,2201326.0,143834897.14277455,255772.0,188903404.2203976,2457098.0,225046063.9509772,-8935951.0,26766611.009431675,11137277.0,227325172.51712888,-8935951.0,23627664.85099439
211,1245,3,189692000.0,1759185005.5863338,90178000.0,1359987040.2219405,99514000.0,554765750.5732759,-4411000.0,173865639.9781948,24963000.0,159505739.4709769,20552000.0,271231207.15658426,-10000000.0,21886552.32079266,5589000.0,135509893.69499916,-10000000.0,99576225.56751771
1542,539,4,230878000.0,1789348814.1250296,57278000.0,1459951875.6821735,173600000.0,505670099.18094504,26973000.0,144809343.8390682,7041000.0,206027997.34353018,34014000.0,263405377.29630864,-11169000.0,30277540.42433569,38142000.0,212430193.37659782,-11169000.0,31615291.746607177
1496,129,4,73773000.0,1620238143.9036236,50819000.0,1181503353.3536806,38847689.64492722,497831715.15332246,5428000.0,136145205.20988962,22481000.0,188596619.87275058,27909000.0,239116670.32388532,-1778000.0,27270176.50607021,7206000.0,186655488.93925595,-1778000.0,30125579.075365745
1891,794,4,1582767000.0,2817419806.502062,680421000.0,1913401539.8021605,880211000.0,1019335457.0091282,56683000.0,204027622.67984217,17637000.0,322570795.3994969,74320000.0,382099294.6782583,-5119000.0,39371789.21983302,35279000.0,237771942.20048988,21404000.0,31585816.26955523
362,1155,3,5641000.0,1377874508.2636309,5200000.0,1069330207.4369581,-3859000.0,415181042.32000864,1192000.0,108535393.21140689,781000.0,127627600.05231363,1973000.0,233403157.07180762,-97000.0,13968290.530780494,2070000.0,122078592.67239165,-878000.0,99507152.29172762
605,905,3,3208196000.0,3565644548.083855,2133043000.0,2387707264.8518558,1075153000.0,1648811652.3264332,625972000.0,295680808.80031455,1066275000.0,541826333.7738326,1692247000.0,1082543132.3092556,91616000.0,83488788.16416459,497965000.0,257652199.33503053,128007000.0,101678183.46314567
384,713,0,13057000.0,3664926978.0086374,4943774.229094189,748058065.609736,10949000.0,1900737640.5912087,7944000.0,118079929.6578803,0.0,122957935.08872783,7944000.0,235887219.6338128,1997000.0,30826611.93817164,5947000.0,157527450.49574605,1997000.0,69214947.30128929
438,1575,4,5973000000.0,4647725545.525211,4408000000.0,2268554545.0993824,1554000000.0,1890312207.2725449,244000000.0,368301109.27136654,1526000000.0,673669222.8517655,1770000000.0,1373121327.2976108,147000000.0,67955002.14557861,127000000.0,238168590.4202205,117000000.0,35943551.5633556
1761,738,0,589088000.0,4160037184.394561,253950000.0,1527972576.6838439,335138000.0,1900737640.5912087,19294000.0,188685929.54907426,99428000.0,237414892.30660325,118722000.0,373048962.2936404,9057000.0,59213494.99507517,10237000.0,216647991.6610909,9057000.0,74941860.43210268
403,525,3,21286772.0,1405503521.8875833,1383236.0,1069330207.4369581,19903536.0,420375714.46077526,781782.0,112142334.89281255,421382.0,129329243.28776377,1203164.0,229116671.13109267,-1960898.0,17128507.416465104,2742680.0,115841693.0511499,-1960898.0,98511996.54332371
388,1349,4,3445920.0,1532050169.9815269,1859560.0,1153343876.733995,1616914.0883314284,460045092.15235555,2970901.0,138572306.96738577,569508.0,164749996.871989,805185.0,222671625.2481389,2437201.0,26391434.563592523,533700.0,176292439.03376806,2437201.0,31839518.04089757
1452,124,4,328158000.0,2190695288.5791965,124250521.82515822,1607057566.915463,270486000.0,646672118.2955524,24944000.0,162210380.56445813,16521000.0,227915650.62407035,41465000.0,276819210.1412095,-7674000.0,35223329.792907536,24827000.0,213697600.9548021,117000.0,31540547.830310337
1876,412,1,2498305.0,1358520331.3161025,2997402.0,1244406105.3707616,-3454854.0,312162256.7811544,467340.0,114196506.13269597,346611.0,136198415.04614282,813951.0,217388445.60501087,-114631.0,31214504.66772683,581971.0,151253113.82134897,-114631.0,15319928.276768848
757,651,2,1288046000.0,2797769506.026273,649920845.9604261,1902931587.4223487,889849000.0,923431282.632313,105384000.0,289772299.9246392,285360000.0,376116784.1661391,390744000.0,551821343.373474,53190000.0,49084076.68362901,52194000.0,220116554.58278266,53190000.0,62043774.329388745
660,226,2,600057000.0,1943846163.5597005,369915000.0,1471338556.7705212,225443000.0,789350570.0955563,43121000.0,225656135.19165334,106269000.0,296769584.7183643,149390000.0,365466532.2796471,7853000.0,34579235.97613053,30439000.0,200916117.42206034,12682000.0,60033315.03515133
197,709,4,538955000.0,1704200703.7641382,291671000.0,1398074847.9661343,247284000.0,467768336.02437496,-14193000.0,150613169.96743932,14235000.0,205180551.54935414,42000.0,265726084.0393846,-51845000.0,22111950.163901053,37652000.0,198166350.8071257,-51845000.0,24084386.759196628
93,962,1,25334074.0,1639495123.9586577,18917048.0,1449260081.7420583,5501613.0,395995120.1948235,-536032.0,153064583.13649017,4501393.0,160053939.26880372,3965361.0,236931974.4335581,-2975120.0,40833079.39372948,2439088.0,211142659.53275844,-2975120.0,42685648.427894324
472,1463,0,1934400000.0,4788275735.923777,855887268.5537325,2394925547.880119,957200000.0,1900737640.5912087,84000000.0,250950280.92455977,375600000.0,438929975.0055592,459600000.0,647910073.8797908,30800000.0,59528253.279549845,59000000.0,234424925.5748567,25000000.0,76533429.29244426
1345,573,0,102973000.0,3785346415.561019,162948000.0,1009608585.7946024,-346214000.0,1876015074.0246158,-13037000.0,130822086.44714743,25768000.0,146597417.32685757,12731000.0,267418927.0929712,-23219000.0,30798964.07185118,35950000.0,177696279.98947883,-48987000.0,64514029.857068345
1672,351,2,2501300000.0,3593154639.334854,1075500000.0,2053071566.5888293,1407900000.0,1206332735.1865041,99600000.0,288637807.39060354,151100000.0,463131450.5666301,250700000.0,655553277.4262702,31900000.0,45839160.67777838,67700000.0,251649380.11824012,31900000.0,63798379.8593258
521,298,0,27910000000.0,12015992430.99077,24392000000.0,10474838621.924206,14058781786.346067,1900737640.5912087,1525000000.0,1192072845.7091393,6421000000.0,3327385281.286709,7946000000.0,4551942298.3324995,561000000.0,200020846.29205424,638000000.0,483669268.27874434,887000000.0,70373984.21766904
1143,519,4,105238000.0,1704982576.933097,42240000.0,1273892679.9532628,62998000.0,500262456.03418994,8572000.0,144747822.33322272,322000.0,165407462.9421186,8894000.0,228557991.71776283,2218000.0,36278062.52997147,6354000.0,218874983.8552523,2218000.0,27228924.758831978
502,1365,3,2010176000.0,2623015138.4997044,889414829.379791,2066950906.9888725,1057656000.0,1107202980.8906484,113627000.0,265685220.9847993,250202000.0,346048738.7171334,363829000.0,465552560.0463264,44531000.0,76362149.49494451,69096000.0,170357354.39414534,44531000.0,100607541.44827299
319,621,2,15154000000.0,7787555402.459776,5534200000.0,4298519589.4878435,9554000000.0,5129402259.46911,739300000.0,453651858.38368654,999600000.0,690666057.6415012,1738900000.0,1540403381.239147,318400000.0,176161702.07297543,315200000.0,311132052.177042,424100000.0,62043774.329388745
471,516,2,346507000.0,1802459401.8651671,100361000.0,1252694166.4422553,246146000.0,509390099.8321829,14398000.0,169736936.63131627,62502000.0,221033524.40540045,72480000.0,312414872.11270106,4926000.0,25774233.020674497,9472000.0,182663996.44247314,4926000.0,56053491.23543645
1756,421,2,229309000.0,1606003145.344479,190264000.0,1217034470.8706396,-44269000.0,505200793.9642905,9225000.0,156669450.51749235,52669000.0,223429437.435094,61894000.0,289766186.61406183,1401000.0,21125108.637943566,7511000.0,175636804.2256281,1714000.0,57816180.46163735
848,415,3,101740000.0,1939770831.3283644,28463000.0,1271656192.9189134,50734000.0,567953134.1018353,29850000.0,180884163.32795322,12745000.0,169551717.20827103,40857000.0,268882274.2287084,2689000.0,24299821.544059068,27161000.0,155295734.81774515,2689000.0,101296440.65810183
1310,660,3,9582645000.0,6219050988.360765,3280269000.0,2869001844.207285,6302376000.0,2435467375.8536787,376175000.0,377839452.7005831,424915000.0,518707258.00984716,801090000.0,931257558.9060353,272965000.0,73404548.99875441,103421000.0,299293806.40277845,272754000.0,102327756.5388571
202,496,2,609678000.0,2405324418.681357,288631252.1743736,1379419463.8678277,366720000.0,774164654.4367895,84451000.0,242791970.87082565,21802000.0,301021126.0432115,106253000.0,381001418.86503005,5683000.0,25006397.79325272,78768000.0,224764264.91014752,5683000.0,62043774.329388745
1444,1250,3,43441700000.0,27054631017.09933,21559314449.01792,11559207695.053427,21882385550.98208,6026638154.9512,1370000000.0,772877685.7014236,587400000.0,895454321.80124,1957400000.0,2116386631.11436,472000000.0,160132088.34236494,1485400000.0,1004129449.2345726,-115400000.0,100607541.44827299
1578,687,1,1146353000.0,2118908034.207399,752649000.0,1697475418.8353431,393704000.0,737988715.6886239,95229000.0,254211090.81214175,32092000.0,261875024.01470548,127321000.0,393463639.4069518,-58245000.0,50680963.625620976,153474000.0,243085647.28946367,-58245000.0,69940245.85437156
451,1036,2,796771.0,1274440560.730389,1072746.0,943088403.1297903,-275975.0,283478181.8633224,205707.0,122962725.2820741,158335.0,115430512.67285919,364042.0,196209420.55029273,-168127.0,16728417.91030334,373834.0,136775583.82091355,-168127.0,57287121.16856111
35,1172,1,9069035000.0,5248920757.745221,2563480000.0,2525536801.8182073,6505555000.0,2692849964.561652,942419000.0,378581609.1314479,522866000.0,720065367.3852057,1285548000.0,1247560416.575016,602695000.0,164638130.47066218,339724000.0,297790406.7906927,602695000.0,68480806.10085051
237,194,4,48924605000.0,35734143816.05198,25766652000.0,11007051201.172272,22441501000.0,12916278298.086985,1560160000.0,949751526.9593443,915531000.0,948401758.4326234,2475691000.0,3269578049.6274405,558196000.0,183996051.14304897,1001964000.0,301289210.99050206,558196000.0,28411710.072449483
917,1116,2,514281000.0,2010056184.4016414,309957000.0,1535558163.1667824,198004000.0,778488883.0670831,106985000.0,196730523.09130645,149052000.0,319473353.49293965,309744000.0,393476801.5567194,62399000.0,32718643.68083802,44586000.0,231659127.3104412,62399000.0,60385047.79333113
558,251,2,17876000000.0,6706022214.870845,4077000000.0,4035217012.0242662,13799000000.0,4341366358.73129,-917000000.0,392760829.8430006,1453000000.0,343427437.08283055,536000000.0,1079717320.5837955,-1774000000.0,41134508.65788926,857000000.0,312496137.81322986,-1774000000.0,59087750.64926951
73,532,1,218354000.0,1726519526.696589,62021000.0,1548565219.4239159,156333000.0,430573716.5593244,-143000.0,183550172.32557303,848000.0,160455061.0677879,705000.0,295699470.3691789,-31577000.0,36208865.61734618,40859000.0,241352743.03121462,-41002000.0,63977305.90899623
532,205,3,2268100000.0,3541082215.83068,1627400000.0,2651242726.556367,640700000.0,1291381685.4138367,78400000.0,353966600.1243919,665200000.0,471148084.54098845,743600000.0,804922047.9569098,19100000.0,68645292.18026747,724500000.0,417834727.72479796,-646100000.0,100607541.44827299
986,275,3,49117000.0,1442198710.927854,7104000.0,1144171431.933279,42013000.0,433880475.0734831,1616000.0,120465377.03460735,3273000.0,139877765.06980813,4889000.0,235291815.61745012,-1489000.0,18523793.103172094,3105000.0,122489207.09657684,-1489000.0,98511996.54332371
252,1030,3,12822000.0,1391433590.2174964,1624000.0,1181787420.6681132,11198000.0,427833219.47405887,0.0,122815689.69233447,0.0,126578104.0558055,0.0,212377320.91197538,-1983000.0,11250369.682329848,1983000.0,117176722.6483742,-1983000.0,98511996.54332371
982,1392,1,543788000.0,2117723111.8135905,205894547.02387,1705676695.3935113,402777000.0,644236919.0201939,1944000.0,210544441.30507505,0.0,208224531.91709036,1944000.0,342327459.918903,-51279000.0,37174887.71092666,53223000.0,240178009.56856173,-51279000.0,66925285.37190431
1947,616,2,16965000000.0,10425569621.244116,7506269391.549871,5282642261.4518175,7744800000.0,5430677834.251183,1329900000.0,641173411.2481519,1175700000.0,711581904.4383458,2505600000.0,1890984373.5974848,1069200000.0,454197650.8438689,32700000.0,346938697.42159265,1297200000.0,61406174.921123385
1206,918,0,29788000.0,3877329136.8327465,27907000.0,1011262235.8275623,1881000.0,1900737640.5912087,0.0,140033589.88056117,3452000.0,169286099.358867,3452000.0,301116194.0971644,-23801000.0,33242419.012144566,23801000.0,204739240.06054395,-23801000.0,70076924.94600374
542,1191,2,39315010.0,1458144412.1137834,15768167.0,1031991783.1881521,23791305.0,344129119.10804,7600979.0,126491456.65344894,41810204.0,139704412.08859527,49411183.0,220010065.83013976,-1588725.0,13272781.095098972,9189704.0,155321337.29184738,-1588725.0,54485090.13145881
15,899,4,184728000.0,1939366193.073309,40367000.0,1380334749.5186162,144361000.0,556944880.4392493,0.0,144135571.64549658,8094000.0,168114540.81046945,8094000.0,233678844.18778908,-23114000.0,26159413.460816123,23114000.0,270087662.2760644,-23114000.0,20957402.059044756
1754,856,2,5014090000.0,4472775824.559525,2606263000.0,2264119996.5459967,2407827000.0,1628712686.5015223,420690000.0,361101477.09955823,905430000.0,576257523.3148874,1326120000.0,922250630.016128,237492000.0,107861721.31580752,183198000.0,293551212.2918913,237492000.0,63798379.8593258
1448,1495,3,3543460000.0,3192590331.496777,2602227000.0,2295253606.9884644,941233000.0,1383051085.9721398,443568000.0,299147366.3767488,134292000.0,454872955.9485532,414603000.0,698642548.7608392,14363000.0,55359686.11638804,429205000.0,248837013.7693472,14363000.0,101678183.46314567
459,1563,1,747087000.0,2081946641.4519782,79688000.0,1605126892.9896905,667399000.0,498013758.5064491,34565000.0,214797937.8454778,22203000.0,205929644.08964688,57261000.0,350890742.64486885,-16306000.0,42054925.55012041,50871000.0,244620145.44794667,-16306000.0,64279208.71860838
1505,8,3,4578121000.0,5929675037.3774805,2310023301.364386,4238940000.2545915,2489780000.0,2500863414.528279,2190001000.0,1390251547.5105326,-1465670000.0,456722996.3487564,724331000.0,1552608876.2590442,216069000.0,146011055.7161915,1973932000.0,1307540345.9806347,216069000.0,100607541.44827299
1613,399,4,11895943000.0,4855474062.701051,3479745000.0,3234402850.142034,8416198000.0,3849266351.3236265,335683000.0,396488569.5553919,296441000.0,447577477.6331073,632124000.0,981432193.0161524,90949000.0,48852804.308414936,201199000.0,268376229.65725797,134484000.0,29735867.572194118
1214,1410,3,1059300000.0,2692479928.49842,513000000.0,2377321897.6146297,545000000.0,1128760252.443214,132000000.0,240088251.6082973,172700000.0,342398758.1045614,304700000.0,479142447.35339797,34700000.0,69346545.76007375,88200000.0,171444064.34844184,43800000.0,102327756.5388571
454,235,3,11204065000.0,5129366239.458834,4242197120.938668,4376525714.178212,3489373000.0,2337403497.459057,480702000.0,399707855.89727765,457696000.0,548980722.1955707,938398000.0,1092635910.6751735,172392000.0,79077626.28113009,308310000.0,330915775.8769861,172392000.0,100607541.44827299
1392,34,4,531121000.0,2393306486.139103,248900000.0,1794832857.5144315,282221000.0,845361170.221451,62379000.0,188619406.63016942,135419000.0,289552185.88886195,197798000.0,380601042.308267,18703000.0,54733472.44726621,43698000.0,247109551.277234,18681000.0,30181084.848168507
1519,1545,4,961035000.0,2900750478.9268503,1381722000.0,1557761120.4599144,-420687000.0,962796771.0483649,271111000.0,235315717.65868062,201537000.0,333963683.2235149,472648000.0,518628646.7852973,5387000.0,55320292.94751318,265724000.0,239045579.0962746,5387000.0,28834770.096765228
1060,432,1,3194462000.0,3355560652.615415,1643299000.0,1943264111.7671432,1512215000.0,1418058503.036654,817744000.0,346265158.31289303,0.0,424566331.3308043,817744000.0,749129518.2057271,37900000.0,57785072.20500136,779844000.0,278668701.425331,37900000.0,70343177.95608719
1100,895,3,6042273.0,1377874508.2636309,3627261.0,1035806022.7406256,2415012.0,411063215.7321733,0.0,106230746.29940468,0.0,110826533.36085469,0.0,216983642.0399953,-1829562.0,8999411.85877414,1829562.0,118611978.36860126,-1829562.0,98511996.54332371
203,426,2,76266906.0,1524040678.4916797,57438990.0,1104888928.391229,40912361.81482647,430534388.8702748,9146097.0,145624225.40554678,0.0,151927798.98693353,9146097.0,238871452.35989928,-2633902.0,12952794.647326395,11779999.0,189366804.36399165,-2633902.0,59012230.71511276
1493,1399,4,-3532973000.0,2516470115.9958405,-2747133000.0,-370724706.2999339,-773571000.0,940331108.1702607,87737000.0,185111825.47073036,40236000.0,334340804.4839596,103187000.0,622742304.1202102,7123000.0,41895023.753166005,80614000.0,225263237.14868057,7123000.0,31940006.31043006
543,815,3,846734000.0,2126996936.074718,635659000.0,1558654760.254151,69332000.0,662098584.3931205,204774000.0,220989296.55633563,-13024000.0,243188921.08808982,191750000.0,386966751.78556013,-52860000.0,23084441.88366945,257634000.0,182221113.5568891,-52860000.0,102327756.5388571
1966,624,4,1354514000.0,2106876978.2660594,675720000.0,1695908072.1208136,319291000.0,647975090.0870646,-16558000.0,158768033.79075405,64132000.0,294796261.4713869,47574000.0,306551669.89124143,22229000.0,25212197.62317978,13428000.0,228431607.11513275,-29986000.0,23259710.384970937
1802,437,1,270533000.0,1881875863.4975667,240046000.0,1705992480.9235723,30487000.0,431933029.1548557,26052000.0,203637472.685938,12454000.0,208079041.4453048,38506000.0,306179298.12053216,-21038000.0,40861533.18354096,47090000.0,234803070.6397542,-21038000.0,68615305.54380007
1372,1341,2,583783000.0,1854121372.5899596,717382000.0,1520514421.7181873,-133599000.0,694143035.5180435,41865000.0,199257928.69709316,32703000.0,264770058.6051814,74568000.0,373156025.2042769,-32006000.0,19000511.628503084,48224000.0,215499828.96415484,-6359000.0,61006035.11137638
1325,1439,4,534446.0,1551940392.830875,9794849.0,1112311414.3805938,-9132038.0,425333867.2978145,6264.0,132364987.82238057,3881.0,147031367.18540776,10145.0,209257971.71040773,-961868.0,22561975.781690143,972013.0,171511154.25455862,-965749.0,23790069.532481693
1504,1241,2,106308000.0,1619308799.6364102,29369000.0,1136527051.3635442,76939000.0,534888562.55658984,15630000.0,158964020.98396754,0.0,175811152.42721868,15630000.0,262366286.99857354,-23899000.0,12860383.800620586,39529000.0,193514439.95731774,-23899000.0,59674279.17234819
1347,1518,0,369031000.0,4018248057.485146,216722530.1814524,1341372621.7606711,188777000.0,1876015074.0246158,45044000.0,175813431.48597234,42173000.0,233155092.1138171,87217000.0,345797578.3388574,-3804000.0,54129325.57848424,48848000.0,213715795.78127718,-3804000.0,72166814.36945161
1492,872,1,327784000.0,1993915338.6174712,323919000.0,1788874507.8922813,3865000.0,446744341.18574786,33496000.0,183240989.7651108,8201000.0,227269215.12726837,41697000.0,323119031.4783639,-4913000.0,42746195.17823328,37287000.0,229246195.97415978,-3791000.0,59552820.551427566
1107,1504,4,85658000000.0,22617128639.546818,88335000000.0,19642550756.896347,-2772000000.0,4710111613.598603,5387000000.0,3886775694.5648813,14002000000.0,9423733565.289091,16935000000.0,16425030218.613432,1165000000.0,784252548.3185909,4222000000.0,1810930526.0641546,1165000000.0,232428438.29729232
1336,431,2,898860000.0,2102279204.211667,527877640.3036609,1341719606.605898,360528000.0,620942614.0246232,68259000.0,189405786.865706,42065000.0,200325529.44824713,110324000.0,306909002.57487106,-1325000.0,27959698.654457197,69584000.0,218763991.36011618,-1325000.0,57333145.119332455
599,1357,1,50546000.0,1711766344.3149037,5959000.0,1531816747.5644946,44587000.0,413281998.87688565,1989000.0,165635622.74490792,1909000.0,160927817.80072725,3898000.0,240778542.62946677,-1895000.0,39031575.57712073,3884000.0,216579684.37565547,-1895000.0,45389685.28552495
117,630,3,939056000.0,2217689089.0697803,419590000.0,1726454111.41036,517473000.0,952131398.2456264,90527000.0,217388010.62256,120216000.0,285002243.76794255,210268000.0,384274322.08426416,61012000.0,72759873.85030785,29515000.0,158481673.21160218,61012000.0,100307845.76101626
1825,1520,3,20027115000.0,8442500998.54302,12952737000.0,3101476439.4733906,5611108000.0,2612714330.8871784,32786000.0,438728854.20784235,283742000.0,508514023.14465606,316528000.0,989148338.4166709,-1347477000.0,31191931.887682647,1910658000.0,415219768.473322,-1877872000.0,100607541.44827299
1507,300,3,124094000.0,1591155954.021371,18130000.0,1604260608.5390186,105964000.0,476362109.7165884,830000.0,145271762.28299016,0.0,132584131.56962454,830000.0,242029885.77838588,-5787000.0,18494887.85028918,6617000.0,137139893.52721757,-5787000.0,101296440.65810183
321,587,1,68675000.0,1683763818.1671853,40331082.646745786,1571344296.9538112,53645000.0,438052997.10205925,10938000.0,171633517.3724962,6604000.0,181961994.99719948,17542000.0,267129262.15382743,880000.0,40711352.66030237,10058000.0,205263439.76969758,880000.0,49665046.65150962
1482,433,0,1833700000.0,4592928385.233328,811331929.4597701,1960601615.949174,482900000.0,1900737640.5912087,110200000.0,257945126.7925865,356000000.0,401107812.2204225,466200000.0,556015976.9470239,45700000.0,63712059.829994045,55600000.0,233308881.99564433,54600000.0,76455115.62454101
508,1187,1,62515472.0,1735523472.7068658,29595817.732691668,1497304693.2196038,21861273.0,416501117.2874862,7032458.0,164459670.1043095,11256239.0,167704677.76912582,18288697.0,253466645.0383122,-1564350.0,37859560.145974964,8596808.0,224763218.33986485,-1564350.0,49322732.615588695
1411,610,3,33859785.0,1414350115.5066562,6178818.0,958633001.1562073,27680967.0,370092899.55434835,-63384.0,105654455.35581368,87873.0,126312500.29385674,24489.0,216958840.69052804,-2675666.0,13363209.761390164,2612282.0,117249262.95490733,-2675666.0,98511996.54332371
718,1603,3,770792000.0,2396543127.6749697,581187000.0,1650575755.7876983,188503000.0,995646131.7023796,456709000.0,222120954.98151514,0.0,304121563.9491892,456709000.0,422580923.281564,-29756000.0,38847851.41044559,486465000.0,207472568.17917508,-29756000.0,102327756.5388571
1865,1457,1,4753100000.0,3502192799.487238,2691038000.0,2060017373.0185938,2062062000.0,1750663362.1080432,383135000.0,324901567.69082487,0.0,404710596.26717806,383135000.0,765861002.6510274,126771000.0,57225340.96763566,256364000.0,262863915.5508068,126771000.0,67991330.52883741
710,1426,2,9330700000.0,4706491555.527907,4987700000.0,2295372033.281481,4343000000.0,2036137958.9609864,590200000.0,398953721.17081976,367100000.0,532011261.54593194,444000000.0,997317240.0810539,121300000.0,86475775.55535437,468900000.0,251903588.45907915,121300000.0,61406174.921123385
285,985,3,1797231000.0,2865633598.697187,1568932000.0,1708883812.0752225,228299000.0,1122190078.7549443,143030000.0,281118589.3877888,0.0,367233147.5961899,143030000.0,566801492.7005717,-113543000.0,28211037.382681265,256573000.0,200982669.84269166,-113543000.0,102327756.5388571
1609,179,4,90048000.0,1583659698.5097537,45436321.63528667,1163517795.4377205,37547000.0,464850896.08273304,2482000.0,136722537.04265866,9262000.0,176592608.4865378,11744000.0,242678052.06434453,1360000.0,25005919.957456514,2815000.0,204726417.72514564,-333000.0,23964884.222941678
1814,1095,3,190817000.0,1681210300.640213,91955000.0,1442784506.1248477,118567925.39840196,646293501.2686256,16838000.0,191259560.16610906,21962000.0,169666106.85911787,38800000.0,295754390.339756,3292000.0,24324518.35988608,13546000.0,133441062.09614521,3292000.0,100156725.36743905
720,50,3,24930824.0,1442198710.927854,6278564.0,1069330207.4369581,18652260.0,398034350.79051435,7866761.0,128273225.00762928,20382092.0,128114269.83736414,28248853.0,237561045.91801667,1448213.0,15947532.873253405,6418548.0,124113354.993487,1448213.0,98511996.54332371
1707,149,4,6071000000.0,6444788654.252807,14261000000.0,3696355203.0369973,-8190000000.0,2424223294.8966074,1287000000.0,778279860.521563,421000000.0,621446647.5121797,1708000000.0,1510730790.2090878,613000000.0,188517372.97876444,1095000000.0,323913926.56571734,192000000.0,33587883.864472166
485,1443,0,5768300000.0,5252903694.216886,3017800000.0,3585216943.93006,2739100000.0,1900737640.5912087,487400000.0,445917190.8036454,888400000.0,702559952.9392134,1375800000.0,1162186819.004863,276300000.0,89406235.83136116,211100000.0,305188152.77637815,276300000.0,74941860.43210268
1364,1252,1,3486179000.0,4178210157.9090004,1927467000.0,2307776869.2691565,1501742000.0,1487693580.6983054,315111000.0,369433353.8875048,669472000.0,536240665.1908098,949217000.0,956470759.5489719,-24190000.0,150523969.6148368,194277000.0,296447907.9104781,120834000.0,60874695.50576028
1943,1464,4,496042000.0,2411846518.1900153,349488000.0,1929102950.0720387,146554000.0,803592603.2378621,33924000.0,190788418.8980727,212763000.0,289783614.18765515,246687000.0,349022024.9872787,12448000.0,45817653.81724075,21476000.0,214615351.88653493,12448000.0,29396022.376318965
708,512,1,1713800000.0,2767514064.8135166,864747334.9608463,2051716541.5442576,585500000.0,1234876214.8828456,141400000.0,276767362.9557458,205900000.0,349666051.07518655,347300000.0,553759865.4921998,100200000.0,55934549.82854498,64600000.0,277651564.85918826,76800000.0,65666943.380700715
1795,256,2,5817000.0,1407189520.6113257,1413000.0,1012919127.5192778,5436000.0,340836703.1896634,5000.0,125090863.82935911,0.0,141068461.7239117,5000.0,214306520.8390447,-3525000.0,9232470.326240659,3530000.0,160529853.9399967,-3525000.0,57816180.46163735
1196,860,3,4180537.0,1391433590.2174964,13379601.0,1237208116.6653287,-9199064.0,448264000.28847635,1107842.0,124739067.81269556,974711.0,133799306.85996097,2069845.0,232304305.02715182,-2577294.0,18153093.090151787,3685136.0,128220738.13372168,-2577294.0,98511996.54332371
1785,368,0,6656000000.0,5180956237.6511135,2127000000.0,3014498542.638877,4529000000.0,1900737640.5912087,386000000.0,427720267.1983856,110000000.0,722373403.8998142,496000000.0,1156833403.5332112,-53000000.0,54895702.44938452,439000000.0,299151428.62093675,-53000000.0,76799621.69880415
1117,1482,1,191593000.0,2058969741.7124162,250675000.0,1636389657.5221941,89973054.63642293,558708511.437489,28173000.0,193323307.22542366,35245000.0,230108111.20462298,63418000.0,318691089.85864854,-6852000.0,41384754.48791821,35025000.0,225197065.19040778,-6852000.0,59148526.131674305
611,528,0,69753000.0,3885000393.3338585,24624000.0,1123600143.583476,45129000.0,1900737640.5912087,4333000.0,137069535.75604445,3937000.0,184562752.03140873,8270000.0,295371657.72082794,-17948000.0,29882169.83664216,22281000.0,216304109.92649534,-17948000.0,69613376.14887351
1037,1096,2,12798100000.0,7613326727.527571,7698700000.0,4177792072.06866,5099400000.0,2900124007.21783,578600000.0,450860191.01371074,1141600000.0,728504015.0543141,1720200000.0,1668656487.1856892,210200000.0,140631615.47982904,368400000.0,271636638.53305435,210200000.0,62043774.329388745
1049,1368,0,41718000.0,3664926978.0086374,16883000.0,1032662436.7026501,24835000.0,1900737640.5912087,4472000.0,140708385.0213276,-7000.0,135653744.65138835,4465000.0,260805248.85451496,467000.0,35657000.65593864,4005000.0,180857677.68627775,467000.0,68877016.53760768
181,192,1,2175066000.0,2183406783.654201,720018000.0,1859689632.191098,1455048000.0,1107987574.406229,262895000.0,205256787.23914582,0.0,278363319.57504654,262895000.0,455898076.9051274,-74357000.0,36852898.05462262,337252000.0,236093708.4761066,-74357000.0,47237251.56787615
1530,1427,1,432444000.0,1881875863.4975667,58115000.0,1605126892.9896905,374329000.0,511383788.8217372,30953000.0,222924974.6496254,9019000.0,214508138.79196817,39972000.0,338414358.62540925,-4508000.0,42867984.03358954,35461000.0,250505350.29124612,-4508000.0,66058143.67111057
1172,703,0,1951144000.0,4788275735.923777,976648000.0,2353664420.706893,828149000.0,1900737640.5912087,81471000.0,273868174.2190329,811299000.0,483098990.1595901,892770000.0,718988618.9806647,21174000.0,56975161.09548339,35340000.0,254314794.4726691,46131000.0,72434189.85635854
1844,177,1,5184000.0,1338814186.050776,33317000.0,1249470978.7423007,2568262.933576247,439289381.7929146,28000.0,126656561.67600322,1138000.0,139691172.3445351,1166000.0,233260127.0207057,-1174000.0,28864361.6012159,1202000.0,152828958.04532003,-1174000.0,11102915.684012376
937,1211,2,30042800000.0,19549483995.48067,15158963259.867964,9012872081.228008,10331300000.0,6533344045.286366,1541600000.0,786815912.4501952,2284300000.0,1150184165.7930505,3825900000.0,2495957571.1761084,727800000.0,413974333.21157527,402100000.0,371742966.08585376,1139500000.0,62043774.329388745
1319,819,4,3143366000.0,3085961407.1169405,724791000.0,1789154208.7121785,1686216654.8151803,1036849561.356288,293240000.0,234725140.99531552,0.0,308942282.81874776,293240000.0,466521731.24826,242794000.0,58377565.12690927,50446000.0,219454071.22739154,242794000.0,34871009.66645884
785,508,0,2558318838.0,4921512815.539809,289865031.0,2261668210.5555563,2268453807.0,1900737640.5912087,191440633.0,318632078.9425019,384407857.0,408584287.30476296,575848490.0,633757700.8234941,122416529.0,80768741.58552751,69024104.0,243050455.57300878,122416529.0,74757694.98828901
534,742,1,355784000.0,2143865477.0897584,359982000.0,1636705443.0522552,21035000.0,502586356.5009289,21274000.0,188397635.0085109,23247000.0,217676089.19007492,43857000.0,327627497.52548647,-2501000.0,40106551.6538132,23775000.0,218964350.0685922,-2501000.0,66021276.97306468
1073,970,3,107571000000.0,93494681807.89787,49865975585.04998,20637192375.8866,57705024414.95002,35914307397.379845,4680000000.0,2033629226.3126228,16059000000.0,8903653508.920235,20739000000.0,13277860884.05453,2233000000.0,680878069.366433,234000000.0,539879845.5086997,4446000000.0,100307845.76101626
871,1115,3,357016000.0,1800263464.4749675,134021000.0,1435994769.5913327,222995000.0,581182884.2790716,10859000.0,185923090.25374675,60424000.0,195020201.94789952,71283000.0,282876631.79680467,4410000.0,34052478.60466186,6449000.0,144461487.6793722,4410000.0,102028060.85160038
145,1561,3,10492900000.0,7467197907.852053,4642648635.342979,3760625153.910369,7724300000.0,2619618307.8768525,1077000000.0,609290890.8263628,2546000000.0,1759358258.6360617,3623000000.0,2978481604.362654,389500000.0,159253046.60818622,626900000.0,454719284.7042487,450100000.0,100307845.76101626
1137,1231,2,221167000.0,1834000186.276795,272405000.0,1233846063.7828069,-51238000.0,648918380.1557357,26384000.0,178638407.0248023,0.0,228207528.8026781,26384000.0,327732792.21649647,3123000.0,24783342.860183507,23261000.0,225182743.19181827,3123000.0,60265210.79685457
1853,1087,1,644700000.0,2293199358.6940475,668700000.0,1762522275.4463549,-24000000.0,803650444.902174,11300000.0,253816061.39145443,30400000.0,262383938.45353222,40500000.0,370277765.7828702,-2900000.0,48926266.819097504,9300000.0,245729742.9634549,2000000.0,63656748.50750428
1607,435,3,5733000000.0,5228670838.195616,4386600000.0,3261765800.2710757,1332700000.0,2251314961.7821436,508800000.0,369183634.9997779,1740100000.0,849158028.4926589,2248900000.0,1583722364.0940895,201100000.0,102874212.66461287,328200000.0,286787646.67339957,180600000.0,100607541.44827299
497,361,2,3187469000.0,3369515108.1174364,1581882073.387936,2080386286.113912,1402929000.0,1119145183.6843991,12023000.0,278389883.9885639,118303000.0,425782314.7925406,130326000.0,628388886.8149776,121116000.0,61356676.71322262,236940000.0,242005922.65897343,-224917000.0,59619036.64595242
1789,988,0,160962000.0,3718140792.345044,136871000.0,1121488982.354617,14091000.0,1876015074.0246158,33234000.0,126994676.61720812,28516000.0,163287325.51692057,61750000.0,292280404.26075613,-4105000.0,41046521.54562081,29699000.0,194935559.48746982,3535000.0,71399111.10010767
1733,155,3,1070082000.0,2411139776.7739754,790095000.0,1649689937.8082454,279987000.0,863117780.9497429,59499000.0,241103566.95762855,92514000.0,294358783.17944425,152013000.0,370774477.33889306,-6147000.0,56842670.08785398,65646000.0,168412543.87242752,-6147000.0,100607541.44827299
1735,42,1,55335000.0,1823982626.119863,11648000.0,1506529320.7738018,43687000.0,425349349.1141572,13874000.0,174461963.8834169,0.0,172864557.88061917,13874000.0,268406379.28188884,364000.0,39064279.896149784,13510000.0,216552266.50760168,364000.0,47491853.08026538
1273,370,3,8855100000.0,5904118024.969052,4468096700.788768,3556256501.633219,3543300000.0,1847156260.7980325,468100000.0,366255530.7777398,2041800000.0,1207253598.7397707,2509900000.0,1675956451.546625,256500000.0,79956995.85377812,211600000.0,295850753.00188047,256500000.0,102028060.85160038
226,1510,3,1045317000.0,2282718987.003874,491551000.0,1554848533.2550652,553766000.0,852096630.0479561,49476000.0,218926436.87571892,27012000.0,227664308.76836795,76488000.0,347560201.1361457,5569000.0,37430431.27862966,43907000.0,170141587.31355295,5569000.0,102327756.5388571
856,682,1,3335011000.0,3319833624.371708,1532336000.0,2502462697.539619,1376443773.6613572,1414253051.4410095,158805000.0,272840916.24783695,458734000.0,401343297.580219,617539000.0,597948605.4296075,82276000.0,65664567.03633871,26748000.0,302309404.32014984,132057000.0,43039801.60362139
610,1489,4,50788000000.0,31975558570.351383,23543456582.29001,9868645789.006897,11845000000.0,6984025196.918479,1286000000.0,931500345.2198056,484000000.0,803016467.9713085,1770000000.0,2150567163.0131845,994000000.0,195817448.0725602,146000000.0,340027096.24740565,1140000000.0,32301628.763450887
434,1542,2,9209798000.0,3349837416.567148,3242862000.0,2038596998.66733,3654836000.0,1649657764.2804544,758604000.0,330489817.97197473,-63000.0,421088716.3045729,758541000.0,905601718.822626,306700000.0,102864828.7383919,451904000.0,256184636.5815277,306700000.0,62043774.329388745
1765,981,2,3861516000.0,3358092879.646964,3060094000.0,2881745317.335759,801422000.0,1130153350.5743506,246503000.0,323664531.2176446,543454000.0,472888736.0155272,789957000.0,817800511.4025085,-286586000.0,47076891.93522787,130761000.0,266827960.8925579,115742000.0,60847724.07591333
667,231,2,3117800000.0,2780336373.323107,2444800000.0,2030331484.4874575,673000000.0,1043148829.0419853,86700000.0,280151741.62070465,411500000.0,430196777.3478719,498200000.0,623164406.9455609,-419900000.0,52630270.294077836,63400000.0,233655277.46221718,23300000.0,60847724.07591333
1194,1588,3,84073.0,1733711065.542328,2814055.0,985591650.0607514,-2729982.0,551913221.0740265,0.0,120330929.28596991,0.0,110350263.02367908,0.0,209544773.25757992,-647078.0,10575229.869454741,647078.0,138382935.71436998,-647078.0,98511996.54332371
626,281,2,250689000.0,1764587646.1260371,83024000.0,1150418439.368702,167665000.0,518699313.73277295,0.0,167619759.06589362,33193000.0,212595829.54476893,33193000.0,295069361.42470586,-43672000.0,14936434.185008824,43672000.0,198700814.69209427,-43672000.0,59674279.17234819
1654,95,3,2267553000.0,3027094060.9769306,1375272000.0,2024227695.718959,519294000.0,1319293182.9735622,30179000.0,300391106.5083353,36686000.0,331827959.37659794,66865000.0,507965057.575173,-15417000.0,75105529.41124965,38864000.0,195017399.8673042,-8685000.0,100607541.44827299
288,1008,0,2221575000.0,4575617647.012321,1034139000.0,2417738713.6071873,1187436000.0,1900737640.5912087,131964000.0,258953099.564243,106311000.0,452708456.1301743,188755000.0,561602193.3687696,3712000.0,59488098.961452805,128252000.0,242248126.0296683,3712000.0,74941860.43210268
1665,605,3,555271000.0,2429900669.9364524,273881000.0,1729710853.5595114,281390000.0,1045698665.8467312,77610000.0,220343895.1015138,73228000.0,291630020.7595719,150838000.0,491002271.8829979,6400000.0,46544683.39062746,144438000.0,167468968.10968637,-66828000.0,100607541.44827299
652,935,3,1810200000.0,2515262881.2019515,1334200000.0,1860024799.489488,472000000.0,1211112181.0384858,111400000.0,258620768.29553145,439000000.0,407760797.98422086,550400000.0,463611813.00498605,53300000.0,62487335.91895481,43800000.0,168818611.92013854,67600000.0,100607541.44827299
1078,46,2,339972000.0,2008674639.7767968,145992000.0,1217997018.7935388,193980000.0,582697430.5011071,800000.0,165259851.76425982,85000.0,240269905.81584817,885000.0,307780250.3367088,-35502000.0,18168747.665957347,45899000.0,198248674.82023054,-45099000.0,59929508.825930916
778,1331,2,992330000.0,2401676686.271131,401273000.0,1604692098.8624108,544681000.0,828783847.0467546,417282000.0,282267246.6194458,0.0,344822985.7821581,417282000.0,501448238.1449737,5536000.0,34950531.399399616,411746000.0,216859773.76991662,5536000.0,60847724.07591333
29,1129,4,600271000.0,2468497041.0404987,137438000.0,1717598989.7664473,462833000.0,765024514.240598,73869000.0,171030210.16296887,24421000.0,243014989.9109921,98290000.0,316690492.22868085,-8089000.0,37260635.859454155,81958000.0,204088487.8593312,-8089000.0,34693274.17750411
854,464,4,47193000.0,1603301596.2439046,31000000.0,1183381548.1598217,16193000.0,490906812.4110855,4954000.0,135169031.45503888,3898000.0,173181215.70180064,8852000.0,224593925.2342806,-615000.0,27735341.99557115,5569000.0,187448278.14343107,-615000.0,25848963.46459472
1423,1344,4,150549000.0,1967371998.6409721,163792000.0,1576959888.525576,16674000.0,578488539.4981219,28323000.0,167965841.91853753,6429000.0,211743779.9041208,34752000.0,269589359.8493105,-13758000.0,25479680.248619616,21733000.0,212236257.76657152,6590000.0,25606308.854630586
1406,183,0,62996000.0,3858029942.862917,12638000.0,1110279581.0349064,50358000.0,1900737640.5912087,9919000.0,159529345.5940259,5920000.0,167386827.66129434,13543000.0,285245469.8508872,1979000.0,37198453.15710594,7940000.0,183199192.00578317,1979000.0,75190402.57780822
1624,411,2,56415000000.0,37009783668.992615,26707757359.48695,15494325642.335321,20622000000.0,12181058547.427984,4258000000.0,2037242142.2827692,2744000000.0,1623767552.5805254,7002000000.0,4539779514.49745,471000000.0,683114243.59023,1302000000.0,861493370.7714701,2956000000.0,62043774.329388745
926,211,2,572995000.0,2716948561.2703943,271264937.13018215,1402558386.4675987,210105000.0,982372998.3254099,-46109000.0,259344236.57040724,111142000.0,329669350.33327985,65033000.0,492617156.2505475,53448000.0,34199237.62483357,184993000.0,225068446.835938,-231102000.0,60288544.688734055
1324,186,2,11156646.0,1400874433.05926,14063458.0,1043039165.3160443,-2906812.0,341757814.84518814,-483256.0,130294342.74607927,692752.0,126895383.188335,209496.0,209484995.69258475,-2378023.0,12235881.183761716,1407493.0,161104612.48103124,-1890749.0,55391442.778201014
809,491,2,746651000.0,1929191888.413879,563281000.0,1434612562.4555638,350347808.70326334,778377793.0547626,20268000.0,192715558.41472957,132273000.0,299555465.9440216,152541000.0,428720493.5851116,1482000.0,28800063.840859637,18377000.0,198927531.84647253,1891000.0,61406174.921123385
492,346,2,203605000.0,1791043630.4270668,164863000.0,1246153165.2539604,38742000.0,656143771.8616152,38308000.0,214047225.4249336,13284000.0,238030105.88445562,51592000.0,290699493.085739,8585000.0,25542297.386903465,22801000.0,210739369.10319135,15507000.0,59371266.5779159
383,831,2,35610551.0,1721743078.747692,44852933.0,1138001277.538913,-9242382.0,356324566.8871069,3037874.0,141602557.43181133,5691278.0,118156813.83685052,8729152.0,218034364.03404844,-7028283.0,12436009.074008286,15757435.0,176140739.25692707,-12719561.0,55122689.53972417
1250,12,2,4596600000.0,5338423232.33134,2319347415.031524,2832466910.5906267,3466600000.0,2097970617.9346774,2555100000.0,630006178.3159058,3033000000.0,845056007.7944872,5588100000.0,2172824608.408248,1174900000.0,314405323.94156754,1380200000.0,353097933.52075285,1174900000.0,60847724.07591333
229,649,4,3802385000.0,3884580287.7664413,2636965000.0,2269341537.8461823,1165420000.0,1551705600.1353393,157645000.0,286731083.33840597,488142000.0,393033284.4696741,645787000.0,704876362.2889497,66824000.0,65474949.79259537,83253000.0,251341659.21064705,74392000.0,35905419.46157919
1531,264,4,12852000.0,1551940392.830875,5815000.0,1129247814.4059222,7037000.0,433814339.64554965,1838000.0,130692727.52985129,1427000.0,163250506.3838547,400000.0,215675559.62330317,-1116000.0,23873103.144620493,2954000.0,167032300.005189,-1116000.0,24769845.599620603
1035,1424,4,11747000000.0,7894160224.599253,7158000000.0,4156106218.666638,4503000000.0,3867471071.441402,770000000.0,540788280.8749163,1424000000.0,856342959.9788097,2194000000.0,1991420378.1536164,154000000.0,84664552.97807787,2040000000.0,544716229.192337,-1270000000.0,32518390.98515793
1774,1335,3,7236206.0,1741250656.3065271,4913744.0,1040628913.2065368,2190428.0,476205077.38789284,634746.0,129513572.5493666,2326079.0,139009541.40746516,2960825.0,230878050.30623186,-234151.0,14536704.97435075,886442.0,142155015.18270877,-251696.0,99507152.29172762
868,1093,0,6411000000.0,5106342105.416732,3370100000.0,3168131517.5494504,3176144611.7201624,1900737640.5912087,371800000.0,404636996.6377225,637000000.0,544812775.1795224,1008800000.0,960132068.2939472,180100000.0,85205357.72400066,166200000.0,288222957.2145245,205600000.0,68860729.02523069
1391,1232,1,345836000.0,1718005679.6815276,48837000.0,1605126892.9896905,296999000.0,524744482.8459374,3870000.0,190323997.96505916,113328000.0,192756865.90394932,116752000.0,333565337.96043384,297000.0,40559021.06884506,3573000.0,219374648.36742926,297000.0,62289322.15261465
1734,577,1,20108000.0,1734338550.3130574,9068000.0,1486771892.644798,11040000.0,415064604.3736032,3847000.0,184069013.6067592,661000.0,148513508.69944763,4508000.0,242185926.84140635,-4126000.0,38934904.993362546,7973000.0,216855231.04779303,-4126000.0,46462719.380874425
1416,1268,0,1564856000.0,4216377992.51874,1122858000.0,1988545097.2171981,416354000.0,1900737640.5912087,276207000.0,251417372.10513073,-11227000.0,327981240.86274153,264980000.0,443637409.53182447,5657000.0,68747225.80146079,270550000.0,238462406.00026456,5657000.0,74154242.31037255
352,288,0,1125373000.0,4476865403.1984215,521681703.6382896,1886102630.8672657,29987000.0,1900737640.5912087,142411000.0,202638283.1557808,-42080000.0,257461044.18642837,100331000.0,432022600.02804816,17283000.0,62268199.672452785,125128000.0,223830556.9430139,17283000.0,67076942.85481455
135,561,2,630871000.0,1779865441.5680375,398464000.0,1511100366.6704407,232407000.0,710642969.3407016,80823000.0,179174419.97545958,413091000.0,311416824.4995312,493914000.0,460812281.5193429,-14453000.0,29747307.44762741,95276000.0,215252542.92408535,-14453000.0,60288544.688734055
1338,659,4,123668000.0,1719918438.64646,40963000.0,1412454326.8865478,50285000.0,496915627.849471,29188000.0,146365318.38190642,11108000.0,174635746.0732385,40296000.0,239912425.1323992,-25553000.0,26698197.29065141,35508000.0,220899349.14356315,-6320000.0,21843358.196776852
1076,444,4,34865437.0,1638734993.4501305,19085704.0,1250369612.3615184,15779733.0,467113020.2510742,0.0,141159947.04710022,1198.0,173478395.74052286,1198.0,214381777.062994,-6520186.0,21376860.81247165,6520186.0,189410302.8109017,-6520186.0,24235217.10295533
1426,1104,4,1275550000.0,1937864144.5685844,1504271000.0,1642577035.0807128,-228721000.0,606852227.7261176,-35238000.0,147330854.07610807,59168000.0,279180298.8603904,23930000.0,294213896.47927773,6621000.0,13442727.441923827,102745000.0,193449445.6661681,-137983000.0,30876281.71500332
2023,1321,2,151712000.0,1683356375.8983603,195428000.0,1159528694.1758308,28605000.0,402324281.8394245,11588000.0,145436887.82153845,43977000.0,140467285.00041378,55565000.0,256709907.8629732,-8864000.0,14880230.734095156,20452000.0,183353059.90865308,-8864000.0,54381865.22520235
1219,102,1,1812825000.0,2312734184.2582593,1134969000.0,2016354984.8394408,677856000.0,1041837160.8407015,53184000.0,284899920.76529515,120142000.0,350870608.5993941,173326000.0,517536008.2698977,31929000.0,55734019.00625253,16945000.0,273798556.7308629,36239000.0,68158887.69660999
201,633,0,-1450776000.0,4015734468.633641,-894261000.0,949028014.088934,-556515000.0,1900737640.5912087,162740000.0,227348476.6932132,213058000.0,395218230.720269,375798000.0,607629299.1875279,-31210000.0,43751361.47380352,193950000.0,219393174.60318634,-31210000.0,75264319.23711692
580,782,1,526507000.0,2454773675.427093,370554000.0,1834493741.3735259,155953000.0,422286623.5060146,66328000.0,244605716.55395404,107226000.0,304632020.9639301,173554000.0,479648793.43258274,-7923000.0,45589444.88597332,69543000.0,246382528.4178257,-3215000.0,66329621.1892396
268,1214,4,3089123000.0,3501191568.799244,1300561000.0,2128379584.606295,1788562000.0,1211906495.4381902,286131000.0,253980826.59359863,850247000.0,359824652.074994,1136378000.0,693142950.6479609,205227000.0,64071780.36569933,1010678000.0,293483238.62188804,-724547000.0,31590090.176348407
484,1597,4,2026392000.0,2629751734.934271,773709000.0,1924297562.0577772,1259138837.126244,872354030.0253975,36270000.0,191450444.67817602,906000.0,298660662.6931711,37176000.0,389016540.81244826,-286393000.0,23656945.1554337,341823000.0,247620524.14222836,-305553000.0,22988825.55189646
1169,141,2,59798486.0,1413914356.9652658,24561228.0,987310581.5139382,24680354.49630476,362026683.5316547,-143441.0,114169171.8928197,231837.0,160170509.15955067,88396.0,214951311.54053712,-6239976.0,8958685.182418332,6096535.0,166591948.5583228,-6239976.0,59195719.3415151
595,745,3,269960000.0,1776020486.9793034,370356000.0,1459919994.8514223,-100396000.0,574619198.5063353,29296000.0,196336700.51270556,911000.0,205901154.0702814,30207000.0,327138600.5052663,-31260000.0,26670590.449227393,67269000.0,153382112.59843373,-37973000.0,99576225.56751771
1664,134,4,1411497000.0,2770976674.1635265,713457000.0,2039019079.7231355,667698000.0,836826231.0736749,123110000.0,195411361.12037796,21917000.0,309813636.3088096,145027000.0,361875681.85384977,16171000.0,49471521.72951507,124278000.0,239407471.12029448,-1168000.0,29982588.1947804
1737,1476,2,1068388000.0,2177941174.7693214,793168000.0,1540150857.0126104,275220000.0,746988682.2304603,1125000.0,190833427.1897401,126961000.0,324796912.69652706,114574000.0,426357556.9372784,-123332000.0,17004616.496666104,124457000.0,206411174.3845013,-123332000.0,60363046.646438085
1105,754,4,736494000.0,2291402750.56272,390655000.0,1828549742.411217,345839000.0,588468444.8862228,107458000.0,154111444.86995122,77264000.0,245454356.10195673,184722000.0,293762736.3331928,-21496000.0,35599234.33626728,128954000.0,213914278.4137687,-21496000.0,16295276.469794683
366,1105,3,1026034000.0,2383752691.5559473,544592518.5648394,1552032685.249806,829659000.0,989714044.6076161,179923000.0,220842798.45402294,-1664000.0,283146805.1355052,178259000.0,440990683.94473684,43073000.0,60785296.66738516,136850000.0,169134361.91962332,43073000.0,102327756.5388571
847,1594,2,2995900000.0,3284627101.665906,1720300000.0,1962554369.3973367,1275600000.0,1021521526.3268304,234800000.0,307955725.72135,244100000.0,465223580.3726142,478900000.0,623369484.1002429,25200000.0,46819725.77642199,209600000.0,240348576.53646845,25200000.0,61406174.921123385
1604,937,1,700529000.0,2004237689.1409802,363632000.0,1665731939.8052251,335762000.0,650148862.428893,46249000.0,230302212.5552377,72678000.0,236563393.1696356,118927000.0,349500588.0879593,-13197000.0,37664553.11511098,59446000.0,228642825.36520544,-13197000.0,42915218.03119885
579,168,0,5913288000.0,5633832057.025847,5639252000.0,3189423604.1421204,274036000.0,1900737640.5912087,470311000.0,468948501.4518022,1040995000.0,703926887.1270964,1511306000.0,1294942261.2879748,65962000.0,104891571.71622328,404349000.0,302851954.77335954,65962000.0,76055434.58322203
874,482,1,232365000.0,1923787437.0735488,164743000.0,1705678191.4361398,67622000.0,588665567.3329955,43176000.0,234309588.8561128,202053000.0,261892719.16299218,245229000.0,357725962.107998,9035000.0,48391675.73937556,31930000.0,241829606.80808327,11246000.0,59122614.780356094
193,38,0,24556000.0,3780918878.5827913,5997000.0,748476478.747705,18559000.0,1900737640.5912087,-561000.0,108122522.1607706,1648000.0,114248933.32444751,1087000.0,208127570.21717906,-8770000.0,28959889.683618218,3225000.0,153011793.97392142,-3786000.0,63103751.27187608
680,820,3,7852974.0,1414569697.3039017,8726749.0,1058615384.5100718,-873775.0,409772448.70469284,1562860.0,109270022.86839402,0.0,113711818.30558306,1562860.0,227464560.61998665,-1603437.0,13870180.915308788,3166297.0,116461952.61166674,-1603437.0,99507152.29172762
702,1325,3,52606000.0,1601667226.309095,31088000.0,1218639536.36731,21518000.0,488619750.6687254,2202000.0,147243240.06461662,21569000.0,140544136.50469327,23771000.0,244353454.59213066,-1737000.0,20954998.15718849,2889000.0,124182620.40571311,-687000.0,99507152.29172762
499,967,1,641605000.0,2009539854.2795672,98505000.0,1762858195.6686933,543100000.0,538321265.3384162,35752000.0,227714421.51059985,3063000.0,227092652.3084374,38815000.0,384196613.5582905,-5995000.0,46220250.029039994,24767000.0,239952221.74119815,10985000.0,67674593.76143587
277,961,2,428119000.0,2116837305.326397,200385000.0,1300749214.164206,227734000.0,643614351.9301633,32734000.0,189939429.67917186,3693000.0,267866425.63770604,36427000.0,333701834.13134277,-31432000.0,17242407.7396497,67859000.0,218216272.76997164,-35125000.0,63798379.8593258
1540,700,3,1748597000.0,2660843098.3418636,773677579.6790999,2435629953.9021535,871968000.0,1081247318.88849,88936000.0,250759119.7097898,314131000.0,357195133.36717445,403067000.0,450054806.52382815,36520000.0,73551460.51092064,38806000.0,170339819.1472365,50130000.0,100607541.44827299
40,1512,1,-12646800000.0,2296302026.557952,-10176700000.0,-283111803.3173866,-2456100000.0,934998755.136961,244400000.0,335535567.6344295,496400000.0,581722597.5358564,740800000.0,1022349419.1369783,16300000.0,251923147.3752517,228100000.0,272231651.7101801,16300000.0,58202783.29793155
109,958,0,1646711000.0,4474527345.1099415,1388441000.0,2306601708.124159,258270000.0,1900737640.5912087,48094000.0,226857387.84981087,144654000.0,455566477.0624068,147710000.0,655564836.3357986,-42502000.0,42789646.986360386,79586000.0,232127709.6762706,-31492000.0,68959793.68064997
111,1108,0,632540000.0,4120058261.8688025,270366000.0,1560115921.1529682,362174000.0,1900737640.5912087,197077000.0,192420949.78406817,14622000.0,252827598.29417527,211699000.0,391371920.5118836,-57776000.0,44122403.06753729,97890000.0,229421630.8115806,99187000.0,65991255.90218511
662,285,3,156269000.0,1681210300.640213,70363000.0,1525999786.8724024,85906000.0,576956560.2414229,19503000.0,181624268.5885648,30881000.0,176309830.06321537,50384000.0,293476945.80745864,3657000.0,44443521.85366029,15846000.0,141157884.04248166,3657000.0,98436510.27685493
1749,1091,2,12875300000.0,9398359813.037745,6095371591.431398,4119438900.441901,1810000000.0,2934473431.149312,1227700000.0,600492888.9994497,4400600000.0,2157955116.982374,5628300000.0,3451532889.5449424,478400000.0,229159778.48841363,749300000.0,356133623.84888303,478400000.0,60847724.07591333
340,1347,1,441781000.0,2075550513.078711,86587000.0,1675091198.1072102,355194000.0,693790255.6511085,97393000.0,208100316.99643865,44971000.0,223895697.24546856,142364000.0,374039174.2649864,9954000.0,41666846.69443748,87439000.0,238645293.83869576,9954000.0,44715606.245066084
811,109,4,1903960000.0,3408940365.1707945,1118147333.3250542,1660838201.2797568,464992000.0,1195457295.5366468,314173000.0,281329556.1292442,381360000.0,386746060.1652839,695533000.0,812168435.2889243,49703000.0,63555367.83617457,262823000.0,249946686.63676244,51350000.0,30745127.664445996
1016,567,1,413017000.0,1884161929.973659,156380700.0672279,1524366704.8041537,290614000.0,497936330.5629612,164000.0,186613468.67234534,0.0,159092482.56566513,164000.0,304200985.4799354,-47612000.0,34234043.51824333,47776000.0,230120523.45798606,-47612000.0,50126665.19585764
1696,268,0,6459000000.0,5106342105.416732,3814000000.0,3038079597.977944,2645000000.0,1900737640.5912087,417000000.0,440723950.41741836,1137000000.0,703861786.4430377,1554000000.0,1182485239.6695557,109000000.0,86932254.28399916,308000000.0,283955469.26092863,109000000.0,76055434.58322203
200,763,0,6683800000.0,4921512815.539809,2530688381.1304083,2878431960.3795147,4153111618.869592,1900737640.5912087,363300000.0,415612166.24294454,268000000.0,559573605.1286131,631300000.0,904013695.9480186,83300000.0,84686381.6210732,257700000.0,308678551.004346,105600000.0,74941860.43210268
1994,1188,0,165094000.0,3871234892.993394,70482000.0,1245358452.0662374,94612000.0,1900737640.5912087,17629000.0,154511347.57256043,13074000.0,183980758.58704507,30703000.0,319401182.38635325,1152000.0,44867835.57974746,16477000.0,197968781.4164355,1152000.0,76455115.62454101
735,352,1,8604673.0,1458046080.7191176,2338502.0,1413479755.7496686,6266171.0,338923643.87149024,1119391.0,129989558.95217186,1576117.0,146237830.77930236,2695508.0,224762299.40178108,23726.0,34516957.90810807,1095665.0,177789605.6874762,23726.0,28090037.09595324
1160,1540,4,30395557000.0,15405033000.278883,16133181687.752192,3741538255.43552,6297705000.0,4253702874.0993905,3044686000.0,2273040697.777578,6751495000.0,3871272923.176667,9796181000.0,5347144817.423197,692314000.0,421936391.13530546,2352372000.0,722896175.5928054,692314000.0,74109718.61631909
2018,841,2,764077821.0,1858970136.6549573,149164973.0,1266290094.6421134,540969385.0,548931960.1961759,20737462.0,198107223.3907968,3810639.0,248652300.42024678,24548101.0,342142178.94900143,-1942729.0,20562869.27087389,26490830.0,224283711.2745932,-5753368.0,61548910.30074528
597,1362,1,19932000000.0,15755193336.132679,15924000000.0,6982568945.371853,3938000000.0,3229934508.1585665,677000000.0,647733628.0577235,2894000000.0,1982783523.36389,3571000000.0,2924317594.031652,325000000.0,148226322.34619102,132000000.0,320931212.3831576,545000000.0,64485787.612289175
1089,365,3,114455000.0,1633080266.9540772,66800000.0,1247201103.7206717,47655000.0,463689070.45026803,-324000.0,140324731.7085439,692000.0,136138022.16506308,368000.0,248734784.75815225,-4444000.0,17714444.22796543,6127000.0,127241365.97321263,-6451000.0,99576225.56751771
1635,1058,0,123009000000.0,31829946801.946644,61047097858.95223,29444785009.873257,24132000000.0,1900737640.5912087,3661000000.0,1824911432.2374177,846000000.0,1241374005.1845188,4507000000.0,3730457561.306306,401000000.0,280300700.77029276,5487000000.0,1059042715.6366091,-1826000000.0,70480761.45759222
394,898,0,1472222000.0,4186759098.3250055,444895000.0,1742793092.229109,1027327000.0,1900737640.5912087,423804000.0,228339159.41706693,0.0,302449381.0868377,423804000.0,466419967.999447,44683000.0,56249002.32088558,379121000.0,233675936.2822886,44683000.0,73682437.65788801
176,1342,1,1707972000.0,2133477229.0564265,826699000.0,1923803673.476608,881273000.0,853951956.1441808,161237000.0,240180685.70673668,18721000.0,304497906.09332645,179958000.0,436240948.7827426,-38330000.0,49655386.56458053,218288000.0,252544349.1245414,-57051000.0,64734741.051501274
958,1209,4,140348000.0,1878169938.294704,22627000.0,1487337809.811803,117721000.0,499940253.7901993,18849000.0,147294832.75189665,19797000.0,172875408.90109664,38646000.0,249974722.71388793,5179000.0,28679811.381533295,24028000.0,193595143.01961416,-5179000.0,17600949.94780676
651,1103,0,68862000000.0,21882252060.26224,37281000000.0,19905550455.890686,30258000000.0,2194992075.8596334,682000000.0,1099130564.003581,1405000000.0,1088967448.094622,2087000000.0,2614729965.5318604,938000000.0,311786921.0786189,2969000000.0,722405708.8276238,-2287000000.0,74941860.43210268
648,1099,4,484306000.0,2437716615.5140066,160149000.0,1611290746.299419,324110000.0,803321163.6896334,35935000.0,192674136.42610228,49919000.0,253694672.51990813,85854000.0,316792654.3733008,8224000.0,51006046.51403732,26558000.0,219129589.20199573,9377000.0,29647457.56730702
1124,928,0,263629355.0,3780918878.5827913,139827658.8984726,1037149431.97612,106790041.0,1900737640.5912087,4718481.0,139908188.07920158,-3354938.0,145661086.9290408,1363543.0,276809309.8918501,2345966.0,43831281.921672545,2372515.0,174712158.9565003,2345966.0,72136757.40736721
1983,736,2,22654400000.0,15361493260.046612,10023579681.929111,6958891303.140431,12050300000.0,7510434295.996788,409600000.0,836501208.6602215,3138700000.0,1587758951.826026,3548300000.0,3197610869.168055,145800000.0,269468222.7405361,119900000.0,350647855.62040704,289700000.0,62043774.329388745
1330,241,2,55695000.0,1522687556.958632,80300000.0,1158959471.3650093,-24605000.0,485048783.628585,-33328000.0,151636819.27518547,45694000.0,178479816.67754853,12366000.0,276574262.45917356,-48025000.0,11491759.386232376,14697000.0,186573987.39152312,-48025000.0,56770981.658078775
445,395,3,33248145.0,1537267958.501614,21743057.0,1167589360.9088757,11505088.0,532513068.06633353,1461398.0,160028307.78822184,569502.0,140794397.8443513,2030900.0,244539927.94916916,-12979193.0,16990614.901783407,15010093.0,130009872.9988612,-13548695.0,100156725.36743905
908,1449,4,19900000000.0,8138738973.850996,10348000000.0,5189976805.745352,9552000000.0,4181773842.720423,2649000000.0,1277181754.4407923,0.0,727391793.3979775,2649000000.0,2191676659.5068974,467000000.0,172199097.88745564,2182000000.0,631342829.5044029,467000000.0,32265656.280718174
1585,674,4,2485319000.0,3797495300.9474726,1254039550.5762374,2021159042.709728,1849463000.0,1344144545.4739995,775144000.0,290339405.67815757,0.0,326143324.6130805,775144000.0,603353783.5450054,128435000.0,64770610.68208651,646709000.0,263166733.47430843,128435000.0,34426961.504407324
643,1569,0,959084000.0,4277387596.6756835,491986000.0,1980936187.675885,395838334.6316486,1900737640.5912087,56609000.0,187147131.1362512,47928000.0,259441152.00655115,104537000.0,386699141.67565143,-22287000.0,40728762.70779009,141301000.0,231003834.7576237,-84692000.0,68676563.58141704
1240,1570,4,1657157000.0,3154642532.081751,2335507000.0,2367736185.1887007,-678350000.0,875838329.0489452,-96698000.0,206526237.35468778,98929000.0,333789647.4337946,2231000.0,599408914.6864625,-125632000.0,38391629.107609704,312618000.0,238252306.6666515,-409316000.0,29618790.096944015
64,427,1,1590600000.0,2388990657.392198,748600000.0,2017126033.9016101,842000000.0,818077274.7451537,59700000.0,257978950.95431143,141700000.0,327447587.1364187,201400000.0,476283510.5775219,13800000.0,55267974.21866114,37700000.0,270741528.23420143,22000000.0,71002893.78771396
1027,658,0,919607000.0,4204263004.7384787,266509000.0,1744855842.800561,653098000.0,1900737640.5912087,68886000.0,178910101.0587738,19532000.0,249129623.09506613,84131000.0,375779481.1785015,-18050000.0,46222283.431409955,86936000.0,219097194.30993125,-18050000.0,75229499.64077355
1034,320,3,121754701.0,1741474464.4713707,28424394.0,1146420119.6975431,93330307.0,615222409.2043881,1406469.0,173868517.065269,-1378985.0,160595254.21137416,27484.0,268521878.4234625,-14928443.0,13936589.731008574,16334912.0,158632799.47890586,-14928443.0,100607541.44827299
802,514,4,12973000000.0,5849636170.894814,6013807636.489885,3387672614.2318997,6537000000.0,2737155717.4454947,82000000.0,451990659.3614659,545000000.0,681702183.24029,627000000.0,1417351366.929733,7000000.0,117664462.58755767,46000000.0,399971553.5292594,36000000.0,64383585.174335994
981,945,3,613608000.0,2234488461.373605,391072000.0,1460548083.4512677,222536000.0,767082261.9603765,1437000.0,201834680.8320247,10955000.0,226926133.46492803,12392000.0,344553746.679495,-84729000.0,25646749.157575116,40703000.0,155959964.35209507,-39266000.0,102327756.5388571
1046,867,1,102303000.0,1782078233.3914847,104192000.0,1705992480.9235723,-1889000.0,434600553.4832771,12811000.0,214899214.17426533,42439000.0,194943565.2819206,55250000.0,294365277.1885383,700000.0,45234300.32425318,12111000.0,244264440.78785643,700000.0,55040650.493488826
581,454,4,1023085000.0,2573260838.3846493,937155000.0,1688825273.65217,85930000.0,862936259.9382745,87759000.0,239441078.4273316,257840000.0,362450267.91598856,345599000.0,646429819.3741608,-36941000.0,45219803.66219132,111965000.0,226595931.24797833,-24206000.0,32008983.01895452
1033,472,1,822101000.0,2163098493.4118686,260505000.0,1697475418.8353431,561596000.0,610429232.0533307,113425000.0,226491881.45900914,-8261000.0,200624341.07652265,105164000.0,333141190.2005023,25956000.0,38639658.00007599,87469000.0,254700615.67421353,25956000.0,64607554.87231882
1908,1238,0,972779000.0,4332988240.473663,674585000.0,1934569011.6329968,298194000.0,1900737640.5912087,81122000.0,200870271.50697505,33069000.0,296692707.329892,114191000.0,436269745.1111047,-12742000.0,42045119.66505258,93864000.0,224337846.03265107,-12742000.0,74941860.43210268
1486,904,4,505122000.0,1997908867.38631,329765000.0,1681285097.3723767,175357000.0,672132340.8323805,66862000.0,167174249.75615177,-15726000.0,251707519.7674557,51136000.0,335569860.4770011,-8784000.0,37147780.479706265,75646000.0,198627041.62738013,-8784000.0,28752632.906808645
640,990,3,420505000.0,2392223823.274745,230508000.0,1422792083.405919,189997000.0,692049143.6336019,53603000.0,202511104.31894535,71511000.0,219989689.89928353,125114000.0,331932944.4883357,16734000.0,40898146.2236032,36869000.0,167531120.07916072,16734000.0,102327756.5388571
1988,706,2,216274000000.0,95309664189.34894,73401000000.0,28398577143.888332,142873000000.0,40073491673.29643,27936000000.0,8314814072.46386,6210000000.0,3839976749.545145,34146000000.0,17953490500.7547,13748000000.0,2423287610.261094,20398000000.0,7007235628.024428,7538000000.0,89307115.21420166
469,262,1,122531000000.0,9891971034.689705,74517000000.0,14397538749.635717,57494689417.43809,-5625351982.969648,11370000000.0,3944771961.2169003,10501000000.0,4661291754.876543,21871000000.0,13336784760.893202,5767000000.0,1863689717.0173607,5604000000.0,2139918893.9193852,5766000000.0,100719622.51618385
606,1374,4,5723214000.0,3981725579.051263,2776207000.0,2113985358.3737836,2947007000.0,1618849879.0808792,448941000.0,380393650.8623393,516900000.0,440440296.66868937,865197000.0,826764935.5912769,78214000.0,73795483.03858216,370727000.0,233646258.2556051,78214000.0,35587723.62413004
1877,1138,0,689227000.0,3810123513.6167717,562767000.0,1496618182.88614,126460000.0,1900737640.5912087,40662000.0,157661293.4654802,11086000.0,190134973.12437558,47740000.0,311716481.3371904,-28335000.0,51055977.6209342,68997000.0,202593363.52423102,-28335000.0,76224517.87762836
1148,1255,3,600857000.0,1783898630.7952514,331349000.0,1942635818.526363,269508000.0,558563022.1229761,50595000.0,170370046.332538,6532000.0,182801364.47778398,57127000.0,339928753.86379874,-62120000.0,24228823.448932678,83188000.0,155592011.50122944,-32593000.0,101296440.65810183
1653,1150,3,56794000.0,1419062603.8414488,12682000.0,1220912161.5830972,44112000.0,457334994.3064765,25087000.0,149787365.88457954,14791000.0,145856976.77387828,39878000.0,244498980.7749499,-4627000.0,17568877.328551322,44505000.0,131756823.86608681,-19418000.0,98511996.54332371
1205,743,0,3747000.0,3747643103.835781,4407000.0,754224473.4399862,-660000.0,1876015074.0246158,-1515000.0,113863586.37849396,1515000.0,125234095.86345899,0.0,235320881.50094724,-2598000.0,30962145.845235094,1083000.0,159613976.81708294,-2598000.0,65901350.139522865
1612,891,2,3505835000.0,3324071368.4533267,1860807256.214476,2108268477.5775428,1470074000.0,1326238631.4322662,601953000.0,329092314.88866025,626097000.0,627017479.9987793,1228050000.0,875375294.2142962,88554000.0,59060653.087667845,475916000.0,310071447.56768924,126037000.0,62146999.2356452
1894,1039,4,203011000.0,1626796689.2223449,255300000.0,1543145248.4917336,-52289000.0,526488227.71105766,8409000.0,142628962.92341897,25579000.0,187439857.27632207,33988000.0,256158244.24343967,-8212000.0,18139717.75754717,15533000.0,220780999.09812433,-7124000.0,22217785.447687864
458,712,1,3126495000.0,2644457360.4327354,2137404000.0,1834654414.4539442,989091000.0,1183981612.024153,70679000.0,315709487.11817765,930828000.0,394499740.9129417,1001507000.0,646790600.499985,21039000.0,60119634.24354858,49640000.0,273714786.46007186,21039000.0,67039247.40518195
782,165,3,36175654.0,1469774475.7665772,19187381.496044576,1158020610.3534482,18868678.0,457781625.8231238,22295962.0,130108918.30086952,2274626.0,146784341.89913416,24570588.0,240893043.01558495,-1191082.0,19611152.134052247,23487044.0,133193560.24683371,-1191082.0,99507152.29172762
21,232,1,3642433000.0,4237740636.056669,1611617055.0351417,2651183721.5622873,2307595000.0,1653785291.4914007,392263000.0,488310600.45122975,1442178000.0,714492738.2433213,1834441000.0,1534484823.8873608,185633000.0,111500824.06197236,1648808000.0,431716954.4079325,-1256545000.0,65773908.43208438
323,342,1,102171000.0,1718348225.1777987,80142000.0,1360331186.8881602,22029000.0,519457401.16503847,11994000.0,176534137.16854495,1280000.0,178395046.26839995,12084000.0,269184867.5180918,-8453000.0,34287735.49045295,20447000.0,208222483.86017877,-8453000.0,34420622.06602529
1847,1419,4,11562769000.0,7433741601.662998,8634392000.0,3373580249.4256315,2928377000.0,2445395696.607213,696915000.0,564393114.9856604,4617768000.0,2032747607.6905127,5314683000.0,3071977244.9822307,87484000.0,89488015.75999205,6096071000.0,1645032235.3885558,-5399156000.0,-127287135.9472647
1304,989,4,1061958000.0,2169696496.051662,603583000.0,1688726871.79802,275904000.0,624789815.5279275,75380000.0,157963939.1552077,85007000.0,262536049.31172514,160387000.0,301256947.38857627,19279000.0,38059826.3146881,56101000.0,238630285.25357723,19279000.0,23976568.10321726
1031,77,1,1709464000.0,2275766259.878485,792444897.6724385,1729547149.2171283,917019102.3275616,720257758.8329844,-50089000.0,250348528.3493908,206500000.0,295380253.5679987,156411000.0,423384594.6600337,62554000.0,50780346.743989244,32611000.0,242987058.85106742,-82700000.0,65597588.94455957
1109,1048,0,1182200000.0,4355968043.345719,559672263.5892134,1649658023.8704603,993300000.0,1900737640.5912087,77500000.0,264394641.6662498,102700000.0,342741067.16943395,175100000.0,500209261.5127859,21600000.0,62815984.497330725,55900000.0,227200495.01839298,21600000.0,76055434.58322203
1483,1507,1,15318000000.0,11777529589.288712,8995872209.433592,4880337820.431552,2835000000.0,2719039654.0605445,2220000000.0,1329650837.4153318,7363000000.0,5538729490.900998,9583000000.0,5874605820.389746,348000000.0,159016862.2492221,1879000000.0,658747624.9042645,341000000.0,72794156.02670339
739,1417,1,2898416000.0,1711950331.8475623,2080781000.0,1564462316.9549475,476998000.0,426663484.86750424,19746000.0,191953602.6385752,-19746000.0,184703555.59769475,0.0,315066185.00289917,-16089000.0,37762860.43138035,35835000.0,228188275.12356505,-16089000.0,54423634.74616178
1565,1261,2,37777000.0,1567430579.214459,8088000.0,1139436991.2830765,29689000.0,472661074.9068202,1942000.0,133597506.40054405,1878000.0,180776947.8969463,3820000.0,267580363.22563648,-3377000.0,13008585.043654412,5319000.0,174052716.05256358,-3377000.0,58454895.02699328
1547,48,0,350115000.0,3946111772.7104797,124447000.0,1384943563.6237335,144501356.0121529,1900737640.5912087,23341000.0,204761723.14803302,74465000.0,258438168.70282114,97806000.0,422452241.07250905,1273000.0,57519762.278784074,21144000.0,203625112.85742578,2197000.0,76009002.28012303
1772,61,2,60756000.0,1688101074.1333003,14120000.0,1062940185.325315,46636000.0,475085574.85517883,39398000.0,154658388.6590256,0.0,180111912.2714039,39398000.0,248279439.01567483,1277000.0,15434350.514441222,38121000.0,181681535.37350756,1277000.0,58454895.02699328
396,1484,4,2329417000.0,3146402527.12868,1103945000.0,2093217297.241756,1225472000.0,1083706995.8164487,201803000.0,219530441.87896797,84310000.0,369618368.52975947,286113000.0,545918513.1306423,4458000.0,48147290.75463702,134794000.0,237471942.36188075,67009000.0,34046906.20724875
370,1128,0,322707000.0,4129309296.500608,203952000.0,1551714132.7013447,133189378.04611006,1900737640.5912087,59563000.0,185802942.86132205,32549000.0,246135349.88574123,92112000.0,366659509.1403581,2829000.0,55858562.22044614,56734000.0,214801975.56898457,2829000.0,73690009.44699045
1387,362,1,16986396.0,1426467918.9125342,28398941.0,1159100384.04222,7976898.609990532,298627808.8353119,-2992.0,118581435.8127178,2987192.0,137160162.42064536,2984200.0,233263561.48027325,-2823081.0,35703535.83985081,2820089.0,159093721.49851593,-2823081.0,14309423.395098642
1633,1474,4,5507733.0,1632031854.1806145,3754986.0,1290013639.6975534,1752747.0,405951537.1595173,77969.0,124143690.30262843,690.0,166886641.43521398,78659.0,203947769.94070387,-1288944.0,23197393.15793056,1288944.0,167257269.7624805,-1210975.0,13486213.637576165
1459,843,0,2951779000.0,4312656439.96331,1733504809.66769,2209406651.4219866,-705417000.0,1900737640.5912087,103159000.0,257385786.2254501,95357000.0,351945806.463029,198516000.0,524898031.8766209,63542000.0,68807997.77923098,39617000.0,250771583.36458105,63542000.0,73615072.74904218
447,15,2,1389340000.0,2618214041.5994053,870172000.0,1948210651.7776225,518687000.0,1005566050.2053547,122910000.0,290256131.913141,509918000.0,408907885.4919567,632828000.0,616962833.7344196,77637000.0,56678017.49691907,35836000.0,222845245.8480454,87074000.0,62043774.329388745
1342,527,1,670100000.0,1899821689.1927342,96919000.0,1421101162.6712482,573181000.0,633636008.5750978,45369000.0,185733298.42274642,10723000.0,204350121.06842995,56092000.0,349333797.92324877,-44376000.0,33992083.982408576,100468000.0,213822573.1122466,-55099000.0,27969507.185452156
1101,1050,3,796235000.0,1452053192.4058275,203741000.0,1137342992.294165,463390000.0,437054027.4774816,475000.0,139006989.50039798,0.0,154881226.1103055,475000.0,242753560.75452256,-25797000.0,12862356.19092092,26272000.0,134018041.54849309,-25797000.0,99507152.29172762
1559,148,0,243654000.0,3766267897.8172836,108112000.0,1144428203.107761,135542000.0,1876015074.0246158,37230000.0,154996842.179299,3845000.0,162596270.14306873,4798000.0,287377560.16203296,-21869000.0,32341019.972634763,59099000.0,203606924.44902498,-21869000.0,60500438.06305471
1859,83,0,63057347.0,3845045668.9585347,37031977.76980746,1031539343.0305767,50373559.0,1900737640.5912087,5114390.0,147314673.10001707,9540399.0,162410867.17103326,14654789.0,260043741.818936,3126608.0,41487074.604973406,1987782.0,189921468.9382458,3126608.0,72804546.38363194
625,862,1,2120798000.0,2466124936.0498805,1472395000.0,1629553096.9222987,648403000.0,747741486.5937842,67913000.0,259785302.94580442,30767000.0,301945479.91109854,98680000.0,451107628.1019708,-9629000.0,38010392.214284584,77542000.0,245354038.36798546,-9629000.0,33048461.974396553
1728,309,4,706517000.0,2380179717.4000483,905805000.0,1866524809.6278474,-199288000.0,703265291.1981578,73709000.0,169463538.13421035,16853000.0,264032586.00466967,90562000.0,331372646.06275487,38915000.0,46608339.91497791,34794000.0,240750218.31164432,38915000.0,12753038.416346906
1404,810,3,76126346.0,1597174319.7715478,61120101.0,1163775635.1556327,15006245.0,434499333.2921325,2282652.0,120661622.23692471,31006950.0,135759430.12878877,33289602.0,251708283.14803147,-2890968.0,21446695.97667171,5173620.0,121415839.35399404,-2890968.0,99507152.29172762
1515,939,4,156303000.0,1839986694.2270384,83901000.0,1484432732.3609903,72402000.0,550748756.708415,17689000.0,151891305.939974,41469000.0,229325743.82737565,59158000.0,278001012.9626751,-2517000.0,34857038.6459527,20206000.0,207100840.59858048,-2517000.0,31400381.97263378
1800,66,2,3271200000.0,3950465620.07044,1447362713.447565,2401986710.452783,-21400000.0,1383351425.3470147,31300000.0,305005498.03611064,847700000.0,550185204.85504,879000000.0,991528881.3722227,-16400000.0,58577099.84693629,66600000.0,266342060.15058005,-35300000.0,62043774.329388745
4,694,4,7361000.0,1576724620.255118,2671000.0,1121432031.720025,4573903.262590003,417902019.6448853,349000.0,132119525.32054669,109000.0,157844682.99642825,458000.0,212043311.107736,-670000.0,25423155.953359373,1019000.0,171595118.96649975,-670000.0,27627854.30077622
1400,327,1,-4860602000.0,2061608718.23811,-990657000.0,-56010325.61896086,-3869945000.0,1240827208.5047143,193881000.0,320576501.7123963,378009000.0,471605341.5281168,571890000.0,773262941.2294295,36078000.0,59476261.78097477,124685000.0,271855963.72677004,69196000.0,72269557.65024257
617,1153,0,5475000000.0,5313876222.410265,4861300000.0,3280843930.934632,613700000.0,1900737640.5912087,130600000.0,384671790.10014004,1421300000.0,674008249.2423487,1551900000.0,1086916605.1500707,23900000.0,82598571.01214695,81800000.0,297302690.71772987,48800000.0,74682799.11317006
570,813,0,9643000.0,3680926662.912142,6164000.0,825578957.5060396,3479000.0,1900737640.5912087,1843000.0,119376109.383116,2246000.0,138885305.04398382,4089000.0,265352504.16953266,-437000.0,33910604.250057176,2240000.0,176540140.03088945,-397000.0,72346982.7323544
2015,17,2,12012800000.0,4088310608.974282,6608200000.0,2820535665.746297,4911800000.0,1386398554.2769296,457000000.0,374803070.79108083,316800000.0,491269603.5470948,773800000.0,815770350.9014115,145800000.0,74537665.55190837,203500000.0,270790115.42076385,253500000.0,60847724.07591333
576,1047,1,6644800000.0,4099872172.6911106,3248100000.0,2244969021.782895,2786600000.0,1991860538.7472935,345800000.0,328781682.5736356,33000000.0,432434343.9841552,378800000.0,742530929.5307212,36000000.0,60552071.833001,342800000.0,272104747.97540265,3000000.0,70878098.94909081
1397,68,0,136174000.0,3888079226.1740885,62163000.0,1052865640.3797274,72304000.0,1900737640.5912087,10072000.0,160587297.10573363,-3712000.0,165020814.60691047,6360000.0,288024962.3660766,-12604000.0,42244025.494460404,22676000.0,202820295.55968875,-12604000.0,69557883.09920785
1134,1221,2,160043000.0,1673279490.3126159,101422000.0,1170370860.767385,58621000.0,428003735.8925643,15202000.0,143268386.7308783,-14386000.0,185538452.34855658,816000.0,271773855.45594835,-14398000.0,8010582.949365646,29600000.0,193884398.65931845,-14398000.0,57226207.59703237
188,196,2,9282000.0,1411971962.8598971,3493000.0,1021896463.1121378,5789000.0,399361958.6150049,355000.0,128318375.83872461,552000.0,146148284.0784127,907000.0,209484995.69258475,-972000.0,14423115.072942108,1327000.0,167989439.61820176,-972000.0,57816180.46163735
488,145,3,16124000000.0,7068496072.25416,13383000000.0,4411705429.1479225,2741000000.0,2788879494.746126,5251000000.0,1117723653.1632595,4961000000.0,1317510273.6039824,9233000000.0,2706353941.8943977,1583000000.0,233432239.07685912,3668000000.0,910060961.2117265,1583000000.0,102327756.5388571
1211,498,0,1601068000.0,4431476234.634343,1081707000.0,1939658821.8377852,519361000.0,1900737640.5912087,248876000.0,253339395.87503916,-34521000.0,364296223.85910463,214355000.0,472517911.3967054,19006000.0,55038427.1609097,229870000.0,240433513.2612143,19006000.0,74216792.93640426
1580,184,4,779622000.0,2757594523.6964493,153452000.0,1858190012.898663,626170000.0,1002856688.7869952,134561000.0,216646371.4982369,57608000.0,317054966.57443786,192169000.0,388142379.64603865,56917000.0,67989611.49063124,77644000.0,231295905.91161966,56917000.0,34615668.15027805
1533,213,0,4162272000.0,5068074404.339963,862254000.0,3193412343.748643,3299439000.0,1900737640.5912087,357871000.0,402831522.91630375,794265000.0,580228572.8339357,1152136000.0,848696879.2426734,114028000.0,92344302.91715983,194829000.0,300782115.4898831,163042000.0,76533429.29244426
818,583,0,13900400000.0,6983062876.656483,12204100000.0,4852123866.197017,7319729781.089915,1900737640.5912087,78200000.0,501095286.4116497,235100000.0,567008746.6821494,313300000.0,1289390545.3206308,174900000.0,122694977.08451088,116600000.0,324474327.50372946,-38400000.0,75929151.74936694
50,537,1,594022000.0,1962656848.8437371,132343000.0,1786266200.6099508,461679000.0,520442476.36907446,121956000.0,241130369.36515906,1645000.0,195987831.3328421,123601000.0,353438884.93197644,31177000.0,41838780.840754755,45262000.0,232778602.18614691,76694000.0,32561085.363445498
590,1171,2,1341960000.0,2358533560.8590207,666970000.0,1849950020.7971168,674990000.0,903254584.5859327,55930000.0,272681848.76738316,179410000.0,338746291.8893863,235340000.0,469251889.56703234,23760000.0,43145573.02850312,32290000.0,223142337.1632377,23640000.0,62043774.329388745
377,276,2,52901000.0,1535144969.4609094,24522965.98920461,1103402925.1655726,33404000.0,413504543.8066827,-1183000.0,134139308.14855933,24144000.0,168017981.6454785,22961000.0,231617785.68093634,-5692000.0,15184569.5121575,28653000.0,170793418.6885787,-29836000.0,56030157.343556955
1953,1136,2,877565000.0,2677225368.3234076,1336553000.0,1808872637.3260176,-475192000.0,971510844.6467652,522812000.0,290014559.764088,-345617000.0,407581132.0582098,177195000.0,657656163.3667257,31868000.0,45798489.02821541,490944000.0,249972218.17879874,31868000.0,59012230.71511276
1018,1253,0,26568400000.0,10269299112.954742,13080400000.0,10991766865.096813,13246000000.0,1900737640.5912087,1346200000.0,910404953.871781,1952200000.0,1058106660.2104738,3298400000.0,2096403346.0095634,592200000.0,150994387.35779992,746800000.0,384348777.61707,599400000.0,74172138.86468063
709,868,0,2933971000.0,4643177954.368205,2618511000.0,2168239109.8117275,315460000.0,1900737640.5912087,65062000.0,249767137.4215639,2191000.0,326329155.36117244,67253000.0,484150479.3942621,-143265000.0,54526323.02545313,69951000.0,254016050.15778592,-4889000.0,74581802.37519836
1121,747,1,27828200000.0,17702994631.25292,13810622382.415062,5439773596.863961,7212400000.0,3848017978.5780377,821300000.0,654306236.5994725,181300000.0,712103429.1910633,1002600000.0,1689661156.2418883,233000000.0,116653942.46751879,794400000.0,378499074.49580806,26900000.0,70878098.94909081
1026,1037,1,2788943000.0,3112907215.461305,2662320000.0,1961640852.1854916,126623000.0,1516528884.7561893,299166000.0,248820982.76017785,0.0,326876528.53577274,299166000.0,583926530.1078416,-281667000.0,48894433.118416615,580833000.0,241884940.675512,-281667000.0,62316460.145173006
1015,242,1,2489159000.0,3536247555.7959046,1954765000.0,2006326378.8064594,488897000.0,1149513649.8933318,294443000.0,321818899.3384314,370069000.0,503316691.71995753,636496000.0,897405988.5881975,64600000.0,60530631.504516825,229652000.0,274504435.30557907,64791000.0,71596277.02240767
1575,208,0,11961066.0,3673245150.548724,1068497.0,760332746.9602876,10892569.0,1876015074.0246158,611174.0,109719742.98455834,0.0,122683391.87102664,611174.0,219797590.93304193,-1146685.0,27260793.09991643,1757859.0,152939331.57960472,-1146685.0,56798657.733796716
826,84,4,93941000000.0,46336223850.313515,39446000000.0,17554365536.501427,53466000000.0,18996228410.187206,4178000000.0,3367689480.466956,15656000000.0,7480711476.4229965,18582000000.0,17648444974.67603,1764000000.0,1334848849.6712873,2414000000.0,1205722656.1908789,1764000000.0,273638425.45700276
463,901,2,32097000000.0,19243279314.50331,20419000000.0,7669258526.006877,10658000000.0,6130131914.074349,2071000000.0,1071540451.9703803,6360000000.0,3009769341.6205807,8431000000.0,4835486058.106097,950000000.0,488922758.13216966,831000000.0,502309491.23592913,1240000000.0,63798379.8593258
1660,1497,1,6578196.0,1632149148.7181516,4441488.0,1402384773.7662764,2465776.0,348840265.90591526,2008368.0,130029861.80539906,923641.0,144423664.73466098,2932009.0,223965892.76867032,-1328968.0,32272780.936382815,3337336.0,178661771.47981444,-1328968.0,22823375.986121528
700,60,3,1658042000.0,2546100820.66578,1223260000.0,1712797284.3369231,434782000.0,1033125880.866651,207698000.0,235221089.8292026,674127000.0,433792518.2012526,881825000.0,561364169.4379537,25549000.0,68608452.1476472,179614000.0,166964714.28291214,28084000.0,102327756.5388571
402,1152,1,9094896.0,1722663394.3413787,13593163.0,1571855796.6040277,-4498267.0,363326918.2293607,-928960.0,148195808.66440415,1115703.0,168029366.925606,186743.0,279429523.60955644,-5136642.0,29404675.83404638,4207682.0,189049393.45161808,-5136642.0,24840796.64909579
591,406,2,16788482.0,1551744445.1534152,821758.0,1054017654.2106082,15966723.0,301118806.05384576,906228.0,141907149.0118857,333325.0,118112273.74400252,1239553.0,201655961.74315333,-1096396.0,16062180.962829247,2002625.0,159937154.60998794,-1096397.0,54593630.24664793
412,1415,3,1678241000.0,2599879031.4132996,730813000.0,1684031104.7862964,947428000.0,945075391.3377788,62311000.0,246862607.39542034,89643000.0,312898311.807371,127553000.0,412448099.1646104,-24195000.0,47633327.87459616,86506000.0,164574227.20999148,-24195000.0,102327756.5388571
26,113,0,1363308942.0,4150131743.3304095,629855415.0,1519787262.5162365,733453527.0,1900737640.5912087,93681798.0,206911764.5146281,0.0,220232728.82103932,93681798.0,349825831.649945,39573525.0,54225776.469478406,54108273.0,223674493.917823,39573525.0,73866603.10170168
205,526,2,15264467000.0,8334880287.358425,7226441209.924589,4422454480.328596,3059451000.0,3061358772.930385,592816000.0,495316811.3353619,378076000.0,575501304.1157156,970892000.0,1767195804.4720447,444977000.0,206060393.4078386,147839000.0,332363495.910565,444977000.0,62602329.60585038
699,1263,0,65987000.0,3680926662.912142,35279000.0,1009942049.3979483,30708000.0,1900737640.5912087,5319000.0,141240303.58207285,28050000.0,160625023.31715363,33369000.0,267119141.28405726,1124000.0,38930216.73680703,4195000.0,182408188.0433468,1124000.0,72531148.17616805
550,304,4,31945000000.0,24634482599.794273,26424000000.0,11938036508.101196,5506000000.0,4806679825.621688,1191000000.0,834177881.4311106,2895000000.0,1893002485.079785,4086000000.0,3575203102.742917,834000000.0,122863086.92032641,357000000.0,359584526.2751191,834000000.0,31852688.401215013
140,207,1,2655001000.0,3270490702.420148,1989549000.0,2340182513.0271645,665452000.0,1357127632.0145783,67554000.0,285802412.49612355,403267000.0,462900129.2712449,470821000.0,724298176.1195829,-3426000.0,59319409.04634728,30096000.0,254336196.11776897,37458000.0,67941779.14302082
2004,586,2,9403000.0,1336324462.9022555,5511000.0,966840050.848146,3892000.0,332313296.94812655,-48000.0,115586939.72370535,1387000.0,147238884.79586995,1339000.0,207145090.09208596,-903000.0,11127363.08829631,855000.0,160805528.98380992,-903000.0,57816180.46163735
28,456,2,551232000.0,1800835356.4209156,628224000.0,1301654161.6817338,-138322000.0,571381207.2735335,23716000.0,173744444.69337577,12709000.0,226582262.3274263,36425000.0,345299210.7629616,7478000.0,22266134.619870663,48579000.0,216847779.92327395,-24863000.0,59649830.12337812
844,949,4,435750000.0,2100722472.4813232,62826000.0,1506324879.872513,372924000.0,566438836.5399156,28152000.0,160042781.37791038,49267000.0,239069161.20274448,77419000.0,281496687.8154346,143000.0,35670713.93515721,28009000.0,207293793.28574723,143000.0,27247511.076710194
967,1059,4,367699000.0,1971382512.6129222,382822000.0,1636786252.4125602,-15123000.0,640587211.558321,310000.0,149508903.91853422,0.0,214789722.91767263,310000.0,303916258.16838014,-47413000.0,23684410.428273104,47723000.0,217235751.5361418,-47413000.0,26946348.497669756
433,1396,2,3810682000.0,2960685410.025696,2050315000.0,1968297337.7558706,1303319000.0,958751529.4832311,110314000.0,246414171.36908573,71850000.0,353030298.37396336,148990000.0,499016204.7942033,11661000.0,40169923.65897868,98653000.0,245542561.62109908,11661000.0,59757882.80276878
228,315,3,2333529000.0,3412733132.6038494,1032484368.2283514,2643192685.612891,1202771000.0,1449785107.1436915,71236000.0,311525823.2344691,490990000.0,444811227.5372269,562226000.0,667040945.0730815,19517000.0,76870979.81870148,46091000.0,184310049.21637258,25145000.0,100607541.44827299
1855,735,3,20737275.0,1907214814.522429,10788720.0,1276776418.001569,10368036.0,494720282.228407,562564.0,184094368.1772598,77061.0,151915469.62874407,87201.0,250412958.3582648,-4142505.0,2100769.205148816,4705069.0,160092101.67192066,-4142505.0,99507152.29172762
776,330,3,386844000.0,1977429890.5351195,412960000.0,1518890436.1739426,-26116000.0,611279237.5109037,16927000.0,196907936.10957247,91131000.0,223648419.4738016,108058000.0,317837531.3689866,-813000.0,38661276.98283433,13060000.0,147552491.22188184,3867000.0,99576225.56751771
839,1420,3,6911775000.0,4141849204.500586,5109042000.0,2971760285.4480305,1802733000.0,1883933887.6595702,225256000.0,363234764.6787525,195092000.0,423202087.0842637,420348000.0,819739332.575166,132530000.0,86745819.95965129,92726000.0,265370172.50780815,132530000.0,100307845.76101626
793,1146,2,2883631000.0,3728710628.7079973,1772390000.0,2205993487.4882016,1110345000.0,1323913821.8238947,319055000.0,318188980.2743859,1257690000.0,1379607398.887897,1576745000.0,1141179258.3882031,38222000.0,64060829.16421822,280833000.0,311925538.04029465,38222000.0,62146999.2356452
820,846,2,133032000.0,1873893678.3040104,232711000.0,1366313036.5652,-16246000.0,729425380.1829944,12296000.0,172124764.22089893,62277000.0,270695707.4133317,74573000.0,362347619.314636,-14749000.0,21393662.79439877,89322000.0,209220884.60003898,-77026000.0,59012230.71511276
2016,513,0,296638000.0,3820873602.9581146,208509000.0,1159234361.948464,88129000.0,1900737640.5912087,7319000.0,135125627.37133497,0.0,186468530.44588286,7319000.0,302466500.631837,-46633000.0,28984890.893126518,53952000.0,202129967.6910177,-46633000.0,73106864.00347838
1438,1294,4,38809000.0,1815696228.7621927,43090000.0,931322052.833664,-4281000.0,470969300.49859333,7318000.0,150876240.01085043,25818000.0,230563585.39509755,33136000.0,277799752.17223597,-933000.0,28477206.363377735,8251000.0,186845903.15400308,-933000.0,30792594.03608164
866,229,1,2376172000.0,2558702544.7211003,1870972000.0,842320066.8448391,486613000.0,935910689.3568009,-5214000.0,201189308.50855547,182832000.0,317827706.11348957,304976000.0,425016190.8580488,-103708000.0,37285318.06805051,98494000.0,216536198.00379717,-103708000.0,55811860.51034686
689,1207,1,3719784000.0,3550106389.5000496,3332984000.0,2215407067.5369234,286813000.0,1739800215.576041,2618169000.0,582638784.3993497,-531777000.0,417366415.9143458,2086392000.0,1155657502.6852925,44074000.0,72045921.98356046,2574095000.0,462064310.6284602,44074000.0,67270860.57317173
919,481,2,1537935000.0,2785251408.243786,1281456000.0,1750747987.3504598,256479000.0,1061382170.5691395,229699000.0,294425772.4376886,0.0,373239182.884674,229699000.0,549182848.5725892,-26947000.0,31925758.02628418,256646000.0,242208283.88445032,-26947000.0,62043774.329388745
1827,890,3,1182488000.0,2429900669.9364524,303489000.0,1617695398.4808004,759221000.0,833601086.1203533,56265000.0,238930867.54155958,333008000.0,253855382.42788172,251870000.0,376630047.4196552,16750000.0,46760251.07047108,39515000.0,158731362.5111712,16750000.0,100607541.44827299
1182,716,2,8225559.0,1500808661.8890681,12447189.0,1015745709.7498353,-4221630.0,322406997.7489178,17564.0,113342531.05176157,106922.0,150735656.85626018,124486.0,218816053.6451832,-8095209.0,2598839.3953099847,8112773.0,154632316.9220878,-8095209.0,55391442.778201014
