epiphany24262/financial-performance-prediction/results/oof/m3c_catboost_direct_history_metadata.csv
Id,group_id,fold,actual_Q0_TOTAL_ASSETS,pred_Q0_TOTAL_ASSETS,actual_Q0_TOTAL_LIABILITIES,pred_Q0_TOTAL_LIABILITIES,actual_Q0_TOTAL_STOCKHOLDERS_EQUITY,pred_Q0_TOTAL_STOCKHOLDERS_EQUITY,actual_Q0_GROSS_PROFIT,pred_Q0_GROSS_PROFIT,actual_Q0_COST_OF_REVENUES,pred_Q0_COST_OF_REVENUES,actual_Q0_REVENUES,pred_Q0_REVENUES,actual_Q0_OPERATING_INCOME,pred_Q0_OPERATING_INCOME,actual_Q0_OPERATING_EXPENSES,pred_Q0_OPERATING_EXPENSES,actual_Q0_EBITDA,pred_Q0_EBITDA
196,1119,4,1192950000.0,2246884093.0986857,1055816000.0,1263270694.5998452,137134000.0,892897107.7630591,25598000.0,176118777.65375423,61899000.0,190708535.8330835,42992000.0,206833446.03628945,15222000.0,47755131.80991416,10383000.0,162334986.3118601,15215000.0,71564770.46574683
1568,556,2,1219954000.0,1871286339.4598699,835046000.0,1288658759.202547,384908000.0,615635174.5436302,111786000.0,235268751.83499348,217796000.0,241485978.7497962,329582000.0,338717734.16723585,28908000.0,27512185.69443792,85522000.0,209000439.82049727,26264000.0,68502959.00025673
1218,1577,0,-135820000000.0,-15268261895.10595,-37972000000.0,-4480609543.747087,-97848000000.0,3597746199.233693,-435000000.0,2329842821.7362347,4445000000.0,5149452108.8107395,4010000000.0,6018931806.074426,-1472000000.0,-127910753.58408889,219000000.0,584016907.5655899,-654000000.0,469261318.01810473
23,1062,1,83298000.0,924800623.2266645,16040000.0,495355663.6665416,-31633000.0,131319587.12175715,494000.0,52921391.21497971,3339000.0,-10121157.841948152,3833000.0,11690779.411270738,-12348000.0,5327405.103066474,12842000.0,76984463.03122395,-12348000.0,1419145.0145997927
783,805,3,148546000.0,958517416.5581675,56555000.0,833109960.8853359,91991000.0,315963761.55659604,1761000.0,145550670.49199295,-2375000.0,4498892.569398284,-614000.0,50539111.19255829,-10098000.0,36816009.459072225,11859000.0,148722175.21250367,-10098000.0,51561576.23391923
1251,822,1,7304300000.0,6338044071.012684,2451900000.0,3322791266.9793525,4830200000.0,2582393094.449383,578200000.0,337730407.5907868,581100000.0,558700867.104262,1159300000.0,1045103832.4518746,245200000.0,148086422.0817218,333000000.0,377154723.29855245,245200000.0,61841905.723943025
1224,228,0,1976905000.0,2914312220.961563,699909000.0,1502639746.1792479,1276996000.0,1642570157.203696,53993000.0,143206027.28191426,315825000.0,243636961.01487797,369818000.0,251543276.00979185,-1572000.0,10459873.133699238,371390000.0,195869335.4857194,-317397000.0,5584620.7532817125
1410,1451,2,2097274000.0,3229830985.0852423,1132234000.0,1580429719.548412,965931000.0,1318609534.664577,70481000.0,277004326.8335634,291052000.0,334974438.7176342,361533000.0,490413156.817904,58709000.0,66629555.07435075,11772000.0,224254926.56019095,58709000.0,61227977.56373458
529,34,4,31183000.0,1064819983.7851439,15926000.0,548559066.488451,15257000.0,597488674.6869303,2456000.0,54742594.2497794,2151000.0,33474542.803019047,4607000.0,15394564.560427189,-2931000.0,22376081.507936418,5387000.0,85549325.46063316,-2931000.0,71564770.46574683
730,909,4,978523000.0,2080486493.9847078,851196000.0,1156053802.607854,-94184000.0,895403640.4596052,24321000.0,187817482.1678941,137937000.0,187509942.79447663,162258000.0,249029217.3707403,-764000.0,15688438.951659262,25085000.0,198543806.81381226,-764000.0,71564770.46574683
1590,1344,4,27253000.0,968348938.8414602,14465193.072010836,628108612.5897093,12787806.927989164,539212957.9209385,-17000.0,47879888.907007515,17493000.0,55742431.54031277,17476000.0,-1941136.0177657604,1196000.0,15024171.8549487,138000.0,110071250.84957784,-155000.0,71564770.46574683
367,268,0,798398000.0,1740761216.9838285,795372000.0,1028057695.1319427,3026000.0,1566533222.846089,37121000.0,163601749.11636117,256160000.0,258613263.96168715,293281000.0,391262982.3739238,10257000.0,-4314772.235728726,26864000.0,117482674.63953552,10257000.0,35880045.41814218
636,839,4,1059052000.0,1894808250.1138682,883921000.0,1368010719.3441262,175131000.0,904800283.2648534,91945000.0,161437096.17221433,202788000.0,205086001.52611345,235132000.0,182955524.2324077,-287000.0,27782931.77137606,84957000.0,138084736.96154234,6988000.0,71564770.46574683
1270,1065,3,11069000000.0,9107827070.687725,5919000000.0,4629824255.74219,5105000000.0,3606311724.0059905,727000000.0,528938304.50480485,1752000000.0,1354120772.0188885,2479000000.0,2158161011.2616444,462000000.0,228943753.8853431,265000000.0,270865396.8567835,462000000.0,58685519.638244525
102,712,1,12331000.0,950296047.0646124,10875000.0,407981559.9793062,1456000.0,140854862.69742978,1472000.0,59544698.21381396,1968000.0,-19244995.456107974,3440000.0,17237080.76579833,-4166000.0,2872355.347939998,5638000.0,72975331.03243291,-4166000.0,-2862724.952477768
1658,812,1,180372000.0,1100810204.1144743,121221000.0,691233668.8684092,30642000.0,338164989.36579716,18014000.0,106111284.50885522,31653000.0,71560633.48157775,49667000.0,52375372.22951162,-11599000.0,16849036.136283576,29613000.0,101256942.46809953,-11599000.0,37214481.06452192
6,356,2,2319806000.0,3731895996.9122725,1534495000.0,1936162367.2961218,785311000.0,1519290738.4809875,376397000.0,364270766.3434104,415254000.0,502959324.8130282,791651000.0,687810796.3178803,93430000.0,68823961.58819498,288680000.0,261034766.8463351,87717000.0,66075866.30559173
1147,318,0,19295025.0,822512318.2393227,28370931.0,523536626.54377985,-13369686.0,1516475503.000543,2067435.0,21613704.84416461,4847499.0,-3381820.295228362,6914934.0,15160210.910711527,-1108124.0,11946666.923634559,3175559.0,55665152.627301395,-1108124.0,-8401028.45128867
114,141,2,3549408000.0,2672662393.24572,2109262000.0,1644946626.0094628,1440146000.0,1286981149.8889277,264579000.0,315451577.90897906,494402000.0,509911535.5546361,758981000.0,786105478.3738947,58594000.0,67381577.57521333,205985000.0,238365773.23766917,58594000.0,69614648.54155767
139,890,3,331401784.0,755761520.4711685,56254670.0,647856503.3594031,275147114.0,305819051.49815536,17982150.0,113590480.33860779,0.0,-1362291.2338038683,17982150.0,41115297.799818635,-40215832.0,13059812.311573386,58197982.0,142000263.2175992,-40215832.0,33327990.092337452
411,956,2,5533000.0,352700891.8955698,4648000.0,91583161.33784342,885000.0,150648171.38202,-1669000.0,25900941.512453735,2438000.0,-7860199.009017825,769000.0,-10202460.84092617,-6339000.0,3967938.677298188,4670000.0,72479478.01060659,-6339000.0,12285982.425358787
681,18,1,36550000000.0,27842125819.00021,16943241279.095451,10191820453.156902,15250000000.0,7292542118.2815895,577000000.0,695017736.1938875,3467000000.0,2582362568.99016,4044000000.0,3700730194.388371,714000000.0,227482432.81483802,627000000.0,536918655.6850264,-50000000.0,21561523.526388787
1671,1574,4,100449000.0,1202271024.627602,141057000.0,642132557.3786035,-40608000.0,563495372.8522973,-171000.0,63170245.14460069,512000.0,8352741.141336918,341000.0,58831891.90462303,-48297000.0,10787360.803952903,24344000.0,102922480.07002214,-24515000.0,71564770.46574683
500,1524,4,10599934.0,830004729.6566753,26203416.0,305069152.1179743,-15603482.0,557640445.4631101,-6219.0,37759057.7183494,193120.0,3624603.9150458574,186901.0,-3101265.313591957,-1076399.0,7164547.981989995,1070180.0,78877019.7937823,-1076399.0,69457451.76193509
1203,855,3,13322000.0,816934926.5212498,67881000.0,858617637.4914312,8277888.77383834,263823771.40016007,3223000.0,112324056.03724831,1889000.0,10934302.473853707,5112000.0,48769915.51735067,-3552000.0,19100199.78326319,8664000.0,168634727.97523597,-5441000.0,40787475.04602877
180,1091,2,635001000.0,1453098805.9338565,115305000.0,1219994699.6142392,502273000.0,678121973.2018385,21465000.0,153846242.89300942,40457000.0,117661057.86565125,61922000.0,202824931.57471526,-143360000.0,11669258.233627513,205282000.0,227396677.38200969,-183817000.0,40254181.34390186
1960,1407,1,2672864000.0,3083106386.1137094,288913000.0,2107964886.2035546,2383951000.0,1448850846.2623837,132902000.0,285037401.94423115,168499000.0,331335972.0788932,301401000.0,457605072.6439518,55706000.0,47303672.57128701,77196000.0,255521164.33814216,55706000.0,50559068.465006486
356,219,4,8388335000.0,4466164912.915616,5163154000.0,2797345320.806107,3225181000.0,2281227349.8599696,313343000.0,451048300.16776526,687959000.0,648958418.3474575,1001302000.0,1057362118.8485951,116260000.0,79354801.52460788,85661000.0,261487652.80243677,227682000.0,71564770.46574683
1646,1209,4,1563399000.0,2299775412.772402,1445358000.0,1409256035.8583026,-136248000.0,945513564.0926225,72333000.0,205641291.97830722,116682000.0,207160736.6052491,189015000.0,211546815.22351086,23506000.0,35915605.618516386,11423000.0,188820118.3654953,60910000.0,71564770.46574683
1793,1494,4,320019000.0,2489569336.3953505,126984000.0,1577061594.8520775,193035000.0,975984963.878315,177377000.0,244977654.3242204,58492000.0,221866868.70568532,235869000.0,349158127.96026635,25509000.0,55293402.10551437,151868000.0,201048310.0632903,25509000.0,71564770.46574683
235,903,0,0.0,721960163.9767704,0.0,178800038.37174416,-804876.0,1516475503.000543,0.0,-3167351.871243179,0.0,-24938834.949801445,0.0,4374274.231477976,-14550.0,-7935249.992366895,14550.0,29076515.620605588,-14550.0,-8852472.714445367
1668,520,3,267194000.0,1081629653.4664536,175308000.0,876321467.5830097,91886000.0,435703184.0948794,5103000.0,143415751.15325838,0.0,30535709.027790904,5103000.0,69376301.37005997,-32762000.0,19186061.764242455,37865000.0,175489354.76510894,-32762000.0,49986355.16395452
1456,719,4,2249377000.0,3177292453.5181284,1923326000.0,1616461064.2156456,326519000.0,1141065922.8195477,-76300000.0,248710936.56167778,416103000.0,321810960.00400114,339803000.0,547110328.1742746,34941000.0,37335590.23009102,184914000.0,236781498.92734486,-261214000.0,71564770.46574683
1291,57,1,396890000.0,1366936601.2151084,107071000.0,1093163945.76924,289819000.0,371848319.55506325,52569000.0,114540737.85053432,13634000.0,128084149.90333515,66203000.0,131150153.77584732,8375000.0,9730501.434527054,57828000.0,165323876.17053485,-5259000.0,19202792.98674012
1376,344,4,7827000.0,892018315.3922014,4744000.0,461600759.981627,3083000.0,531379947.25373745,1288000.0,34241307.473113835,867000.0,24763102.91969335,2155000.0,1092489.1288661957,-3880000.0,8712263.77035226,5168000.0,96471789.10842311,-3880000.0,71564770.46574683
1702,1482,1,11990000.0,628716506.3396807,3030000.0,428685391.8616977,8960000.0,44288677.30639243,1480000.0,17438451.741699457,3017000.0,-4875872.367413759,4497000.0,-21040192.38479781,-944000.0,1859015.0361267328,2424000.0,56012196.218260944,-944000.0,8326096.074248977
1591,331,2,7472874.0,731019491.8455057,3243445.0,288771900.55678225,4067990.0,338645359.6350558,3065804.0,30019687.61097014,0.0,-13018744.959301949,3065804.0,-14785758.10773933,-21884.0,-4782863.116034463,3087688.0,80279697.11536202,-21884.0,-24290866.78559713
647,1582,1,2182494000.0,2797598352.516734,2467501000.0,1499491000.8758373,-484456000.0,1206712124.0775194,389190000.0,297390516.44183224,141172000.0,285734019.88359225,531030000.0,525695136.0421405,-54175000.0,40798019.13466052,443365000.0,271712181.9603675,-54175000.0,47516964.67696872
100,1589,2,12166000.0,193075332.518713,2892000.0,38287912.283854485,9274000.0,118312424.94948602,5000.0,26196313.5355438,54000.0,-4974544.800389886,59000.0,-25110657.335172057,-3433000.0,1374080.4711610228,3433000.0,61952245.27617043,-3428000.0,-16265241.198829204
507,336,2,189783000.0,523062541.2663188,45792000.0,715995484.1983871,143991000.0,275274021.8316686,2372000.0,118995994.01977807,0.0,14153205.379446268,2372000.0,58034038.51410246,-18270000.0,17302811.46180162,20642000.0,164185461.26746386,-18270000.0,45354535.92348444
547,1095,3,1072653000.0,1392215700.0499334,455367000.0,956300294.5516257,617286000.0,397393095.136768,134998000.0,135705925.01245427,27783000.0,66629135.0969311,163452000.0,161047030.87593448,5489000.0,20221620.439782083,129509000.0,172315075.98763683,5489000.0,19427009.90937482
457,886,2,665104000.0,1093891522.436275,575531000.0,1107657464.879875,89573000.0,404320586.37838113,30803000.0,153716724.29568678,19437000.0,132914770.0957331,50240000.0,178875683.1971916,10357000.0,27911581.206895053,22017000.0,181565732.37894994,8786000.0,58607452.9645202
560,670,3,1900367000.0,2423498202.8962364,289037000.0,1530042584.1421225,1613343000.0,1034686426.3293971,45433000.0,279600029.9575174,413911000.0,284863891.03767025,459344000.0,446879673.78072894,-6757000.0,90244866.43433408,52246000.0,210037222.2279902,-6813000.0,63813483.87560719
1402,905,3,88944000.0,491623133.89020157,45361000.0,648323396.1008339,43583000.0,196976214.72159874,0.0,101240299.815723,45000.0,-2756795.3249719143,45000.0,34127986.78344178,-14351000.0,15537713.70089972,14351000.0,147665863.55142182,-14351000.0,26771257.449479632
1274,1040,3,5390785000.0,4481104153.121479,4083098000.0,2368539039.9559913,1050686000.0,2091075917.2353845,352054000.0,357226928.1837582,284900000.0,459380084.68600416,636954000.0,848533105.6942554,120850000.0,109805395.32036814,187232000.0,235166090.97064173,164822000.0,51737677.02807625
799,197,1,18535000.0,682496524.1822395,13748000.0,452971085.0042324,4787000.0,100981794.42013979,2839000.0,42577428.26913732,7502000.0,12242086.345367312,10341000.0,-8516583.758308172,-2229000.0,7307935.660382181,3071000.0,77761597.755081,-232000.0,20963252.683742315
1436,782,1,13281300000.0,7777495403.65514,5777300000.0,4358077986.321322,7484300000.0,3460372559.4269567,1030700000.0,597168203.843499,1150100000.0,917965091.9103878,2180800000.0,1883424479.9277663,687000000.0,326314261.9858144,343700000.0,395530200.9990505,687000000.0,59906660.859350234
1518,137,1,108681735.0,972537157.4487295,9192190.0,638984091.4953356,67531550.37365061,219837685.9862877,2201326.0,65589998.28126711,255772.0,16700014.099785686,2457098.0,20632871.828515053,-8935951.0,5141575.124067992,11137277.0,124726739.3960028,-8935951.0,15608285.269029714
211,1313,0,189692000.0,1165352337.1746016,90178000.0,907466530.4039817,99514000.0,1545907994.7955275,-4411000.0,30603815.47703594,24963000.0,81418458.3419596,20552000.0,72599763.2837826,-10000000.0,3610923.653569594,5589000.0,60778154.80536342,-10000000.0,4500810.029784352
1542,188,0,230878000.0,1373913781.629116,57278000.0,987611881.6831708,173600000.0,1529496248.0818024,26973000.0,66105131.1857298,7041000.0,78240523.32835126,34014000.0,87177336.02868664,-11169000.0,-95243.16404987872,38142000.0,75291969.65750158,-11169000.0,-848797.5396829098
1496,602,1,73773000.0,1021567725.1671782,50819000.0,572186589.2894607,38847689.64492722,193459145.025545,5428000.0,70923479.51460463,22481000.0,28460296.10442245,27909000.0,20389219.40034926,-1778000.0,12298680.712017953,7206000.0,76678362.49308509,-1778000.0,32060667.778244104
1891,1386,2,1582767000.0,1613723384.107534,680421000.0,1461094744.546999,880211000.0,697953270.7037143,56683000.0,194733475.2135755,17637000.0,168616389.3560285,74320000.0,308136902.57471406,-5119000.0,35432784.84935132,35279000.0,193771008.05710265,21404000.0,61962991.37708769
362,63,0,5641000.0,725813662.8702765,5200000.0,479616049.30250597,-3859000.0,1516475503.000543,1192000.0,5378212.007727861,781000.0,-15335200.860318065,1973000.0,8253861.69468236,-97000.0,4945579.854763567,2070000.0,34124205.905102134,-878000.0,-2022972.1562790126
605,600,3,3208196000.0,4224594660.532506,2133043000.0,2008598863.5245187,1075153000.0,1754919491.8692713,625972000.0,344687277.15221125,1066275000.0,903317691.7291806,1692247000.0,1267997346.8455534,91616000.0,76786417.23772553,497965000.0,271120125.42431706,128007000.0,58903160.08703011
384,240,3,13057000.0,488480092.50706196,4943774.229094189,210683522.85093594,10949000.0,124869356.73215985,7944000.0,61814030.46650666,0.0,-10647900.709650278,7944000.0,16996400.74835229,1997000.0,10965017.59318024,5947000.0,118729766.76660517,1997000.0,28361070.27823498
438,681,2,5973000000.0,5172973253.062292,4408000000.0,2544511756.6129155,1554000000.0,2078483327.0716043,244000000.0,369091923.04976666,1526000000.0,881115488.1324425,1770000000.0,1448810385.5815058,147000000.0,78861601.27823104,127000000.0,219260792.00149438,117000000.0,60661781.46420442
1761,1233,0,589088000.0,1864259100.5698967,253950000.0,1167264087.470087,335138000.0,1545907994.7955275,19294000.0,87496979.96062046,99428000.0,155875565.11882186,118722000.0,127422983.62343526,9057000.0,23176304.40580979,10237000.0,82305765.92206445,9057000.0,16313046.019257985
403,509,4,21286772.0,912433212.5033302,1383236.0,235606147.43367767,19903536.0,528115960.8263637,781782.0,49217941.98099327,421382.0,24025856.992100596,1203164.0,1496311.7663550377,-1960898.0,11859249.17360437,2742680.0,96126416.04118353,-1960898.0,69457451.76193509
388,1329,4,3445920.0,835329551.1617966,1859560.0,520843391.10772324,1616914.0883314284,561856950.6320755,2970901.0,31126834.50868815,569508.0,11342562.91936636,805185.0,1720531.8224127293,2437201.0,8769051.420810044,533700.0,107360021.39578828,2437201.0,69457451.76193509
1452,1493,0,328158000.0,1529487977.2869496,124250521.82515822,1091198063.6019945,270486000.0,1545907994.7955275,24944000.0,78661577.08095926,16521000.0,127082590.43710107,41465000.0,106646724.38256228,-7674000.0,3461745.5971491635,24827000.0,70922188.78924131,117000.0,12206162.409353644
1876,217,1,2498305.0,498620235.90570164,2997402.0,286894692.00241613,-3454854.0,26251167.59189725,467340.0,14306545.07623434,346611.0,-21923272.14730072,813951.0,-13514811.779675007,-114631.0,5801138.0633651465,581971.0,52375243.878576934,-114631.0,-16010342.917680979
757,180,3,1288046000.0,2319370007.0648375,649920845.9604261,1384314563.640085,889849000.0,1080797723.5360947,105384000.0,214462961.60645732,285360000.0,190250519.3287658,390744000.0,339786380.36244524,53190000.0,53677856.783341095,52194000.0,180132569.84666228,53190000.0,60319381.0621469
660,425,3,600057000.0,1650774865.4366312,369915000.0,1221023307.840296,225443000.0,794073592.3427584,43121000.0,205869691.41021597,106269000.0,113964727.90057957,149390000.0,205449357.36907423,7853000.0,40858581.24340951,30439000.0,169002265.4483865,12682000.0,58130587.56686343
197,250,3,538955000.0,914705261.0323858,291671000.0,542244586.5396996,247284000.0,329799822.980824,-14193000.0,99474625.40695018,14235000.0,20232722.582177997,42000.0,68660211.22954655,-51845000.0,10829701.117346197,37652000.0,165130601.2644949,-51845000.0,35052111.8351727
93,807,1,25334074.0,834274573.2356157,18917048.0,421527266.07195044,5501613.0,141909426.20539665,-536032.0,29040554.46650517,4501393.0,-7840760.893417478,3965361.0,-7407671.1728105545,-2975120.0,8641067.907001361,2439088.0,62462060.41071546,-2975120.0,14186418.900780208
472,555,3,1934400000.0,2676818937.9223747,855887268.5537325,1569733898.9726987,957200000.0,1085376598.4255874,84000000.0,241687809.41676557,375600000.0,325280390.97158456,459600000.0,440853815.4177344,30800000.0,48293519.62052404,59000000.0,201214068.26024115,25000000.0,57371886.389348544
1345,974,4,102973000.0,850269136.8545084,162948000.0,515237854.4417715,-346214000.0,676278847.2745247,-13037000.0,71270250.13734812,25768000.0,6022107.000997424,12731000.0,11728700.637013435,-23219000.0,23016309.950590044,35950000.0,115866918.04641649,-48987000.0,69457451.76193509
1672,1178,0,2501300000.0,3485354265.4164352,1075500000.0,2198055153.835075,1407900000.0,1633007214.324777,99600000.0,220830682.16130328,151100000.0,323384101.3606203,250700000.0,479641283.82509565,31900000.0,27316734.205503166,67700000.0,160783310.85550168,31900000.0,35773772.10647802
521,196,2,27910000000.0,31913284780.596,24392000000.0,18359532561.975067,14058781786.346067,8213766963.961087,1525000000.0,849997274.0516341,6421000000.0,4936636176.941796,7946000000.0,6271834513.152107,561000000.0,221243293.58273187,638000000.0,312138266.8070168,887000000.0,57896537.15699428
1143,374,4,105238000.0,1264185180.2298136,42240000.0,768694177.7626739,62998000.0,683622222.9240853,8572000.0,63947556.74473238,322000.0,37851223.893929124,8894000.0,40462919.325868726,2218000.0,29564746.29379327,6354000.0,118622355.34412172,2218000.0,71564770.46574683
502,643,0,2010176000.0,3184032014.9714003,889414829.379791,1526653068.8426979,1057656000.0,1653786159.3658617,113627000.0,206212911.609959,250202000.0,303481749.10760564,363829000.0,434904798.8227366,44531000.0,45623967.35508474,69096000.0,152002679.36500654,44531000.0,43622756.962510616
319,277,1,15154000000.0,8473240513.217661,5534200000.0,4691510350.890826,9554000000.0,4997534777.444567,739300000.0,478384395.7951586,999600000.0,809731925.020997,1738900000.0,1856323031.2466626,318400000.0,115032351.58116513,315200000.0,345450943.68266076,424100000.0,63897668.549070016
471,1421,2,346507000.0,744393464.8170471,100361000.0,752541649.8170633,246146000.0,379143616.02835965,14398000.0,124505198.37789994,62502000.0,51245049.08452511,72480000.0,83249936.15641522,4926000.0,23936514.722293377,9472000.0,157013450.45695737,4926000.0,48112689.2853211
1756,928,0,229309000.0,1502828302.9401474,190264000.0,943691344.354578,-44269000.0,1541298833.6626482,9225000.0,52904304.168752134,52669000.0,107695701.76956654,61894000.0,71569664.63681126,1401000.0,1627232.166055724,7511000.0,63302782.02267653,1714000.0,12012555.819109008
848,613,0,101740000.0,1356355123.2718344,28463000.0,851698542.4824448,50734000.0,1550275193.1228871,29850000.0,50823888.35770804,12745000.0,90139419.59932017,40857000.0,65090889.02998495,2689000.0,548627.787579,27161000.0,67101097.04322618,2689000.0,-5007642.390280455
1310,607,1,9582645000.0,5420054299.299486,3280269000.0,3280380570.9439564,6302376000.0,2614574691.616762,376175000.0,333237944.06408393,424915000.0,495716917.8760662,801090000.0,1061665694.132812,272965000.0,91098813.230378,103421000.0,329599916.5365543,272754000.0,55062879.07414221
202,502,1,609678000.0,1562629019.2756987,288631252.1743736,1185424731.4638267,366720000.0,689439496.1087402,84451000.0,174958527.07669088,21802000.0,200190554.4651984,106253000.0,183776972.05714595,5683000.0,23683181.347391903,78768000.0,188118403.73945,5683000.0,46116087.9511137
1444,124,4,43441700000.0,29302793446.968697,21559314449.01792,16005630829.154064,21882385550.98208,6960174967.401646,1370000000.0,1177425664.5315444,587400000.0,799138141.3688984,1957400000.0,2577856367.789263,472000000.0,222677018.84365624,1485400000.0,918015767.3089846,-115400000.0,71564770.46574683
1578,1121,2,1146353000.0,1852321852.8180504,752649000.0,1483453949.902684,393704000.0,755464370.2216738,95229000.0,189401153.24830574,32092000.0,168928660.55522794,127321000.0,256352931.15706265,-58245000.0,26304465.063967936,153474000.0,187207320.22361925,-58245000.0,59041419.47099615
451,840,3,796771.0,339025523.76020336,1072746.0,92083353.00660944,-275975.0,-16961197.3747375,205707.0,12155756.294235587,158335.0,-14902841.87583971,364042.0,-1457533.6543389559,-168127.0,3658215.911127493,373834.0,91001795.53344274,-168127.0,-4495186.676714227
35,1605,2,9069035000.0,6145286622.628162,2563480000.0,2294212894.9477215,6505555000.0,3257922267.3066792,942419000.0,506189088.43154734,522866000.0,630856071.9539076,1285548000.0,1124034497.0996404,602695000.0,246517572.21612686,339724000.0,289498262.9510346,602695000.0,54835992.60814954
237,1328,0,48924605000.0,39593747904.36632,25766652000.0,22708221643.032314,22441501000.0,4010663682.8168826,1560160000.0,1359884461.847387,915531000.0,1188865754.0077987,2475691000.0,2575704582.055698,558196000.0,510742187.0151282,1001964000.0,1041988438.243591,558196000.0,289490565.08702374
917,299,4,514281000.0,2008702524.4143176,309957000.0,1235067025.6751533,198004000.0,811957663.2964654,106985000.0,164251702.02362245,149052000.0,147504141.04698467,309744000.0,193933831.9592936,62399000.0,48986862.32006585,44586000.0,181758883.5610294,62399000.0,71564770.46574683
558,1592,4,17876000000.0,6753576275.974262,4077000000.0,1542401772.1738532,13799000000.0,3432892340.6106014,-917000000.0,238260093.4669205,1453000000.0,39816892.39992225,536000000.0,408172185.28812146,-1774000000.0,22373274.317987427,857000000.0,385627229.97234976,-1774000000.0,69457451.76193509
73,1398,0,218354000.0,1169748912.1505337,62021000.0,769776549.5122647,156333000.0,1500063756.2868178,-143000.0,46450491.83390701,848000.0,30377543.822247624,705000.0,49658312.32941198,-31577000.0,-81842243.15082434,40859000.0,67579325.81611532,-41002000.0,-16575258.057327017
532,116,2,2268100000.0,3435099729.6180134,1627400000.0,1771844901.6580946,640700000.0,1528159514.548091,78400000.0,274011974.52403414,665200000.0,501562316.599897,743600000.0,810964614.211163,19100000.0,46084643.64588016,724500000.0,362030138.34709287,-646100000.0,64379043.94803441
986,1241,2,49117000.0,445058779.4486294,7104000.0,309363054.6384716,42013000.0,225195210.52713764,1616000.0,73937815.14033914,3273000.0,17963190.504971027,4889000.0,-1351144.2005825043,-1489000.0,11895195.08396469,3105000.0,140448904.16508925,-1489000.0,43085843.68125816
252,13,2,12822000.0,287284646.2562609,1624000.0,89931324.36601734,11198000.0,152417777.21228218,0.0,31011199.36463386,0.0,-10420106.77802968,0.0,-20326409.952645898,-1983000.0,2717525.2781708837,1983000.0,75934878.42093486,-1983000.0,9727957.643005908
982,352,1,543788000.0,1875796022.6685257,205894547.02387,988789062.6249609,402777000.0,640512508.6145713,1944000.0,170083846.59686232,0.0,130031668.64725184,1944000.0,178209000.21333158,-51279000.0,10688670.988319054,53223000.0,171068066.82036996,-51279000.0,39830135.51842104
1947,1444,4,16965000000.0,13393706046.500301,7506269391.549871,5922375164.103643,7744800000.0,3614798334.9102936,1329900000.0,908420663.8944489,1175700000.0,1057714740.4814636,2505600000.0,2770575479.376563,1069200000.0,557242164.5172617,32700000.0,323903184.1856848,1297200000.0,71564770.46574683
1206,430,3,29788000.0,758679355.7086611,27907000.0,825836423.2494917,1881000.0,301599022.77076674,0.0,129084353.81092387,3452000.0,11646714.205029368,3452000.0,45386572.374735236,-23801000.0,15644081.447302029,23801000.0,170877761.143115,-23801000.0,38142667.94748117
542,123,0,39315010.0,783826901.1777096,15768167.0,600769260.9554954,23791305.0,1519934360.61909,7600979.0,8162242.574166119,41810204.0,17312293.321663737,49411183.0,15743415.18395257,-1588725.0,-7554124.974667087,9189704.0,46522898.274164736,-1588725.0,-8631190.076608881
15,385,3,184728000.0,591141122.5008211,40367000.0,897030768.5049038,144361000.0,169716711.55573654,0.0,106062521.24941921,8094000.0,15017186.662306428,8094000.0,53604370.082645655,-23114000.0,10565745.835879624,23114000.0,175738606.77646968,-23114000.0,24807758.25732638
1754,1014,4,5014090000.0,4452236156.220871,2606263000.0,2519502409.473866,2407827000.0,1754663452.3975346,420690000.0,456290110.2672846,905430000.0,493943076.71612924,1326120000.0,1015412072.7865379,237492000.0,89216934.9561186,183198000.0,249169972.3330961,237492000.0,71564770.46574683
1448,316,2,3543460000.0,3128171732.9207993,2602227000.0,1623225118.2339268,941233000.0,1069265123.0509454,443568000.0,327347698.2046722,134292000.0,403432324.8633183,414603000.0,666807019.7282269,14363000.0,29477423.50739275,429205000.0,272166725.76018405,14363000.0,60609010.78267806
459,80,3,747087000.0,1623446271.9051657,79688000.0,1242316394.8913002,667399000.0,603085294.1711417,34565000.0,168028345.0136959,22203000.0,51263456.51675582,57261000.0,158455056.196584,-16306000.0,22042403.525800183,50871000.0,182583663.93850783,-16306000.0,59327368.960370794
1505,982,1,4578121000.0,8761449220.387962,2310023301.364386,6120599487.724033,2489780000.0,2574493892.560175,2190001000.0,1891673488.825239,-1465670000.0,371877138.3554189,724331000.0,1694751288.2264154,216069000.0,194451145.9778114,1973932000.0,1331465791.384853,216069000.0,100278105.51892024
1613,267,1,11895943000.0,7619138959.235122,3479745000.0,3786702060.3211436,8416198000.0,5469942089.675119,335683000.0,416879747.1574821,296441000.0,493944844.49051124,632124000.0,1135979720.4286566,90949000.0,52505842.820080176,201199000.0,336194767.1305975,134484000.0,55366506.40426326
1214,941,2,1059300000.0,1970235538.0069518,513000000.0,1687546098.8276513,545000000.0,873717495.6249783,132000000.0,233878744.78129238,172700000.0,230121465.96866393,304700000.0,307883270.93570733,34700000.0,48701732.56438401,88200000.0,194225249.79181528,43800000.0,63150841.52921814
454,977,1,11204065000.0,9886158188.433964,4242197120.938668,5916270479.650778,3489373000.0,4414852119.551374,480702000.0,446730111.63704103,457696000.0,550420424.9877161,938398000.0,1056039809.9617065,172392000.0,115111695.46600631,308310000.0,439283289.26254493,172392000.0,33629154.81635488
1392,303,0,531121000.0,2121840197.2473679,248900000.0,1180997730.3243394,282221000.0,1566686939.8366122,62379000.0,117628593.10924649,135419000.0,182562490.35240555,197798000.0,199378157.70797896,18703000.0,22522460.32773231,43698000.0,93956978.49992481,18681000.0,18524263.066595472
1519,1560,3,961035000.0,2639461740.3245893,1381722000.0,1246217409.02956,-420687000.0,1181494737.8426306,271111000.0,263802346.09920597,201537000.0,295334908.8115597,472648000.0,469386992.96853745,5387000.0,37858493.3817659,265724000.0,184324615.71654764,5387000.0,54986663.605198085
1060,1032,1,3194462000.0,3203695951.6647463,1643299000.0,1787953515.1267052,1512215000.0,1381220613.8982253,817744000.0,335478031.71307486,0.0,334670054.52342176,817744000.0,637544116.4136125,37900000.0,49908188.022482276,779844000.0,275899295.1837361,37900000.0,54022813.966815285
1100,1277,1,6042273.0,525104253.1739197,3627261.0,195029374.322968,2415012.0,-25274904.40425515,0.0,7610848.572911739,0.0,-27557993.52546215,0.0,-19080166.68608117,-1829562.0,2526255.3442344368,1829562.0,43022364.445290625,-1829562.0,-22604116.819757745
203,261,2,76266906.0,638733394.0191622,57438990.0,462581446.69010687,40912361.81482647,270706221.3415462,9146097.0,87387953.950975,0.0,-4433941.346765041,9146097.0,24560870.764244914,-2633902.0,14214846.735279128,11779999.0,137021056.70920977,-2633902.0,31872383.295317777
1493,405,3,-3532973000.0,-1393299056.7001228,-2747133000.0,-3147426974.891694,-773571000.0,806669283.8977972,87737000.0,259036163.13194412,40236000.0,342770376.8469911,103187000.0,580723742.1461058,7123000.0,40715530.64352775,80614000.0,180821899.98699218,7123000.0,60551793.58929318
543,9,3,846734000.0,1727698521.856017,635659000.0,914801025.0792937,69332000.0,459891346.8621032,204774000.0,132047424.74857676,-13024000.0,54582665.11974788,191750000.0,111233541.80834603,-52860000.0,7251720.78095679,257634000.0,174714834.75024045,-52860000.0,35997205.967488475
1966,415,3,1354514000.0,1302674794.3149643,675720000.0,958085575.7842646,319291000.0,778934678.8117075,-16558000.0,187189929.15439788,64132000.0,69137120.7771349,47574000.0,129351210.46016705,22229000.0,35437443.759870596,13428000.0,219780521.46594894,-29986000.0,50484680.15753488
1802,888,0,270533000.0,1459289245.4815397,240046000.0,990259720.3610892,30487000.0,1545907994.7955275,26052000.0,57584849.76879066,12454000.0,85418803.87093043,38506000.0,78781712.84837031,-21038000.0,1184824.7475063503,47090000.0,67386187.29080284,-21038000.0,3981888.577844918
1372,500,3,583783000.0,1652437966.2272758,717382000.0,1159735557.4876454,-133599000.0,543782276.4338554,41865000.0,173587272.76996362,32703000.0,76868855.03987157,74568000.0,163746645.4510213,-32006000.0,22553604.9102602,48224000.0,178417356.1828704,-6359000.0,55670232.095933884
1325,678,0,534446.0,695235984.8629646,9794849.0,245400874.81781435,-9132038.0,1516475503.000543,6264.0,4147580.1629638076,3881.0,-36951340.95209265,10145.0,4951235.333588719,-961868.0,-6486960.192875519,972013.0,33559348.61168635,-965749.0,-5493586.637536123
1504,581,2,106308000.0,604714570.7459311,29369000.0,668927819.0388308,76939000.0,310187857.45667315,15630000.0,112252538.73818046,0.0,15456754.758257985,15630000.0,70781188.92580307,-23899000.0,22114360.802919567,39529000.0,159017944.39196876,-23899000.0,36680786.54228152
1347,435,3,369031000.0,1689815605.3706656,216722530.1814524,1216980809.043933,188777000.0,611475518.5959802,45044000.0,162480353.33835566,42173000.0,140736453.7258429,87217000.0,251139809.50803518,-3804000.0,34442842.33373017,48848000.0,223629304.1751153,-3804000.0,53522804.75387338
1492,360,3,327784000.0,1428319116.9840555,323919000.0,1107807138.6622052,3865000.0,406612985.5386518,33496000.0,136249089.126994,8201000.0,58435538.56898129,41697000.0,111186389.30210614,-4913000.0,23225792.551443204,37287000.0,163747616.04421425,-3791000.0,50504489.06370965
1107,1471,2,85658000000.0,50851967325.26994,88335000000.0,59550081867.2221,-2772000000.0,4233651103.564198,5387000000.0,6283922420.803011,14002000000.0,15542669163.752735,16935000000.0,25377894048.15759,1165000000.0,1381710098.6771693,4222000000.0,2875203098.029424,1165000000.0,125346815.51707363
1336,16,4,898860000.0,1381403065.863202,527877640.3036609,1207340285.8653495,360528000.0,921380627.7608724,68259000.0,145227908.8629995,42065000.0,115722784.65823436,110324000.0,112132509.8888216,-1325000.0,27020629.920585856,69584000.0,179021933.78568858,-1325000.0,69457451.76193509
599,1259,4,50546000.0,1118010033.1202273,5959000.0,517038050.5482168,44587000.0,592666205.6257977,1989000.0,54286794.026880205,1909000.0,53662405.80903864,3898000.0,28184578.116805673,-1895000.0,24925107.59037973,3884000.0,88230110.8586675,-1895000.0,71564770.46574683
117,1466,2,939056000.0,1587405727.5377913,419590000.0,1389952724.7525055,517473000.0,754620189.2021677,90527000.0,210925305.01268217,120216000.0,197702533.10029227,210268000.0,254083237.96149278,61012000.0,42790440.98031197,29515000.0,184361770.20848864,61012000.0,63387287.10770327
1825,1105,3,20027115000.0,10123088945.298145,12952737000.0,5507336116.140902,5611108000.0,4103106989.3839216,32786000.0,312403299.91924477,283742000.0,388832005.11124545,316528000.0,1056905308.0144775,-1347477000.0,68204961.34553155,1910658000.0,364734457.6521739,-1877872000.0,47657292.829301044
1507,930,3,124094000.0,924583565.0997114,18130000.0,894901543.3081703,105964000.0,319217164.6373254,830000.0,133359268.84390026,0.0,4762587.433106661,830000.0,67173737.26216769,-5787000.0,25695603.49786298,6617000.0,165980413.93441802,-5787000.0,48057580.297753796
321,688,0,68675000.0,1188937464.4889145,40331082.646745786,860084646.0400681,53645000.0,1566686939.8366122,10938000.0,39983637.06674659,6604000.0,78901892.20109475,17542000.0,35919362.17276943,880000.0,7739862.277631849,10058000.0,48926159.22071701,880000.0,-17695158.79565671
1482,964,4,1833700000.0,2972798538.0458403,811331929.4597701,1490556012.7701685,482900000.0,1085950463.3379521,110200000.0,250086702.74845958,356000000.0,301071765.46809703,466200000.0,392640170.10152435,45700000.0,62422608.515101984,55600000.0,188678294.34051973,54600000.0,71564770.46574683
508,608,0,62515472.0,1001045049.7857084,29595817.732691668,796554241.2003345,21861273.0,1545907994.7955275,7032458.0,29000046.545782804,11256239.0,48307122.70842731,18288697.0,27397368.575728178,-1564350.0,-1076455.074349448,8596808.0,40132025.34195626,-1564350.0,-3467166.2129032314
1411,715,3,33859785.0,370663092.290225,6178818.0,301765771.80280256,27680967.0,-135869036.55730152,-63384.0,48627049.189759076,87873.0,-15945127.29919386,24489.0,-6061413.954752207,-2675666.0,15621972.925075054,2612282.0,132204470.3934198,-2675666.0,28442091.064249992
718,899,4,770792000.0,2200191875.027287,581187000.0,1333238454.1441088,188503000.0,755481904.0184985,456709000.0,192658954.12886167,0.0,110081087.46285164,456709000.0,293130551.0648782,-29756000.0,23223237.799368456,486465000.0,158795752.70251682,-29756000.0,71564770.46574683
1865,42,1,4753100000.0,3157302870.124112,2691038000.0,1767335602.2529316,2062062000.0,1407244274.7253103,383135000.0,273228429.1154059,0.0,299202553.0457304,383135000.0,523740905.48541605,126771000.0,43968727.95375328,256364000.0,222433592.23025113,126771000.0,52642757.21907083
710,971,2,9330700000.0,7076944446.593868,4987700000.0,2723160371.800382,4343000000.0,2712737982.161666,590200000.0,424230187.6550994,367100000.0,547323634.0674281,444000000.0,852331312.498532,121300000.0,73285793.15039465,468900000.0,270278229.5430431,121300000.0,63287959.86954516
285,867,1,1797231000.0,2453238580.842901,1568932000.0,1436305346.7259662,228299000.0,1055055436.0490426,143030000.0,248151520.07466266,0.0,213857774.42319822,143030000.0,463083781.62204766,-113543000.0,21800592.901328802,256573000.0,219061001.81925514,-113543000.0,43589670.23097746
1609,632,1,90048000.0,808827496.1251125,45436321.63528667,458543807.2281256,37547000.0,154746306.2426542,2482000.0,40096459.30860102,9262000.0,27650460.869921803,11744000.0,15576889.863526464,1360000.0,8498848.325840265,2815000.0,84274473.93673128,-333000.0,21401468.69548703
1814,1285,3,190817000.0,1016853451.7466288,91955000.0,954870990.632287,118567925.39840196,278773138.41612995,16838000.0,151638867.43042395,21962000.0,40444244.987520695,38800000.0,112775112.36238778,3292000.0,23457713.127834648,13546000.0,151959636.69591057,3292000.0,55722087.362111524
720,1550,3,24930824.0,615778023.5617352,6278564.0,505173975.38334703,18652260.0,63619021.391625166,7866761.0,86847855.37232494,20382092.0,644320.0643378496,28248853.0,51256026.18212128,1448213.0,17218078.237925023,6418548.0,126545183.57306445,1448213.0,39801973.556900054
1707,403,0,6071000000.0,6524187111.752869,14261000000.0,6567749728.88681,-8190000000.0,1692524668.2870464,1287000000.0,1221463074.5008998,421000000.0,618966970.4580269,1708000000.0,1424566157.2935507,613000000.0,436933772.6136218,1095000000.0,946579240.9369045,192000000.0,46153468.351485714
485,1126,2,5768300000.0,4540809453.603588,3017800000.0,2495943865.414838,2739100000.0,2450977707.6129537,487400000.0,378582766.795908,888400000.0,625996948.7695853,1375800000.0,1135870765.1362643,276300000.0,149795121.81417927,211100000.0,261332929.74760896,276300000.0,67370792.59985192
1364,820,3,3486179000.0,3925137426.117649,1927467000.0,2177957695.3763175,1501742000.0,1810764138.918035,315111000.0,334425290.442496,669472000.0,500987998.859284,949217000.0,972932710.2998362,-24190000.0,64794870.26763789,194277000.0,197486569.48193386,120834000.0,42412274.62729784
1943,1443,0,496042000.0,2129199235.2447972,349488000.0,1355898649.6131868,146554000.0,1582944969.559814,33924000.0,115361973.67851835,212763000.0,204525097.5523283,246687000.0,200921142.4111786,12448000.0,18555921.216480285,21476000.0,104347907.26466826,12448000.0,25868295.467668712
708,1395,3,1713800000.0,2396761131.6622334,864747334.9608463,1608716914.6820056,585500000.0,1322279547.8308544,141400000.0,244232549.0903792,205900000.0,219302372.81403083,347300000.0,379243620.736418,100200000.0,56268847.85058189,64600000.0,236378470.41332555,76800000.0,55839795.590291075
1795,402,1,5817000.0,708196100.1793013,1413000.0,254584790.11390257,5436000.0,30577508.780758142,5000.0,24488306.550519288,0.0,-25877729.253545046,5000.0,-14596557.674292564,-3525000.0,5484173.537445813,3530000.0,50995399.48713821,-3525000.0,-1388019.1016085148
1196,399,4,4180537.0,962380383.9813662,13379601.0,525718687.9746003,-9199064.0,587373418.0834934,1107842.0,46823905.11217761,974711.0,31766804.97713971,2069845.0,22533907.54648471,-2577294.0,9305303.651101649,3685136.0,113804231.4862594,-2577294.0,71564770.46574683
1785,1101,2,6656000000.0,6777398810.899553,2127000000.0,2568465491.14776,4529000000.0,3196871518.304989,386000000.0,346143734.30665183,110000000.0,633857009.091805,496000000.0,1431836756.6153061,-53000000.0,49961083.9418924,439000000.0,311869284.1910891,-53000000.0,52206829.44956421
1117,258,0,191593000.0,1471348106.2694507,250675000.0,900785193.852242,89973054.63642293,1524887086.9489229,28173000.0,69823913.81630981,35245000.0,79115669.25108492,63418000.0,107170631.80095053,-6852000.0,-4480864.114817068,35025000.0,76146905.32115465,-6852000.0,5091407.301535845
611,576,2,69753000.0,611587465.0706534,24624000.0,775167811.2050681,45129000.0,252440443.025033,4333000.0,109033113.04868305,3937000.0,37990735.87942314,8270000.0,35856958.596239686,-17948000.0,19885707.673057154,22281000.0,175039755.43322107,-17948000.0,31003545.668054
1037,1217,1,12798100000.0,7874659377.349434,7698700000.0,5533863709.270926,5099400000.0,3189142721.839451,578600000.0,456846430.4512879,1141600000.0,833164651.887279,1720200000.0,1847123178.0064166,210200000.0,104152505.55315442,368400000.0,318241882.2716499,210200000.0,62169076.1936332
1049,72,1,41718000.0,760468010.1080475,16883000.0,698481762.2632456,24835000.0,93702788.4682864,4472000.0,56031235.50551832,-7000.0,28881985.05704415,4465000.0,344602.34674453735,467000.0,7980848.560324445,4005000.0,79745456.26139563,467000.0,17024189.677795067
181,703,0,2175066000.0,2053581313.821237,720018000.0,1241687350.4931302,1455048000.0,1611986306.4781723,262895000.0,117483049.5263257,0.0,145442105.19944865,262895000.0,265336519.52532995,-74357000.0,-16399159.384016722,337252000.0,143054419.50593928,-74357000.0,685946.7144902349
1530,350,3,432444000.0,1279479084.9571733,58115000.0,1029442890.5497851,374329000.0,583026184.5028589,30953000.0,180224987.77803254,9019000.0,39036164.29886818,39972000.0,101370946.30114722,-4508000.0,30653453.26186581,35461000.0,172144626.72458163,-4508000.0,57157991.109267615
1172,1288,0,1951144000.0,3320476380.897008,976648000.0,1661009491.4725091,828149000.0,1670630772.5077436,81471000.0,204885402.54497623,811299000.0,491265132.43404245,892770000.0,522054397.8983845,21174000.0,22994827.673760235,35340000.0,169141544.94073346,46131000.0,45898285.420937076
1844,591,2,5184000.0,567996120.2075396,33317000.0,198526345.84904718,2568262.933576247,290123281.18515825,28000.0,30518838.13734168,1138000.0,-27448501.63385272,1166000.0,-12523848.565183997,-1174000.0,-1323348.366089046,1202000.0,51520928.70567459,-1174000.0,-36816683.57599719
937,1025,3,30042800000.0,19369183567.236084,15158963259.867964,10177651295.074947,10331300000.0,6079562379.678587,1541600000.0,803453804.2452626,2284300000.0,1797091504.9053063,3825900000.0,2885390092.260334,727800000.0,400281004.9320024,402100000.0,318254145.8134431,1139500000.0,102478992.36101617
1319,64,4,3143366000.0,2938375183.491339,724791000.0,1410904373.0741618,1686216654.8151803,992652617.522902,293240000.0,290335336.20457876,0.0,161049268.13520455,293240000.0,342805377.66847456,242794000.0,50672436.02125036,50446000.0,190750522.77812096,242794000.0,71564770.46574683
785,477,1,2558318838.0,2517156110.8361034,289865031.0,1303930398.268762,2268453807.0,1190753443.7518654,191440633.0,276239802.5398196,384407857.0,318378387.59455836,575848490.0,396818529.15888095,122416529.0,49293477.21906589,69024104.0,211580894.6142973,122416529.0,50038242.41989207
534,1553,0,355784000.0,1879137253.9105096,359982000.0,1239669525.875702,21035000.0,1566533222.846089,21274000.0,77438449.94379818,23247000.0,111242636.44556832,43857000.0,158126250.11271775,-2501000.0,2449346.13974604,23775000.0,96071570.14218459,-2501000.0,15169941.703451052
1073,476,2,107571000000.0,117636132401.02429,49865975585.04998,55460699725.91223,57705024414.95002,38506092683.98692,4680000000.0,3002130123.795532,16059000000.0,18047656558.96022,20739000000.0,22244865372.11637,2233000000.0,1065320215.0209262,234000000.0,1310175126.1981807,4446000000.0,280380658.6301187
871,1269,4,357016000.0,1424260569.3873515,134021000.0,992601376.3543072,222995000.0,762275268.2333834,10859000.0,117254567.69015837,60424000.0,94871269.23589563,71283000.0,82624508.49771857,4410000.0,35953822.58134383,6449000.0,133730957.71043262,4410000.0,71564770.46574683
145,789,4,10492900000.0,7100191288.991533,4642648635.342979,3809236986.309864,7724300000.0,3147406543.00707,1077000000.0,684826894.9320905,2546000000.0,2248895582.6973815,3623000000.0,3254607627.606007,389500000.0,223635462.10751638,626900000.0,295654051.55651194,450100000.0,71564770.46574683
1137,1457,1,221167000.0,2837848948.79375,272405000.0,1175895221.1006565,-51238000.0,1046648360.0441431,26384000.0,161933979.00581008,0.0,110176107.12478864,26384000.0,133974594.53552091,3123000.0,13555927.443006217,23261000.0,175994652.23226026,3123000.0,32721487.10627487
1853,892,1,644700000.0,1973239621.7941227,668700000.0,1255578606.0443163,-24000000.0,797975270.8731804,11300000.0,212621267.31067985,30400000.0,209067963.3340711,40500000.0,244495967.78814948,-2900000.0,47948055.85599568,9300000.0,191305790.67898718,2000000.0,47171755.57687649
1607,1187,1,5733000000.0,5130105193.748674,4386600000.0,3111466515.210035,1332700000.0,1946613128.0159178,508800000.0,349932650.7813446,1740100000.0,944530292.9398731,2248900000.0,1734776098.3272605,201100000.0,88341014.11686432,328200000.0,342929136.9601706,180600000.0,59325714.873685494
497,794,4,3187469000.0,4160704583.4589853,1581882073.387936,1948673947.012448,1402929000.0,1082597480.8071303,12023000.0,276687753.55264544,118303000.0,285771082.5110029,130326000.0,485665111.3090004,121116000.0,54279910.61838196,236940000.0,260500034.7452393,-224917000.0,71564770.46574683
1789,378,0,160962000.0,1370785919.421433,136871000.0,792228663.5623102,14091000.0,1545907994.7955275,33234000.0,25094624.781365454,28516000.0,111090234.24703097,61750000.0,68017327.32662642,-4105000.0,1906616.6468204856,29699000.0,68414378.08695674,3535000.0,-6817468.969926044
1733,1536,2,1070082000.0,1410599264.1831074,790095000.0,1425873915.2026222,279987000.0,571745769.5046692,59499000.0,171598928.7458569,92514000.0,143343485.64165437,152013000.0,243127255.53130543,-6147000.0,32970063.643962458,65646000.0,207716234.55066147,-6147000.0,50094732.92275417
1735,1438,0,55335000.0,909581095.7700596,11648000.0,590996906.114553,43687000.0,1516475503.000543,13874000.0,39669784.9486534,0.0,4618038.218116641,13874000.0,43222002.74759054,364000.0,-4590235.808164805,13510000.0,56486468.864629805,364000.0,-4379311.6107275635
1273,234,4,8855100000.0,4372982118.464472,4468096700.788768,3011226243.46904,3543300000.0,1968885076.8330102,468100000.0,419344543.20619005,2041800000.0,1321153545.4542308,2509900000.0,2031324330.6580656,256500000.0,121568557.49117361,211600000.0,304399027.6027558,256500000.0,71564770.46574683
226,900,3,1045317000.0,1625466335.6283627,491551000.0,1038991028.6764724,553766000.0,628541791.2537707,49476000.0,181523895.9077241,27012000.0,53826411.69551945,76488000.0,130796869.78918147,5569000.0,16858691.742908403,43907000.0,178849150.16685465,5569000.0,25153418.523886584
856,950,3,3335011000.0,3468123466.0522494,1532336000.0,2135968384.9315424,1376443773.6613572,1234425240.879815,158805000.0,199791906.45440587,458734000.0,315030942.3155108,617539000.0,445107541.7004514,82276000.0,66410804.17827407,26748000.0,206566431.6740909,132057000.0,43299489.2960987
610,1027,1,50788000000.0,37733499583.85136,23543456582.29001,20396917652.797646,11845000000.0,6969403768.798801,1286000000.0,1065966681.8697011,484000000.0,811111428.9880977,1770000000.0,2183104816.5466695,994000000.0,467750471.4267851,146000000.0,488803118.11483467,1140000000.0,60128834.15445111
434,784,4,9209798000.0,3489399520.408587,3242862000.0,1712210812.9247236,3654836000.0,1245454955.8486192,758604000.0,383261149.0343581,-63000.0,276517282.4890121,758541000.0,621152377.9587972,306700000.0,77018811.3092849,451904000.0,236492265.71143126,306700000.0,71564770.46574683
1765,676,2,3861516000.0,4357632180.43062,3060094000.0,2079421532.0490918,801422000.0,1684903466.2405598,246503000.0,313855681.87315124,543454000.0,466547483.4303256,789957000.0,700043281.2675219,-286586000.0,34114092.112341166,130761000.0,267914722.9455726,115742000.0,46309472.41279939
667,1311,2,3117800000.0,3117001435.0682974,2444800000.0,1756514758.6609244,673000000.0,1344288366.2321126,86700000.0,254318944.06874803,411500000.0,355117081.62755656,498200000.0,515890656.30611956,-419900000.0,56015499.764518216,63400000.0,203520891.74252325,23300000.0,62154551.35211348
1194,1323,0,84073.0,528025208.04329205,2814055.0,132183541.85279512,-2729982.0,1503522613.905365,0.0,-4815979.341535568,0.0,-39223223.9918735,0.0,-10973595.968147874,-647078.0,-8289402.203995615,647078.0,33591765.56525314,-647078.0,-13885887.57964845
626,969,4,250689000.0,1317921062.8086758,83024000.0,829582037.5631051,167665000.0,626826984.8475177,0.0,82147405.85435969,33193000.0,41942642.12852478,33193000.0,86246437.17255473,-43672000.0,13512010.64567697,43672000.0,136754146.53966,-43672000.0,71564770.46574683
1654,675,3,2267553000.0,2604151107.3202004,1375272000.0,1416278073.9111018,519294000.0,1353468586.284655,30179000.0,206694621.72775567,36686000.0,180639698.19797587,66865000.0,326875644.0099498,-15417000.0,48906024.89327335,38864000.0,194293201.55463013,-8685000.0,59924770.86680639
288,444,4,2221575000.0,3084020109.484028,1034139000.0,1544198374.280609,1187436000.0,1086348064.0888486,131964000.0,263305279.54704064,106311000.0,292222044.6190184,188755000.0,460104574.9989834,3712000.0,42719547.65886017,128252000.0,227633421.68287387,3712000.0,71564770.46574683
1665,633,0,555271000.0,2154866193.8060045,273881000.0,1314820988.001712,281390000.0,1545907994.7955275,77610000.0,100963813.96085137,73228000.0,192836606.5156111,150838000.0,195654302.0119567,6400000.0,-237641.73752306402,144438000.0,106998631.9670167,-66828000.0,-2555064.378458068
652,1061,2,1810200000.0,2017429796.8580885,1334200000.0,1530378764.8988678,472000000.0,870735898.263583,111400000.0,205657810.4193499,439000000.0,267740831.99694967,550400000.0,501989082.3676038,53300000.0,29968779.75844218,43800000.0,197736774.56173497,67600000.0,39841981.20231472
1078,508,0,339972000.0,1402522208.1575346,145992000.0,940652788.9939709,193980000.0,1545666031.9900076,800000.0,78038377.5632351,85000.0,45734590.27349603,885000.0,80731849.93653536,-35502000.0,-4145638.4788675606,45899000.0,82222013.96591058,-45099000.0,-13453557.540201724
778,4,2,992330000.0,1437714717.3331084,401273000.0,1445552120.0755312,544681000.0,725778496.8120029,417282000.0,214233187.0137815,0.0,113137341.12982488,417282000.0,209449571.49609435,5536000.0,41852392.383906156,411746000.0,232111558.4235909,5536000.0,55253033.728639394
29,1129,4,600271000.0,1764482981.278535,137438000.0,1035150372.0294318,462833000.0,767186622.3674295,73869000.0,151578396.51928574,24421000.0,138073125.1908067,98290000.0,187541596.16561866,-8089000.0,32866955.840840667,81958000.0,147736229.04927295,-8089000.0,71564770.46574683
854,1361,2,47193000.0,493639003.44351673,31000000.0,310074575.24961996,16193000.0,215391075.51077592,4954000.0,83152823.15797204,3898000.0,11627613.77177453,8852000.0,14428520.049704194,-615000.0,20174749.980757847,5569000.0,135984861.11344305,-615000.0,47511603.13240701
1423,1432,1,150549000.0,1294162147.885563,163792000.0,972992976.9926591,16674000.0,575063077.6241744,28323000.0,126308294.46816099,6429000.0,113668525.6530236,34752000.0,126367283.68594182,-13758000.0,29098173.01991579,21733000.0,158256380.23321965,6590000.0,44525013.966581956
1406,626,2,62996000.0,532334491.3526602,12638000.0,272567657.31972885,50358000.0,220926929.84768283,9919000.0,117759711.42072272,5920000.0,31891679.446070433,13543000.0,20305058.627751112,1979000.0,19953886.65800686,7940000.0,139493069.52101076,1979000.0,42039086.25645117
1624,39,4,56415000000.0,41381796681.79795,26707757359.48695,16933427085.642012,20622000000.0,8274235986.405364,4258000000.0,2631907607.873839,2744000000.0,2720749861.4813547,7002000000.0,6329673014.252497,471000000.0,458497655.2562826,1302000000.0,896095711.2432388,2956000000.0,71564770.46574683
926,747,1,572995000.0,1634376318.6982956,271264937.13018215,1571868758.1847644,210105000.0,981749239.2133428,-46109000.0,199344946.53552377,111142000.0,227302386.87456387,65033000.0,236493590.64409244,53448000.0,39396741.394071795,184993000.0,218497559.00665948,-231102000.0,38000533.64383945
1324,523,0,11156646.0,844589104.9122972,14063458.0,479741643.22407866,-2906812.0,1516475503.000543,-483256.0,19942537.93383336,692752.0,-11022346.378219962,209496.0,16658264.499730587,-2378023.0,-4542968.272757068,1407493.0,35593236.76991844,-1890749.0,-3133821.8492163867
809,1220,3,746651000.0,1884645587.169446,563281000.0,1129174982.1028123,350347808.70326334,717136158.3799324,20268000.0,181569727.42406425,132273000.0,197239207.55043977,152541000.0,262334723.1086285,1482000.0,31481205.090189904,18377000.0,169268992.51483446,1891000.0,39156035.34506745
492,1190,3,203605000.0,1538856699.366539,164863000.0,1288828112.436214,38742000.0,433133205.4038569,38308000.0,169693782.11631826,13284000.0,68232370.26602054,51592000.0,171059949.33260667,8585000.0,27696836.8489933,22801000.0,181362136.4589808,15507000.0,53835857.5603271
383,92,1,35610551.0,927116505.9908457,44852933.0,411454423.574399,-9242382.0,91339681.80092359,3037874.0,46966900.55759925,5691278.0,11697632.005179882,8729152.0,24846145.26847732,-7028283.0,-1254990.4257552624,15757435.0,87032822.62189186,-12719561.0,-10748730.217995226
1250,1564,4,4596600000.0,5823184831.863189,2319347415.031524,3070149272.0456605,3466600000.0,1738878345.629244,2555100000.0,618691601.8325549,3033000000.0,933075475.2388067,5588100000.0,2054721409.3501756,1174900000.0,246577167.6885261,1380200000.0,329905607.5155555,1174900000.0,71564770.46574683
229,23,1,3802385000.0,3600737375.7024016,2636965000.0,2430771183.285655,1165420000.0,1357482753.4234252,157645000.0,323591014.9898243,488142000.0,398752371.13511664,645787000.0,672054116.2674649,66824000.0,53158093.01635747,83253000.0,268875574.0193249,74392000.0,54158857.60108516
1531,1500,3,12852000.0,549533918.744175,5815000.0,442471775.61821604,7037000.0,62338980.91171551,1838000.0,88653281.35678363,1427000.0,-9128415.591297507,400000.0,24917099.856093645,-1116000.0,18201782.455308244,2954000.0,137614877.5292093,-1116000.0,41033509.045406826
1035,1501,2,11747000000.0,10433972478.156946,7158000000.0,4609399237.742367,4503000000.0,4384662566.980139,770000000.0,369664785.9938453,1424000000.0,1109435397.5069253,2194000000.0,2232813095.0391264,154000000.0,107424307.79392971,2040000000.0,636988726.1842536,-1270000000.0,51132393.30329067
1774,999,4,7236206.0,891749683.1480737,4913744.0,426555002.7489805,2190428.0,598052935.9347878,634746.0,47207469.046907306,2326079.0,-3339787.2130759954,2960825.0,-4878350.114944458,-234151.0,12780252.98788783,886442.0,97638489.85783792,-251696.0,69457451.76193509
868,173,0,6411000000.0,5125649648.253222,3370100000.0,2375355759.09308,3176144611.7201624,1783442981.8977344,371800000.0,340347339.18515617,637000000.0,494530430.6344642,1008800000.0,894406221.4529233,180100000.0,104796739.52434519,166200000.0,217115054.8344694,205600000.0,74551990.0202381
1391,87,1,345836000.0,1412700393.2591867,48837000.0,875080130.8734603,296999000.0,389851634.30802464,3870000.0,109092375.5061695,113328000.0,88305642.03833783,116752000.0,96176765.38106501,297000.0,20623861.56878656,3573000.0,135389420.31052205,297000.0,31977435.124012962
1734,908,0,20108000.0,703048012.384757,9068000.0,568022315.585599,11040000.0,1519934360.61909,3847000.0,29246069.88011259,661000.0,-19499741.198565364,4508000.0,18440205.81632912,-4126000.0,-7579436.619855002,7973000.0,48198056.60556328,-4126000.0,-5977109.183381036
1416,557,1,1564856000.0,2402641302.55733,1122858000.0,1456038742.511198,416354000.0,1062077423.9783062,276207000.0,248936740.96034366,-11227000.0,259248109.81336194,264980000.0,403017214.7872052,5657000.0,31050072.502181873,270550000.0,210163340.6502562,5657000.0,57458498.858779766
352,965,3,1125373000.0,2718177309.939331,521681703.6382896,1348654527.746815,29987000.0,810096745.4136996,142411000.0,193013701.93203238,-42080000.0,75339975.60400772,100331000.0,227054065.81799507,17283000.0,39126578.893247284,125128000.0,167688834.50692177,17283000.0,37937052.51545978
135,107,1,630871000.0,1934332515.398714,398464000.0,1123644479.5491445,232407000.0,822002452.6294779,80823000.0,186332255.45703322,413091000.0,161841418.82795328,493914000.0,186324886.94781005,-14453000.0,25635209.63768521,95276000.0,166035001.91373107,-14453000.0,32109063.227130428
1338,943,0,123668000.0,1362722207.3757043,40963000.0,1008491125.0297642,50285000.0,1529496248.0818024,29188000.0,45590021.66283023,11108000.0,100407037.97912812,40296000.0,98122718.59126139,-25553000.0,-2147761.353395462,35508000.0,78576635.31421986,-6320000.0,-2028890.7010301948
1076,247,1,34865437.0,773756416.607439,19085704.0,587416837.490704,15779733.0,74689017.54445267,0.0,38913517.9442597,1198.0,-14672352.414467454,1198.0,9958864.443276405,-6520186.0,3129068.559353292,6520186.0,91913295.83892405,-6520186.0,5352704.771613173
1426,223,0,1275550000.0,2166953080.1184926,1504271000.0,1393631818.5468833,-228721000.0,1545907994.7955275,-35238000.0,128270000.9661761,59168000.0,159334079.70680285,23930000.0,202104401.9684974,6621000.0,5862247.774170637,102745000.0,93738517.7678253,-137983000.0,20237041.41489593
2023,1260,3,151712000.0,788605558.6233263,195428000.0,728834189.48456,28605000.0,197098735.17945135,11588000.0,122442231.07863462,43977000.0,16525423.014661789,55565000.0,44285461.718372226,-8864000.0,10544265.83269167,20452000.0,144830075.71568078,-8864000.0,34641641.428342454
1219,351,2,1812825000.0,2209254693.503751,1134969000.0,1577441364.4042077,677856000.0,822629253.3691916,53184000.0,214253029.9835662,120142000.0,263544919.88948375,173326000.0,414997855.95712733,31929000.0,34169541.68214491,16945000.0,205982777.09902894,36239000.0,58629488.637342356
201,868,0,-1450776000.0,-2186247612.9672537,-894261000.0,-1238264486.5662956,-556515000.0,1443371053.4609952,162740000.0,206789785.9535472,213058000.0,356076538.7395071,375798000.0,503365824.6562432,-31210000.0,788888.3751814663,193950000.0,205697820.28979695,-31210000.0,34795912.34754829
580,455,3,526507000.0,2028636652.2442245,370554000.0,1142847270.0319746,155953000.0,668045325.7699137,66328000.0,157933811.58892813,107226000.0,200526199.5400052,173554000.0,312767119.37015986,-7923000.0,34381207.79345587,69543000.0,190364336.8842568,-3215000.0,46378359.07367157
268,550,3,3089123000.0,3426581549.329835,1300561000.0,1721660721.5092108,1788562000.0,1581403402.7213888,286131000.0,292549491.79079294,850247000.0,445931099.4993868,1136378000.0,708075469.570208,205227000.0,69681311.91930339,1010678000.0,362576839.2589465,-724547000.0,58464529.15952119
484,1474,4,2026392000.0,2308747448.711476,773709000.0,1024450012.7763653,1259138837.126244,956673847.6651604,36270000.0,132241507.66998327,906000.0,136378138.05359775,37176000.0,157044514.440938,-286393000.0,11774282.637661114,341823000.0,233891795.5123076,-305553000.0,71564770.46574683
1169,319,4,59798486.0,997631295.2877917,24561228.0,386694035.9742665,24680354.49630476,507833530.44816196,-143441.0,25652811.03142011,231837.0,20122815.437940836,88396.0,22580429.622285843,-6239976.0,4958171.875194907,6096535.0,80095627.47554839,-6239976.0,71564770.46574683
595,1472,1,269960000.0,1361515701.6088228,370356000.0,1039131496.9476409,-100396000.0,602467999.6930785,29296000.0,142526497.15636748,911000.0,120183352.39521384,30207000.0,169333992.79792142,-31260000.0,10221971.457252443,67269000.0,144435384.5676163,-37973000.0,39137837.86106469
1664,644,4,1411497000.0,2362425774.966605,713457000.0,1652374781.203202,667698000.0,860685376.5252824,123110000.0,222599055.02349457,21917000.0,211086797.4750198,145027000.0,247107458.48360837,16171000.0,47959558.74021802,124278000.0,192459683.83495045,-1168000.0,71564770.46574683
1737,775,3,1068388000.0,1653065744.7310371,793168000.0,989712912.1774926,275220000.0,359835800.68723536,1125000.0,120014074.43843764,126961000.0,110593340.65038884,114574000.0,188768175.11434925,-123332000.0,11572044.550359815,124457000.0,155459616.8277869,-123332000.0,37670215.07590476
1105,1008,0,736494000.0,2260904720.486642,390655000.0,1243988664.8200011,345839000.0,1524887086.9489229,107458000.0,106737851.18035996,77264000.0,154849681.8006385,184722000.0,211542863.0350573,-21496000.0,-10713346.24189356,128954000.0,125478742.21288404,-21496000.0,1349867.9100255594
366,1418,0,1026034000.0,2384290025.988144,544592518.5648394,1356588204.7339785,829659000.0,1582944969.559814,179923000.0,154007311.64309025,-1664000.0,191042003.87294006,178259000.0,263361889.52605224,43073000.0,31577812.475538433,136850000.0,135907722.87520555,43073000.0,17008272.89235966
847,803,0,2995900000.0,3404907203.560242,1720300000.0,1689081905.400058,1275600000.0,1595728276.7549703,234800000.0,204501329.20863715,244100000.0,315810490.9467048,478900000.0,512795955.34592366,25200000.0,39534346.35181921,209600000.0,175075629.01421866,25200000.0,37070674.72053535
1604,1535,3,700529000.0,1802420987.5690804,363632000.0,1179080829.041572,335762000.0,737076413.779535,46249000.0,168050479.93551543,72678000.0,70230695.9590795,118927000.0,159923759.34616137,-13197000.0,11255977.256351545,59446000.0,184852656.36602405,-13197000.0,33956864.15901097
579,1274,4,5913288000.0,5404066276.395279,5639252000.0,2840523656.2200065,274036000.0,2121481247.969677,470311000.0,361307096.81036973,1040995000.0,864481883.0655733,1511306000.0,1672557390.9084513,65962000.0,53503190.23872215,404349000.0,300594867.4241103,65962000.0,71564770.46574683
874,1085,3,232365000.0,1295324025.2723894,164743000.0,1064851183.7524972,67622000.0,545331005.6126406,43176000.0,177063459.02165928,202053000.0,78787145.0245732,245229000.0,165802694.22671533,9035000.0,31052966.48241824,31930000.0,176939807.65316093,11246000.0,53023734.958377525
193,58,0,24556000.0,667594538.1088343,5997000.0,380895204.7847581,18559000.0,1519934360.61909,-561000.0,13060450.40899843,1648000.0,-22293031.257930517,1087000.0,14725739.382068157,-8770000.0,-6686957.122221023,3225000.0,35047774.12566352,-3786000.0,-6248912.420811057
680,575,3,7852974.0,528256088.6238308,8726749.0,241489670.6697855,-873775.0,66324765.70135498,1562860.0,60329277.6723727,0.0,-24221480.920137763,1562860.0,-11551647.607887745,-1603437.0,13610506.511511266,3166297.0,117520243.7814238,-1603437.0,26954718.358554564
702,290,3,52606000.0,673623431.0608253,31088000.0,721795455.3497391,21518000.0,132508388.12034369,2202000.0,127966166.45765138,21569000.0,10663142.026459575,23771000.0,48360299.7495929,-1737000.0,23131624.246000454,2889000.0,140541896.1840737,-687000.0,50375750.61118035
499,1102,1,641605000.0,1502640369.3405924,98505000.0,1012335582.3285336,543100000.0,520313826.1966864,35752000.0,167314420.60588855,3063000.0,179677544.25291377,38815000.0,114287762.66445518,-5995000.0,29613332.46736318,24767000.0,165606823.7028627,10985000.0,46742972.52530212
277,132,1,428119000.0,1450030778.8155575,200385000.0,988073702.9573984,227734000.0,621817321.1454611,32734000.0,134813385.8593452,3693000.0,136743654.86986637,36427000.0,163102140.3080008,-31432000.0,11047188.077842817,67859000.0,180947190.1872323,-35125000.0,46601759.84209363
1540,286,2,1748597000.0,2044714916.9992638,773677579.6790999,1539406433.9601579,871968000.0,1080700270.8190432,88936000.0,231474319.51119667,314131000.0,258707724.2078423,403067000.0,324464900.764369,36520000.0,55959192.53971867,38806000.0,196718981.83832473,50130000.0,66847622.465095125
40,143,0,-12646800000.0,-3141306114.3560925,-10176700000.0,-1790614760.9293537,-2456100000.0,1539687267.334896,244400000.0,316359280.7074076,496400000.0,526626208.8327393,740800000.0,1008538525.6105103,16300000.0,105456171.47754976,228100000.0,226263911.26316577,16300000.0,55718877.28597017
109,1566,2,1646711000.0,2699113775.0829353,1388441000.0,1585178257.5282495,258270000.0,1032202320.8805526,48094000.0,171339260.0982171,144654000.0,298963525.921706,147710000.0,457940897.12294567,-42502000.0,22911710.122232556,79586000.0,210538478.3048499,-31492000.0,46536863.79032877
111,128,0,632540000.0,2143895311.8901033,270366000.0,1307479798.8841012,362174000.0,1524887086.9489229,197077000.0,152841482.56467068,14622000.0,170148472.90783733,211699000.0,202926301.2841792,-57776000.0,-1702264.2304553688,97890000.0,107192414.89393005,99187000.0,21022715.181665346
662,375,3,156269000.0,1004148418.2737894,70363000.0,1095163792.2830176,85906000.0,371464523.78258264,19503000.0,178313730.9383262,30881000.0,54674838.67695367,50384000.0,151403538.88119483,3657000.0,29092328.440301,15846000.0,153104725.72164273,3657000.0,55748926.29279098
1749,621,2,12875300000.0,9319674232.729465,6095371591.431398,5426243317.19228,1810000000.0,3294807436.384269,1227700000.0,785037302.5181413,4400600000.0,3292402483.256691,5628300000.0,4957264047.367477,478400000.0,191100803.29455727,749300000.0,366432340.3571056,478400000.0,72593994.84030092
340,1018,0,441781000.0,1915986897.3992243,86587000.0,1124763343.6872988,355194000.0,1550275193.1228871,97393000.0,93777815.70130396,44971000.0,143009526.4225554,142364000.0,165609652.74253106,9954000.0,8460068.753496021,87439000.0,97968572.98405403,9954000.0,14761391.610984161
811,86,2,1903960000.0,2449174004.291074,1118147333.3250542,1434260916.9426687,464992000.0,1009989390.7118181,314173000.0,288121937.0447071,381360000.0,395946804.74035645,695533000.0,621365818.7940843,49703000.0,55410123.86964608,262823000.0,227390382.79969192,51350000.0,71817343.20816092
1016,70,3,413017000.0,846130203.3962917,156380700.0672279,644247845.7387147,290614000.0,215892491.90076363,164000.0,109414268.06572199,0.0,16400068.196377397,164000.0,42256911.41882658,-47612000.0,15233738.709669277,47776000.0,158537537.12566423,-47612000.0,46537899.962311976
1696,1024,4,6459000000.0,4573011456.597747,3814000000.0,2644309101.241912,2645000000.0,1971874614.296364,417000000.0,455958370.07966125,1137000000.0,802365364.0416917,1554000000.0,1684638873.3674936,109000000.0,75961210.61536679,308000000.0,248015789.5620964,109000000.0,71564770.46574683
200,118,0,6683800000.0,4556394245.875308,2530688381.1304083,2252139651.7370872,4153111618.869592,1934542001.9103706,363300000.0,301554926.0313643,268000000.0,502824463.3568405,631300000.0,881409929.4616272,83300000.0,52131838.16390523,257700000.0,211646467.46674907,105600000.0,70266829.02188917
1994,627,1,165094000.0,1148594715.2027512,70482000.0,790734988.2920656,94612000.0,323390851.70780396,17629000.0,125652182.13512945,13074000.0,79039509.51400948,30703000.0,68145508.15999424,1152000.0,19570045.887216225,16477000.0,108366145.06385213,1152000.0,35194107.24259508
735,207,1,8604673.0,580214336.0878563,2338502.0,529864647.5017743,6266171.0,-20493897.05927944,1119391.0,35593388.86451173,1576117.0,12454068.329482913,2695508.0,-14722686.072922468,23726.0,5274697.825996354,1095665.0,62274204.44893199,23726.0,5698276.388952374
1160,1586,0,30395557000.0,15548443536.959135,16133181687.752192,11795542622.42343,6297705000.0,2936428459.887996,3044686000.0,3071939029.2034116,6751495000.0,5475758412.628328,9796181000.0,8070723596.848663,692314000.0,643950207.3352816,2352372000.0,2011117931.6853724,692314000.0,589981140.6625102
2018,200,3,764077821.0,1534135669.0912704,149164973.0,1087290619.8794844,540969385.0,714198904.2107301,20737462.0,181237872.69714135,3810639.0,76993919.75217092,24548101.0,139976458.13900054,-1942729.0,30079655.392427146,26490830.0,217541455.67430025,-5753368.0,54723451.23005468
597,335,3,19932000000.0,18675386730.12648,15924000000.0,9717206579.703812,3938000000.0,4069820359.8062735,677000000.0,596682110.254346,2894000000.0,2958627037.4897046,3571000000.0,3293858346.2263336,325000000.0,237619027.0455397,132000000.0,277490321.48458093,545000000.0,52429067.97505115
1089,311,2,114455000.0,427725264.24369764,66800000.0,480321433.8088145,47655000.0,268630861.2762866,-324000.0,59154695.53176099,692000.0,-14100866.165044308,368000.0,-7135678.637602925,-4444000.0,17864708.364105403,6127000.0,141667609.7541698,-6451000.0,32301712.670319833
1635,384,4,123009000000.0,56886897492.82893,61047097858.95223,40272071382.21766,24132000000.0,8538535580.072562,3661000000.0,2292222988.9313436,846000000.0,1414158624.3159044,4507000000.0,4954376251.14029,401000000.0,307392623.63499,5487000000.0,2861765125.106224,-1826000000.0,71564770.46574683
394,1561,2,1472222000.0,1570978146.2704358,444895000.0,1552492331.581981,1027327000.0,755539458.3520042,423804000.0,221781488.51363996,0.0,153003923.52695942,423804000.0,321349239.7472333,44683000.0,39112600.7769049,379121000.0,237423722.63150305,44683000.0,57562401.463836506
176,827,1,1707972000.0,2627643936.9386625,826699000.0,1476152762.0983825,881273000.0,939339166.5040926,161237000.0,241596737.78862965,18721000.0,299640062.7612893,179958000.0,387996446.74138916,-38330000.0,40585966.080518864,218288000.0,192840695.37696034,-57051000.0,53134924.6503025
958,1401,2,140348000.0,1070903082.6188865,22627000.0,763322440.6824203,117721000.0,465276269.8406668,18849000.0,105726413.68736595,19797000.0,43555224.485105276,38646000.0,94576011.21804309,5179000.0,10048081.978308126,24028000.0,151766093.91970348,-5179000.0,40312262.71205542
651,759,4,68862000000.0,51309540848.13268,37281000000.0,28961024004.790455,30258000000.0,17772433002.991055,682000000.0,1263992127.8502028,1405000000.0,1046978819.1720465,2087000000.0,3098539504.6981487,938000000.0,441504014.2696988,2969000000.0,1553281201.1125143,-2287000000.0,71564770.46574683
648,821,2,484306000.0,1117224109.7605062,160149000.0,1060707896.4901764,324110000.0,584852274.6741403,35935000.0,187370756.48903063,49919000.0,117750180.35166502,85854000.0,154379808.48848033,8224000.0,31447053.164204948,26558000.0,209630636.0958392,9377000.0,59426398.76109995
1124,1533,0,263629355.0,970171861.5615139,139827658.8984726,854349586.710135,106790041.0,1516475503.000543,4718481.0,42684845.074628174,-3354938.0,26550633.418184996,1363543.0,32776062.062915802,2345966.0,10791600.855920196,2372515.0,61070286.07453674,2345966.0,-2077296.299392581
1983,1255,3,22654400000.0,18995176556.76391,10023579681.929111,8000074357.347556,12050300000.0,7325357863.736355,409600000.0,586067376.2900459,3138700000.0,3084564299.469797,3548300000.0,3863552443.9072294,145800000.0,269291067.96012807,119900000.0,292448896.60923135,289700000.0,67608367.81062731
1330,697,1,55695000.0,1145915021.4437046,80300000.0,697491470.5575233,-24605000.0,390280411.6997719,-33328000.0,102179074.84236819,45694000.0,14595664.654328108,12366000.0,54695489.976661325,-48025000.0,10435810.382520407,14697000.0,97952678.53423351,-48025000.0,29752058.2096493
445,492,1,33248145.0,1055038038.5547395,21743057.0,451217816.51903915,11505088.0,95210694.77100158,1461398.0,63083636.56521851,569502.0,-27096183.447635174,2030900.0,14120622.328305244,-12979193.0,1582627.2928502709,15010093.0,63265136.10270983,-13548695.0,-5268914.116698958
908,1499,4,19900000000.0,12061808456.39087,10348000000.0,6773391893.823197,9552000000.0,3074807471.7515593,2649000000.0,1632062859.5720742,0.0,501997058.5965636,2649000000.0,2239479037.625267,467000000.0,270208319.2050537,2182000000.0,1043449272.2104764,467000000.0,71564770.46574683
1585,1050,3,2485319000.0,3797855826.1792865,1254039550.5762374,1956420709.7617586,1849463000.0,1775734713.9897037,775144000.0,358663029.05853564,0.0,198576275.22704434,775144000.0,602506510.402436,128435000.0,72442833.5964215,646709000.0,280781904.3358429,128435000.0,57154690.37206875
643,1128,0,959084000.0,2382139288.465091,491986000.0,1389133022.740796,395838334.6316486,1524887086.9489229,56609000.0,129728416.89603317,47928000.0,216588139.76383394,104537000.0,270023302.8624053,-22287000.0,-8587138.095633388,141301000.0,133606844.42696291,-84692000.0,2797237.944452837
1240,14,4,1657157000.0,3578610639.659413,2335507000.0,1313998372.1993563,-678350000.0,1219472727.1462486,-96698000.0,217992854.62795538,98929000.0,256568595.0993551,2231000.0,540256181.3676397,-125632000.0,12607523.519018918,312618000.0,283277603.8756473,-409316000.0,71564770.46574683
64,275,3,1590600000.0,2241856446.296255,748600000.0,1282018635.7206306,842000000.0,966328086.3984184,59700000.0,208249633.50095904,141700000.0,221642852.65311742,201400000.0,308978196.44569445,13800000.0,42811574.81066618,37700000.0,186697164.74107814,22000000.0,56592740.16094217
1027,1230,3,919607000.0,1937619778.1224575,266509000.0,1405599095.7244604,653098000.0,716031203.5636933,68886000.0,176760075.90243042,19532000.0,63439814.544544935,84131000.0,196555000.5170653,-18050000.0,22279464.12149504,86936000.0,180657168.84671304,-18050000.0,60907386.72729422
1034,198,0,121754701.0,1088543275.8866253,28424394.0,655463490.3436995,93330307.0,1500063756.2868178,1406469.0,27454319.476832807,-1378985.0,-3047571.7974112034,27484.0,27424295.43111527,-14928443.0,-31686012.131057024,16334912.0,53060176.68668765,-14928443.0,-17764424.700497255
802,1578,1,12973000000.0,7740802560.269211,6013807636.489885,4134184504.895205,6537000000.0,3072615900.8065405,82000000.0,455325481.1606191,545000000.0,682419583.4754443,627000000.0,1451082049.3283668,7000000.0,155587379.7384806,46000000.0,362216766.3764796,36000000.0,53783263.76806091
981,1120,3,613608000.0,1515102370.0046911,391072000.0,1065903460.430979,222536000.0,619176996.3919251,1437000.0,169854765.00237718,10955000.0,95801837.87066865,12392000.0,184443117.89649582,-84729000.0,25277006.34424424,40703000.0,191202045.8316797,-39266000.0,47701637.562795244
1046,343,0,102303000.0,1319808270.8881168,104192000.0,902134773.6251268,-1889000.0,1545907994.7955275,12811000.0,51851032.41417259,42439000.0,94933349.68607938,55250000.0,83679722.45527756,700000.0,3097706.1355639994,12111000.0,63256375.42387521,700000.0,911435.2607624903
581,848,0,1023085000.0,2121596457.7599425,937155000.0,1227499706.7333608,85930000.0,1582944969.559814,87759000.0,200546740.4288968,257840000.0,388622633.2181409,345599000.0,417785265.7899343,-36941000.0,18993418.156307608,111965000.0,145848990.63232678,-24206000.0,46635046.8571717
1033,894,4,822101000.0,1397882787.9496994,260505000.0,937493165.5952177,561596000.0,644042328.0204525,113425000.0,129242123.08113092,-8261000.0,25613498.500808954,105164000.0,124816780.4079479,25956000.0,20824454.63353671,87469000.0,139936819.69770604,25956000.0,71564770.46574683
1908,1021,2,972779000.0,2066730153.603517,674585000.0,1602028845.7843878,298194000.0,667256496.0025564,81122000.0,195335205.1252886,33069000.0,169795730.4128,114191000.0,300280770.6709082,-12742000.0,28682712.80273217,93864000.0,191301087.2435002,-12742000.0,61493583.270870216
1486,183,0,505122000.0,1797637096.6369243,329765000.0,1162941487.53021,175357000.0,1582944969.559814,66862000.0,81994753.93215054,-15726000.0,104727703.94974136,51136000.0,130009269.6861279,-8784000.0,3392063.074086383,75646000.0,97576961.23019862,-8784000.0,9315037.296349108
640,736,2,420505000.0,1553305909.1312752,230508000.0,935844442.5243053,189997000.0,474697552.9311228,53603000.0,146451300.82124975,71511000.0,65964164.589446425,125114000.0,168073829.07930005,16734000.0,26236889.179209262,36869000.0,203432722.75405335,16734000.0,4860682.884789944
1988,338,0,216274000000.0,127387759295.50395,73401000000.0,30568775724.408665,142873000000.0,9807876639.099943,27936000000.0,12068788058.89858,6210000000.0,5766929379.975713,34146000000.0,23397445675.03462,13748000000.0,4031749219.0565953,20398000000.0,7893617683.448596,7538000000.0,1879116424.0096552
469,991,2,122531000000.0,23886634283.61795,74517000000.0,23364996045.956318,57494689417.43809,1560102245.963819,11370000000.0,6483104799.654617,10501000000.0,7375985690.271793,21871000000.0,17228772321.39292,5767000000.0,3974482453.19677,5604000000.0,3926417365.0101056,5766000000.0,736820393.5798329
606,673,0,5723214000.0,3125714149.645695,2776207000.0,1946836017.3080835,2947007000.0,1734890606.0499935,448941000.0,362372924.187367,516900000.0,513948044.4729836,865197000.0,1007088710.8297514,78214000.0,87415925.9939359,370727000.0,368245544.05017895,78214000.0,67254634.6720975
1877,27,2,689227000.0,677775324.3658109,562767000.0,939811569.5824904,126460000.0,323951290.3031044,40662000.0,129561306.11212242,11086000.0,52503067.003487825,47740000.0,115287380.66093981,-28335000.0,20736946.78646387,68997000.0,173619819.54076675,-28335000.0,52016187.4878297
1148,532,1,600857000.0,1357820727.4397688,331349000.0,1154419751.693793,269508000.0,398715638.6975887,50595000.0,119543344.8618223,6532000.0,74105407.56675649,57127000.0,102149366.69604516,-62120000.0,11888579.894849837,83188000.0,163187265.33588055,-32593000.0,33732895.644416355
1653,1310,3,56794000.0,785596567.7141275,12682000.0,827453656.4524465,44112000.0,217703156.43115306,25087000.0,127886951.41500276,14791000.0,14065212.694332838,39878000.0,59178352.462218404,-4627000.0,18839008.169074222,44505000.0,165080273.61124277,-19418000.0,35018095.173413485
1205,1096,2,3747000.0,450766969.3060851,4407000.0,106387770.24960852,-660000.0,179446373.58559275,-1515000.0,36131606.95185053,1515000.0,291699.70196449757,0.0,-14702503.37822485,-2598000.0,9125550.60761194,1083000.0,79882506.98695758,-2598000.0,-7153631.211456165
1612,76,2,3505835000.0,2974985337.04545,1860807256.214476,2124646096.8216815,1470074000.0,1319945819.1415312,601953000.0,372681890.6737607,626097000.0,578575674.8420074,1228050000.0,1171359825.1434872,88554000.0,66510878.78824419,475916000.0,299251618.5700547,126037000.0,68457645.7836174
1894,1257,1,203011000.0,1385552653.2497501,255300000.0,1189571024.5006847,-52289000.0,400938630.40890014,8409000.0,107519753.77203357,25579000.0,105254680.1799854,33988000.0,97216246.95449364,-8212000.0,4818081.303496778,15533000.0,137369941.3853959,-7124000.0,31083376.856685277
458,865,3,3126495000.0,2323791102.8523674,2137404000.0,1639696732.7134001,989091000.0,1051718204.414567,70679000.0,217211045.37760252,930828000.0,322663589.9923261,1001507000.0,507436692.11158955,21039000.0,51116629.52994739,49640000.0,192817602.410292,21039000.0,61804340.64524615
782,1593,3,36175654.0,776869216.7239532,19187381.496044576,805933977.8666725,18868678.0,198758674.1884725,22295962.0,140290907.88066083,2274626.0,16711259.434211016,24570588.0,72836106.17234778,-1191082.0,20179599.603093192,23487044.0,138532799.2961376,-1191082.0,51160091.98061949
21,1011,2,3642433000.0,4951745811.010164,1611617055.0351417,2378881095.0737095,2307595000.0,2238868469.142459,392263000.0,500214770.93233895,1442178000.0,871218907.2288616,1834441000.0,1510327342.9830875,185633000.0,102934243.88542217,1648808000.0,710927348.0823228,-1256545000.0,56815468.02959583
323,232,1,102171000.0,1006301692.4611177,80142000.0,501518761.97719765,22029000.0,168577251.42190588,11994000.0,71225430.00645065,1280000.0,16814925.872685075,12084000.0,54208662.592398286,-8453000.0,2520089.9696361274,20447000.0,103183996.115233,-8453000.0,-11607429.273302004
1847,774,4,11562769000.0,8106573201.585018,8634392000.0,4985348784.260149,2928377000.0,2059278157.196157,696915000.0,851548601.1774211,4617768000.0,2961089459.4238024,5314683000.0,4532143757.626059,87484000.0,84190055.62667482,6096071000.0,3033256808.675111,-5399156000.0,71564770.46574683
1304,960,3,1061958000.0,1909965811.051281,603583000.0,1123092626.8722355,275904000.0,636148336.8984555,75380000.0,163310569.2589245,85007000.0,90910892.94656551,160387000.0,185745448.0279293,19279000.0,25074108.049089804,56101000.0,171999182.42170888,19279000.0,47544482.532577485
1031,669,4,1709464000.0,2751206968.4606075,792444897.6724385,958269318.2051663,917019102.3275616,922126431.7399232,-50089000.0,211810956.00518268,206500000.0,215999172.4731539,156411000.0,170396943.92947543,62554000.0,51901434.08800385,32611000.0,182313045.22861028,-82700000.0,71564770.46574683
1109,313,0,1182200000.0,2464225458.73976,559672263.5892134,1334554877.3417466,993300000.0,1633007214.324777,77500000.0,164974633.26939246,102700000.0,269509347.45910734,175100000.0,367896541.76159453,21600000.0,11726044.570213974,55900000.0,135993524.59488317,21600000.0,26486027.09786532
1483,305,3,15318000000.0,14508293568.066813,8995872209.433592,6981139627.844251,2835000000.0,3498496411.5835133,2220000000.0,1916680877.524013,7363000000.0,8462347045.299801,9583000000.0,8989216054.053614,348000000.0,316651529.82340944,1879000000.0,1012623595.7936672,341000000.0,160079897.65925834
739,408,0,2898416000.0,1170881408.7296753,2080781000.0,855646264.3220739,476998000.0,1516475503.000543,19746000.0,47040296.98094356,-19746000.0,21436561.345298648,0.0,51097471.919674635,-16089000.0,-9250848.94440882,35835000.0,70639022.07251161,-16089000.0,-5374668.182774231
1565,386,2,37777000.0,423727918.2456913,8088000.0,465835938.9344907,29689000.0,230777180.986526,1942000.0,102935822.85026383,1878000.0,15174576.89020574,3820000.0,27834086.452053905,-3377000.0,12377296.167142391,5319000.0,135279534.96237737,-3377000.0,43987684.79924744
1547,329,4,350115000.0,1611428314.7031245,124447000.0,976620288.3871484,144501356.0121529,902368351.4509357,23341000.0,152994200.93867815,74465000.0,192387908.92517197,97806000.0,221082080.65790248,1273000.0,37725953.76277857,21144000.0,143351099.84756505,2197000.0,71564770.46574683
1772,203,0,60756000.0,1348353935.8518834,14120000.0,779611219.2616544,46636000.0,1566686939.8366122,39398000.0,55988195.63812041,0.0,54721491.12199581,39398000.0,93102065.91674185,1277000.0,9094813.237661496,38121000.0,68163916.58748192,1277000.0,4070774.0106767267
396,883,0,2329417000.0,3601450873.5794945,1103945000.0,1876253578.23384,1225472000.0,1599114753.4680195,201803000.0,225975080.56844038,84310000.0,359668134.22975004,286113000.0,556737703.7015736,4458000.0,41058412.633502945,134794000.0,155393761.88470465,67009000.0,41033563.42976686
370,1540,3,322707000.0,1738989808.9669685,203952000.0,1377243687.501834,133189378.04611006,671869033.5601059,59563000.0,161642953.8256045,32549000.0,87981465.36573792,92112000.0,198104833.25298584,2829000.0,29112275.215916753,56734000.0,168329036.61981028,2829000.0,56364594.791504875
1387,213,0,16986396.0,651442137.3452759,28398941.0,212323611.34553623,7976898.609990532,1503522613.905365,-2992.0,-955702.3056497574,2987192.0,-19356667.483341217,2984200.0,3532805.989569783,-2823081.0,-8479271.98814109,2820089.0,48678581.428373516,-2823081.0,-11716295.60839139
1633,1397,1,5507733.0,672072343.9618211,3754986.0,264532434.18447924,1752747.0,-19614763.116692543,77969.0,33885851.7550109,690.0,-37457255.94828415,78659.0,4702331.130160093,-1288944.0,-2723510.2349279523,1288944.0,89545292.3827619,-1210975.0,-41969839.8306725
1459,1488,0,2951779000.0,2277731677.9935656,1733504809.66769,1837640036.7308369,-705417000.0,1582944969.559814,103159000.0,231194350.28440422,95357000.0,316651710.1347424,198516000.0,377614781.6785872,63542000.0,49052907.67436971,39617000.0,152568588.86206836,63542000.0,29246286.32172694
447,948,0,1389340000.0,3088313078.736055,870172000.0,1591561393.0370002,518687000.0,1608765942.161935,122910000.0,199728006.19930717,509918000.0,364282307.34339446,632828000.0,448312681.9936873,77637000.0,53408521.62421259,35836000.0,151785596.28145942,87074000.0,39743552.681764126
1342,1529,4,670100000.0,1192445895.6515965,96919000.0,1090859888.8325994,573181000.0,767057146.5754391,45369000.0,84445026.7690711,10723000.0,48686227.28254092,56092000.0,43292068.59175253,-44376000.0,15110220.776735365,100468000.0,153287108.12897673,-55099000.0,69457451.76193509
1101,802,1,796235000.0,917497258.4716034,203741000.0,441211693.2161565,463390000.0,139824256.91987145,475000.0,64047942.427224696,0.0,-8558520.134183645,475000.0,1315890.1889913082,-25797000.0,9207393.68594852,26272000.0,83110617.0869345,-25797000.0,9690585.333680369
1559,864,4,243654000.0,921332964.0001664,108112000.0,695026771.3865523,135542000.0,581744272.1401758,37230000.0,82116270.56932926,3845000.0,26692433.17991352,4798000.0,35232714.61882496,-21869000.0,5097249.913038835,59099000.0,127662706.17185262,-21869000.0,69457451.76193509
1859,1238,0,63057347.0,994892896.43184,37031977.76980746,863255490.3068008,50373559.0,1516475503.000543,5114390.0,40259096.20029831,9540399.0,53937313.74750686,14654789.0,46886082.02491665,3126608.0,15282265.567296654,1987782.0,52107841.96673334,3126608.0,3347907.3715232313
625,871,2,2120798000.0,2266661401.878588,1472395000.0,1256299448.4364047,648403000.0,859961125.1682922,67913000.0,170332804.65938738,30767000.0,180384565.435933,98680000.0,256444437.88419056,-9629000.0,22348152.434028268,77542000.0,213496141.52032432,-9629000.0,-7837858.807125196
1728,482,1,706517000.0,1819655877.321907,905805000.0,967166611.6048989,-199288000.0,559357109.6132338,73709000.0,136027324.14701784,16853000.0,138562676.26176107,90562000.0,191243551.07256567,38915000.0,33126146.997281678,34794000.0,189006591.0194431,38915000.0,437376.8631947115
1404,565,3,76126346.0,753312474.8972597,61120101.0,558147477.0179653,15006245.0,87993273.25127363,2282652.0,103089731.37804747,31006950.0,-6059140.721832991,33289602.0,38411194.33321452,-2890968.0,17635430.295911044,5173620.0,132135510.66645205,-2890968.0,47288389.64029275
1515,604,4,156303000.0,1455105056.6912727,83901000.0,935401441.1182032,72402000.0,685844081.900382,17689000.0,84827790.57231545,41469000.0,75936739.99702752,59158000.0,85481916.07672715,-2517000.0,27094425.47938858,20206000.0,135094489.57346603,-2517000.0,71564770.46574683
1800,67,1,3271200000.0,3841153539.4658737,1447362713.447565,2222663171.5562983,-21400000.0,1400959998.8690295,31300000.0,308771747.44243073,847700000.0,674788793.4321811,879000000.0,1173302271.1085806,-16400000.0,51633251.867161125,66600000.0,308327382.058197,-35300000.0,53436513.945818126
4,992,1,7361000.0,527156312.91835403,2671000.0,236750425.4887576,4573903.262590003,-59665099.1325984,349000.0,29577550.10588491,109000.0,-27376171.38615501,458000.0,-13559806.781985044,-670000.0,4233817.697309464,1019000.0,49256483.237139106,-670000.0,-9284329.004663639
1400,1108,0,-4860602000.0,-1748487537.3889627,-990657000.0,-265515076.1691618,-3869945000.0,1576271100.6859188,193881000.0,299164204.2392069,378009000.0,508613520.23041177,571890000.0,770686899.4662023,36078000.0,69848037.1552734,124685000.0,199813822.9827075,69196000.0,38211651.587807074
617,961,2,5475000000.0,4833494426.417148,4861300000.0,2758070544.0900903,613700000.0,1823766238.8457637,130600000.0,334490820.485043,1421300000.0,863397760.570644,1551900000.0,1326327912.1597464,23900000.0,81304430.94802672,81800000.0,223866193.03915524,48800000.0,62516070.253180765
570,257,1,9643000.0,691488324.0301914,6164000.0,465112921.39578676,3479000.0,76778604.54509985,1843000.0,33293976.019480467,2246000.0,-4019555.6032025814,4089000.0,-7609313.58625865,-437000.0,6915277.956515804,2240000.0,78530018.08334202,-397000.0,15081361.850062706
2015,880,3,12012800000.0,4291707663.021704,6608200000.0,2113999793.04907,4911800000.0,2027039492.200992,457000000.0,286507146.52864724,316800000.0,273509009.9216029,773800000.0,565044017.3457657,145800000.0,87845574.41501923,203500000.0,203300239.27618188,253500000.0,56929158.886276014
576,1076,2,6644800000.0,5776819583.02377,3248100000.0,2746754243.46547,2786600000.0,1907634561.303956,345800000.0,349779561.85458183,33000000.0,466602554.6024261,378800000.0,647272568.6802931,36000000.0,66577397.57992886,342800000.0,243515554.32585165,3000000.0,61087485.744721636
1397,722,1,136174000.0,1044876264.0726914,62163000.0,449425197.7062745,72304000.0,270252250.72702086,10072000.0,82525794.30453336,-3712000.0,6003190.533076882,6360000.0,58651496.138175964,-12604000.0,-47001.13092325628,22676000.0,104204394.97772694,-12604000.0,1142958.474248156
1134,1495,3,160043000.0,852364323.7696066,101422000.0,801462037.882616,58621000.0,263454225.88968623,15202000.0,122759118.53862816,-14386000.0,7902288.924960852,816000.0,54548681.907651305,-14398000.0,15982903.898085698,29600000.0,192663897.7493407,-14398000.0,27424060.160131745
188,487,1,9282000.0,830369931.7670765,3493000.0,449193382.6766448,5789000.0,74932278.40521479,355000.0,36252411.6069715,552000.0,-12091833.196475744,907000.0,-11812444.834887028,-972000.0,6598513.153830305,1327000.0,64118215.79393971,-972000.0,10880850.13787625
488,150,3,16124000000.0,10949827082.152203,13383000000.0,4085019355.956018,2741000000.0,3159138574.014188,5251000000.0,1298901982.3754416,4961000000.0,2110152281.0594718,9233000000.0,3823554521.230833,1583000000.0,309703890.8426825,3668000000.0,663172065.9690702,1583000000.0,65529568.51100018
1211,1554,4,1601068000.0,2583928461.4775615,1081707000.0,1332012165.557593,519361000.0,980545389.1917328,248876000.0,244087156.4171854,-34521000.0,166763438.10606742,214355000.0,360698572.8612144,19006000.0,46548066.99631384,229870000.0,216147241.91046137,19006000.0,71564770.46574683
1580,1079,4,779622000.0,2359114101.488297,153452000.0,1491373212.401125,626170000.0,964482773.9339714,134561000.0,228600133.30138215,57608000.0,251835300.52828032,192169000.0,249725879.1484363,56917000.0,56800836.20712285,77644000.0,166219117.84872437,56917000.0,71564770.46574683
1533,499,4,4162272000.0,4314919849.895656,862254000.0,2434331308.628042,3299439000.0,1449108432.2911055,357871000.0,474662142.8816735,794265000.0,414652415.45765597,1152136000.0,858959919.482876,114028000.0,99228606.13780332,194829000.0,302360880.31173444,163042000.0,71564770.46574683
818,1555,3,13900400000.0,8825472119.315647,12204100000.0,4511337124.922763,7319729781.089915,3387929545.2682443,78200000.0,336109379.2868058,235100000.0,642450354.9440249,313300000.0,1579145830.9016027,174900000.0,87898942.44322133,116600000.0,281319237.33382964,-38400000.0,65894070.86787169
50,579,4,594022000.0,1239842812.3816028,132343000.0,1237303046.5934825,461679000.0,716553096.3596333,121956000.0,115291947.78960294,1645000.0,74153883.81621408,123601000.0,134307718.1330496,31177000.0,31243343.921783447,45262000.0,131752225.66108724,76694000.0,71564770.46574683
590,21,3,1341960000.0,1947836386.3025293,666970000.0,1284805694.9768345,674990000.0,903860331.1574293,55930000.0,185896477.26684123,179410000.0,173648242.09201455,235340000.0,248280690.68916333,23760000.0,36742416.6219075,32290000.0,184808433.66502938,23640000.0,54780848.12172261
377,1125,3,52901000.0,674121090.507719,24522965.98920461,879888609.1553917,33404000.0,127496734.57061172,-1183000.0,132953221.50823444,24144000.0,12724885.256726503,22961000.0,51279566.08061385,-5692000.0,18099616.673214942,28653000.0,175273506.66017616,-29836000.0,50079068.73183566
1953,549,4,877565000.0,3127367035.539667,1336553000.0,1670472588.0812895,-475192000.0,913742484.3812364,522812000.0,283392935.061711,-345617000.0,166560152.24163002,177195000.0,419533161.0427457,31868000.0,58048105.36853828,490944000.0,206775495.61448672,31868000.0,71564770.46574683
1018,1347,1,26568400000.0,20176058673.163532,13080400000.0,10245704984.72485,13246000000.0,6705057864.434886,1346200000.0,732736313.3794119,1952200000.0,1493073292.664452,3298400000.0,3133060167.373655,592200000.0,179438604.3417884,746800000.0,456253709.2145076,599400000.0,62354433.87971793
709,1365,3,2933971000.0,2610342794.6799345,2618511000.0,1348399959.3570979,315460000.0,961316440.133348,65062000.0,224697043.91607606,2191000.0,205576617.83850032,67253000.0,415264922.6946068,-143265000.0,38141984.2414533,69951000.0,190100717.0008261,-4889000.0,53394562.72978893
1121,1252,1,27828200000.0,14116616365.930569,13810622382.415062,6805180171.955091,7212400000.0,4313522178.980387,821300000.0,545548689.356608,181300000.0,650203574.0839536,1002600000.0,1374300237.9693885,233000000.0,84677713.0762619,794400000.0,598688879.4708954,26900000.0,45554613.79720001
1026,769,4,2788943000.0,3203026957.008748,2662320000.0,1489348504.7472568,126623000.0,1086984874.4601731,299166000.0,315786692.70407027,0.0,274594102.3252131,299166000.0,640295515.4197972,-281667000.0,-997184.2910125554,580833000.0,231624110.0751053,-281667000.0,71564770.46574683
1015,823,0,2489159000.0,2446131525.0855765,1954765000.0,1461174659.184928,488897000.0,1625177688.8756604,294443000.0,307903027.7494719,370069000.0,455157350.00195193,636496000.0,695184243.2771989,64600000.0,55563636.67471844,229652000.0,188416273.3672226,64791000.0,51334421.13499707
1575,241,2,11961066.0,302729956.98749447,1068497.0,73159374.04823875,10892569.0,126758017.55704999,611174.0,33406681.255809724,0.0,-11361573.968437314,611174.0,-15366751.567920685,-1146685.0,442371.74028104544,1757859.0,70194643.28102213,-1146685.0,-14750349.457622126
826,242,1,93941000000.0,55626743349.449936,39446000000.0,27870827565.012005,53466000000.0,25142052377.37441,4178000000.0,3993857594.5570745,15656000000.0,13028317709.317547,18582000000.0,22862670577.429897,1764000000.0,2561887138.388365,2414000000.0,2082759135.6297724,1764000000.0,334749984.69613403
463,1402,1,32097000000.0,24720249323.79559,20419000000.0,11399779302.41447,10658000000.0,5591256423.53975,2071000000.0,1452810557.4292808,6360000000.0,4732373688.326231,8431000000.0,6560757595.745133,950000000.0,457003301.4896363,831000000.0,644575848.0019943,1240000000.0,66282305.83989409
1660,25,4,6578196.0,883086893.4132829,4441488.0,480027377.57448626,2465776.0,542382144.019448,2008368.0,24973983.95377189,923641.0,26465332.290510178,2932009.0,-5586770.7736103535,-1328968.0,12094439.282318592,3337336.0,87140971.55032527,-1328968.0,69457451.76193509
700,526,2,1658042000.0,2366639986.5687227,1223260000.0,1388943220.833456,434782000.0,664877461.8935238,207698000.0,234251408.5451544,674127000.0,277600724.5534165,881825000.0,430852895.83827853,25549000.0,36996433.26756487,179614000.0,203394709.4548167,28084000.0,67059378.44413701
402,371,2,9094896.0,313634178.496223,13593163.0,209609149.93344593,-4498267.0,273790847.45506537,-928960.0,35721544.858644664,1115703.0,7883741.273970127,186743.0,6068843.9568885565,-5136642.0,-3050502.5809877664,4207682.0,111941200.07771987,-5136642.0,-1361260.3845204264
591,184,4,16788482.0,769414079.3043351,821758.0,644944415.4517617,15966723.0,574854547.688688,906228.0,25730500.036407113,333325.0,14730885.620523095,1239553.0,-14674822.48648405,-1096396.0,-83119.04002514482,2002625.0,86633277.02383417,-1096397.0,69457451.76193509
412,923,0,1678241000.0,2455189303.2709336,730813000.0,1308160807.4231234,947428000.0,1611986306.4781723,62311000.0,151625754.42688715,89643000.0,185306600.2718193,127553000.0,302284354.6547382,-24195000.0,-4955427.722213,86506000.0,140192985.51407027,-24195000.0,24546409.27922392
26,1111,2,1363308942.0,1505029867.7781525,629855415.0,1153751780.1690512,733453527.0,802019788.6428733,93681798.0,183975714.11567786,0.0,108338226.9389584,93681798.0,244919411.92718017,39573525.0,31503972.879912585,54108273.0,193890509.7813358,39573525.0,51488738.16819394
205,666,2,15264467000.0,9298712290.147095,7226441209.924589,4737712284.699213,3059451000.0,3056401855.53644,592816000.0,594993862.2813828,378076000.0,710751996.242305,970892000.0,1866787551.0815,444977000.0,203296886.41895002,147839000.0,261199461.5066995,444977000.0,57086347.285451934
699,1149,4,65987000.0,1182440424.3707018,35279000.0,622417264.1050639,30708000.0,658648589.1317751,5319000.0,55231580.32601625,28050000.0,79968660.55921745,33369000.0,36335603.51701212,1124000.0,29156898.815533653,4195000.0,107482705.6490719,1124000.0,71564770.46574683
550,437,1,31945000000.0,31115127974.598904,26424000000.0,19542871306.435062,5506000000.0,4328606712.013582,1191000000.0,823572254.3298563,2895000000.0,2821815563.9959917,4086000000.0,3826087262.32121,834000000.0,264959084.9092389,357000000.0,501778320.61067486,834000000.0,53440301.15280846
140,1473,0,2655001000.0,3570374270.4671793,1989549000.0,1677385972.6325097,665452000.0,1645590410.3973706,67554000.0,217217315.1705925,403267000.0,375242391.9189804,470821000.0,591986563.4323986,-3426000.0,21682569.858303964,30096000.0,173544206.2555161,37458000.0,5017533.257167943
2004,877,1,9403000.0,538541082.0858927,5511000.0,414155522.49204254,3892000.0,11740434.913913488,-48000.0,16205769.073317468,1387000.0,-15592544.525533319,1339000.0,-17644326.383712053,-903000.0,1726736.4116704166,855000.0,48955772.29439849,-903000.0,7407345.418226935
28,31,3,551232000.0,1354553253.524023,628224000.0,1052139108.8195555,-138322000.0,627692381.1826957,23716000.0,185183259.7935294,12709000.0,51393564.114937186,36425000.0,112711552.15223897,7478000.0,20802654.471790254,48579000.0,218698995.32322785,-24863000.0,51504294.49856415
844,288,0,435750000.0,1776786574.381476,62826000.0,1052488579.7788696,372924000.0,1545907994.7955275,28152000.0,81931534.31784868,49267000.0,115854214.9276253,77419000.0,122311786.37244213,143000.0,5059451.3610316515,28009000.0,87115806.70260909,143000.0,2877526.4274362996
967,1117,1,367699000.0,1232164325.9132986,382822000.0,1106770912.0754993,-15123000.0,495171298.5419946,310000.0,134645746.6331941,0.0,91293904.61345673,310000.0,126691836.83473587,-47413000.0,8570978.936624676,47723000.0,155472468.78761345,-47413000.0,33176061.175382007
433,917,1,3810682000.0,2493314965.3383512,2050315000.0,1842959175.7801042,1303319000.0,806320314.70173,110314000.0,243677979.84345135,71850000.0,213008834.93133754,148990000.0,376878442.64234185,11661000.0,28717093.54453382,98653000.0,250160076.3905253,11661000.0,18053829.7701096
228,131,2,2333529000.0,2638125912.3290205,1032484368.2283514,1503947361.7561216,1202771000.0,1376359028.5346854,71236000.0,246979750.6904778,490990000.0,386380473.48353195,562226000.0,595783975.4998945,19517000.0,51227902.00381561,46091000.0,205429693.54654893,25145000.0,65904121.320840806
1855,1604,3,20737275.0,132317941.35545349,10788720.0,769679057.5631127,10368036.0,240869584.64861608,562564.0,98715296.64194673,77061.0,-4535941.97732079,87201.0,21914056.348664403,-4142505.0,-20235603.366962478,4705069.0,238445137.0963847,-4142505.0,-35913059.53958048
776,654,4,386844000.0,1812962777.0987816,412960000.0,1171909251.4440796,-26116000.0,863538887.7744496,16927000.0,126332021.9242459,91131000.0,160171290.27289534,108058000.0,135420139.62862432,-813000.0,30677854.83239063,13060000.0,152720679.10986608,3867000.0,71564770.46574683
839,662,1,6911775000.0,4293843581.475788,5109042000.0,3005359999.0589595,1802733000.0,2139215525.4312506,225256000.0,404920310.8408624,195092000.0,466629144.62412214,420348000.0,762480610.2490985,132530000.0,108984696.02560058,92726000.0,335652254.1332252,132530000.0,55668286.16658769
793,1426,2,2883631000.0,3018155004.3847847,1772390000.0,1243856079.3003097,1110345000.0,1559739040.5914009,319055000.0,279295116.50884783,1257690000.0,1191509931.387312,1576745000.0,1526535251.567496,38222000.0,66323739.100599416,280833000.0,262765733.36792558,38222000.0,55267112.32206874
820,1376,2,133032000.0,1393314805.418634,232711000.0,1144350463.8112442,-16246000.0,393519193.3064854,12296000.0,118548175.10760891,62277000.0,150580004.63143796,74573000.0,158361463.6979288,-14749000.0,16062528.16409561,89322000.0,164426222.05608127,-77026000.0,59371452.68732632
2016,162,1,296638000.0,1066214308.6971455,208509000.0,874355389.423779,88129000.0,445876287.2751839,7319000.0,111096331.25709367,0.0,78187889.97733939,7319000.0,91147107.0357778,-46633000.0,12454428.962609395,53952000.0,110447678.18378717,-46633000.0,34606551.45365891
1438,2,4,38809000.0,1157878936.596078,43090000.0,691657766.8771281,-4281000.0,715338242.3996618,7318000.0,42158381.52996206,25818000.0,126989707.81348622,33136000.0,87997108.59194541,-933000.0,20865066.63142982,8251000.0,100386368.21794152,-933000.0,71564770.46574683
866,365,1,2376172000.0,1441160533.4926414,1870972000.0,667710481.5899782,486613000.0,574967374.94788,-5214000.0,174704808.8447828,182832000.0,201801122.22944176,304976000.0,357332354.4616269,-103708000.0,20651433.64577,98494000.0,148293803.738966,-103708000.0,27759528.202659596
689,978,0,3719784000.0,4254609604.2719193,3332984000.0,2372201527.931464,286813000.0,1603723914.6008987,2618169000.0,1276931730.3890004,-531777000.0,288724615.63293254,2086392000.0,1152927193.4200785,44074000.0,45269581.859627955,2574095000.0,1690125501.229208,44074000.0,52625910.53906654
919,362,1,1537935000.0,2666793354.4223285,1281456000.0,1413175966.8630402,256479000.0,1092607329.3633983,229699000.0,229251801.61594564,0.0,250849399.36772537,229699000.0,433381577.85391974,-26947000.0,25740135.55116442,256646000.0,243670532.53950602,-26947000.0,49276680.56047249
1827,972,1,1182488000.0,1849480394.865077,303489000.0,1124775119.7335808,759221000.0,784110235.4359064,56265000.0,193622860.1924627,333008000.0,205165425.02344024,251870000.0,198787439.429204,16750000.0,32887307.862557948,39515000.0,153772890.19261572,16750000.0,47385468.73074721
1182,727,1,8225559.0,849401296.4789791,12447189.0,370468295.3513336,-4221630.0,73945972.48728824,17564.0,23392603.06773615,106922.0,-22531290.176573038,124486.0,3191778.3716061115,-8095209.0,7098299.0350277275,8112773.0,84401920.30622613,-8095209.0,4112339.4385762736
