epiphany24262/financial-performance-prediction/results/oof/m3d_catboost_direct_history_metadata_engineered.csv
Id,group_id,fold,actual_Q0_TOTAL_ASSETS,pred_Q0_TOTAL_ASSETS,actual_Q0_TOTAL_LIABILITIES,pred_Q0_TOTAL_LIABILITIES,actual_Q0_TOTAL_STOCKHOLDERS_EQUITY,pred_Q0_TOTAL_STOCKHOLDERS_EQUITY,actual_Q0_GROSS_PROFIT,pred_Q0_GROSS_PROFIT,actual_Q0_COST_OF_REVENUES,pred_Q0_COST_OF_REVENUES,actual_Q0_REVENUES,pred_Q0_REVENUES,actual_Q0_OPERATING_INCOME,pred_Q0_OPERATING_INCOME,actual_Q0_OPERATING_EXPENSES,pred_Q0_OPERATING_EXPENSES,actual_Q0_EBITDA,pred_Q0_EBITDA
196,1119,4,1192950000.0,2139865141.3561382,1055816000.0,1469631988.3273933,137134000.0,938342265.4669716,25598000.0,175195625.0830271,61899000.0,168323466.01150578,42992000.0,200060290.55063987,15222000.0,45126571.33622429,10383000.0,208153566.64650193,15215000.0,71951621.08200268
1568,556,2,1219954000.0,1852835327.640098,835046000.0,1194207965.1526606,384908000.0,517523599.5048213,111786000.0,212163989.25513282,217796000.0,250568671.02578646,329582000.0,381584514.6737155,28908000.0,38339923.04440651,85522000.0,172506463.3870261,26264000.0,59606964.51128478
1218,1577,0,-135820000000.0,-7892754099.79233,-37972000000.0,-5950208438.917995,-97848000000.0,4566599762.440546,-435000000.0,2301306725.5834436,4445000000.0,5241968852.321732,4010000000.0,6536042925.181027,-1472000000.0,-320474582.98738235,219000000.0,530441808.037354,-654000000.0,785754430.70885
23,1062,1,83298000.0,1230255285.1029944,16040000.0,710050654.4261112,-31633000.0,247226699.5511906,494000.0,83775763.52912182,3339000.0,46327590.22414911,3833000.0,53029706.14780617,-12348000.0,6440875.574844778,12842000.0,129655589.58837754,-12348000.0,25786247.996884007
783,805,3,148546000.0,1251667323.4016728,56555000.0,757606777.7459455,91991000.0,381953177.6569257,1761000.0,174028302.0130655,-2375000.0,4439837.450095892,-614000.0,48527651.53344715,-10098000.0,32152003.31529188,11859000.0,170066564.33295134,-10098000.0,73513337.26127088
1251,822,1,7304300000.0,4232664466.294476,2451900000.0,1982781295.4402733,4830200000.0,2527565964.617938,578200000.0,374820166.621467,581100000.0,668558711.4509615,1159300000.0,950539033.7359178,245200000.0,92707730.76293555,333000000.0,261217850.3199116,245200000.0,69849816.87583348
1224,228,0,1976905000.0,2313236312.452648,699909000.0,1656283698.5057507,1276996000.0,1205147523.168738,53993000.0,151894797.3350442,315825000.0,269484336.48183286,369818000.0,333708014.21358764,-1572000.0,11976354.090122432,371390000.0,238387102.8437538,-317397000.0,11833878.149213642
1410,1451,2,2097274000.0,2629860414.334377,1132234000.0,1696196005.9770305,965931000.0,1266539503.4972012,70481000.0,279024235.148453,291052000.0,379889462.4785079,361533000.0,488674893.1921729,58709000.0,62742372.9778834,11772000.0,224236022.86014208,58709000.0,66581564.50092666
529,34,4,31183000.0,1126654124.9492636,15926000.0,552655260.9744234,15257000.0,445573931.1989137,2456000.0,57212297.77776873,2151000.0,34379773.33513057,4607000.0,32199250.65125048,-2931000.0,23884916.14674242,5387000.0,91803059.11111724,-2931000.0,71951621.08200268
730,909,4,978523000.0,2177057867.3117557,851196000.0,1321642208.7386012,-94184000.0,798259385.8718526,24321000.0,156055539.98742092,137937000.0,231917250.30501908,162258000.0,270097489.8488548,-764000.0,33292033.392973676,25085000.0,157381149.75883734,-764000.0,71951621.08200268
1590,1344,4,27253000.0,1146348390.4442496,14465193.072010836,703361351.7880225,12787806.927989164,631948637.4235513,-17000.0,89336769.55802828,17493000.0,100191563.84067464,17476000.0,67615136.62317145,1196000.0,19676728.997661978,138000.0,113697770.3904294,-155000.0,71951621.08200268
367,268,0,798398000.0,1712386417.8986454,795372000.0,1045187799.0507431,3026000.0,781153218.761336,37121000.0,86846354.91186315,256160000.0,319604815.9311545,293281000.0,294011259.51143515,10257000.0,23514717.975591525,26864000.0,118242897.09385884,10257000.0,26626474.085257687
636,839,4,1059052000.0,2132412415.2830167,883921000.0,1477928111.9629679,175131000.0,824833867.6830709,91945000.0,155194300.61493868,202788000.0,237468459.6388563,235132000.0,276853925.7783258,-287000.0,36008365.729360044,84957000.0,153533229.35555476,6988000.0,71951621.08200268
1270,1065,3,11069000000.0,7808259330.54434,5919000000.0,3893220455.630926,5105000000.0,3250210527.2363405,727000000.0,529020304.2445841,1752000000.0,1450224787.024476,2479000000.0,2230838304.6856256,462000000.0,205795959.4964094,265000000.0,227994601.43718126,462000000.0,75265290.58676058
102,712,1,12331000.0,1062117827.500824,10875000.0,518104723.41770077,1456000.0,121300751.02965355,1472000.0,90478449.59539402,1968000.0,-106191822.89409304,3440000.0,26082591.760036826,-4166000.0,12477930.662797749,5638000.0,108230538.22661519,-4166000.0,-7135901.647300623
1658,812,1,180372000.0,1537121408.654891,121221000.0,1034250454.379849,30642000.0,373450063.9046061,18014000.0,119206346.57129306,31653000.0,90215436.79283845,49667000.0,93572013.075387,-11599000.0,27357573.29873146,29613000.0,121360059.03307143,-11599000.0,29117145.144262373
6,356,2,2319806000.0,3500021108.7352076,1534495000.0,1535084757.1506908,785311000.0,1341183126.9194617,376397000.0,318719180.6550145,415254000.0,504547570.8671902,791651000.0,602671937.1322565,93430000.0,52882764.140890256,288680000.0,199724034.4298745,87717000.0,47949966.42251347
1147,318,0,19295025.0,1386098444.9137545,28370931.0,890908085.972188,-13369686.0,597515803.1604042,2067435.0,50512970.33438563,4847499.0,25889306.531181693,6914934.0,53318392.498120666,-1108124.0,1481902.1598235816,3175559.0,55896302.35576737,-1108124.0,-2875867.465736702
114,141,2,3549408000.0,3134752044.7571983,2109262000.0,1630884263.5617898,1440146000.0,1025720393.7060702,264579000.0,307051716.7433075,494402000.0,558088785.7573451,758981000.0,667875921.3171394,58594000.0,60129526.832561664,205985000.0,233399858.65660623,58594000.0,61505309.25456054
139,890,3,331401784.0,1106021224.788991,56254670.0,820845338.2018733,275147114.0,313931388.5428078,17982150.0,143094591.6790222,0.0,15243638.03414464,17982150.0,53905195.5022068,-40215832.0,14788664.455035329,58197982.0,168375282.02758572,-40215832.0,70860896.82966965
411,956,2,5533000.0,324276113.5177479,4648000.0,476764311.89415884,885000.0,171921327.8313644,-1669000.0,67196941.29807323,2438000.0,6440533.6418432,769000.0,26912865.88186395,-6339000.0,22580606.476192623,4670000.0,87973817.0668996,-6339000.0,10075009.34488099
681,18,1,36550000000.0,23437477434.77081,16943241279.095451,14891967582.244371,15250000000.0,7989964850.945226,577000000.0,799619259.815697,3467000000.0,2397992470.876949,4044000000.0,4026855168.2747965,714000000.0,230409331.31006908,627000000.0,652816025.4642754,-50000000.0,95111582.6007978
1671,1574,4,100449000.0,1138800022.7885847,141057000.0,513254167.6476002,-40608000.0,435021380.60971045,-171000.0,68493036.62406874,512000.0,13560971.69599104,341000.0,46547242.547139525,-48297000.0,14516970.745921537,24344000.0,106197581.15807977,-24515000.0,71951621.08200268
500,1524,4,10599934.0,922223116.4702659,26203416.0,555533435.3966451,-15603482.0,459264205.1033864,-6219.0,75317927.87116838,193120.0,21826345.331746936,186901.0,16540103.963765383,-1076399.0,21662295.121385485,1070180.0,112701760.8629311,-1076399.0,71951621.08200268
1203,855,3,13322000.0,1101759867.045754,67881000.0,724870549.4593229,8277888.77383834,237811805.19233024,3223000.0,135959207.09710526,1889000.0,37705619.06282961,5112000.0,76599483.12486458,-3552000.0,15428334.115644634,8664000.0,187834833.59796894,-5441000.0,73664005.25168459
180,1091,2,635001000.0,1263892544.1970086,115305000.0,996588036.5204515,502273000.0,645575760.8655415,21465000.0,145923198.91407585,40457000.0,129695216.8725794,61922000.0,304532211.70615244,-143360000.0,7223657.20076707,205282000.0,211434593.99095318,-183817000.0,43172096.96499334
1960,1407,1,2672864000.0,2390874813.599255,288913000.0,1657375108.1812935,2383951000.0,845175865.8930383,132902000.0,188489543.78690237,168499000.0,256692767.0023954,301401000.0,383236784.2996203,55706000.0,46220622.60799864,77196000.0,162367695.87190107,55706000.0,39296725.20624754
356,219,4,8388335000.0,5038589671.316968,5163154000.0,3122878183.008193,3225181000.0,2067458851.6992917,313343000.0,358484208.159439,687959000.0,613954722.4017371,1001302000.0,1047046225.8378178,116260000.0,80820474.75844403,85661000.0,244756621.4987505,227682000.0,71951621.08200268
1646,1209,4,1563399000.0,1925717852.393426,1445358000.0,1577581365.1102874,-136248000.0,1013423826.4782484,72333000.0,189081799.76617044,116682000.0,201087594.07919502,189015000.0,256003242.83367598,23506000.0,40084997.507368155,11423000.0,179689523.63570294,60910000.0,71951621.08200268
1793,1494,4,320019000.0,1691698844.4789853,126984000.0,1184312860.1650708,193035000.0,908672976.3556216,177377000.0,166480672.7839328,58492000.0,159388569.4089123,235869000.0,193685465.5082451,25509000.0,34373230.67903113,151868000.0,167644380.62037936,25509000.0,71951621.08200268
235,903,0,0.0,1304388815.3880405,0.0,576492964.2905531,-804876.0,532400061.8136723,0.0,16645485.107603073,0.0,11835887.529067278,0.0,43466473.31588423,-14550.0,-8829955.189696133,14550.0,35635443.533482075,-14550.0,-7209012.408717722
1668,520,3,267194000.0,1399498108.8247957,175308000.0,758160993.9421492,91886000.0,404999307.113755,5103000.0,152180672.59081495,0.0,-2403953.2594664097,5103000.0,68368215.91621459,-32762000.0,17273933.475586757,37865000.0,172486362.44851905,-32762000.0,74675514.86938728
1456,719,4,2249377000.0,3426804358.911051,1923326000.0,2014689088.7440712,326519000.0,1485749468.5915446,-76300000.0,240126669.34857747,416103000.0,417254221.0967618,339803000.0,539191543.4028318,34941000.0,45822218.71632716,184914000.0,278095417.50643706,-261214000.0,71951621.08200268
1291,57,1,396890000.0,1792679836.0181952,107071000.0,1276826315.0232038,289819000.0,606095903.9043791,52569000.0,150450824.22528297,13634000.0,91782430.54344058,66203000.0,132947108.64148092,8375000.0,24794210.800988317,57828000.0,157528881.46603596,-5259000.0,33546489.679927267
1376,344,4,7827000.0,949612469.4020348,4744000.0,401202438.3095913,3083000.0,366229253.35075843,1288000.0,54961799.47087574,867000.0,16588121.662859678,2155000.0,6945089.1385297775,-3880000.0,15440988.540410772,5168000.0,90851591.3982426,-3880000.0,71951621.08200268
1702,1482,1,11990000.0,1149283097.7572365,3030000.0,503639255.8817649,8960000.0,212170843.59910238,1480000.0,60861621.68910748,3017000.0,30958297.97833574,4497000.0,29424009.172952056,-944000.0,8432292.033900633,2424000.0,93590045.4118818,-944000.0,2043860.2900246233
1591,331,2,7472874.0,320967256.2635207,3243445.0,357603815.56895113,4067990.0,39806555.23873532,3065804.0,58744222.55449414,0.0,-14278974.707464099,3065804.0,40944896.54956162,-21884.0,12208589.581164181,3087688.0,84997958.27212834,-21884.0,-2504745.2174993753
647,1582,1,2182494000.0,3112385428.5631247,2467501000.0,1653757538.823842,-484456000.0,1060264686.6113607,389190000.0,224339247.12538671,141172000.0,312329830.0884695,531030000.0,515855545.4695344,-54175000.0,41961127.969041795,443365000.0,227956640.26207426,-54175000.0,53751894.30905375
100,1589,2,12166000.0,356283708.9107461,2892000.0,505227618.3948498,9274000.0,106758359.31237471,5000.0,63603606.844415724,54000.0,-9176266.299448133,59000.0,5304410.945061207,-3433000.0,22780017.633170962,3433000.0,91307594.47848007,-3428000.0,13898227.320507944
507,336,2,189783000.0,700185042.0708771,45792000.0,658322937.2832527,143991000.0,362599597.7595297,2372000.0,99915556.33211303,0.0,7029994.109097838,2372000.0,69614023.4595983,-18270000.0,19482046.969807968,20642000.0,160042493.57496968,-18270000.0,31401793.24790767
547,1095,3,1072653000.0,1872664879.7627172,455367000.0,1051675540.5744011,617286000.0,622709107.1465114,134998000.0,138935186.6691022,27783000.0,154186873.5967036,163452000.0,264634955.28794026,5489000.0,31287159.697000384,129509000.0,163721385.33146214,5489000.0,67029002.875452906
457,886,2,665104000.0,1127705756.6563177,575531000.0,1040045370.2205262,89573000.0,559525430.6079113,30803000.0,156322429.1921133,19437000.0,124703216.40735102,50240000.0,179266081.35633862,10357000.0,38317320.6526043,22017000.0,173338374.67950758,8786000.0,49602099.352919176
560,670,3,1900367000.0,2127115955.9880338,289037000.0,988618469.6029525,1613343000.0,905193608.0235006,45433000.0,233421529.48997897,413911000.0,257332859.93672925,459344000.0,406999919.39007807,-6757000.0,51189232.21488845,52246000.0,184486262.04213673,-6813000.0,76109872.30358765
1402,905,3,88944000.0,939043845.0880933,45361000.0,538340432.7310514,43583000.0,195021285.19925153,0.0,100668646.13464475,45000.0,-24986491.49004519,45000.0,-4898733.508275747,-14351000.0,8824102.77115792,14351000.0,155078386.79220405,-14351000.0,70343095.98689798
1274,1040,3,5390785000.0,4465057033.734007,4083098000.0,3043850515.7524495,1050686000.0,1766170778.9197865,352054000.0,314145607.5086459,284900000.0,393372674.33204305,636954000.0,720313269.6963305,120850000.0,68523247.97154495,187232000.0,206489531.30117482,164822000.0,74523829.48898609
799,197,1,18535000.0,1227114282.1491766,13748000.0,635439997.5327277,4787000.0,226061814.6215664,2839000.0,84504482.6434843,7502000.0,63294600.60884094,10341000.0,50995725.5123291,-2229000.0,16946762.561390474,3071000.0,102085085.04075044,-232000.0,10159475.01075323
1436,782,1,13281300000.0,7362292604.382092,5777300000.0,3655119157.9724746,7484300000.0,4277821242.7883096,1030700000.0,588270051.4343648,1150100000.0,886358749.2924112,2180800000.0,1867421628.0438123,687000000.0,304286437.78825545,343700000.0,329547721.3775536,687000000.0,85089407.5443118
1518,137,1,108681735.0,1051979911.8994117,9192190.0,647631965.9760561,67531550.37365061,276374431.78819525,2201326.0,85683979.79469746,255772.0,40365264.75883162,2457098.0,29792873.22336006,-8935951.0,7828318.285915837,11137277.0,113681014.18775862,-8935951.0,12674861.625814386
211,1313,0,189692000.0,1411173540.0701132,90178000.0,1067121360.17067,99514000.0,545633693.7335193,-4411000.0,62210858.71066117,24963000.0,75047906.64362526,20552000.0,91921569.83386886,-10000000.0,2949359.849393815,5589000.0,64389026.54631102,-10000000.0,6846743.884773664
1542,188,0,230878000.0,1614630418.7932014,57278000.0,997767039.3210783,173600000.0,668609942.8069377,26973000.0,70200683.39167774,7041000.0,57235286.55067325,34014000.0,115902313.63146365,-11169000.0,101833.75902828574,38142000.0,72417947.39170703,-11169000.0,10275862.38159386
1496,602,1,73773000.0,1274919123.3817754,50819000.0,661909925.7091422,38847689.64492722,284192009.2888888,5428000.0,99011443.79686391,22481000.0,49610937.55654013,27909000.0,89494735.18489027,-1778000.0,13843472.642731637,7206000.0,118275313.09621355,-1778000.0,22371214.803751692
1891,1386,2,1582767000.0,1749239827.8620038,680421000.0,1406895963.3623648,880211000.0,722763685.358767,56683000.0,192540492.00025806,17637000.0,130655189.99865836,74320000.0,283420267.74608886,-5119000.0,35475000.50639484,35279000.0,173764794.43736964,21404000.0,47312062.16214268
362,63,0,5641000.0,1315741124.4939342,5200000.0,706481144.6719117,-3859000.0,551192585.9761429,1192000.0,32711049.388890028,781000.0,21001415.322330594,1973000.0,34121499.06607866,-97000.0,-136757.73750594258,2070000.0,44959920.73001939,-878000.0,-11655570.589809045
605,600,3,3208196000.0,3877849820.099276,2133043000.0,1892176050.2891016,1075153000.0,1216387771.4805982,625972000.0,338572133.13928235,1066275000.0,875052755.32407,1692247000.0,1235619515.4741845,91616000.0,95526584.82956934,497965000.0,224473691.39238173,128007000.0,75240504.41107173
384,240,3,13057000.0,781822246.7244592,4943774.229094189,435349360.5863123,10949000.0,109861219.84917545,7944000.0,111702175.45916319,0.0,-29885428.724199295,7944000.0,3903164.611140251,1997000.0,7092704.64288792,5947000.0,153742975.89272505,1997000.0,71234323.92195585
438,681,2,5973000000.0,5239501580.392988,4408000000.0,2647105198.546535,1554000000.0,1625708468.555389,244000000.0,357983684.8565516,1526000000.0,1185416691.1324975,1770000000.0,1379447114.3021092,147000000.0,74697289.22840028,127000000.0,237770531.17048025,117000000.0,57914868.061470576
1761,1233,0,589088000.0,1759781100.7382126,253950000.0,1192601192.0943127,335138000.0,852394316.4588518,19294000.0,117088181.20149857,99428000.0,200600845.64166158,118722000.0,217018657.8785727,9057000.0,25274397.85880418,10237000.0,89537790.24076414,9057000.0,28158303.45725438
403,509,4,21286772.0,1056193425.9194388,1383236.0,331508810.5091009,19903536.0,443086553.5937102,781782.0,51727233.65173674,421382.0,2455505.352865696,1203164.0,20590195.34994769,-1960898.0,17799795.87850456,2742680.0,86130329.22666037,-1960898.0,71951621.08200268
388,1329,4,3445920.0,1109421895.8634028,1859560.0,565047436.1914191,1616914.0883314284,453782274.72432864,2970901.0,70951640.94768417,569508.0,13782070.670380354,805185.0,39890857.71408403,2437201.0,16462263.198472872,533700.0,103882312.5998374,2437201.0,71951621.08200268
1452,1493,0,328158000.0,1495460941.4804854,124250521.82515822,1188539413.5749521,270486000.0,759678365.2825202,24944000.0,92042554.79778272,16521000.0,77295961.23489809,41465000.0,100826720.91208899,-7674000.0,3875220.434550822,24827000.0,75290510.96903643,117000.0,15519457.513617992
1876,217,1,2498305.0,1208176256.5729094,2997402.0,793137529.6535311,-3454854.0,130258566.05010259,467340.0,55819067.70476544,346611.0,9723117.767705083,813951.0,15867674.625452638,-114631.0,5630047.583793804,581971.0,111840568.9571895,-114631.0,-10508598.10333474
757,180,3,1288046000.0,2081324581.816586,649920845.9604261,1472086766.98304,889849000.0,758332803.1967542,105384000.0,228613761.4861021,285360000.0,241494263.5093584,390744000.0,356835563.56594944,53190000.0,47467645.69687774,52194000.0,188836275.48479083,53190000.0,73513337.26127088
660,425,3,600057000.0,1732066150.2531095,369915000.0,1104640220.428396,225443000.0,617823774.17935,43121000.0,174298234.7767199,106269000.0,81362918.21179795,149390000.0,184232472.32341146,7853000.0,45120957.63138111,30439000.0,180197138.9755682,12682000.0,74339629.42370944
197,250,3,538955000.0,1000377486.3244734,291671000.0,204851140.17193937,247284000.0,394171363.3011807,-14193000.0,100898098.99821264,14235000.0,21888020.952840686,42000.0,83948381.70688808,-51845000.0,3729653.705092475,37652000.0,143105726.0727992,-51845000.0,66003901.026925065
93,807,1,25334074.0,1277236800.5460935,18917048.0,719241407.9307208,5501613.0,206478232.8349508,-536032.0,56319203.764151394,4501393.0,46794638.16359377,3965361.0,50318178.7414099,-2975120.0,9823327.719408229,2439088.0,115721416.30999368,-2975120.0,9081596.669964686
472,555,3,1934400000.0,2462003399.3640604,855887268.5537325,1620679162.7664156,957200000.0,982696223.0964854,84000000.0,240117681.18261248,375600000.0,262275183.71467173,459600000.0,478290518.0333233,30800000.0,54521616.167483345,59000000.0,191690283.75590307,25000000.0,74400172.39861235
1345,974,4,102973000.0,1124756103.0936756,162948000.0,839338584.3905802,-346214000.0,464331220.1699016,-13037000.0,94803090.82297027,25768000.0,55887779.34791243,12731000.0,67805479.35718238,-23219000.0,10002122.35253109,35950000.0,137548502.73536253,-48987000.0,71951621.08200268
1672,1178,0,2501300000.0,2734158361.66927,1075500000.0,1880468162.749912,1407900000.0,1329325797.2268684,99600000.0,182002291.82266036,151100000.0,333655945.0232592,250700000.0,419942547.0678792,31900000.0,30472653.716060355,67700000.0,149811232.43403825,31900000.0,37434688.540668085
521,196,2,27910000000.0,34198581958.603424,24392000000.0,17409020239.02786,14058781786.346067,9499914629.26539,1525000000.0,918137105.5851967,6421000000.0,4400683949.265579,7946000000.0,6366065235.00934,561000000.0,192166355.944956,638000000.0,471222504.6212133,887000000.0,57601129.5972966
1143,374,4,105238000.0,1312661950.608385,42240000.0,903190369.333921,62998000.0,590108686.3742892,8572000.0,118483847.7263748,322000.0,58508152.182827234,8894000.0,75776430.03197289,2218000.0,32516264.581834644,6354000.0,146973084.84783742,2218000.0,71951621.08200268
502,643,0,2010176000.0,2368914143.6451964,889414829.379791,1525809504.8426645,1057656000.0,1279825684.3557267,113627000.0,195442812.06882396,250202000.0,328178302.0934223,363829000.0,387896143.1874645,44531000.0,51520309.01605691,69096000.0,149550044.35088977,44531000.0,44983066.72285633
319,277,1,15154000000.0,8575143337.576084,5534200000.0,4289688601.812722,9554000000.0,4661960156.984858,739300000.0,499697569.35622907,999600000.0,854474154.0452554,1738900000.0,1421848358.0537999,318400000.0,102601738.13551013,315200000.0,335396394.6079746,424100000.0,63164052.14406608
471,1421,2,346507000.0,1031399795.3986382,100361000.0,867571003.2120576,246146000.0,375449176.0880822,14398000.0,124168124.35059792,62502000.0,121161331.14902318,72480000.0,146898696.42260647,4926000.0,41374598.916016266,9472000.0,161111371.40710786,4926000.0,53116535.646648355
1756,928,0,229309000.0,1437950855.0216699,190264000.0,1129955685.6685486,-44269000.0,610031460.6056583,9225000.0,75925050.66298854,52669000.0,140038852.73621887,61894000.0,159677461.19893944,1401000.0,7587641.684881732,7511000.0,73002339.00291994,1714000.0,16240581.595127739
848,613,0,101740000.0,1498943964.9723306,28463000.0,846931878.5149364,50734000.0,639100372.5649655,29850000.0,89028355.59169555,12745000.0,53842358.18366325,40857000.0,62523417.36670494,2689000.0,6419723.67810747,27161000.0,68516430.87630528,2689000.0,7765247.799536422
1310,607,1,9582645000.0,3843928397.4657006,3280269000.0,1976874101.9367251,6302376000.0,2508060838.35306,376175000.0,326501575.86710787,424915000.0,570478063.5628573,801090000.0,894541176.3380145,272965000.0,62052980.00033013,103421000.0,307876612.1574929,272754000.0,66614486.0084492
202,502,1,609678000.0,1775541167.7249312,288631252.1743736,1310301700.4134102,366720000.0,590015355.4474337,84451000.0,142620995.2269987,21802000.0,152257544.0488416,106253000.0,194275285.34149027,5683000.0,23930371.245370507,78768000.0,123183377.31222597,5683000.0,36598272.39116015
1444,124,4,43441700000.0,28011102036.467888,21559314449.01792,16433710952.810295,21882385550.98208,7890805557.83307,1370000000.0,1110830431.1171575,587400000.0,799826486.4997039,1957400000.0,2456918569.7446356,472000000.0,195083749.34738332,1485400000.0,888450739.1345936,-115400000.0,71951621.08200268
1578,1121,2,1146353000.0,1609293566.8781161,752649000.0,1046716943.6123683,393704000.0,735426459.9669197,95229000.0,192015845.34796742,32092000.0,146880381.67613643,127321000.0,289562002.24613357,-58245000.0,33126378.15978478,153474000.0,178956638.26655334,-58245000.0,50909311.23117058
451,840,3,796771.0,878602367.6606011,1072746.0,389816799.681088,-275975.0,42237317.479469776,205707.0,74280595.15139395,158335.0,-11635109.776215076,364042.0,-23547.40337049961,-168127.0,8037599.94706361,373834.0,124418528.02546033,-168127.0,62890931.63526882
35,1605,2,9069035000.0,5262837107.652012,2563480000.0,2207134308.9092636,6505555000.0,2965977459.3268824,942419000.0,490225754.2791958,522866000.0,606404348.01578,1285548000.0,1276917560.774835,602695000.0,230431492.8853654,339724000.0,265844839.06991702,602695000.0,55141376.504099116
237,1328,0,48924605000.0,38389237822.85831,25766652000.0,18586632647.188873,22441501000.0,12665894600.892128,1560160000.0,1456421728.409782,915531000.0,948291855.0194067,2475691000.0,2560145107.809208,558196000.0,445983101.25965774,1001964000.0,984763932.8646857,558196000.0,273414258.35858047
917,299,4,514281000.0,1550916212.8627148,309957000.0,1091833288.0152063,198004000.0,843691772.8453426,106985000.0,157136383.87521607,149052000.0,160448855.3276195,309744000.0,196687142.655882,62399000.0,37845453.21936517,44586000.0,158537463.87666124,62399000.0,71951621.08200268
558,1592,4,17876000000.0,9208118492.1852,4077000000.0,2990809093.469466,13799000000.0,2158715612.998719,-917000000.0,305259829.12536395,1453000000.0,443788174.96239245,536000000.0,1024834189.8292917,-1774000000.0,41656248.35228171,857000000.0,512015272.52735484,-1774000000.0,71951621.08200268
73,1398,0,218354000.0,1621973208.275435,62021000.0,983364756.0639215,156333000.0,695485842.6562574,-143000.0,41216864.186226726,848000.0,32730287.47342372,705000.0,85256719.02890682,-31577000.0,-13050119.462954164,40859000.0,46770522.50105864,-41002000.0,-9342990.97822994
532,116,2,2268100000.0,3282430859.9627237,1627400000.0,1592457027.525378,640700000.0,1248763912.6294854,78400000.0,267866633.7829383,665200000.0,538360453.6023949,743600000.0,655571752.3446105,19100000.0,38046488.67522778,724500000.0,319959010.0448593,-646100000.0,48143355.56300905
986,1241,2,49117000.0,541341586.7031894,7104000.0,751786580.976377,42013000.0,279889438.7676804,1616000.0,103055126.63026232,3273000.0,21577904.176573396,4889000.0,59673742.75026083,-1489000.0,26024580.45803106,3105000.0,132183319.18331659,-1489000.0,28355952.807406314
252,13,2,12822000.0,338456518.2145982,1624000.0,444591164.3977947,11198000.0,62321060.289096594,0.0,46850117.702158034,0.0,-15349516.218496561,0.0,6979597.1617536545,-1983000.0,16615848.028056234,1983000.0,77532241.95835,-1983000.0,10322374.890124291
982,352,1,543788000.0,1529515543.136685,205894547.02387,1051232668.1632416,402777000.0,591019613.0194526,1944000.0,123836872.49547821,0.0,68519827.359604,1944000.0,151204357.9903468,-51279000.0,13084231.056645617,53223000.0,158999976.9867528,-51279000.0,33698277.76786412
1947,1444,4,16965000000.0,14715792573.2266,7506269391.549871,5089133757.102367,7744800000.0,3282281712.7173066,1329900000.0,770801056.7755718,1175700000.0,939887578.9968306,2505600000.0,2222692201.718233,1069200000.0,468930941.09171396,32700000.0,305195073.0569757,1297200000.0,71951621.08200268
1206,430,3,29788000.0,1045150038.0469046,27907000.0,710649560.0347176,1881000.0,184509518.26148498,0.0,136491198.46117884,3452000.0,-15317749.334631324,3452000.0,24021883.555895925,-23801000.0,12473618.763877392,23801000.0,166794099.82250193,-23801000.0,68641919.11493328
542,123,0,39315010.0,1319226873.2510443,15768167.0,731162834.5410485,23791305.0,585042678.8127811,7600979.0,45722685.86332834,41810204.0,51140386.4036994,49411183.0,72068201.47718084,-1588725.0,7054103.537340939,9189704.0,50606412.42592794,-1588725.0,-387596.0841559544
15,385,3,184728000.0,1016604836.4075785,40367000.0,607543126.8984423,144361000.0,423127293.00054824,0.0,126074325.84545767,8094000.0,-3521074.838841796,8094000.0,54477850.36585903,-23114000.0,12589522.820241362,23114000.0,167817803.34605652,-23114000.0,64266402.09558431
1754,1014,4,5014090000.0,4385619387.39484,2606263000.0,2596668776.4990745,2407827000.0,1835097816.5252721,420690000.0,320492918.3777431,905430000.0,538434939.9340669,1326120000.0,1009340527.2264155,237492000.0,105051535.29447684,183198000.0,264604134.28894717,237492000.0,71951621.08200268
1448,316,2,3543460000.0,3025276268.0424795,2602227000.0,1569646296.5375204,941233000.0,845435859.4132011,443568000.0,299633116.117465,134292000.0,338432241.9161968,414603000.0,509747352.9427297,14363000.0,66466022.54531878,429205000.0,256533382.03890166,14363000.0,53166505.97519398
459,80,3,747087000.0,1641309147.3013844,79688000.0,1003262131.7258508,667399000.0,643648129.5914115,34565000.0,182755316.97164837,22203000.0,55975275.071612716,57261000.0,159868374.07133353,-16306000.0,23461931.856792852,50871000.0,168584405.70700744,-16306000.0,72345706.61515541
1505,982,1,4578121000.0,4885256837.3041725,2310023301.364386,3223352181.0949645,2489780000.0,3017785347.9195285,2190001000.0,1770446718.2284565,-1465670000.0,316991976.720216,724331000.0,1416434332.171744,216069000.0,94412868.3694542,1973932000.0,1267231295.0493815,216069000.0,53667912.81288793
1613,267,1,11895943000.0,5778144397.328803,3479745000.0,2653619802.370627,8416198000.0,3320247634.367932,335683000.0,374226005.16761434,296441000.0,449857127.7089542,632124000.0,815246658.3988388,90949000.0,8836692.923246741,201199000.0,274116573.63196725,134484000.0,57017849.174979314
1214,941,2,1059300000.0,1893576098.723477,513000000.0,1320722824.782307,545000000.0,851828765.7690945,132000000.0,209491737.18466657,172700000.0,231762621.2801093,304700000.0,296517992.790604,34700000.0,51675356.67064869,88200000.0,203237254.18499234,43800000.0,51330223.92099341
454,977,1,11204065000.0,6473075198.656729,4242197120.938668,3086126672.743812,3489373000.0,2696472167.1156607,480702000.0,384470032.7525578,457696000.0,539410976.2836319,938398000.0,906185315.9524381,172392000.0,91310911.97367506,308310000.0,411509053.8462868,172392000.0,47118551.22167242
1392,303,0,531121000.0,1791009033.4352875,248900000.0,1210636090.1056814,282221000.0,844309764.0596346,62379000.0,133438097.65064931,135419000.0,229944173.62556517,197798000.0,229016151.61124718,18703000.0,25463737.493131474,43698000.0,85348585.6546793,18681000.0,29360009.54825195
1519,1560,3,961035000.0,2005187513.355648,1381722000.0,1141517095.9787846,-420687000.0,792542254.5203162,271111000.0,196972837.96752056,201537000.0,230581654.28579384,472648000.0,397931308.0133593,5387000.0,39844556.99654323,265724000.0,208535399.49769077,5387000.0,73654191.37759854
1060,1032,1,3194462000.0,3321442663.446931,1643299000.0,1868734393.9142413,1512215000.0,1235494127.994477,817744000.0,375279420.2423307,0.0,327036324.8685087,817744000.0,629380673.026436,37900000.0,55387594.053953044,779844000.0,303946802.0018376,37900000.0,57258644.72124043
1100,1277,1,6042273.0,1011202024.7189445,3627261.0,311141451.6620836,2415012.0,66560125.47357154,0.0,64059220.71071583,0.0,-290102.59067440033,0.0,-11718326.686793566,-1829562.0,9037287.366220802,1829562.0,92180897.13359535,-1829562.0,-24521549.250869736
203,261,2,76266906.0,716827522.0845547,57438990.0,791853471.1372466,40912361.81482647,296335725.4372544,9146097.0,107135132.2994197,0.0,1381305.0776201487,9146097.0,76992487.12942624,-2633902.0,30757939.49581334,11779999.0,161706702.24636462,-2633902.0,38899483.742058136
1493,405,3,-3532973000.0,716121313.8435221,-2747133000.0,583692479.078022,-773571000.0,921297026.1651648,87737000.0,192935483.11824265,40236000.0,297699714.000972,103187000.0,352499079.0483452,7123000.0,29953421.16869931,80614000.0,171114473.09739658,7123000.0,73439457.00914511
543,9,3,846734000.0,2210079276.045156,635659000.0,1187771897.5790966,69332000.0,673422580.2327164,204774000.0,175826278.65771914,-13024000.0,95747638.1889255,191750000.0,254769351.77484965,-52860000.0,19585769.65132864,257634000.0,214551702.42925113,-52860000.0,72931255.46210353
1966,415,3,1354514000.0,2052737590.7609568,675720000.0,1284928288.744771,319291000.0,677654485.4599237,-16558000.0,180298841.89549637,64132000.0,94146835.22070527,47574000.0,216874666.8770244,22229000.0,35373701.2504849,13428000.0,207013990.3746102,-29986000.0,72519062.81344888
1802,888,0,270533000.0,1537696895.1240306,240046000.0,1162934441.1039615,30487000.0,659117597.9008734,26052000.0,80373884.42408139,12454000.0,99822652.90395713,38506000.0,147217594.82637525,-21038000.0,1552255.386710912,47090000.0,84436331.79011846,-21038000.0,17008050.156693473
1372,500,3,583783000.0,1615564950.672216,717382000.0,1193687515.1579545,-133599000.0,606626173.0284727,41865000.0,156960318.2800472,32703000.0,100218688.93821979,74568000.0,239816451.7754097,-32006000.0,18961995.780757457,48224000.0,180652198.94018242,-6359000.0,72155321.98095967
1325,678,0,534446.0,1311604475.3421302,9794849.0,741833498.466824,-9132038.0,509207394.1805496,6264.0,27502411.693156183,3881.0,-16442531.23964727,10145.0,12157038.489456892,-961868.0,-4618223.619029269,972013.0,46792336.278244615,-965749.0,-13707536.443911314
1504,581,2,106308000.0,624151931.5046582,29369000.0,748438485.6841941,76939000.0,223001167.93660617,15630000.0,98006422.73438287,0.0,19034904.1364398,15630000.0,92865456.20072496,-23899000.0,22880629.298837304,39529000.0,148581116.42026147,-23899000.0,30763447.650993906
1347,435,3,369031000.0,1591615415.6860065,216722530.1814524,988900480.0968645,188777000.0,595365587.2331371,45044000.0,153726896.81415892,42173000.0,127390298.91680789,87217000.0,183525012.4084686,-3804000.0,29341573.02513434,48848000.0,186542766.29093936,-3804000.0,76091179.9441298
1492,360,3,327784000.0,1484706456.5695338,323919000.0,839456160.7885981,3865000.0,409393235.1319028,33496000.0,173091299.97814974,8201000.0,38607800.02631128,41697000.0,117992006.14151931,-4913000.0,27255752.538692147,37287000.0,169909136.38565925,-3791000.0,73103571.56346725
1107,1471,2,85658000000.0,46435302053.88473,88335000000.0,58585468963.667175,-2772000000.0,6006659549.606385,5387000000.0,5138350653.982153,14002000000.0,13871883307.48055,16935000000.0,26569938962.732906,1165000000.0,1278685340.513529,4222000000.0,2766990139.148953,1165000000.0,240841650.2204393
1336,16,4,898860000.0,1861039757.5324235,527877640.3036609,1246681813.936996,360528000.0,887345230.4121656,68259000.0,153296184.58159322,42065000.0,125679099.50441837,110324000.0,188193226.3041011,-1325000.0,34749773.817761816,69584000.0,148442869.5335644,-1325000.0,71951621.08200268
599,1259,4,50546000.0,1110983452.636355,5959000.0,543788090.2447829,44587000.0,508182218.57733536,1989000.0,61914733.92023587,1909000.0,41650161.52969134,3898000.0,35338236.46320343,-1895000.0,21540271.603928745,3884000.0,125237646.45471263,-1895000.0,71951621.08200268
117,1466,2,939056000.0,1714061246.0302744,419590000.0,1123940203.7680702,517473000.0,691473597.8640189,90527000.0,202615968.75365794,120216000.0,170117613.71098512,210268000.0,234667006.3995812,61012000.0,47227952.32852242,29515000.0,188387273.52125397,61012000.0,59124428.27504085
1825,1105,3,20027115000.0,9730403630.236588,12952737000.0,6777434076.784294,5611108000.0,4038399793.1179442,32786000.0,322961289.2428738,283742000.0,457295463.01198304,316528000.0,1011423938.8422999,-1347477000.0,68636349.83880427,1910658000.0,338337688.7557249,-1877872000.0,75475736.4402923
1507,930,3,124094000.0,987561372.1461959,18130000.0,766107209.1453362,105964000.0,223504279.0005622,830000.0,132097067.27026308,0.0,-25416679.10597229,830000.0,31425341.50670564,-5787000.0,15487284.468875945,6617000.0,158807606.55856648,-5787000.0,74525787.18747999
321,688,0,68675000.0,1518801112.0789933,40331082.646745786,1027912541.6041942,53645000.0,671433511.7597744,10938000.0,87206453.98378575,6604000.0,37344113.3331188,17542000.0,62004251.52307773,880000.0,533867.0852615237,10058000.0,56053128.847952366,880000.0,9165755.583256796
1482,964,4,1833700000.0,2558496066.416937,811331929.4597701,1311998928.8484411,482900000.0,1209538104.108596,110200000.0,186868891.47952643,356000000.0,282757506.22907466,466200000.0,315628887.81754243,45700000.0,43081635.73659733,55600000.0,178848462.12223533,54600000.0,71951621.08200268
508,608,0,62515472.0,1365524406.0831256,29595817.732691668,1015155335.1405096,21861273.0,618210122.6032002,7032458.0,60160170.657998025,11256239.0,43850789.4870832,18288697.0,83709737.83260655,-1564350.0,-3239068.4005093426,8596808.0,59020306.15493959,-1564350.0,6924208.257752754
1411,715,3,33859785.0,820410679.7335486,6178818.0,545398020.731492,27680967.0,193416263.17652762,-63384.0,90837848.95117068,87873.0,-18575501.06167662,24489.0,-6273859.633642316,-2675666.0,8683500.13776742,2612282.0,162889989.59204835,-2675666.0,75141230.6913175
718,899,4,770792000.0,1683471073.449038,581187000.0,1168795554.6261559,188503000.0,915385028.7647033,456709000.0,174242307.59874898,0.0,154193192.9188314,456709000.0,267893110.61782777,-29756000.0,37585922.14785816,486465000.0,157894691.17994723,-29756000.0,71951621.08200268
1865,42,1,4753100000.0,3336613865.7336698,2691038000.0,1950433338.6037836,2062062000.0,1322911990.7482605,383135000.0,292594542.641636,0.0,331572963.4354874,383135000.0,495428637.17365086,126771000.0,61327224.138571694,256364000.0,233057901.89344615,126771000.0,61768619.62105218
710,971,2,9330700000.0,6070001352.732101,4987700000.0,2310272499.4053235,4343000000.0,2215360545.2041793,590200000.0,453629716.3882875,367100000.0,520190913.8152403,444000000.0,974409416.8700912,121300000.0,56711374.653072014,468900000.0,242741182.34300464,121300000.0,55843079.785457276
285,867,1,1797231000.0,2338103977.865904,1568932000.0,1362151125.0747843,228299000.0,754273094.6131432,143030000.0,184500169.21663076,0.0,187382640.21070528,143030000.0,313242076.3600081,-113543000.0,18379508.68640405,256573000.0,198883623.99583137,-113543000.0,34156152.95589793
1609,632,1,90048000.0,1326348711.468573,45436321.63528667,816697188.3818555,37547000.0,312537531.83260167,2482000.0,94873810.99751186,9262000.0,56240530.71777058,11744000.0,42684349.924884915,1360000.0,21211400.652461633,2815000.0,133759544.18230644,-333000.0,16712699.240922011
1814,1285,3,190817000.0,1399353306.9760327,91955000.0,777269843.8427582,118567925.39840196,424749579.65424764,16838000.0,144488776.1016912,21962000.0,44127569.862674356,38800000.0,102244968.67691326,3292000.0,34620472.51392531,13546000.0,162902088.36299032,3292000.0,74339629.42370944
720,1550,3,24930824.0,1164723971.7362504,6278564.0,578660347.5541759,18652260.0,242163077.1167413,7866761.0,110262261.5450353,20382092.0,1609245.2525838614,28248853.0,23899825.921839595,1448213.0,22457602.27716297,6418548.0,165902141.29413518,1448213.0,73840112.30015106
1707,403,0,6071000000.0,10059365127.470055,14261000000.0,8737273900.356323,-8190000000.0,1662511655.8190038,1287000000.0,1377072134.5323672,421000000.0,620834826.9077312,1708000000.0,1598483351.2174973,613000000.0,407277484.8816157,1095000000.0,979384522.4563224,192000000.0,27033109.246971816
485,1126,2,5768300000.0,5020245028.27931,3017800000.0,2354164822.5905895,2739100000.0,1842216635.4983025,487400000.0,371193637.1163819,888400000.0,594667696.5285684,1375800000.0,921042926.3206899,276300000.0,84866200.55124208,211100000.0,253845630.21038455,276300000.0,60382215.57587963
1364,820,3,3486179000.0,3785666474.8529797,1927467000.0,1952867912.6563492,1501742000.0,1352246992.61196,315111000.0,243103634.3158913,669472000.0,486697729.6525364,949217000.0,898463776.2878532,-24190000.0,66777897.569616064,194277000.0,211196456.0127036,120834000.0,67497017.02636983
1943,1443,0,496042000.0,1837693756.4360366,349488000.0,1257921634.6228526,146554000.0,756749404.0742085,33924000.0,106744601.25348896,212763000.0,223476760.74078506,246687000.0,234894927.97226,12448000.0,18168903.485979572,21476000.0,89877456.02993438,12448000.0,24211846.388442524
708,1395,3,1713800000.0,2607747745.0085187,864747334.9608463,1608196675.127166,585500000.0,990819668.7465203,141400000.0,225359064.00368756,205900000.0,224059324.47537208,347300000.0,400839730.3621081,100200000.0,60830464.5245983,64600000.0,223816454.97197723,76800000.0,72942304.23040587
1795,402,1,5817000.0,964471431.4931197,1413000.0,498730204.72071123,5436000.0,134195303.37896883,5000.0,62336211.26742858,0.0,-11377395.806969285,5000.0,22700.47632241249,-3525000.0,6390649.228104189,3530000.0,107828685.91184473,-3525000.0,-2706778.7208037227
1196,399,4,4180537.0,962561792.2117906,13379601.0,582279002.2771711,-9199064.0,442611863.17154837,1107842.0,68582801.51505631,974711.0,36892613.950415134,2069845.0,25151922.133259654,-2577294.0,14199737.495969325,3685136.0,103115643.56266841,-2577294.0,71951621.08200268
1785,1101,2,6656000000.0,5254443448.531297,2127000000.0,2261784644.4111366,4529000000.0,2200431619.869433,386000000.0,298843330.7570686,110000000.0,570163144.927552,496000000.0,833859752.5553169,-53000000.0,40734242.45117999,439000000.0,221936125.39870209,-53000000.0,41845712.996234745
1117,258,0,191593000.0,1460616612.632801,250675000.0,1149331218.2370644,89973054.63642293,711123373.2971716,28173000.0,72877486.78344953,35245000.0,100779249.30555642,63418000.0,142738001.96848977,-6852000.0,-1636117.7112287283,35025000.0,79943630.03320798,-6852000.0,18022876.46357535
611,576,2,69753000.0,716751165.3393207,24624000.0,639178269.0588865,45129000.0,233208764.05156732,4333000.0,110206125.14135683,3937000.0,44251245.80087292,8270000.0,83107254.06640553,-17948000.0,26297450.647736125,22281000.0,175988420.26991385,-17948000.0,32706113.926073175
1037,1217,1,12798100000.0,8561829776.443711,7698700000.0,4120573519.1217012,5099400000.0,3045158330.0211153,578600000.0,405081601.13588655,1141600000.0,881513995.5793183,1720200000.0,1741611059.8059807,210200000.0,69018867.1708566,368400000.0,256307157.78854632,210200000.0,53328637.40718303
1049,72,1,41718000.0,1309176557.6689215,16883000.0,820145002.9186587,24835000.0,335985635.2841346,4472000.0,88290063.87684274,-7000.0,63343884.31304133,4465000.0,49797843.244332194,467000.0,16914147.961259186,4005000.0,113784694.52115172,467000.0,14339009.397830538
181,703,0,2175066000.0,2384738020.771349,720018000.0,1363441820.5013745,1455048000.0,1121521192.9240274,262895000.0,158313782.27593806,0.0,144380082.8888842,262895000.0,335718088.51217926,-74357000.0,-593467.3818864822,337252000.0,219090896.91468573,-74357000.0,20964399.72316783
1530,350,3,432444000.0,1284232816.740397,58115000.0,812986398.0245233,374329000.0,438935118.42859507,30953000.0,160147674.59144476,9019000.0,26463441.760204196,39972000.0,100370258.07373822,-4508000.0,29893134.652516097,35461000.0,164425094.609613,-4508000.0,74313558.83217588
1172,1288,0,1951144000.0,2541177582.9725313,976648000.0,1567926566.061879,828149000.0,1095935510.997367,81471000.0,187502183.42689544,811299000.0,476944374.74295366,892770000.0,541378174.3417548,21174000.0,13184861.171407118,35340000.0,136562020.25485837,46131000.0,36709348.6730555
1844,591,2,5184000.0,407005054.10516024,33317000.0,420373653.60985136,2568262.933576247,87232870.77787793,28000.0,62390550.98426092,1138000.0,-861641.7800710201,1166000.0,5873918.024449706,-1174000.0,19719971.427310735,1202000.0,103181996.33566159,-1174000.0,3371452.058977343
937,1025,3,30042800000.0,24789008446.101555,15158963259.867964,10970753509.544453,10331300000.0,6542878715.555722,1541600000.0,869285019.6630337,2284300000.0,1827249147.9895172,3825900000.0,3275046768.8395343,727800000.0,402455347.2478578,402100000.0,314578330.25505674,1139500000.0,74339629.42370944
1319,64,4,3143366000.0,2425751474.2869678,724791000.0,1825713918.96589,1686216654.8151803,1179916441.6103916,293240000.0,211584707.38290772,0.0,167261211.26615357,293240000.0,390436737.85647345,242794000.0,40746991.25151298,50446000.0,183361443.40988725,242794000.0,71951621.08200268
785,477,1,2558318838.0,2373842369.6127934,289865031.0,1573195357.4974813,2268453807.0,1102116249.5874357,191440633.0,212730735.17189878,384407857.0,308766642.8457494,575848490.0,482065131.09127796,122416529.0,53317576.36652455,69024104.0,176619334.86896107,122416529.0,47692031.06233913
534,1553,0,355784000.0,1631971882.118401,359982000.0,1190462478.2665424,21035000.0,750794018.4465196,21274000.0,99417941.01761538,23247000.0,148996366.55631882,43857000.0,176340751.85503983,-2501000.0,5189487.935887471,23775000.0,100585451.27311406,-2501000.0,13387590.222765215
1073,476,2,107571000000.0,89146741124.64995,49865975585.04998,51746410052.91221,57705024414.95002,40423366581.72347,4680000000.0,2522491130.842872,16059000000.0,14947194828.253195,20739000000.0,19207229294.42571,2233000000.0,914662930.4058913,234000000.0,1309452932.8244927,4446000000.0,463802660.94181246
871,1269,4,357016000.0,1256722502.9608517,134021000.0,1041039715.1766477,222995000.0,680840424.6001462,10859000.0,136681850.70849538,60424000.0,103878925.30802584,71283000.0,122221649.08755827,4410000.0,32004080.45450986,6449000.0,139330663.42645672,4410000.0,71951621.08200268
145,789,4,10492900000.0,8386638748.009672,4642648635.342979,3957162724.9538565,7724300000.0,2668605275.5743604,1077000000.0,654705463.069417,2546000000.0,2277109461.320713,3623000000.0,3274709328.7363925,389500000.0,217478686.8687474,626900000.0,390298445.1390011,450100000.0,71951621.08200268
1137,1457,1,221167000.0,1534217152.338584,272405000.0,1123411890.6718116,-51238000.0,367560330.30110645,26384000.0,125543831.29617184,0.0,62907250.01302862,26384000.0,89947449.36813688,3123000.0,19737262.965771228,23261000.0,141988924.93267262,3123000.0,31460733.301798962
1853,892,1,644700000.0,2090849567.396699,668700000.0,1330506541.138489,-24000000.0,640960015.090924,11300000.0,197231638.53821588,30400000.0,227906277.88069224,40500000.0,212240792.19049633,-2900000.0,31468103.371224314,9300000.0,181056488.90877673,2000000.0,32312302.06121884
1607,1187,1,5733000000.0,4816397327.017702,4386600000.0,2322964340.6392536,1332700000.0,1760418876.2682066,508800000.0,358022468.0357255,1740100000.0,1101703653.1208596,2248900000.0,1768657270.6500201,201100000.0,72666759.64316769,328200000.0,263191772.69695032,180600000.0,64457938.409956336
497,794,4,3187469000.0,3048223396.973842,1581882073.387936,2140612678.6963906,1402929000.0,1402440225.0256224,12023000.0,250274356.9035794,118303000.0,312129744.9944603,130326000.0,502367198.09540176,121116000.0,56506123.674534515,236940000.0,256626571.4617497,-224917000.0,71951621.08200268
1789,378,0,160962000.0,1501510033.7142348,136871000.0,881155968.684463,14091000.0,679131148.1679542,33234000.0,58681123.877482235,28516000.0,87154514.72237396,61750000.0,117161405.13193691,-4105000.0,2490458.2466570735,29699000.0,59649591.95106983,3535000.0,5590923.553787492
1733,1536,2,1070082000.0,1538625260.3378863,790095000.0,1084318370.7545354,279987000.0,586134249.1959769,59499000.0,161900272.37561527,92514000.0,159034592.17843318,152013000.0,316376936.16614854,-6147000.0,45480168.21081883,65646000.0,190386671.44443682,-6147000.0,49631960.364501595
1735,1438,0,55335000.0,1492307907.2782578,11648000.0,1019633166.7016225,43687000.0,575935826.3595891,13874000.0,65797772.8049857,0.0,28202203.906413555,13874000.0,80282475.51027179,364000.0,-3678030.345505193,13510000.0,67489107.82509941,364000.0,-5991886.533752665
1273,234,4,8855100000.0,5382877807.68692,4468096700.788768,2504236198.6675243,3543300000.0,2184526398.8164673,468100000.0,349856378.8309847,2041800000.0,1117273384.5154188,2509900000.0,1816522292.5066557,256500000.0,80187564.01808943,211600000.0,258179524.83423898,256500000.0,71951621.08200268
226,900,3,1045317000.0,1608830573.3803687,491551000.0,1029472557.3161051,553766000.0,642756797.3426566,49476000.0,161219646.17613417,27012000.0,76495370.50877655,76488000.0,181357703.91193998,5569000.0,26501282.140881866,43907000.0,185582168.8613931,5569000.0,66394057.41326641
856,950,3,3335011000.0,3317613413.283077,1532336000.0,2075274587.840871,1376443773.6613572,811732499.40257,158805000.0,274319821.8459725,458734000.0,241280095.27289832,617539000.0,490255795.7683382,82276000.0,61955653.87714228,26748000.0,231530967.73222363,132057000.0,66097405.19789204
610,1027,1,50788000000.0,34631314495.24031,23543456582.29001,18347517180.50935,11845000000.0,7579709676.782856,1286000000.0,965630306.2097262,484000000.0,727662700.1076751,1770000000.0,2109280942.8625731,994000000.0,542437750.0717939,146000000.0,522325628.7810785,1140000000.0,69900454.0765903
434,784,4,9209798000.0,4402637982.500946,3242862000.0,2512518881.11705,3654836000.0,1684201306.87897,758604000.0,410601599.83136976,-63000.0,338253674.2644841,758541000.0,614485189.6359272,306700000.0,68711926.54118586,451904000.0,264194675.31750202,306700000.0,71951621.08200268
1765,676,2,3861516000.0,4012430883.1864233,3060094000.0,2131069495.2305517,801422000.0,1426332437.036191,246503000.0,291135301.93121046,543454000.0,527504245.4688792,789957000.0,684985064.5273054,-286586000.0,41340183.90855878,130761000.0,236954799.10798955,115742000.0,39824579.98749681
667,1311,2,3117800000.0,3032227370.742713,2444800000.0,1681604498.2883732,673000000.0,1157538995.4738758,86700000.0,273770036.9149834,411500000.0,394044991.0903021,498200000.0,517163945.5130793,-419900000.0,53348828.12587144,63400000.0,195805491.12266225,23300000.0,55997956.63668068
1194,1323,0,84073.0,1172543178.9264822,2814055.0,509287271.76230717,-2729982.0,455489724.9625585,0.0,21095636.765892148,0.0,-11728055.366178513,0.0,15689115.175516486,-647078.0,-3401764.5937217474,647078.0,50701001.96886778,-647078.0,-18860280.415014565
626,969,4,250689000.0,1126225533.4907165,83024000.0,815335437.4431186,167665000.0,510051239.3917111,0.0,97587204.50787228,33193000.0,71155559.0965898,33193000.0,85178968.98119676,-43672000.0,21126582.31103903,43672000.0,123440871.96753675,-43672000.0,71951621.08200268
1654,675,3,2267553000.0,2767033559.2823553,1375272000.0,1200637401.6284168,519294000.0,1298192193.0389123,30179000.0,227624962.196063,36686000.0,145507245.79008025,66865000.0,312730491.8450316,-15417000.0,35685534.72196375,38864000.0,185588617.08747587,-8685000.0,74649444.27785374
288,444,4,2221575000.0,2248569335.5289164,1034139000.0,1523160240.7861674,1187436000.0,1132002245.4793878,131964000.0,217594862.72341704,106311000.0,221809383.73317593,188755000.0,382062848.8216914,3712000.0,36298194.74964202,128252000.0,193411846.74154234,3712000.0,71951621.08200268
1665,633,0,555271000.0,1873420783.2006602,273881000.0,1366107267.6524265,281390000.0,974154789.7347245,77610000.0,116814722.91818494,73228000.0,178861861.16592568,150838000.0,261573330.3220445,6400000.0,5454040.875207469,144438000.0,104858244.27480435,-66828000.0,13766884.916633122
652,1061,2,1810200000.0,2082659434.4102454,1334200000.0,1533894688.394351,472000000.0,1118241511.1999328,111400000.0,235833712.77086845,439000000.0,284987776.94633263,550400000.0,492008270.97346497,53300000.0,38393795.66381248,43800000.0,186419373.72116026,67600000.0,49976752.84268459
1078,508,0,339972000.0,1441470972.0540962,145992000.0,965804325.5800023,193980000.0,749535318.3772442,800000.0,79152847.85440129,85000.0,88884618.46912038,885000.0,197526018.69715536,-35502000.0,719832.1496427208,45899000.0,89197155.0548681,-45099000.0,16669969.994154632
778,4,2,992330000.0,1664856422.4022684,401273000.0,1004930342.0203001,544681000.0,625842012.1861181,417282000.0,207583970.6129035,0.0,124921853.5885663,417282000.0,275580321.93181896,5536000.0,39728790.42102896,411746000.0,212657089.6439002,5536000.0,47141167.82767349
29,1129,4,600271000.0,1767200044.4160662,137438000.0,1068727285.3966224,462833000.0,800562014.0746034,73869000.0,169279453.06590104,24421000.0,120758938.91356921,98290000.0,166484892.82134068,-8089000.0,25492111.59782046,81958000.0,151667011.12370145,-8089000.0,71951621.08200268
854,1361,2,47193000.0,486369577.1786585,31000000.0,713615586.1455216,16193000.0,272866424.27514887,4954000.0,127224613.89886689,3898000.0,15852440.272883654,8852000.0,62128906.518123865,-615000.0,27417279.37419749,5569000.0,131760647.73829737,-615000.0,38324349.181697026
1423,1432,1,150549000.0,1567774538.7075834,163792000.0,1020756219.6690195,16674000.0,368720835.350176,28323000.0,128000863.28903633,6429000.0,99582247.22546089,34752000.0,112441668.60401785,-13758000.0,14907659.143653542,21733000.0,143104979.20129132,6590000.0,37803222.674913615
1406,626,2,62996000.0,583264556.7254634,12638000.0,785258470.874443,50358000.0,326738484.55125046,9919000.0,123141399.76050103,5920000.0,49645000.75449729,13543000.0,66135959.821029544,1979000.0,34557510.43618087,7940000.0,144943802.14724088,1979000.0,38498536.98801129
1624,39,4,56415000000.0,42837351265.772026,26707757359.48695,21074602746.933414,20622000000.0,9422046636.523468,4258000000.0,2905198022.4782014,2744000000.0,2491960933.325408,7002000000.0,7035207175.036313,471000000.0,426449007.4791322,1302000000.0,1005022068.8040395,2956000000.0,71951621.08200268
926,747,1,572995000.0,2270728258.232313,271264937.13018215,1562597187.4834173,210105000.0,805427981.2222865,-46109000.0,190518016.28622752,111142000.0,181517533.08118147,65033000.0,269999671.7802079,53448000.0,34397142.26070174,184993000.0,199429208.816197,-231102000.0,40233372.44292208
1324,523,0,11156646.0,1321700813.5438766,14063458.0,769543064.7111945,-2906812.0,576131872.2096107,-483256.0,26301496.32237023,692752.0,11994564.388976097,209496.0,54691354.35274172,-2378023.0,-7770871.462448403,1407493.0,41190869.99270171,-1890749.0,-15142355.46349658
809,1220,3,746651000.0,1620603635.3432999,563281000.0,1176162610.392684,350347808.70326334,727351501.9251461,20268000.0,192314992.0441006,132273000.0,185127636.44386506,152541000.0,290599161.62024105,1482000.0,38817986.78610469,18377000.0,191927839.51090556,1891000.0,66815091.707950965
492,1190,3,203605000.0,1680962366.2909408,164863000.0,1060521798.5859804,38742000.0,483506253.6252042,38308000.0,175955130.76981616,13284000.0,56754624.996200085,51592000.0,100349584.7459786,8585000.0,36850201.45099665,22801000.0,193067631.39017007,15507000.0,73513337.26127088
383,92,1,35610551.0,1263817562.698038,44852933.0,805967728.2349896,-9242382.0,209108778.04139876,3037874.0,95899682.39891475,5691278.0,34982940.130468965,8729152.0,8242096.293727517,-7028283.0,18818827.685583815,15757435.0,136026557.43704066,-12719561.0,13886019.319585994
1250,1564,4,4596600000.0,7340992735.507844,2319347415.031524,2624282899.583619,3466600000.0,2455136158.412919,2555100000.0,690191736.9116724,3033000000.0,1181199987.6902316,5588100000.0,2314735085.096422,1174900000.0,372717448.47849786,1380200000.0,385523003.39396685,1174900000.0,71951621.08200268
229,23,1,3802385000.0,3253382752.2287893,2636965000.0,2056194035.6650472,1165420000.0,1098679377.0460875,157645000.0,257342075.33013391,488142000.0,400256924.7695241,645787000.0,582911922.8805695,66824000.0,72958367.5733822,83253000.0,221290277.70694318,74392000.0,59876278.02933093
1531,1500,3,12852000.0,1004239951.7952924,5815000.0,530496847.23040104,7037000.0,166876017.04269814,1838000.0,112176592.24942136,1427000.0,-425033.10447335243,400000.0,20770792.09941733,-1116000.0,15484694.199549466,2954000.0,135535238.02509972,-1116000.0,72482640.86314046
1035,1501,2,11747000000.0,10257506270.998657,7158000000.0,4770886754.39492,4503000000.0,3271197896.568743,770000000.0,657692645.7671022,1424000000.0,1488250572.9617052,2194000000.0,2154373857.5993166,154000000.0,87524841.28908797,2040000000.0,729197094.5566063,-1270000000.0,53402037.55739088
1774,999,4,7236206.0,1060894945.2465038,4913744.0,461080241.8644905,2190428.0,475757267.8595557,634746.0,35071223.870599926,2326079.0,42102830.71328902,2960825.0,22928603.32428038,-234151.0,13367890.16616106,886442.0,91209442.19621432,-251696.0,71951621.08200268
868,173,0,6411000000.0,5206616512.801684,3370100000.0,2528445639.794527,3176144611.7201624,1578177002.324315,371800000.0,340313303.7696976,637000000.0,549480714.653522,1008800000.0,943529794.3722619,180100000.0,120334842.00700046,166200000.0,220441161.4150017,205600000.0,72137682.48617296
1391,87,1,345836000.0,1667102657.7705598,48837000.0,1040333131.5630877,296999000.0,581320700.3955336,3870000.0,151210141.366327,113328000.0,117212877.71274924,116752000.0,150875792.63129365,297000.0,25209249.129638687,3573000.0,137126241.09998637,297000.0,29632593.781668473
1734,908,0,20108000.0,1231684791.2925196,9068000.0,776159413.2519312,11040000.0,555940531.5205467,3847000.0,28551472.966455758,661000.0,-16619698.842544079,4508000.0,20201317.89542198,-4126000.0,-13349248.573450968,7973000.0,49072129.31973821,-4126000.0,-5675376.538494334
1416,557,1,1564856000.0,2302397544.1641994,1122858000.0,1509813451.663445,416354000.0,771432664.9117961,276207000.0,231913407.58404577,-11227000.0,190118951.8970086,264980000.0,311562732.79569197,5657000.0,42777027.71300467,270550000.0,208224211.5714046,5657000.0,50803794.14090811
352,965,3,1125373000.0,2168136451.390644,521681703.6382896,1091099484.9619172,29987000.0,695228923.5878772,142411000.0,175809355.87837985,-42080000.0,85746294.35204184,100331000.0,235461299.2503364,17283000.0,33058416.694187075,125128000.0,184419573.4304342,17283000.0,71734454.80939981
135,107,1,630871000.0,1924300564.6099186,398464000.0,1215617169.5971813,232407000.0,657927959.2153931,80823000.0,178194596.84347314,413091000.0,174856881.32218367,493914000.0,257089632.26387846,-14453000.0,38309115.58670419,95276000.0,142710442.73481664,-14453000.0,39413368.628788784
1338,943,0,123668000.0,1585602902.7838116,40963000.0,915848241.2383232,50285000.0,653718586.1840575,29188000.0,75121361.28807402,11108000.0,55624801.75020182,40296000.0,112625174.37193656,-25553000.0,-3201721.032999873,35508000.0,59732593.32625681,-6320000.0,7510127.731684081
1076,247,1,34865437.0,1124030157.904467,19085704.0,652341946.0117526,15779733.0,253673773.79828882,0.0,53940053.05496931,1198.0,42736656.15362215,1198.0,42596958.87597203,-6520186.0,13216379.02898024,6520186.0,103682430.51850617,-6520186.0,-408612.24892351776
1426,223,0,1275550000.0,2048426192.1973677,1504271000.0,1573284644.719668,-228721000.0,846816907.6362002,-35238000.0,142827570.42708585,59168000.0,161668033.04917353,23930000.0,206261783.37174857,6621000.0,7855179.655213729,102745000.0,122485173.84395656,-137983000.0,11465458.059869505
2023,1260,3,151712000.0,1155117379.9488769,195428000.0,740673042.6377048,28605000.0,339784459.0688764,11588000.0,122243619.43435019,43977000.0,43053323.45539808,55565000.0,71484058.41333628,-8864000.0,19274050.497069,20452000.0,165028059.43223843,-8864000.0,66709145.87032601
1219,351,2,1812825000.0,2257203673.125103,1134969000.0,1383287115.494949,677856000.0,907948788.4032091,53184000.0,225078365.02442473,120142000.0,282326461.9798124,173326000.0,339944443.36258805,31929000.0,46314108.978542075,16945000.0,208640036.32144082,36239000.0,59045462.587367274
201,868,0,-1450776000.0,1294210972.2513337,-894261000.0,685851259.219614,-556515000.0,674617827.0495706,162740000.0,165933958.48136985,213058000.0,276230052.61979944,375798000.0,411137187.14827716,-31210000.0,3858616.680312887,193950000.0,275574208.65201634,-31210000.0,30079128.136620976
580,455,3,526507000.0,1626655787.1773067,370554000.0,1039467700.2962339,155953000.0,610857531.2914907,66328000.0,164768873.4153937,107226000.0,207227486.45136142,173554000.0,345638788.3884373,-7923000.0,43892198.22679981,69543000.0,201019828.3381091,-3215000.0,66815091.707950965
268,550,3,3089123000.0,3135913444.0690546,1300561000.0,1918852659.1610544,1788562000.0,1431944414.5619342,286131000.0,257837728.77007943,850247000.0,426199234.16918504,1136378000.0,736992648.1462448,205227000.0,57732276.994693436,1010678000.0,404911696.70396245,-724547000.0,72584005.56199308
484,1474,4,2026392000.0,2320631863.6859584,773709000.0,1129337989.5283933,1259138837.126244,959395061.4439938,36270000.0,180723675.01768312,906000.0,180688431.09610724,37176000.0,307707478.5643046,-286393000.0,30005039.194561437,341823000.0,162653221.1490478,-305553000.0,71951621.08200268
1169,319,4,59798486.0,1012974881.1228733,24561228.0,518231769.051486,24680354.49630476,425688766.7876097,-143441.0,45589316.07950729,231837.0,2451917.1718195677,88396.0,23175532.89951873,-6239976.0,12696576.123091891,6096535.0,95461153.32766634,-6239976.0,71951621.08200268
595,1472,1,269960000.0,1639627138.2214766,370356000.0,1229049186.2776477,-100396000.0,512659795.6720017,29296000.0,145926931.2251597,911000.0,92706079.9461739,30207000.0,94274860.64907706,-31260000.0,15140775.343746856,67269000.0,155069337.88189352,-37973000.0,36483038.0883749
1664,644,4,1411497000.0,2158584290.9896636,713457000.0,1695583768.3093624,667698000.0,1056575917.8226717,123110000.0,205555588.02886158,21917000.0,176733142.69251877,145027000.0,260405588.55665827,16171000.0,35431740.15424278,124278000.0,192226999.31519884,-1168000.0,71951621.08200268
1737,775,3,1068388000.0,1705164251.5185204,793168000.0,1214711757.8497455,275220000.0,602980388.613369,1125000.0,161540760.11081657,126961000.0,141870724.77609462,114574000.0,270896997.73376906,-123332000.0,18457224.84210998,124457000.0,176627596.14044192,-123332000.0,72361980.1595236
1105,1008,0,736494000.0,1835029765.4400835,390655000.0,1096614592.0118465,345839000.0,630328433.7829325,107458000.0,89879182.13186234,77264000.0,102707874.32593918,184722000.0,113795475.16372132,-21496000.0,-12392847.375119716,128954000.0,103442370.73002693,-21496000.0,5838627.477005914
366,1418,0,1026034000.0,1922193684.0040727,544592518.5648394,1307978591.0902133,829659000.0,1076891275.7074409,179923000.0,183461114.1524449,-1664000.0,224762840.84468347,178259000.0,290406679.6659049,43073000.0,41643802.545504645,136850000.0,148048566.20203826,43073000.0,27747275.039049752
847,803,0,2995900000.0,3312303384.7230463,1720300000.0,1524422062.0736105,1275600000.0,1139189414.5960789,234800000.0,222583379.71687987,244100000.0,292017490.4414285,478900000.0,447210147.75643826,25200000.0,21401163.935531065,209600000.0,150674368.4193331,25200000.0,31434306.20591533
1604,1535,3,700529000.0,1381648786.7130952,363632000.0,1026507142.1002836,335762000.0,544622956.3015507,46249000.0,165325645.48501104,72678000.0,89223976.40135586,118927000.0,173211765.81273758,-13197000.0,16244134.293870747,59446000.0,171346078.19209427,-13197000.0,66025695.483984224
579,1274,4,5913288000.0,5241300060.262759,5639252000.0,2877240991.187122,274036000.0,1840842571.0944247,470311000.0,366398202.2144874,1040995000.0,723466793.3271968,1511306000.0,1438996667.6627817,65962000.0,67302274.9025014,404349000.0,266878884.1864069,65962000.0,71951621.08200268
874,1085,3,232365000.0,1633027409.8892999,164743000.0,949440737.2106533,67622000.0,540496831.3254516,43176000.0,173294425.99885118,202053000.0,109829062.12294042,245229000.0,167878746.80872488,9035000.0,43704361.9132429,31930000.0,172938944.82364637,11246000.0,74339629.42370944
193,58,0,24556000.0,1405144365.0089645,5997000.0,776096635.3477488,18559000.0,596984120.3873706,-561000.0,24708271.09518087,1648000.0,-2784832.698941827,1087000.0,32085009.099917054,-8770000.0,-8986612.543524712,3225000.0,42363897.734175205,-3786000.0,-11286185.3850213
680,575,3,7852974.0,814911045.5878716,8726749.0,503427027.74016666,-873775.0,72055336.4995966,1562860.0,102326824.09057808,0.0,-32684541.936261058,1562860.0,-10914506.383960843,-1603437.0,6774849.636355594,3166297.0,146420471.89175114,-1603437.0,71423905.3601561
702,290,3,52606000.0,1026222362.739203,31088000.0,672905970.8945494,21518000.0,188838635.4144262,2202000.0,113810650.55856907,21569000.0,21933840.89817977,23771000.0,40941169.546586275,-1737000.0,21788441.44783905,2889000.0,152642535.48501045,-687000.0,72916233.63887233
499,1102,1,641605000.0,1732257489.9665337,98505000.0,1267258328.3096883,543100000.0,626801359.547389,35752000.0,166822749.05227882,3063000.0,151344397.44100553,38815000.0,151399905.6803304,-5995000.0,26888125.382537335,24767000.0,160283116.9982474,10985000.0,34835113.56987299
277,132,1,428119000.0,1585579657.3004832,200385000.0,1116764478.1430674,227734000.0,634267090.1488683,32734000.0,139904914.41836995,3693000.0,128358442.04859078,36427000.0,151699826.26913202,-31432000.0,15563158.225957826,67859000.0,166775471.38269484,-35125000.0,30098041.49434338
1540,286,2,1748597000.0,1964261257.442442,773677579.6790999,1178654103.8737848,871968000.0,836489134.080134,88936000.0,218135943.63954872,314131000.0,305491496.78832203,403067000.0,339069815.5172956,36520000.0,43235478.73206951,38806000.0,195646359.20189464,50130000.0,52963943.53745059
40,143,0,-12646800000.0,1988989092.101727,-10176700000.0,1025558504.4955945,-2456100000.0,1590196443.188032,244400000.0,299012985.1951901,496400000.0,492703933.8472723,740800000.0,981497126.3373353,16300000.0,137675594.21747467,228100000.0,263333268.33918753,16300000.0,54069263.9950667
109,1566,2,1646711000.0,2460421316.5744114,1388441000.0,1503533853.7232618,258270000.0,775602325.6448123,48094000.0,171106065.51104978,144654000.0,289369724.8970284,147710000.0,412182390.96987796,-42502000.0,44423380.44431063,79586000.0,188647795.53888366,-31492000.0,49374420.844565324
111,128,0,632540000.0,2046282551.2804742,270366000.0,1231902487.2459383,362174000.0,860840111.6226113,197077000.0,158073387.03048968,14622000.0,164735084.5719363,211699000.0,226281985.96054995,-57776000.0,10350962.705155566,97890000.0,112540203.57822594,99187000.0,31241971.32842189
662,375,3,156269000.0,1366854512.963306,70363000.0,839925643.4964538,85906000.0,419580308.1883006,19503000.0,138307747.28501529,30881000.0,50029406.44278538,50384000.0,92678940.5211544,3657000.0,33437646.40045567,15846000.0,167541236.01719612,3657000.0,73513337.26127088
1749,621,2,12875300000.0,9550235520.89354,6095371591.431398,4115700989.7638655,1810000000.0,2824333996.4950805,1227700000.0,800224442.9727535,4400600000.0,3630847196.880992,5628300000.0,5058703399.737148,478400000.0,155291446.55708006,749300000.0,341067123.74461955,478400000.0,65580393.571891196
340,1018,0,441781000.0,1863483807.6750722,86587000.0,1115436801.607019,355194000.0,810447403.4931135,97393000.0,121608497.60803598,44971000.0,171720596.77259165,142364000.0,160689091.3184569,9954000.0,14555942.60088621,87439000.0,98729456.62665945,9954000.0,18590309.19721765
811,86,2,1903960000.0,2427988573.5873475,1118147333.3250542,1137750675.9326813,464992000.0,906541535.2892635,314173000.0,248590096.8653619,381360000.0,438718423.20589936,695533000.0,512852347.81787676,49703000.0,48200295.610599756,262823000.0,196035132.76577276,51350000.0,60378895.96894968
1016,70,3,413017000.0,1331070687.3094902,156380700.0672279,789267039.024682,290614000.0,337549097.6105881,164000.0,144565912.78008693,0.0,5392804.626968622,164000.0,67061444.85947919,-47612000.0,13650156.307944342,47776000.0,152950888.42243958,-47612000.0,71783783.99108808
1696,1024,4,6459000000.0,4843257879.304021,3814000000.0,2766341317.32761,2645000000.0,2189280519.3844676,417000000.0,374092039.35658216,1137000000.0,801245461.0294619,1554000000.0,1223606956.181773,109000000.0,73323909.02529532,308000000.0,239450469.21673477,109000000.0,71951621.08200268
200,118,0,6683800000.0,5040142989.746629,2530688381.1304083,2374888293.2864256,4153111618.869592,1984398909.9548953,363300000.0,293105050.53686774,268000000.0,445613323.60654974,631300000.0,760175648.6546133,83300000.0,70806315.24324498,257700000.0,257400392.19391114,105600000.0,66883002.68841891
1994,627,1,165094000.0,1484030604.9463873,70482000.0,925519112.8399968,94612000.0,455117284.96818614,17629000.0,130219103.87769067,13074000.0,96395436.23232591,30703000.0,109123554.97847807,1152000.0,19576440.28455217,16477000.0,129592353.33502683,1152000.0,34667423.738715336
735,207,1,8604673.0,1158283569.7095056,2338502.0,732242450.0638862,6266171.0,187748629.8441906,1119391.0,66630898.8723861,1576117.0,40133957.30319059,2695508.0,28616061.201441526,23726.0,5823109.870977864,1095665.0,88008199.6398145,23726.0,-325401.6967024654
1160,1586,0,30395557000.0,14368536840.831404,16133181687.752192,9189732830.406414,6297705000.0,3517917142.465267,3044686000.0,2918655792.7965946,6751495000.0,5274648954.35111,9796181000.0,7996126561.105043,692314000.0,681580749.3492346,2352372000.0,1898399238.2510333,692314000.0,578842533.7261838
2018,200,3,764077821.0,1643123094.7708306,149164973.0,975589866.4189911,540969385.0,588617803.9454826,20737462.0,167318607.79044634,3810639.0,35479415.313797,24548101.0,148238402.71030343,-1942729.0,30969548.1830146,26490830.0,171799917.30692816,-5753368.0,74313558.83217588
597,335,3,19932000000.0,14544274115.032232,15924000000.0,8139216106.568872,3938000000.0,4103385400.8306074,677000000.0,535001833.91271687,2894000000.0,2899553260.3479276,3571000000.0,3384384630.471113,325000000.0,169146551.40582156,132000000.0,260532458.84238458,545000000.0,65983870.10228925
1089,311,2,114455000.0,434336985.1060953,66800000.0,673217218.0500789,47655000.0,201107240.97401524,-324000.0,107856633.47122884,692000.0,20848854.545724988,368000.0,77295287.60886598,-4444000.0,28313865.441879965,6127000.0,150064355.32512924,-6451000.0,30869404.649333596
1635,384,4,123009000000.0,69200578398.84189,61047097858.95223,30393972110.39167,24132000000.0,10238514925.357634,3661000000.0,2070019548.227279,846000000.0,646756153.7466941,4507000000.0,3773571734.538532,401000000.0,281295312.6921573,5487000000.0,2456701422.1432753,-1826000000.0,72567320.0
394,1561,2,1472222000.0,1544584442.9286919,444895000.0,1074892574.7239916,1027327000.0,801751870.1861417,423804000.0,206671563.6111178,0.0,141372638.31592226,423804000.0,345750715.86085355,44683000.0,43001521.21527584,379121000.0,215348734.99341357,44683000.0,49845211.66023805
176,827,1,1707972000.0,2131135477.255868,826699000.0,1436503840.0319867,881273000.0,791773457.5634773,161237000.0,188361296.53140795,18721000.0,244550116.3020783,179958000.0,339943190.7877388,-38330000.0,34918623.6684555,218288000.0,186354153.81234714,-57051000.0,45690927.174631044
958,1401,2,140348000.0,842138780.8176799,22627000.0,747701229.045959,117721000.0,425788514.54387,18849000.0,113932432.83369929,19797000.0,29104923.0756402,38646000.0,92794285.92952168,5179000.0,23173965.084134057,24028000.0,155485980.25440043,-5179000.0,31791708.153217196
651,759,4,68862000000.0,56930465375.29153,37281000000.0,29224125311.453606,30258000000.0,16836435961.147835,682000000.0,1308562369.123894,1405000000.0,1131188319.5433326,2087000000.0,3072000226.790562,938000000.0,528875707.8385746,2969000000.0,1463134770.2094436,-2287000000.0,71951621.08200268
648,821,2,484306000.0,1234119759.0064135,160149000.0,866736849.2154946,324110000.0,592984288.2410164,35935000.0,166178598.47735295,49919000.0,127515506.26035869,85854000.0,168245443.9839257,8224000.0,40727392.39355329,26558000.0,183816730.8721394,9377000.0,56417088.25044745
1124,1533,0,263629355.0,1521387491.7578068,139827658.8984726,1030950080.5790305,106790041.0,803110041.319109,4718481.0,88676678.81360954,-3354938.0,62463140.40059018,1363543.0,101599171.6568147,2345966.0,21509021.88638091,2372515.0,92748652.90452018,2345966.0,891600.7922262996
1983,1255,3,22654400000.0,14456787478.789991,10023579681.929111,7055303756.040942,12050300000.0,6877172691.896092,409600000.0,625484754.6187122,3138700000.0,3055458880.8660383,3548300000.0,3933295745.0088844,145800000.0,311347702.24649984,119900000.0,292706779.02021235,289700000.0,75359232.05822231
1330,697,1,55695000.0,1272472031.030538,80300000.0,854388528.5514126,-24605000.0,295462205.0149096,-33328000.0,86814096.90804648,45694000.0,61080790.8143965,12366000.0,58276124.246877074,-48025000.0,11960848.083305866,14697000.0,126730545.10723928,-48025000.0,25923425.382166438
445,492,1,33248145.0,1076205484.0669312,21743057.0,620645957.4697266,11505088.0,152933978.61377466,1461398.0,87251837.13588607,569502.0,-83646211.50199258,2030900.0,-3347743.552722454,-12979193.0,14112781.510057703,15010093.0,114404928.50949025,-13548695.0,-7287000.588688463
908,1499,4,19900000000.0,10641078067.989452,10348000000.0,5104358224.24215,9552000000.0,2849304369.2169795,2649000000.0,1380950958.8771553,0.0,511404222.01522803,2649000000.0,2418643939.270108,467000000.0,251814094.33953372,2182000000.0,996575278.6556598,467000000.0,71951621.08200268
1585,1050,3,2485319000.0,3178267606.777965,1254039550.5762374,1633878153.0979154,1849463000.0,1033107340.643266,775144000.0,343987737.5362127,0.0,194880493.62450105,775144000.0,579080975.1203647,128435000.0,78973119.56861556,646709000.0,246560428.0932675,128435000.0,74463286.51408318
643,1128,0,959084000.0,1913264166.602664,491986000.0,1389565775.3603716,395838334.6316486,779932287.1582683,56609000.0,99636364.6754933,47928000.0,147945267.83495122,104537000.0,224861719.70287263,-22287000.0,-746700.5313716978,141301000.0,120937132.06012574,-84692000.0,17020539.14915394
1240,14,4,1657157000.0,3351357096.5910487,2335507000.0,1774986405.8712947,-678350000.0,1600889365.1184843,-96698000.0,300597722.95698935,98929000.0,440394355.6893842,2231000.0,682930410.1406612,-125632000.0,46075663.52401929,312618000.0,268392039.56762916,-409316000.0,71951621.08200268
64,275,3,1590600000.0,2614424432.4552417,748600000.0,1313339190.0505745,842000000.0,820373055.7726212,59700000.0,202910083.41919827,141700000.0,219590024.36432296,201400000.0,400066337.7447685,13800000.0,47929574.550328486,37700000.0,195413288.1900033,22000000.0,76164383.07235047
1027,1230,3,919607000.0,1489826287.5829706,266509000.0,1239004850.6094093,653098000.0,639315540.5452361,68886000.0,193026471.4584135,19532000.0,75796064.83147526,84131000.0,218658261.52980542,-18050000.0,28110898.889123797,86936000.0,174809020.13067454,-18050000.0,73716455.20977733
1034,198,0,121754701.0,1450477863.4828672,28424394.0,841571933.9870229,93330307.0,668682589.8543088,1406469.0,47636331.82982975,-1378985.0,-939397.9063922167,27484.0,66081657.70967698,-14928443.0,-53632236.14658639,16334912.0,69819809.22335702,-14928443.0,-13275311.629388347
802,1578,1,12973000000.0,6573623881.372299,6013807636.489885,4250088636.225754,6537000000.0,2870092844.597454,82000000.0,465367169.1773286,545000000.0,586501735.8763123,627000000.0,1670422766.4945006,7000000.0,210500835.82246923,46000000.0,302156081.6487913,36000000.0,63880828.993441135
981,1120,3,613608000.0,1670533274.0281835,391072000.0,988392469.8979468,222536000.0,561150886.9242634,1437000.0,172298629.51106846,10955000.0,64333337.37123835,12392000.0,222745951.3295709,-84729000.0,25988142.41172035,40703000.0,179719945.95833844,-39266000.0,67547940.24447523
1046,343,0,102303000.0,1392183961.1636806,104192000.0,987901037.6963892,-1889000.0,644615844.7434297,12811000.0,53097441.570228696,42439000.0,64923997.38061011,55250000.0,101594213.0111419,700000.0,-3059515.3280938715,12111000.0,65275547.90620327,700000.0,16132943.779559784
581,848,0,1023085000.0,2001760589.3049564,937155000.0,1153962861.3245468,85930000.0,950573918.6431036,87759000.0,152168199.57607824,257840000.0,327928880.99473035,345599000.0,294532264.9128562,-36941000.0,19967254.1283554,111965000.0,157500503.43656006,-24206000.0,32456117.885534115
1033,894,4,822101000.0,1428322347.901259,260505000.0,1075098653.0484095,561596000.0,802861082.7598946,113425000.0,165195097.7970693,-8261000.0,79475272.3867929,105164000.0,132622322.3918798,25956000.0,27563329.6966172,87469000.0,176272274.18171954,25956000.0,71951621.08200268
1908,1021,2,972779000.0,1568221378.9926696,674585000.0,1163397136.9483318,298194000.0,664512450.6351604,81122000.0,174618267.56955755,33069000.0,116811083.66477609,114191000.0,339630273.88636017,-12742000.0,37109098.08749416,93864000.0,179199627.50679052,-12742000.0,48316488.124669686
1486,183,0,505122000.0,1629687596.1092687,329765000.0,1167857479.735879,175357000.0,833347948.6858953,66862000.0,117748016.77145308,-15726000.0,129891203.46897036,51136000.0,186999875.67933285,-8784000.0,10388346.18315573,75646000.0,93643301.80303565,-8784000.0,15947325.33142405
640,736,2,420505000.0,1132493377.8502574,230508000.0,686876865.3667302,189997000.0,452069456.52798593,53603000.0,155454648.69627675,71511000.0,122340370.85043973,125114000.0,150752536.30042183,16734000.0,39534684.72863223,36869000.0,183545461.52232334,16734000.0,40600644.32033442
1988,338,0,216274000000.0,135207253566.98534,73401000000.0,32729841775.792816,142873000000.0,50848195013.90625,27936000000.0,11729602655.226017,6210000000.0,5925723276.553084,34146000000.0,22662073818.85189,13748000000.0,3036140283.1754894,20398000000.0,7863325366.225572,7538000000.0,1642179987.9427025
469,991,2,122531000000.0,66058885671.42516,74517000000.0,47238787200.326996,57494689417.43809,15202407166.560349,11370000000.0,5806883152.191329,10501000000.0,7257247777.200346,21871000000.0,20219320617.254932,5767000000.0,2903842428.3146443,5604000000.0,4296907496.765875,5766000000.0,757895481.2770408
606,673,0,5723214000.0,2887413028.8570013,2776207000.0,1703569952.0053744,2947007000.0,1475583461.139782,448941000.0,443702888.98421466,516900000.0,472989575.32840943,865197000.0,900972775.9911168,78214000.0,57146934.04901076,370727000.0,348982746.62366205,78214000.0,50665663.43548011
1877,27,2,689227000.0,950445302.6697092,562767000.0,874440606.2756166,126460000.0,360766579.2958214,40662000.0,150176030.76939455,11086000.0,65315948.7938112,47740000.0,150271804.85925698,-28335000.0,39233424.29765799,68997000.0,174375242.18916965,-28335000.0,45801287.20130201
1148,532,1,600857000.0,1791535101.1968226,331349000.0,1130859594.7734253,269508000.0,555777424.8070194,50595000.0,138465140.95760304,6532000.0,110396315.20057404,57127000.0,115587916.0226121,-62120000.0,21179098.818240285,83188000.0,177794604.34156,-32593000.0,36911818.44419107
1653,1310,3,56794000.0,989534719.3706117,12682000.0,693812148.6312184,44112000.0,244450624.28121197,25087000.0,149022529.91602743,14791000.0,17934568.917214632,39878000.0,70993650.68210363,-4627000.0,14840995.463404432,44505000.0,177132409.37298164,-19418000.0,65172746.25417041
1205,1096,2,3747000.0,388716683.4286499,4407000.0,414239888.5734892,-660000.0,107337038.57536137,-1515000.0,53289666.02442986,1515000.0,1744593.8333998919,0.0,16560804.182311535,-2598000.0,20981632.70428194,1083000.0,78995305.65538633,-2598000.0,3400980.2893624753
1612,76,2,3505835000.0,3810796187.4419518,1860807256.214476,2065911292.2526188,1470074000.0,1240884997.8780115,601953000.0,366801568.7856809,626097000.0,788547836.7658018,1228050000.0,903822692.5089211,88554000.0,66379076.269097164,475916000.0,268917600.8063646,126037000.0,59816901.976254456
1894,1257,1,203011000.0,1437434679.8155723,255300000.0,1090709074.442946,-52289000.0,290648408.4418323,8409000.0,117583141.02670574,25579000.0,73084453.10927069,33988000.0,105140185.3158791,-8212000.0,30491176.821578443,15533000.0,120678366.75715125,-7124000.0,30088442.576373212
458,865,3,3126495000.0,2557126608.460172,2137404000.0,1640860811.1051571,989091000.0,1132059198.362079,70679000.0,240445180.34573603,930828000.0,454698138.3719202,1001507000.0,709203348.512059,21039000.0,59270203.53366399,49640000.0,218597503.49375218,21039000.0,74339629.42370944
782,1593,3,36175654.0,943702435.3599501,19187381.496044576,603895814.2282104,18868678.0,249291272.37591732,22295962.0,130593148.66600311,2274626.0,5679699.709836483,24570588.0,28779032.988286495,-1191082.0,15240126.34368521,23487044.0,155313296.67346412,-1191082.0,71682419.29223546
21,1011,2,3642433000.0,3705609043.7197986,1611617055.0351417,1994219840.728331,2307595000.0,1477700993.9586778,392263000.0,479403096.6418965,1442178000.0,1146632426.2349606,1834441000.0,1162505442.5639632,185633000.0,67299282.95497225,1648808000.0,563145722.2024204,-1256545000.0,61667007.891183786
323,232,1,102171000.0,1225434251.9451275,80142000.0,841509990.4065905,22029000.0,204745936.3419696,11994000.0,106770245.06555516,1280000.0,34924800.12630463,12084000.0,26689094.13106084,-8453000.0,13594485.964423046,20447000.0,117227913.73664272,-8453000.0,21440900.244336203
1847,774,4,11562769000.0,8670472247.795404,8634392000.0,3492066082.105118,2928377000.0,2692522370.761338,696915000.0,927221441.8300112,4617768000.0,3231866623.6244626,5314683000.0,4445789108.206757,87484000.0,61070243.33184641,6096071000.0,3959003503.0635715,-5399156000.0,71951621.08200268
1304,960,3,1061958000.0,1654709629.434432,603583000.0,1121368072.1007419,275904000.0,664457752.1462458,75380000.0,160936783.76341426,85007000.0,160686153.98276305,160387000.0,247413133.6775515,19279000.0,38359732.05826908,56101000.0,164338247.84496033,19279000.0,69427519.31119858
1031,669,4,1709464000.0,2229421524.741004,792444897.6724385,1517370430.3725681,917019102.3275616,1072259743.5266361,-50089000.0,204923089.32257187,206500000.0,229146164.2023527,156411000.0,287972501.2605407,62554000.0,37865489.55191469,32611000.0,199202853.57070717,-82700000.0,71951621.08200268
1109,313,0,1182200000.0,1972370618.8886137,559672263.5892134,1505645631.3977735,993300000.0,1098663819.1728554,77500000.0,139770302.34978312,102700000.0,236404638.26774156,175100000.0,292501708.2686616,21600000.0,14753015.604808152,55900000.0,135872019.33374178,21600000.0,28920844.45010911
1483,305,3,15318000000.0,8919919078.838902,8995872209.433592,5059786170.898366,2835000000.0,2646442361.1523714,2220000000.0,1937351550.8893325,7363000000.0,7223896072.952973,9583000000.0,9189100397.636562,348000000.0,320743566.7594646,1879000000.0,999722961.0687641,341000000.0,79003606.50348988
739,408,0,2898416000.0,1448567517.664506,2080781000.0,1010105234.479217,476998000.0,761135779.0712068,19746000.0,52311955.79121727,-19746000.0,57471904.94753039,0.0,124423775.18774545,-16089000.0,-8615790.931197137,35835000.0,75228311.29630792,-16089000.0,17752475.278394252
1565,386,2,37777000.0,489213739.26327467,8088000.0,713016122.4065585,29689000.0,241686253.17303872,1942000.0,87327164.98600352,1878000.0,21234281.59411502,3820000.0,81907294.96605468,-3377000.0,22000682.563740864,5319000.0,129930623.29493573,-3377000.0,25801370.259474687
1547,329,4,350115000.0,1891743675.8752565,124447000.0,986274010.1464095,144501356.0121529,698680914.7913277,23341000.0,119427005.90532833,74465000.0,169556195.34276092,97806000.0,190374284.63329208,1273000.0,27447041.308824837,21144000.0,143332240.21129644,2197000.0,71951621.08200268
1772,203,0,60756000.0,1443620760.6294703,14120000.0,880970279.6187654,46636000.0,615413533.5833857,39398000.0,103261791.66001779,0.0,81624983.30276263,39398000.0,95847307.0741862,1277000.0,10284102.852534354,38121000.0,74201883.31571582,1277000.0,6022862.075078927
396,883,0,2329417000.0,2905810976.740339,1103945000.0,1701973818.7973588,1225472000.0,1250554327.8006158,201803000.0,239936542.2168506,84310000.0,383963549.13520277,286113000.0,412504438.9254136,4458000.0,50619246.681833655,134794000.0,157108895.161836,67009000.0,38863494.90029241
370,1540,3,322707000.0,1495993669.3999643,203952000.0,919962518.8317614,133189378.04611006,510695425.55496836,59563000.0,152153487.55096316,32549000.0,57030024.41337371,92112000.0,107453395.0768286,2829000.0,32504527.63232529,56734000.0,170758382.77191976,2829000.0,73866182.89168462
1387,213,0,16986396.0,1287516481.1397262,28398941.0,664426644.3146305,7976898.609990532,598705371.469423,-2992.0,16379565.561432004,2987192.0,-19368686.141172647,2984200.0,36934981.40051401,-2823081.0,-9077966.51206106,2820089.0,50837192.50176138,-2823081.0,-12521089.511970013
1633,1397,1,5507733.0,953603937.499342,3754986.0,455054934.74789715,1752747.0,83481967.2079941,77969.0,68250361.0819493,690.0,-16294715.063588023,78659.0,-28705315.47017193,-1288944.0,2904176.6124717295,1288944.0,98243572.7630763,-1210975.0,-17549244.89504704
1459,1488,0,2951779000.0,1984035953.5677109,1733504809.66769,1533132106.924483,-705417000.0,1029805534.9947442,103159000.0,215022383.71560025,95357000.0,227653366.70590663,198516000.0,309685929.4831244,63542000.0,53507092.46821831,39617000.0,137020181.30289358,63542000.0,32638836.17914425
447,948,0,1389340000.0,2298395608.0396857,870172000.0,1479543597.6580338,518687000.0,1063379569.8202603,122910000.0,187602577.17638013,509918000.0,341364400.31574374,632828000.0,426113681.47346365,77637000.0,55267563.501985885,35836000.0,130009807.06547606,87074000.0,50014383.315161236
1342,1529,4,670100000.0,1575370073.979498,96919000.0,867409669.0005193,573181000.0,700851485.1179862,45369000.0,108880110.63554388,10723000.0,87735019.57309818,56092000.0,120682993.94560719,-44376000.0,17776862.86278294,100468000.0,130811525.83274433,-55099000.0,71951621.08200268
1101,802,1,796235000.0,1197167990.810567,203741000.0,720259816.6309471,463390000.0,333802245.4518709,475000.0,100544484.35366988,0.0,71399418.7466023,475000.0,50253548.257944584,-25797000.0,11434230.142097086,26272000.0,145076380.99418157,-25797000.0,6455815.9644372985
1559,864,4,243654000.0,1060945908.4872398,108112000.0,681034353.3669515,135542000.0,511343348.62373984,37230000.0,75277908.9594689,3845000.0,32682888.694425106,4798000.0,48597250.85804701,-21869000.0,6414330.160475358,59099000.0,122788877.52460092,-21869000.0,71951621.08200268
1859,1238,0,63057347.0,1556651789.4940548,37031977.76980746,1025064423.6538119,50373559.0,695055624.2883973,5114390.0,83012221.25587457,9540399.0,83941354.46772182,14654789.0,116129819.71425164,3126608.0,20185160.931833982,1987782.0,68400499.51106954,3126608.0,11787266.789301425
625,871,2,2120798000.0,2363850629.383842,1472395000.0,996863714.1845028,648403000.0,675454772.7190793,67913000.0,202050693.07847056,30767000.0,148815144.0891453,98680000.0,302553414.9264766,-9629000.0,33836916.124590196,77542000.0,186237645.9841415,-9629000.0,37459490.92983681
1728,482,1,706517000.0,1738873713.053185,905805000.0,1381087160.7877796,-199288000.0,447033766.00159645,73709000.0,158919652.5579669,16853000.0,128174872.65911233,90562000.0,137088498.0298338,38915000.0,27502758.995657593,34794000.0,163985371.68132645,38915000.0,31858725.24843957
1404,565,3,76126346.0,1030274914.5605278,61120101.0,692640675.3160067,15006245.0,187456673.90044773,2282652.0,119352529.89250344,31006950.0,23284342.05604434,33289602.0,41333367.00631797,-2890968.0,32248794.008127257,5173620.0,156816740.12195224,-2890968.0,73716455.20977733
1515,604,4,156303000.0,1098839548.226328,83901000.0,864786349.5198798,72402000.0,496047759.91497004,17689000.0,99518568.49455732,41469000.0,99012619.10311484,59158000.0,82461143.13608384,-2517000.0,25551379.947000444,20206000.0,130871056.63072196,-2517000.0,71951621.08200268
1800,67,1,3271200000.0,2943420167.0752754,1447362713.447565,2032216011.7952726,-21400000.0,1113972487.175687,31300000.0,238013852.12190935,847700000.0,575696350.744517,879000000.0,960724755.4124756,-16400000.0,36778208.4228289,66600000.0,215182369.2498101,-35300000.0,36256335.512601525
4,992,1,7361000.0,954314357.0428982,2671000.0,431541886.065403,4573903.262590003,99310274.4963547,349000.0,56750418.838788986,109000.0,8551857.497250915,458000.0,-7841244.093319416,-670000.0,3750167.956347987,1019000.0,91005544.5914033,-670000.0,-12112092.750221059
1400,1108,0,-4860602000.0,1020350526.2712603,-990657000.0,884705680.3256612,-3869945000.0,951714271.9629999,193881000.0,283264823.92069036,378009000.0,425240378.8040973,571890000.0,632095462.195103,36078000.0,53394232.02423574,124685000.0,175876889.94275203,69196000.0,58233410.934587784
617,961,2,5475000000.0,5523432732.7589,4861300000.0,3123784622.8927917,613700000.0,1771545397.2260833,130600000.0,310624894.9232574,1421300000.0,999975369.959655,1551900000.0,1133250939.466237,23900000.0,62992636.15468534,81800000.0,220562974.14528102,48800000.0,60087860.69216538
570,257,1,9643000.0,1196802629.6004,6164000.0,677617354.5059209,3479000.0,145236263.38465643,1843000.0,73200846.26205277,2246000.0,26153328.11591077,4089000.0,32721747.86136508,-437000.0,12023442.001077026,2240000.0,119103442.2115865,-397000.0,2193500.557280697
2015,880,3,12012800000.0,5648557703.160227,6608200000.0,3237142688.3304315,4911800000.0,2474301867.1548653,457000000.0,312648471.89463395,316800000.0,338943321.8858681,773800000.0,830260838.9794147,145800000.0,86709143.39073162,203500000.0,234496357.74304646,253500000.0,74339629.42370944
576,1076,2,6644800000.0,4888692633.042606,3248100000.0,2465861484.4018183,2786600000.0,1476387055.7765007,345800000.0,322207393.583351,33000000.0,393266525.9723394,378800000.0,738256871.6580741,36000000.0,42726048.70117152,342800000.0,253079503.50734258,3000000.0,48545413.04996794
1397,722,1,136174000.0,1279518215.3550324,62163000.0,825363264.6299839,72304000.0,329650495.86705625,10072000.0,117213590.78702629,-3712000.0,32424826.952207565,6360000.0,27324191.581656337,-12604000.0,18597726.72769387,22676000.0,118722523.9124268,-12604000.0,20473703.956792407
1134,1495,3,160043000.0,1046369449.1293974,101422000.0,600328780.0420246,58621000.0,306880387.1514611,15202000.0,121944261.1311757,-14386000.0,-12772915.45826745,816000.0,45545135.95027053,-14398000.0,12664404.073027581,29600000.0,164706146.58678517,-14398000.0,72959188.57924312
188,487,1,9282000.0,1136553347.9287348,3493000.0,688863192.8970242,5789000.0,190216353.4309739,355000.0,60977528.679471195,552000.0,39368915.80591023,907000.0,32358066.27201283,-972000.0,10690650.980282724,1327000.0,90914168.5940659,-972000.0,1971244.2535366341
488,150,3,16124000000.0,12060701275.756594,13383000000.0,5300764886.18362,2741000000.0,2797935063.079405,5251000000.0,1176813001.224977,4961000000.0,2175600413.261676,9233000000.0,4346630595.339102,1583000000.0,400248532.59469616,3668000000.0,688579996.2022443,1583000000.0,72371777.20668897
1211,1554,4,1601068000.0,2429205061.5998673,1081707000.0,1641245918.2555573,519361000.0,1126152946.310066,248876000.0,237942729.34405145,-34521000.0,208164506.2501725,214355000.0,300242945.81148565,19006000.0,48959212.814065486,229870000.0,243499936.13623554,19006000.0,71951621.08200268
1580,1079,4,779622000.0,1879269226.9801364,153452000.0,1438318427.9546995,626170000.0,972858333.6926575,134561000.0,185653007.55441108,57608000.0,171272542.5918435,192169000.0,225864181.79563415,56917000.0,30360043.44318614,77644000.0,180902098.7659626,56917000.0,71951621.08200268
1533,499,4,4162272000.0,3966828666.0332365,862254000.0,2095901901.6562965,3299439000.0,1996310149.86939,357871000.0,356052476.79491794,794265000.0,501361512.79910964,1152136000.0,919652729.4961514,114028000.0,69413538.90046757,194829000.0,235119136.37101477,163042000.0,71951621.08200268
818,1555,3,13900400000.0,9319863451.299725,12204100000.0,4735908416.5738735,7319729781.089915,2967607071.064596,78200000.0,342803165.0003701,235100000.0,532501599.81517947,313300000.0,1248080018.8844702,174900000.0,83373539.78732258,116600000.0,244418543.684686,-38400000.0,74052340.65545517
50,579,4,594022000.0,1692214243.851954,132343000.0,1144914761.6891165,461679000.0,667302750.7630438,121956000.0,181621205.14365998,1645000.0,99818822.15541255,123601000.0,154804978.4828452,31177000.0,32523418.84360446,45262000.0,157244999.85998738,76694000.0,71951621.08200268
590,21,3,1341960000.0,2205008386.938203,666970000.0,1241071688.5973437,674990000.0,782492442.4692284,55930000.0,221710051.16091356,179410000.0,186503968.27980942,235340000.0,338666347.5580096,23760000.0,47285831.74638663,32290000.0,194630099.8528461,23640000.0,74078411.24698873
377,1125,3,52901000.0,1081742235.154955,24522965.98920461,872687187.7448411,33404000.0,269436600.87546015,-1183000.0,149298664.92845607,24144000.0,39727449.7411536,22961000.0,49330294.546292186,-5692000.0,17435791.356470793,28653000.0,181030683.16507527,-29836000.0,73928683.56508143
1953,549,4,877565000.0,2223916476.7273083,1336553000.0,1634637472.9360495,-475192000.0,1244714825.1407964,522812000.0,265880768.14879104,-345617000.0,151967691.4491701,177195000.0,419636591.38829255,31868000.0,45480475.051269755,490944000.0,240059723.16959673,31868000.0,71951621.08200268
1018,1347,1,26568400000.0,18697697602.145714,13080400000.0,10141605322.186392,13246000000.0,7655341290.438669,1346200000.0,757451883.159867,1952200000.0,1518641587.4753184,3298400000.0,2928786212.9603176,592200000.0,142478453.78390247,746800000.0,557701898.1071343,599400000.0,69861146.95715651
709,1365,3,2933971000.0,2354095233.7238097,2618511000.0,1799819670.0789077,315460000.0,1234456490.4278646,65062000.0,233230160.90576577,2191000.0,142990437.17368478,67253000.0,386740725.1413101,-143265000.0,24430367.618229732,69951000.0,197992879.78246242,-4889000.0,71144829.75324446
1121,1252,1,27828200000.0,15383133196.325024,13810622382.415062,8878308735.838516,7212400000.0,4975979113.926602,821300000.0,676308890.5344386,181300000.0,554029195.964148,1002600000.0,1656395111.371111,233000000.0,128237886.23129444,794400000.0,661017545.8583524,26900000.0,70948557.8802926
1026,769,4,2788943000.0,3479724450.5477486,2662320000.0,2019019594.9623196,126623000.0,1363263345.918608,299166000.0,261792204.5158747,0.0,299304913.13013136,299166000.0,563667012.5745211,-281667000.0,50603130.7674069,580833000.0,220082986.19251907,-281667000.0,71951621.08200268
1015,823,0,2489159000.0,2895990180.2949867,1954765000.0,1654942571.6045334,488897000.0,1297772565.8823872,294443000.0,307061378.28129387,370069000.0,424756305.45621485,636496000.0,634358168.5162953,64600000.0,58648791.667971194,229652000.0,244052684.97323996,64791000.0,38100286.67244347
1575,241,2,11961066.0,421520353.73243856,1068497.0,376518884.8579092,10892569.0,117690343.94629586,611174.0,57727561.85106796,0.0,-30357587.260296106,611174.0,20641281.131135345,-1146685.0,12838129.069001839,1757859.0,76844198.16476876,-1146685.0,4413096.790978007
826,242,1,93941000000.0,59068023676.47213,39446000000.0,28275970064.76611,53466000000.0,36607712524.43292,4178000000.0,4201150269.5953174,15656000000.0,15147222619.976086,18582000000.0,26830109792.899513,1764000000.0,2636336691.9423842,2414000000.0,1860790851.885807,1764000000.0,622184821.244498
463,1402,1,32097000000.0,21061518091.329853,20419000000.0,14653812653.044506,10658000000.0,6649733315.129645,2071000000.0,1592854456.6770935,6360000000.0,4491255871.225142,8431000000.0,7001672243.780864,950000000.0,454668813.5267234,831000000.0,671045048.7397606,1240000000.0,128503664.64178498
1660,25,4,6578196.0,879875697.127449,4441488.0,396150911.4103365,2465776.0,491337987.01972175,2008368.0,63216963.13546407,923641.0,30885431.746058464,2932009.0,21613404.705515623,-1328968.0,19140126.471978426,3337336.0,107717493.97866249,-1328968.0,71951621.08200268
700,526,2,1658042000.0,2451010828.1813545,1223260000.0,1465196190.3909252,434782000.0,905690340.8329759,207698000.0,236747207.1498732,674127000.0,452686873.1980932,881825000.0,521244778.11672795,25549000.0,54896252.536891356,179614000.0,197906502.5447976,28084000.0,61747584.27095936
402,371,2,9094896.0,521313716.4211135,13593163.0,606133693.8789902,-4498267.0,187927868.89891315,-928960.0,78036954.55584908,1115703.0,24476259.928446293,186743.0,61993765.63744509,-5136642.0,21367980.45521611,4207682.0,120815423.25160861,-5136642.0,11615116.708261907
591,184,4,16788482.0,788275878.8481083,821758.0,367852679.139019,15966723.0,448933181.381446,906228.0,71651116.37495446,333325.0,6141390.741231322,1239553.0,-11821928.18767953,-1096396.0,11932075.193691269,2002625.0,87299427.67235315,-1096397.0,71951621.08200268
412,923,0,1678241000.0,2119944850.8329182,730813000.0,1491692388.478636,947428000.0,1075313362.8008416,62311000.0,122762536.90493345,89643000.0,228267597.83501834,127553000.0,312168993.62785316,-24195000.0,4559120.596870661,86506000.0,125730580.83647722,-24195000.0,31368656.447961934
26,1111,2,1363308942.0,1303423302.0416365,629855415.0,1095593980.291471,733453527.0,603645471.3452027,93681798.0,186461063.94899732,0.0,114436384.17617655,93681798.0,175186640.69931138,39573525.0,38287593.61983134,54108273.0,194675288.75778493,39573525.0,45750223.367772475
205,666,2,15264467000.0,9735461300.70917,7226441209.924589,4866905859.334532,3059451000.0,3181954555.2922487,592816000.0,517240900.4307985,378076000.0,574999642.0822453,970892000.0,1905880350.1534529,444977000.0,156787314.09475678,147839000.0,298926039.24399036,444977000.0,63305669.97212228
699,1149,4,65987000.0,1188198943.9528537,35279000.0,790318661.7047524,30708000.0,571012853.076291,5319000.0,104042805.0236516,28050000.0,89549877.04719698,33369000.0,81451262.02254486,1124000.0,34506539.172595695,4195000.0,139135023.81260687,1124000.0,71951621.08200268
550,437,1,31945000000.0,25304644987.439007,26424000000.0,17434144211.594147,5506000000.0,5525231284.945245,1191000000.0,765895150.7627239,2895000000.0,2580461222.6920185,4086000000.0,3844195861.4964914,834000000.0,332568532.3363447,357000000.0,489028065.24378693,834000000.0,75012849.88375291
140,1473,0,2655001000.0,3172771787.84218,1989549000.0,1687125019.619203,665452000.0,1659300483.6323593,67554000.0,204711550.1961732,403267000.0,369380720.3243041,470821000.0,518416024.3815979,-3426000.0,21749168.19151321,30096000.0,164749022.11634818,37458000.0,24199445.335653655
2004,877,1,9403000.0,1051250518.4565067,5511000.0,539716712.7231164,3892000.0,181827157.88756084,-48000.0,57896837.818412185,1387000.0,37994492.516227245,1339000.0,10785628.54827106,-903000.0,4956914.873441115,855000.0,92674493.92578322,-903000.0,-6819590.0340914875
28,31,3,551232000.0,1372881701.4816494,628224000.0,1261054949.0428562,-138322000.0,499193822.0881375,23716000.0,157412905.18420556,12709000.0,42358699.2944417,36425000.0,191552135.05477917,7478000.0,34078280.640405044,48579000.0,200595091.88738185,-24863000.0,68788565.07335496
844,288,0,435750000.0,1847582709.6055794,62826000.0,1188841665.8555298,372924000.0,740833055.8475537,28152000.0,75179282.26040763,49267000.0,96303050.43550444,77419000.0,140537133.6569804,143000.0,7470915.774543345,28009000.0,81398625.52247375,143000.0,19565088.921726696
967,1117,1,367699000.0,1899245978.5253391,382822000.0,1300200950.9692764,-15123000.0,539482357.1977257,310000.0,150991165.3440807,0.0,71027631.19124663,310000.0,122933131.86124015,-47413000.0,14972505.74937965,47723000.0,139087316.93516287,-47413000.0,33956036.99206421
433,917,1,3810682000.0,2941570588.6282597,2050315000.0,1551494438.7455955,1303319000.0,877014522.5341983,110314000.0,171942401.40054113,71850000.0,225594929.45359194,148990000.0,325836738.52068317,11661000.0,46765600.09174035,98653000.0,166991123.96133006,11661000.0,34266048.06922507
228,131,2,2333529000.0,2450171153.0547676,1032484368.2283514,1105792367.2316496,1202771000.0,1042263701.5177048,71236000.0,236429211.89478156,490990000.0,337577524.05113584,562226000.0,434464210.01948345,19517000.0,41619932.65480741,46091000.0,193376137.53484493,25145000.0,56359178.01611846
1855,1604,3,20737275.0,1018849014.5161195,10788720.0,751009432.2507725,10368036.0,448474170.1714301,562564.0,147769487.56196564,77061.0,21744200.810410976,87201.0,66257083.73607457,-4142505.0,6704453.355091542,4705069.0,486073721.1367037,-4142505.0,68932087.55245243
776,654,4,386844000.0,1460750192.117508,412960000.0,1239072661.2536945,-26116000.0,817807284.9325128,16927000.0,141225582.05451125,91131000.0,150165567.12734205,108058000.0,163947632.3929069,-813000.0,42281691.887423724,13060000.0,149949297.05608234,3867000.0,71951621.08200268
839,662,1,6911775000.0,4201612440.175172,5109042000.0,2834899890.3142385,1802733000.0,1295829597.9103274,225256000.0,251763639.93247765,195092000.0,373350195.61350584,420348000.0,601160129.5708377,132530000.0,101771182.73998493,92726000.0,227476281.36505726,132530000.0,53949242.4235406
793,1426,2,2883631000.0,3451493001.7442636,1772390000.0,1681499939.0845165,1110345000.0,1188012189.9790466,319055000.0,227416551.1409961,1257690000.0,971432082.6761081,1576745000.0,1286150430.1797085,38222000.0,56223112.371219665,280833000.0,189341174.705026,38222000.0,52831907.02943019
820,1376,2,133032000.0,1068767503.7765307,232711000.0,1075029390.1582968,-16246000.0,359413886.47444165,12296000.0,137235502.76754236,62277000.0,139063641.65955162,74573000.0,165677647.1793754,-14749000.0,39232217.759854876,89322000.0,171742010.32852602,-77026000.0,38123517.39860454
2016,162,1,296638000.0,1474283781.3975706,208509000.0,890303701.0025911,88129000.0,422110904.6651727,7319000.0,126597938.33490801,0.0,47311518.39448857,7319000.0,101414955.69033015,-46633000.0,13440336.000980064,53952000.0,126659009.16605625,-46633000.0,33295879.215209816
1438,2,4,38809000.0,1094843861.9246187,43090000.0,717749405.4655876,-4281000.0,524314094.3472519,7318000.0,74955595.5913412,25818000.0,94024321.9787817,33136000.0,76992480.51641798,-933000.0,20653946.431445763,8251000.0,115516777.9452391,-933000.0,71951621.08200268
866,365,1,2376172000.0,1513350306.821333,1870972000.0,1466267764.2278733,486613000.0,824827195.0540681,-5214000.0,183810846.06401366,182832000.0,282086464.05933523,304976000.0,402188872.89797235,-103708000.0,9166459.806475818,98494000.0,194074537.10480386,-103708000.0,54873982.52271497
689,978,0,3719784000.0,3902810644.436949,3332984000.0,2305153747.8534307,286813000.0,1417639875.4952326,2618169000.0,1383495959.7896924,-531777000.0,324273417.32400215,2086392000.0,1047691685.2727742,44074000.0,54495515.01647584,2574095000.0,1722842287.6724038,44074000.0,33718599.62317905
919,362,1,1537935000.0,2127531320.0097585,1281456000.0,1324219403.6297786,256479000.0,676606336.3250341,229699000.0,195300857.88165465,0.0,207817308.74084502,229699000.0,271569723.31189346,-26947000.0,27029769.46598342,256646000.0,210445769.8028862,-26947000.0,45900755.64771105
1827,972,1,1182488000.0,1927982009.862184,303489000.0,1379292376.1483564,759221000.0,779999402.65801,56265000.0,171772859.62136245,333008000.0,207866523.918696,251870000.0,252746889.98541236,16750000.0,39294081.90934128,39515000.0,170384528.4117067,16750000.0,46493644.214808725
1182,727,1,8225559.0,975982662.1137686,12447189.0,601097602.5700445,-4221630.0,86775600.3095671,17564.0,76151532.21376854,106922.0,7940152.301339865,124486.0,9273312.920947433,-8095209.0,7720386.336278826,8112773.0,116427495.06635284,-8095209.0,1165152.456148021
