epiphany24262/financial-performance-prediction/results/oof/m3d_catboost_direct_history_metadata_engineered.csv
Id,group_id,fold,actual_Q0_TOTAL_ASSETS,pred_Q0_TOTAL_ASSETS,actual_Q0_TOTAL_LIABILITIES,pred_Q0_TOTAL_LIABILITIES,actual_Q0_TOTAL_STOCKHOLDERS_EQUITY,pred_Q0_TOTAL_STOCKHOLDERS_EQUITY,actual_Q0_GROSS_PROFIT,pred_Q0_GROSS_PROFIT,actual_Q0_COST_OF_REVENUES,pred_Q0_COST_OF_REVENUES,actual_Q0_REVENUES,pred_Q0_REVENUES,actual_Q0_OPERATING_INCOME,pred_Q0_OPERATING_INCOME,actual_Q0_OPERATING_EXPENSES,pred_Q0_OPERATING_EXPENSES,actual_Q0_EBITDA,pred_Q0_EBITDA
196,314,4,1192950000.0,2361633017.3471565,1055816000.0,1820225978.157407,137134000.0,792373460.3054708,25598000.0,166213085.03519142,61899000.0,249910687.59083676,42992000.0,418312866.97387564,15222000.0,52332360.27619779,10383000.0,226000699.235584,15215000.0,35304688.56227764
1568,1318,0,1219954000.0,4120291196.254306,835046000.0,2163142629.5628414,384908000.0,1944633243.8464124,111786000.0,250121940.21778095,217796000.0,318904579.5855675,329582000.0,543468557.8508946,28908000.0,60863818.43299995,85522000.0,245764340.34435982,26264000.0,74781357.68756633
1218,1523,0,-135820000000.0,14426620947.445175,-37972000000.0,11442757069.837215,-97848000000.0,2369023391.0097303,-435000000.0,1370810476.1242387,4445000000.0,4766421214.779037,4010000000.0,3619636833.002075,-1472000000.0,133930141.96777807,219000000.0,584481447.3981624,-654000000.0,78442209.07356626
23,1421,2,83298000.0,1842173882.734726,16040000.0,1227283392.8502412,-31633000.0,450284609.950732,494000.0,137312388.63785976,3339000.0,173744441.43319827,3833000.0,274828940.62229776,-12348000.0,14707900.89669548,12842000.0,204161204.65902993,-12348000.0,66032846.15113607
783,1306,2,148546000.0,2005811711.5254588,56555000.0,1328550372.577581,91991000.0,680308484.1617012,1761000.0,141762122.95278078,-2375000.0,193536266.030604,-614000.0,293037899.5431926,-10098000.0,28149221.887777433,11859000.0,221609080.0553704,-10098000.0,66032846.15113607
1251,1292,1,7304300000.0,5671260560.128756,2451900000.0,3070350745.8257947,4830200000.0,2154996565.9923935,578200000.0,333537392.8440433,581100000.0,544991378.2722061,1159300000.0,1072201127.9287764,245200000.0,116610854.03270398,333000000.0,268580388.84891874,245200000.0,63191448.29171494
1224,1572,2,1976905000.0,2242929352.0351715,699909000.0,1653731258.328988,1276996000.0,994476396.9297377,53993000.0,238248129.97784236,315825000.0,355359426.1636069,369818000.0,420904602.2674682,-1572000.0,30113194.379959673,371390000.0,229616801.08861348,-317397000.0,66032846.15113607
1410,638,0,2097274000.0,3993519932.0832205,1132234000.0,2159297990.719454,965931000.0,1944633243.8464124,70481000.0,267709633.27596682,291052000.0,333175478.9892629,361533000.0,580928179.2096162,58709000.0,76333091.56967169,11772000.0,249465656.0131269,58709000.0,72967024.8414239
529,10,4,31183000.0,1504325213.122507,15926000.0,1211474612.8663237,15257000.0,477276155.8265395,2456000.0,134877552.33713228,2151000.0,180082088.2860042,4607000.0,227673994.22315133,-2931000.0,26676965.46240437,5387000.0,187906609.2967619,-2931000.0,32225780.4816721
730,598,0,978523000.0,3759855647.8188515,851196000.0,1836306401.9778445,-94184000.0,1944633243.8464124,24321000.0,199925076.07418394,137937000.0,247492543.47896302,162258000.0,443800735.7704272,-764000.0,45065335.49334971,25085000.0,235896935.11019254,-764000.0,67979600.82981941
1590,740,3,27253000.0,1815769938.75031,14465193.072010836,1716844387.7915304,12787806.927989164,515313267.3829353,-17000.0,139666588.39086676,17493000.0,178301169.14592117,17476000.0,244114252.16323793,1196000.0,35290267.18607751,138000.0,136274684.05276108,-155000.0,79173060.30844755
367,140,3,798398000.0,2275686450.3868656,795372000.0,1831255239.5375295,3026000.0,789708002.8774934,37121000.0,218605790.8329128,256160000.0,288516347.8520373,293281000.0,424895062.9450526,10257000.0,42627421.78472001,26864000.0,160586573.7736253,10257000.0,74463313.56421714
636,741,2,1059052000.0,2419587049.4677444,883921000.0,1455674798.641618,175131000.0,785531378.9998728,91945000.0,243545325.8644617,202788000.0,365510019.05356455,235132000.0,529462470.9218003,-287000.0,32961105.065105803,84957000.0,243810173.42771852,6988000.0,66032846.15113607
1270,1352,1,11069000000.0,6760498016.299138,5919000000.0,3181938955.378592,5105000000.0,2528063629.1552916,727000000.0,476180528.19459194,1752000000.0,1207389041.8005595,2479000000.0,1874269770.6577835,462000000.0,115728510.8882831,265000000.0,306043095.7511276,462000000.0,64002468.763619564
102,263,0,12331000.0,3350840589.234333,10875000.0,1167544114.780716,1456000.0,1869906116.298963,1472000.0,165027447.1687652,1968000.0,140749814.35268104,3440000.0,234155505.8474599,-4166000.0,40007747.18249291,5638000.0,226273385.5451395,-4166000.0,64442591.565536276
1658,1092,1,180372000.0,1871979560.1411905,121221000.0,1627605545.6177347,30642000.0,598047872.5663328,18014000.0,246708338.23614317,31653000.0,187026358.78142148,49667000.0,298038927.197014,-11599000.0,57782623.14865111,29613000.0,234022176.8345458,-11599000.0,59602404.836649925
6,33,0,2319806000.0,4349509269.3873415,1534495000.0,2322242810.1591883,785311000.0,1944633243.8464124,376397000.0,316909371.72025347,415254000.0,364043854.11506116,791651000.0,631835660.5371883,93430000.0,64718642.85791752,288680000.0,255674027.60274714,87717000.0,74119572.22791198
1147,1055,3,19295025.0,1747169754.668067,28370931.0,1645860313.5537853,-13369686.0,490661280.5292163,2067435.0,150385053.95217603,4847499.0,163158728.08784765,6914934.0,220673366.48949635,-1108124.0,34821755.21322722,3175559.0,144907329.03839976,-1108124.0,76626103.3642689
114,1011,2,3549408000.0,3816224207.0720897,2109262000.0,2144629101.1669385,1440146000.0,1309531703.0580745,264579000.0,275322194.7918706,494402000.0,486536537.87735367,758981000.0,761576740.3780735,58594000.0,51612617.42105175,205985000.0,260203081.7515106,58594000.0,66685543.11372143
139,1334,4,331401784.0,1804252948.5535846,56254670.0,1409454645.4359386,275147114.0,576445119.3845909,17982150.0,161992283.7026374,0.0,194701605.14357543,17982150.0,273807847.0047159,-40215832.0,32006920.522273853,58197982.0,234298259.6138146,-40215832.0,42138226.302956186
411,814,4,5533000.0,1398171264.7481308,4648000.0,1295123744.5503962,885000.0,443849468.44074273,-1669000.0,135872492.59976596,2438000.0,183023702.87007242,769000.0,222556111.87081838,-6339000.0,17201000.989630997,4670000.0,186858678.9564639,-6339000.0,28736091.412464917
681,761,2,36550000000.0,22323430537.54981,16943241279.095451,11099542001.338585,15250000000.0,6243767093.055097,577000000.0,632192285.3970782,3467000000.0,1280684101.5557566,4044000000.0,2917876214.603022,714000000.0,272150360.75183463,627000000.0,433378026.067582,-50000000.0,66032846.15113607
1671,696,2,100449000.0,2037985179.2853665,141057000.0,1137525194.955268,-40608000.0,534979437.52135503,-171000.0,146679506.95445997,512000.0,168821542.3341989,341000.0,310797268.64912915,-48297000.0,16948949.15629381,24344000.0,197146440.08127138,-24515000.0,66685543.11372143
500,1236,2,10599934.0,1697700872.2830448,26203416.0,1156648492.0820594,-15603482.0,375742700.8641491,-6219.0,124390081.26330256,193120.0,138192924.61363685,186901.0,221851489.4463743,-1076399.0,14610178.895722747,1070180.0,213501721.57582977,-1076399.0,66032846.15113607
1203,449,4,13322000.0,1492225484.7255592,67881000.0,1495410575.9254088,8277888.77383834,516957790.0401119,3223000.0,145077117.9261777,1889000.0,195630773.61772734,5112000.0,261887386.40598214,-3552000.0,29387410.57521858,8664000.0,190044870.85076085,-5441000.0,36899784.469391204
180,11,3,635001000.0,2640591751.3730545,115305000.0,1756485303.1383233,502273000.0,746965986.2905334,21465000.0,213396245.59021536,40457000.0,269108027.38326377,61922000.0,468422492.69597685,-143360000.0,35865544.77077711,205282000.0,185393247.18294138,-183817000.0,73461865.98863123
1960,1026,2,2672864000.0,2823000759.467241,288913000.0,1835300312.0075636,2383951000.0,1238383320.4875162,132902000.0,267762689.0630211,168499000.0,376464944.0154762,301401000.0,591320251.5511042,55706000.0,52798902.06800332,77196000.0,239830467.2287758,55706000.0,66032846.15113607
356,863,0,8388335000.0,5397002321.402654,5163154000.0,3262563981.205543,3225181000.0,1944633243.8464124,313343000.0,348861771.1922608,687959000.0,609513588.5014818,1001302000.0,970257769.110424,116260000.0,82333042.7028764,85661000.0,243106008.07571465,227682000.0,72395100.09863228
1646,1578,1,1563399000.0,2431005063.116917,1445358000.0,1899942486.6345,-136248000.0,870937128.4619174,72333000.0,258864655.03270727,116682000.0,322900779.1851563,189015000.0,484743441.86489046,23506000.0,66687790.596952066,11423000.0,269727450.2052481,60910000.0,56748438.36204596
1793,1064,4,320019000.0,2146815769.0094676,126984000.0,1730489173.2467852,193035000.0,901407987.0440475,177377000.0,187480401.0421951,58492000.0,285232591.9728832,235869000.0,463437732.20149016,25509000.0,47719502.3905455,151868000.0,249941300.65480298,25509000.0,38577804.39811974
235,94,4,0.0,1393887015.452032,0.0,1206398369.7825406,-804876.0,387589553.25493467,0.0,134690694.9958136,0.0,145513797.58871984,0.0,206181144.5081843,-14550.0,22469271.797288075,14550.0,159562213.24056965,-14550.0,33196962.944284335
1668,245,3,267194000.0,2145177567.986177,175308000.0,1793652006.6396205,91886000.0,627707302.6610619,5103000.0,180532245.12620974,0.0,209637363.34644705,5103000.0,283460753.99053395,-32762000.0,40165960.28846019,37865000.0,148335429.48975694,-32762000.0,78226126.57562877
1456,1010,3,2249377000.0,2705266587.8897095,1923326000.0,2058902563.3991456,326519000.0,1138834829.4607666,-76300000.0,272684329.3521464,416103000.0,342802813.4722548,339803000.0,610100663.8022491,34941000.0,54280369.12407964,184914000.0,198041583.75072497,-261214000.0,79720433.18552518
1291,1021,2,396890000.0,2039815603.4901447,107071000.0,1367071415.1169531,289819000.0,624132034.2264525,52569000.0,183811531.108274,13634000.0,232973021.85164547,66203000.0,360886165.5199722,8375000.0,20334651.527862743,57828000.0,229903056.57637772,-5259000.0,66032846.15113607
1376,1176,2,7827000.0,1898252225.2317939,4744000.0,1197566393.0710833,3083000.0,469560959.1397574,1288000.0,139150301.0336824,867000.0,191656009.70084095,2155000.0,289114383.3977325,-3880000.0,14810608.382007346,5168000.0,194678517.0448359,-3880000.0,64864721.7069978
1702,1493,0,11990000.0,3325642088.1336827,3030000.0,1068252482.4177084,8960000.0,1869906116.298963,1480000.0,131584505.36317712,3017000.0,137272017.85204268,4497000.0,217641610.67171812,-944000.0,46296757.98382085,2424000.0,204439064.36555925,-944000.0,69918162.76598953
1591,1286,2,7472874.0,1627355618.8641353,3243445.0,1102182514.988202,4067990.0,390654238.30165744,3065804.0,138033271.82002187,0.0,117669896.99818075,3065804.0,235541384.9796667,-21884.0,13560003.19649303,3087688.0,196601415.15159297,-21884.0,66032846.15113607
647,1028,0,2182494000.0,4107264369.326297,2467501000.0,2414317964.1972985,-484456000.0,1944633243.8464124,389190000.0,268517923.4678885,141172000.0,336037097.0732126,531030000.0,594147796.3816198,-54175000.0,52630455.23396649,443365000.0,237397891.17946723,-54175000.0,68923856.9878668
100,1407,1,12166000.0,1691578226.933817,2892000.0,1248580241.0341406,9274000.0,412602129.41491103,5000.0,168850604.16173404,54000.0,125979213.79595542,59000.0,233739732.73873222,-3433000.0,34686869.84398277,3433000.0,201580779.7323512,-3428000.0,45978878.69702807
507,447,1,189783000.0,1849008739.001771,45792000.0,1430557276.5733683,143991000.0,522559140.29049504,2372000.0,209572587.28733432,0.0,137183419.1853404,2372000.0,265290621.9703064,-18270000.0,39207397.659859836,20642000.0,219434901.2024807,-18270000.0,55681664.782168746
547,960,3,1072653000.0,2528221348.5252943,455367000.0,1616861169.9514873,617286000.0,747869462.0656748,134998000.0,219145026.51527166,27783000.0,209285596.7761472,163452000.0,290946126.0577265,5489000.0,35014679.12727766,129509000.0,171139185.34456962,5489000.0,75194448.70891371
457,632,1,665104000.0,2094642491.975883,575531000.0,1837539256.5015156,89573000.0,748371765.1282442,30803000.0,245073196.81966364,19437000.0,248433351.13916194,50240000.0,378311065.0530014,10357000.0,57573211.520634145,22017000.0,243282878.54799262,8786000.0,57280463.94876539
560,618,0,1900367000.0,4257929549.2679253,289037000.0,2084727480.8438652,1613343000.0,1944633243.8464124,45433000.0,260442929.665811,413911000.0,375408056.209319,459344000.0,690195368.3957119,-6757000.0,95196158.42965299,52246000.0,235009923.68862966,-6813000.0,70833425.56925927
1402,1560,4,88944000.0,1630346234.7143064,45361000.0,1276272755.274426,43583000.0,528072433.6529156,0.0,144445525.67528766,45000.0,168664588.40606505,45000.0,237737797.6177243,-14351000.0,20025804.745026037,14351000.0,194091198.44601905,-14351000.0,35554587.11849974
1274,683,0,5390785000.0,5173210160.706615,4083098000.0,3027230763.79626,1050686000.0,1944633243.8464124,352054000.0,342126642.3015908,284900000.0,490718345.03686666,636954000.0,866646099.5218112,120850000.0,73712978.23873085,187232000.0,251225793.48065835,164822000.0,68384394.3368583
799,1475,3,18535000.0,1857242569.476111,13748000.0,1709182867.3379755,4787000.0,537601299.9908233,2839000.0,134385250.46562243,7502000.0,168272273.18176836,10341000.0,237705193.05901682,-2229000.0,36365162.845220596,3071000.0,138470980.59807736,-232000.0,73128579.77292708
1436,366,2,13281300000.0,6284706215.31211,5777300000.0,3292124697.211166,7484300000.0,3921073682.848307,1030700000.0,620400977.4480791,1150100000.0,816047091.0563718,2180800000.0,1654891249.0485897,687000000.0,355429977.10451996,343700000.0,306585816.33073735,687000000.0,66032846.15113607
1518,564,4,108681735.0,1826603286.6635904,9192190.0,1314019184.705537,67531550.37365061,522885946.43140113,2201326.0,143975498.96324912,255772.0,206425540.56545335,2457098.0,259668752.71491945,-8935951.0,28664546.723909535,11137277.0,216617323.9859738,-8935951.0,36188923.42614891
211,1245,3,189692000.0,2062124290.6518602,90178000.0,1769388678.068782,99514000.0,643548674.3001447,-4411000.0,159475588.11999106,24963000.0,182460159.53469032,20552000.0,257169407.55084836,-10000000.0,44048503.537928864,5589000.0,142219520.04645553,-10000000.0,72968050.01775792
1542,539,4,230878000.0,1803451845.1830153,57278000.0,1421837150.106882,173600000.0,587725972.8192625,26973000.0,155467816.09986398,7041000.0,226621332.2844293,34014000.0,298425050.77131057,-11169000.0,33740170.775711074,38142000.0,215849600.5255761,-11169000.0,44266936.54199457
1496,129,4,73773000.0,1631906112.1860352,50819000.0,1318354641.3266773,38847689.64492722,556331696.7260677,5428000.0,147987778.5550469,22481000.0,197990670.56534618,27909000.0,242831760.5480801,-1778000.0,25229873.89307233,7206000.0,204357143.12862647,-1778000.0,34575081.06030353
1891,794,4,1582767000.0,2304706850.5764294,680421000.0,1646155703.2408807,880211000.0,758669180.7964451,56683000.0,175645367.4476256,17637000.0,258832120.47436094,74320000.0,401800356.20621324,-5119000.0,38720626.94275291,35279000.0,240136078.57801616,21404000.0,43357381.397898644
362,1155,3,5641000.0,1691389115.593974,5200000.0,1568677854.663532,-3859000.0,418688999.7394699,1192000.0,150804687.54141235,781000.0,162615003.60964173,1973000.0,223587435.8317697,-97000.0,36683434.79825546,2070000.0,139334595.81787428,-878000.0,70287168.4503792
605,905,3,3208196000.0,4032627808.0609527,2133043000.0,2064376936.2610543,1075153000.0,1576054640.6351845,625972000.0,366990211.7242268,1066275000.0,641108620.9338912,1692247000.0,1113184841.4213877,91616000.0,69479753.44036072,497965000.0,309125986.60353976,128007000.0,75911451.19860983
384,713,0,13057000.0,3358276270.244204,4943774.229094189,1012511923.1185045,10949000.0,1869906116.298963,7944000.0,133023681.59100509,0.0,129146712.82530546,7944000.0,209007086.85840654,1997000.0,39609551.56407498,5947000.0,207193408.45623234,1997000.0,71896215.60734127
438,1575,4,5973000000.0,5224746612.789392,4408000000.0,2639156461.3868694,1554000000.0,2085699007.2240598,244000000.0,333853630.38384676,1526000000.0,630928093.8283945,1770000000.0,1051066604.4982446,147000000.0,64054088.67242607,127000000.0,243287180.12776834,117000000.0,46786317.67407392
1761,738,0,589088000.0,3775798974.6923685,253950000.0,1945921823.5237777,335138000.0,1944633243.8464124,19294000.0,199240970.0961662,99428000.0,240572740.93591607,118722000.0,395623898.9857999,9057000.0,56549972.18791009,10237000.0,244202136.0769236,9057000.0,75689844.0556508
403,525,3,21286772.0,1666229764.039783,1383236.0,1500562312.5575418,19903536.0,488157310.048607,781782.0,150054090.98885655,421382.0,148433721.63899505,1203164.0,201719528.92292655,-1960898.0,35297151.77186569,2742680.0,136151327.1683865,-1960898.0,70141058.04546803
388,1349,4,3445920.0,1775319053.0693908,1859560.0,1512948018.8578374,1616914.0883314284,293102651.2405126,2970901.0,155229077.74469963,569508.0,183927936.26497364,805185.0,229356768.70332086,2437201.0,29583592.264082238,533700.0,219969461.30522346,2437201.0,32745175.78267526
1452,124,4,328158000.0,1849711482.6772661,124250521.82515822,1626506753.3465703,270486000.0,621162102.3214839,24944000.0,163639509.13053194,16521000.0,247096880.81226444,41465000.0,331791558.22577167,-7674000.0,36109663.800998926,24827000.0,225147782.97290733,117000.0,42660897.28128889
1876,412,1,2498305.0,1603885723.9302492,2997402.0,1149295168.3351645,-3454854.0,428490513.8292211,467340.0,186967253.06929463,346611.0,136326056.59435833,813951.0,234061474.10092723,-114631.0,38524622.089365326,581971.0,197664527.94109643,-114631.0,36456105.814942956
757,651,2,1288046000.0,2260683098.0256863,649920845.9604261,1484095439.1882253,889849000.0,957525111.70449,105384000.0,227924532.1862616,285360000.0,368472695.64424133,390744000.0,486039517.62692845,53190000.0,41651274.21531319,52194000.0,228578478.99501988,53190000.0,66032846.15113607
660,226,2,600057000.0,2048260411.3711066,369915000.0,1328639438.7456353,225443000.0,623744880.0565176,43121000.0,200927605.544232,106269000.0,276661873.87148505,149390000.0,378082821.45381784,7853000.0,22192646.79251404,30439000.0,219430247.8891257,12682000.0,66685543.11372143
197,709,4,538955000.0,1683096635.0013576,291671000.0,1335180891.3621786,247284000.0,551850327.8445157,-14193000.0,164325382.40523168,14235000.0,220410600.40201575,42000.0,267065774.60806108,-51845000.0,19713062.632806644,37652000.0,194557508.1446421,-51845000.0,37582099.78557169
93,962,1,25334074.0,1610831065.2576623,18917048.0,1228044111.1052523,5501613.0,460279619.7892318,-536032.0,193631975.65604797,4501393.0,147114381.0022744,3965361.0,249903967.5470909,-2975120.0,40753515.52873978,2439088.0,210947487.90294057,-2975120.0,56194829.713164724
472,1463,0,1934400000.0,4136098180.4548635,855887268.5537325,2148301290.62497,957200000.0,1944633243.8464124,84000000.0,256425492.64818454,375600000.0,352335047.35843074,459600000.0,602466138.718369,30800000.0,61933345.42343789,59000000.0,244029072.4205159,25000000.0,73354979.72506095
1345,573,0,102973000.0,3363487405.5003195,162948000.0,1190242582.3672085,-346214000.0,1869906116.298963,-13037000.0,146756624.50252283,25768000.0,158635444.26581776,12731000.0,256075153.13780499,-23219000.0,41620566.67095975,35950000.0,220572336.84164563,-48987000.0,69242788.02276503
1672,351,2,2501300000.0,2977081811.5533495,1075500000.0,1688910731.586961,1407900000.0,1048513426.1857879,99600000.0,276311422.65402234,151100000.0,367670541.02096474,250700000.0,524559036.9583797,31900000.0,40468439.410069846,67700000.0,230574904.37262338,31900000.0,66032846.15113607
521,298,0,27910000000.0,13935922139.631329,24392000000.0,11311147247.728863,14058781786.346067,1937396812.5606697,1525000000.0,886064357.1658802,6421000000.0,3255338356.6350446,7946000000.0,4025670533.5979905,561000000.0,113423484.73587966,638000000.0,354416758.496753,887000000.0,69170274.1652131
1143,519,4,105238000.0,1704235217.9514728,42240000.0,1377628549.1629174,62998000.0,540594919.0125811,8572000.0,155955054.01397225,322000.0,192009984.88224733,8894000.0,252723216.89779282,2218000.0,36247144.19579134,6354000.0,208227064.00271508,2218000.0,43661510.68113057
502,1365,3,2010176000.0,3260769719.397579,889414829.379791,1838753831.422286,1057656000.0,1172255728.2867072,113627000.0,297489083.14000463,250202000.0,315789938.8993159,363829000.0,537785172.141511,44531000.0,59583446.522882275,69096000.0,173565663.08398703,44531000.0,79284328.57248424
319,621,2,15154000000.0,6781082708.671477,5534200000.0,4467789983.320528,9554000000.0,4563560275.203004,739300000.0,431308369.0216626,999600000.0,687666983.1748886,1738900000.0,1432563281.5030732,318400000.0,113309937.59230022,315200000.0,297443140.02295375,424100000.0,66685543.11372143
471,516,2,346507000.0,2287431387.335515,100361000.0,1300371676.117734,246146000.0,555743551.6408621,14398000.0,200617064.9000903,62502000.0,257169976.9177816,72480000.0,329155507.6408479,4926000.0,22793614.015172273,9472000.0,214654438.50508147,4926000.0,66032846.15113607
1756,421,2,229309000.0,2047294983.1180215,190264000.0,1295187424.0391862,-44269000.0,518296761.6267091,9225000.0,175051839.2346079,52669000.0,270786160.3000883,61894000.0,339401385.2818432,1401000.0,25283713.53646463,7511000.0,221791989.84624657,1714000.0,64864721.7069978
848,415,3,101740000.0,1770692284.4176106,28463000.0,1610553056.8205018,50734000.0,502833313.00154674,29850000.0,163382181.28841493,12745000.0,163302898.07659644,40857000.0,223342994.85707343,2689000.0,33056066.533734664,27161000.0,153463183.06868985,2689000.0,75909966.66212425
1310,660,3,9582645000.0,4210963864.3943706,3280269000.0,2015023558.171482,6302376000.0,1943003533.0364606,376175000.0,356580420.35493636,424915000.0,437342100.96718633,801090000.0,892019515.2558135,272965000.0,74189924.59247574,103421000.0,263631435.98947525,272754000.0,81267503.14410168
202,496,2,609678000.0,2107798839.9133143,288631252.1743736,1456083403.8278813,366720000.0,642636984.2004373,84451000.0,195414993.0263127,21802000.0,296128851.61009264,106253000.0,405671212.9033184,5683000.0,24252064.814916134,78768000.0,226434434.8465507,5683000.0,66685543.11372143
1444,1250,3,43441700000.0,27716853614.3346,21559314449.01792,6993013476.827926,21882385550.98208,6619065408.055112,1370000000.0,558874332.080278,587400000.0,674260304.1302837,1957400000.0,2105204886.445559,472000000.0,90524571.51267196,1485400000.0,1116639508.3109038,-115400000.0,80493113.80720769
1578,687,1,1146353000.0,2305243103.3392396,752649000.0,1611835490.106344,393704000.0,718250155.4548357,95229000.0,244301437.64693037,32092000.0,248401490.18182838,127321000.0,426153418.90563095,-58245000.0,44914477.08096743,153474000.0,247095552.3597359,-58245000.0,61286249.23160212
451,1036,2,796771.0,1725710620.3185096,1072746.0,1111971400.729617,-275975.0,421522712.34213924,205707.0,127231104.1498934,158335.0,142041423.19683492,364042.0,257062913.86088717,-168127.0,14240110.285735503,373834.0,196881982.4411589,-168127.0,66032846.15113607
35,1172,1,9069035000.0,4777638906.259027,2563480000.0,2507585695.471544,6505555000.0,2131216354.6901822,942419000.0,397061876.2130645,522866000.0,606971908.832682,1285548000.0,1093050801.5838327,602695000.0,130188589.35687801,339724000.0,288482806.8123039,602695000.0,59123705.70407145
237,194,4,48924605000.0,32084386889.5653,25766652000.0,8795588160.359344,22441501000.0,11171217615.214087,1560160000.0,810663505.4163098,915531000.0,863962460.2334613,2475691000.0,2480600091.21377,558196000.0,166098528.67711803,1001964000.0,343826728.53569317,558196000.0,44614372.10330672
917,1116,2,514281000.0,2294292752.552142,309957000.0,1467423374.375211,198004000.0,779012740.3509209,106985000.0,216574962.38587025,149052000.0,330184542.15113205,309744000.0,502685156.368605,62399000.0,39813322.32460658,44586000.0,241098943.49804348,62399000.0,66032846.15113607
558,251,2,17876000000.0,6125894142.170908,4077000000.0,4272003134.917428,13799000000.0,5026984940.270111,-917000000.0,371035805.5293202,1453000000.0,414666984.179849,536000000.0,744048955.8472389,-1774000000.0,24995264.03699681,857000000.0,338550715.6894216,-1774000000.0,66685543.11372143
73,532,1,218354000.0,1853604066.495049,62021000.0,1554315210.7986686,156333000.0,572315897.674589,-143000.0,223596165.83408707,848000.0,171958562.01242447,705000.0,306785307.46901596,-31577000.0,38637451.717631005,40859000.0,228425619.11672843,-41002000.0,55976822.96429965
532,205,3,2268100000.0,3128042370.5575037,1627400000.0,1875657919.2631717,640700000.0,1203335951.4685853,78400000.0,306687588.57773584,665200000.0,405864995.24158716,743600000.0,789196103.372092,19100000.0,54071824.55891193,724500000.0,357948947.8393398,-646100000.0,74937058.91228507
986,275,3,49117000.0,1831314274.091659,7104000.0,1700797680.0824428,42013000.0,523515593.952566,1616000.0,151247624.17908168,3273000.0,171123774.8423149,4889000.0,232831491.92944014,-1489000.0,37812092.21981477,3105000.0,142155435.81078917,-1489000.0,78092957.97725394
252,1030,3,12822000.0,1601883738.1543298,1624000.0,1427919785.518723,11198000.0,460532797.4894793,0.0,147196075.9855258,0.0,145877084.06383407,0.0,194667741.37074196,-1983000.0,29502747.72597277,1983000.0,125894293.78758624,-1983000.0,68928622.28748842
982,1392,1,543788000.0,2093311773.6699557,205894547.02387,1816443586.8110402,402777000.0,615725487.9724269,1944000.0,236106479.81310594,0.0,200227501.48193192,1944000.0,342467949.1772995,-51279000.0,40041506.78163809,53223000.0,229932036.93434572,-51279000.0,58694294.04060443
1947,616,2,16965000000.0,8661830679.361921,7506269391.549871,4208509569.6876307,7744800000.0,5844572353.651732,1329900000.0,693194739.1466364,1175700000.0,742464738.8495679,2505600000.0,1832161297.4853258,1069200000.0,444899086.2275702,32700000.0,321621017.5288338,1297200000.0,63481390.367345564
1206,918,0,29788000.0,3314284686.3063507,27907000.0,1145111244.479591,1881000.0,1869906116.298963,0.0,135190823.98490232,3452000.0,151136863.2331866,3452000.0,254453255.81986392,-23801000.0,41276635.11075476,23801000.0,215516634.6201572,-23801000.0,66285129.80958559
542,1191,2,39315010.0,1909305210.773572,15768167.0,1093550217.8502467,23791305.0,454434124.2793224,7600979.0,152114185.8757881,41810204.0,173657083.95659888,49411183.0,286769021.2774712,-1588725.0,17026062.71614869,9189704.0,207019626.27202648,-1588725.0,64864721.7069978
15,899,4,184728000.0,1655950323.3890362,40367000.0,1350683284.3951464,144361000.0,499654768.42549837,0.0,153308483.12831455,8094000.0,182640850.70183522,8094000.0,254932388.65602267,-23114000.0,26526346.268556565,23114000.0,218317713.28073457,-23114000.0,39456449.96237947
1754,856,2,5014090000.0,3915463301.2028174,2606263000.0,2555854691.3076196,2407827000.0,1623975162.7061098,420690000.0,372083500.91057205,905430000.0,551493046.595976,1326120000.0,1003057749.8259937,237492000.0,103150886.5403457,183198000.0,295515698.85059243,237492000.0,66032846.15113607
1448,1495,3,3543460000.0,3509884222.804884,2602227000.0,2219479706.482052,941233000.0,1123874374.5709078,443568000.0,338021648.43670446,134292000.0,407680938.94181156,414603000.0,769026028.4317204,14363000.0,62815803.69469923,429205000.0,237000698.08576235,14363000.0,79505213.08566141
459,1563,1,747087000.0,2092084024.1819472,79688000.0,1619470572.5335329,667399000.0,608227630.5504458,34565000.0,247675963.1353188,22203000.0,246423277.95785642,57261000.0,395639374.0369805,-16306000.0,46776762.16947262,50871000.0,235019523.7970931,-16306000.0,57087817.79592144
1505,8,3,4578121000.0,3724856209.4937334,2310023301.364386,2674898568.7131805,2489780000.0,1823940101.5338469,2190001000.0,1169060975.4135325,-1465670000.0,436309124.79160225,724331000.0,1272709306.836051,216069000.0,221252356.11844835,1973932000.0,1201574665.9265585,216069000.0,77042331.47005913
1613,399,4,11895943000.0,6060331496.473431,3479745000.0,3290041454.2467246,8416198000.0,3250990042.2166333,335683000.0,355530389.79701066,296441000.0,517036011.60999376,632124000.0,948060937.3866576,90949000.0,57200154.53684591,201199000.0,263713279.99185956,134484000.0,41996850.40883939
1214,1410,3,1059300000.0,3049740516.1339536,513000000.0,1883927682.1821635,545000000.0,1155531282.9293232,132000000.0,268580299.99174106,172700000.0,316863606.7909175,304700000.0,490704471.72968876,34700000.0,59523001.168729216,88200000.0,181819992.43813983,43800000.0,82630718.40796119
454,235,3,11204065000.0,7366099263.068588,4242197120.938668,2276483273.1183395,3489373000.0,1764326379.8574953,480702000.0,393771326.9723088,457696000.0,484696841.52972734,938398000.0,936812156.375841,172392000.0,78246663.51562187,308310000.0,241325009.68305132,172392000.0,83710871.08940133
1392,34,4,531121000.0,2055098830.3271732,248900000.0,1583420620.31924,282221000.0,720541626.4572835,62379000.0,168479300.85729843,135419000.0,275741706.6478558,197798000.0,377952801.74080014,18703000.0,45000984.38927029,43698000.0,225395666.44203514,18681000.0,41069433.00496741
1519,1545,4,961035000.0,2555323696.2459807,1381722000.0,1877104845.067958,-420687000.0,937952338.6750079,271111000.0,216879663.0793993,201537000.0,321231004.845263,472648000.0,485852258.78034043,5387000.0,46797172.573771015,265724000.0,261823084.8806122,5387000.0,36946015.03581942
1060,432,1,3194462000.0,3677575654.853999,1643299000.0,1919316108.833885,1512215000.0,1109038269.2736487,817744000.0,331250814.87202483,0.0,367707610.9133431,817744000.0,741110244.7302978,37900000.0,69963374.13756676,779844000.0,351996461.2898094,37900000.0,57916564.52962753
1100,895,3,6042273.0,1647007019.7780566,3627261.0,1435419439.7426522,2415012.0,420679156.62401223,0.0,148968726.59624714,0.0,156840914.6250615,0.0,215442556.32412267,-1829562.0,32799449.4747627,1829562.0,128129786.10233244,-1829562.0,73204045.72267695
203,426,2,76266906.0,1876409216.714363,57438990.0,1232145639.6376739,40912361.81482647,530947464.10540164,9146097.0,191698180.72575244,0.0,187318402.91108072,9146097.0,285437185.18423164,-2633902.0,17512012.99819103,11779999.0,221631529.64307323,-2633902.0,66032846.15113607
1493,1399,4,-3532973000.0,2683551287.139341,-2747133000.0,1685498221.9731858,-773571000.0,860119384.9446813,87737000.0,214342128.09195435,40236000.0,351275295.96673316,103187000.0,602089954.0903273,7123000.0,53742870.36402489,80614000.0,238717360.01911265,7123000.0,38265823.2287452
543,815,3,846734000.0,2529639704.7438674,635659000.0,1862180732.5396712,69332000.0,797976848.5992951,204774000.0,200760271.9901848,-13024000.0,201745454.09074587,191750000.0,358611132.0779445,-52860000.0,34729775.49356414,257634000.0,164149513.69397515,-52860000.0,75326926.35413195
1966,624,4,1354514000.0,2119536367.0030909,675720000.0,1658445471.8188782,319291000.0,711497780.5058696,-16558000.0,170853875.594178,64132000.0,245614120.90369368,47574000.0,346905948.4212011,22229000.0,41279348.654125705,13428000.0,214537470.90165508,-29986000.0,44424604.14682316
1802,437,1,270533000.0,1941685253.6911635,240046000.0,1537136896.8407686,30487000.0,539986097.5099976,26052000.0,224418134.65908363,12454000.0,213617076.72431427,38506000.0,317383007.660995,-21038000.0,47914740.042194024,47090000.0,227313166.72215426,-21038000.0,56793357.00437064
1372,1341,2,583783000.0,2111768981.9487476,717382000.0,1360597839.1621647,-133599000.0,699676339.4021689,41865000.0,188259909.43903947,32703000.0,270917925.09866107,74568000.0,421160567.8144572,-32006000.0,24240897.66382307,48224000.0,217626135.94444317,-6359000.0,66685543.11372143
1325,1439,4,534446.0,1393887015.452032,9794849.0,1307370009.3840907,-9132038.0,396144023.06057,6264.0,135962837.12905577,3881.0,140513503.36412305,10145.0,211705033.62300014,-961868.0,23051939.909176335,972013.0,181852635.31356037,-965749.0,33360377.904963925
1504,1241,2,106308000.0,1858513788.1589618,29369000.0,1278487005.4533813,76939000.0,510644530.9097587,15630000.0,166838231.51218888,0.0,208851500.64621496,15630000.0,314167949.45861995,-23899000.0,15855915.230999857,39529000.0,206654783.24227497,-23899000.0,66032846.15113607
1347,1518,0,369031000.0,3742749813.951151,216722530.1814524,1708141182.1337345,188777000.0,1886062012.934781,45044000.0,202584513.29935122,42173000.0,240567136.52315807,87217000.0,389977205.10533357,-3804000.0,44944013.32805747,48848000.0,230047967.96698165,-3804000.0,73143473.95738968
1492,872,1,327784000.0,2137742208.7783256,323919000.0,1741651138.7237148,3865000.0,608177443.3592634,33496000.0,236263909.92663434,8201000.0,208428924.79104054,41697000.0,333626414.6785984,-4913000.0,46193044.96299444,37287000.0,237927987.9640932,-3791000.0,51889225.76693183
1107,1504,4,85658000000.0,7266741672.719179,88335000000.0,25665899428.653843,-2772000000.0,4742106141.652105,5387000000.0,3844028893.9511614,14002000000.0,9959548549.217634,16935000000.0,16048805697.876366,1165000000.0,522067193.1413195,4222000000.0,1215822105.6097548,1165000000.0,150821772.952216
1336,431,2,898860000.0,2120152656.032011,527877640.3036609,1326616126.3712292,360528000.0,630064912.9829695,68259000.0,201114501.21827188,42065000.0,241427763.13295883,110324000.0,379674407.3807335,-1325000.0,26052171.692183048,69584000.0,239120472.86332774,-1325000.0,66032846.15113607
599,1357,1,50546000.0,1695630516.0569572,5959000.0,1288933032.694456,44587000.0,511275889.282032,1989000.0,209374144.44175574,1909000.0,147998499.1281209,3898000.0,253879680.1499648,-1895000.0,42415503.897682644,3884000.0,210763938.55748224,-1895000.0,52893719.71688567
117,630,3,939056000.0,2178593997.7668643,419590000.0,1846330449.793121,517473000.0,982850377.3343682,90527000.0,219135867.3581259,120216000.0,300559115.2682546,210268000.0,346443299.5770261,61012000.0,61227251.28230086,29515000.0,160817689.31118476,61012000.0,80535911.26611075
1825,1520,3,20027115000.0,10376109298.981224,12952737000.0,3060790499.690931,5611108000.0,3418705009.870406,32786000.0,394276946.5846749,283742000.0,469019682.27129406,316528000.0,1026489373.8343754,-1347477000.0,40561082.97090656,1910658000.0,450405277.7465435,-1877872000.0,77320917.80161834
1507,300,3,124094000.0,1974148139.255754,18130000.0,1768423099.6996732,105964000.0,575413217.5829865,830000.0,169051551.87690407,0.0,161903378.72527993,830000.0,229368312.77166343,-5787000.0,39284692.13366144,6617000.0,148612982.26456904,-5787000.0,75111328.59624293
321,587,1,68675000.0,1866766519.9090686,40331082.646745786,1521937867.6312654,53645000.0,542461869.0979003,10938000.0,225145797.40687922,6604000.0,166865270.5881306,17542000.0,254774619.35033357,880000.0,45790206.797680564,10058000.0,232429602.17055157,880000.0,57570282.80154304
1482,433,0,1833700000.0,4123782121.4211664,811331929.4597701,2195273572.2409115,482900000.0,1944633243.8464124,110200000.0,269789816.31326306,356000000.0,348817016.9043635,466200000.0,535764370.17983687,45700000.0,62685484.28219789,55600000.0,246207417.83179653,54600000.0,72096092.24356973
508,1187,1,62515472.0,1791848249.2315316,29595817.732691668,1455605358.7978833,21861273.0,517976779.5705763,7032458.0,205317886.72346014,11256239.0,168543928.79318237,18288697.0,260366550.12885773,-1564350.0,45587508.66686913,8596808.0,231323678.31018412,-1564350.0,55231185.0267463
1411,610,3,33859785.0,1685247953.886952,6178818.0,1542732546.39468,27680967.0,503438709.8447771,-63384.0,143392440.89345038,87873.0,163295301.94878858,24489.0,218578128.67182946,-2675666.0,33334173.226259932,2612282.0,130975365.82522714,-2675666.0,70374124.0033969
718,1603,3,770792000.0,2583683793.367486,581187000.0,1842188653.9070172,188503000.0,900579341.3476537,456709000.0,246649833.26956162,0.0,288505595.24363464,456709000.0,464801566.9275719,-29756000.0,46083071.570076324,486465000.0,184942168.22432953,-29756000.0,78680394.77684762
1865,1457,1,4753100000.0,3631384758.17912,2691038000.0,2033389770.8248994,2062062000.0,1355767192.7203848,383135000.0,283008674.56953394,0.0,328045316.41823155,383135000.0,666222330.4425725,126771000.0,76648790.19497812,256364000.0,266034855.8117959,126771000.0,57559333.57806695
710,1426,2,9330700000.0,4861800463.03136,4987700000.0,2900852874.886484,4343000000.0,2596624968.667966,590200000.0,434364348.4502685,367100000.0,533610935.6953151,444000000.0,1069321582.7980218,121300000.0,73761261.68972717,468900000.0,297469874.15874434,121300000.0,66685543.11372143
285,985,3,1797231000.0,2632879663.4084983,1568932000.0,1819426782.80507,228299000.0,885340866.5206478,143030000.0,310374214.70837724,0.0,320470256.57206655,143030000.0,473839469.5353768,-113543000.0,34682497.05198347,256573000.0,192659482.7654814,-113543000.0,80790258.71977901
1609,179,4,90048000.0,1742652545.157003,45436321.63528667,1406273268.510092,37547000.0,556788743.8433706,2482000.0,149859526.93898374,9262000.0,207110721.60150486,11744000.0,252291967.4649409,1360000.0,31287026.42553754,2815000.0,190975204.31330186,-333000.0,40159713.978463866
1814,1095,3,190817000.0,2132949155.1393065,91955000.0,1880710428.9017572,118567925.39840196,635516276.7541612,16838000.0,174409852.5095235,21962000.0,186125233.0516522,38800000.0,261401082.22610402,3292000.0,45362553.11633367,13546000.0,147263742.77832463,3292000.0,76418036.40976195
720,50,3,24930824.0,1820678566.1740322,6278564.0,1678158335.3577988,18652260.0,596325509.0287602,7866761.0,141810854.12132215,20382092.0,168837142.66756725,28248853.0,235121698.68231988,1448213.0,36830753.600216165,6418548.0,139043918.1066724,1448213.0,76787205.08752647
1707,149,4,6071000000.0,8941493935.464087,14261000000.0,4867279244.633761,-8190000000.0,2028359096.775422,1287000000.0,597168644.8915911,421000000.0,523846652.35594016,1708000000.0,1071064300.1944703,613000000.0,123655016.27174118,1095000000.0,350260353.04550433,192000000.0,44103125.197259545
485,1443,0,5768300000.0,5043239954.665625,3017800000.0,3174684870.003207,2739100000.0,1944633243.8464124,487400000.0,346828672.68423474,888400000.0,711962597.391889,1375800000.0,1122169153.7108827,276300000.0,95785190.60841988,211100000.0,263500766.6904956,276300000.0,72616684.03735095
1364,1252,1,3486179000.0,4602088836.596445,1927467000.0,2557083701.981791,1501742000.0,1400378890.1603193,315111000.0,315637217.2686223,669472000.0,596138938.0096631,949217000.0,911303595.6322207,-24190000.0,112986475.46761027,194277000.0,289961626.5165081,120834000.0,64622309.82324335
1943,1464,4,496042000.0,2092394524.2708125,349488000.0,1691368393.9798539,146554000.0,729835968.5949411,33924000.0,168787159.0575907,212763000.0,285469748.68948483,246687000.0,371033771.91034126,12448000.0,45019867.97854955,21476000.0,224134367.28653508,12448000.0,40675462.291038856
708,512,1,1713800000.0,2547666874.3203163,864747334.9608463,2028778089.8152487,585500000.0,1077356257.6313188,141400000.0,267283850.3009159,205900000.0,337675326.00817126,347300000.0,510091324.0152197,100200000.0,64377719.19438687,64600000.0,257019558.2947963,76800000.0,58792056.430317454
1795,256,2,5817000.0,1686620103.6961331,1413000.0,1126040429.276353,5436000.0,401716380.91689515,5000.0,129646433.70133066,0.0,134622670.8647923,5000.0,250902960.23915577,-3525000.0,10739176.024920925,3530000.0,187894695.30701768,-3525000.0,64864721.7069978
1196,860,3,4180537.0,1807372976.5731344,13379601.0,1514744853.4153264,-9199064.0,488803101.0049633,1107842.0,143026437.25489855,974711.0,159620877.64403987,2069845.0,226184910.45567226,-2577294.0,28108395.63808672,3685136.0,145101954.74511668,-2577294.0,71006752.13902475
1785,368,0,6656000000.0,4757586421.020508,2127000000.0,2790698936.7034645,4529000000.0,1944633243.8464124,386000000.0,380865248.20635796,110000000.0,557013522.3128142,496000000.0,877430497.4697006,-53000000.0,63042782.62073469,439000000.0,251936093.4192971,-53000000.0,73782900.30785982
1117,1482,1,191593000.0,1985231481.3001552,250675000.0,1713432689.3157752,89973054.63642293,591738346.9928002,28173000.0,239561449.39082623,35245000.0,206989571.8737011,63418000.0,338108474.87891805,-6852000.0,46962501.10669599,35025000.0,246817298.8114326,-6852000.0,56669827.135613464
611,528,0,69753000.0,3405403370.861991,24624000.0,1521691435.2494678,45129000.0,1886062012.934781,4333000.0,164375956.71527827,3937000.0,174975363.37071162,8270000.0,277741702.3840984,-17948000.0,43345364.892165355,22281000.0,224106629.765717,-17948000.0,68626678.9926909
1037,1096,2,12798100000.0,7175794934.930862,7698700000.0,3842568815.110632,5099400000.0,4112009546.4698925,578600000.0,442479714.36373943,1141600000.0,806519373.8723172,1720200000.0,1603141234.9365635,210200000.0,93804840.36808832,368400000.0,269004262.96428734,210200000.0,66032846.15113607
1049,1368,0,41718000.0,3417738120.9983706,16883000.0,1234661667.0152946,24835000.0,1869906116.298963,4472000.0,159485243.65415233,-7000.0,163856597.8627094,4465000.0,266204921.25714052,467000.0,47475229.66035219,4005000.0,224143785.10312092,467000.0,69345917.05821662
181,192,1,2175066000.0,3082704061.122308,720018000.0,2018280218.617211,1455048000.0,880332893.4083042,262895000.0,262784602.38585013,0.0,275513180.43509537,262895000.0,493765285.4157375,-74357000.0,42437149.5036612,337252000.0,242032838.55558747,-74357000.0,54397102.699863434
1530,1427,1,432444000.0,1932108272.3190575,58115000.0,1489860876.7029285,374329000.0,585182300.7281667,30953000.0,227003789.49053037,9019000.0,198133716.2116875,39972000.0,322162448.5059246,-4508000.0,46329342.85880247,35461000.0,231146582.23396692,-4508000.0,59218434.59186947
1172,703,0,1951144000.0,4228237847.7451963,976648000.0,2248711594.04328,828149000.0,1944633243.8464124,81471000.0,237584681.8325374,811299000.0,448585906.6045413,892770000.0,776531857.7419734,21174000.0,51696398.57026195,35340000.0,248895316.96369165,46131000.0,74168563.6159149
1844,177,1,5184000.0,1518044212.9382792,33317000.0,1167848049.8393345,2568262.933576247,454934209.53708386,28000.0,204009635.80936196,1138000.0,133046667.58688724,1166000.0,232167668.24034274,-1174000.0,34713780.30811437,1202000.0,198168804.11638552,-1174000.0,39993244.06009182
937,1211,2,30042800000.0,17089387145.047178,15158963259.867964,9594129597.616402,10331300000.0,6078880260.66414,1541600000.0,732310679.9435549,2284300000.0,940772578.3855419,3825900000.0,2635495294.9297943,727800000.0,386988479.86485094,402100000.0,380637791.4962575,1139500000.0,66685543.11372143
1319,819,4,3143366000.0,2931522228.430734,724791000.0,1672999242.6892447,1686216654.8151803,1026041524.2421623,293240000.0,244440896.43365723,0.0,273424480.012575,293240000.0,523795957.69621265,242794000.0,59322051.29260574,50446000.0,237627160.05776143,242794000.0,37286882.47943938
785,508,0,2558318838.0,4342316716.076538,289865031.0,2255004074.4972,2268453807.0,1944633243.8464124,191440633.0,270105738.35531586,384407857.0,358200008.6238736,575848490.0,593315788.2245817,122416529.0,76662030.57822147,69024104.0,251870559.2606713,122416529.0,72881166.3288529
534,742,1,355784000.0,2196708878.025197,359982000.0,1717144430.7539253,21035000.0,705239380.3929124,21274000.0,234542973.46532255,23247000.0,253592651.37952292,43857000.0,350657785.7940228,-2501000.0,48576189.911990486,23775000.0,238974710.49368632,-2501000.0,59398800.247639425
1073,970,3,107571000000.0,67017463247.63048,49865975585.04998,23933963832.499306,57705024414.95002,24044156047.715412,4680000000.0,1907676277.525128,16059000000.0,10264158617.717503,20739000000.0,10294082724.95748,2233000000.0,577211444.2453692,234000000.0,568985547.9700955,4446000000.0,27658820.622443855
871,1115,3,357016000.0,2069797069.2269797,134021000.0,1752609451.1272578,222995000.0,644146055.8951952,10859000.0,181129480.86854908,60424000.0,195141843.14820606,71283000.0,266590972.65285373,4410000.0,49202371.25256622,6449000.0,147498865.38352183,4410000.0,70564353.66868632
145,1561,3,10492900000.0,7066177810.770134,4642648635.342979,2563513753.7843275,7724300000.0,2587709517.207427,1077000000.0,557754211.2066294,2546000000.0,1946802430.6144247,3623000000.0,3037588446.119628,389500000.0,128846690.11783342,626900000.0,405858422.618928,450100000.0,74921708.44340363
1137,1231,2,221167000.0,2074436364.7078714,272405000.0,1241628099.0041387,-51238000.0,595794127.3860707,26384000.0,178363575.7785973,0.0,206253112.8859135,26384000.0,352314829.12402284,3123000.0,18505486.44221203,23261000.0,222480382.2449484,3123000.0,66685543.11372143
1853,1087,1,644700000.0,2470387778.006609,668700000.0,1820537966.0158296,-24000000.0,766751325.2957699,11300000.0,265688307.2598455,30400000.0,313455372.678156,40500000.0,442906537.9938985,-2900000.0,60260776.80554601,9300000.0,245701936.8883086,2000000.0,62638733.67465095
1607,435,3,5733000000.0,4191872748.7830296,4386600000.0,2573555507.7012744,1332700000.0,1799549636.4590273,508800000.0,375219283.37758845,1740100000.0,805682537.7532917,2248900000.0,1598021988.3071208,201100000.0,89096589.87877232,328200000.0,231648051.00676364,180600000.0,81728747.37186554
497,361,2,3187469000.0,3147461008.1952996,1581882073.387936,1786143503.01865,1402929000.0,855534012.337471,12023000.0,280347549.7734058,118303000.0,374214655.54636383,130326000.0,550048561.2326801,121116000.0,50732190.66048492,236940000.0,250040533.8408498,-224917000.0,66685543.11372143
1789,988,0,160962000.0,3576603599.0865765,136871000.0,1419490555.222531,14091000.0,1886062012.934781,33234000.0,175515157.677405,28516000.0,176552040.8523605,61750000.0,269074265.3290162,-4105000.0,44507103.86345897,29699000.0,234814903.93512243,3535000.0,72007474.70314988
1733,155,3,1070082000.0,2189637745.035763,790095000.0,1816971370.9937873,279987000.0,861122086.9427872,59499000.0,187505196.61859688,92514000.0,253292797.6658011,152013000.0,331853178.0185982,-6147000.0,50644487.19520607,65646000.0,157625793.87388524,-6147000.0,76790566.4821206
1735,42,1,55335000.0,1886465130.6500869,11648000.0,1562647414.1891696,43687000.0,568289128.3928136,13874000.0,214240246.09720176,0.0,155488551.13927293,13874000.0,280128027.7224561,364000.0,42786182.52679335,13510000.0,225280363.93470466,364000.0,51053490.14942372
1273,370,3,8855100000.0,5087627683.811547,4468096700.788768,2591302449.306755,3543300000.0,1687592448.737907,468100000.0,354157005.38563734,2041800000.0,1124081407.7114346,2509900000.0,1723375816.2677033,256500000.0,50960108.76543623,211600000.0,235045337.5625857,256500000.0,77205657.98824126
226,1510,3,1045317000.0,2272382256.572983,491551000.0,1659505267.08714,553766000.0,601943128.990746,49476000.0,192591148.15287188,27012000.0,198262673.05110312,76488000.0,302718216.5295881,5569000.0,35752776.09169652,43907000.0,166483979.84911552,5569000.0,74555552.10286269
856,682,1,3335011000.0,3243352071.7830944,1532336000.0,2774023729.9325647,1376443773.6613572,1385372651.9726114,158805000.0,334725279.3658489,458734000.0,408537545.9973679,617539000.0,575133232.4525096,82276000.0,63718366.74293474,26748000.0,280705663.9772315,132057000.0,41111961.48020221
610,1489,4,50788000000.0,31826770092.452496,23543456582.29001,8147349999.847702,11845000000.0,5614372900.54638,1286000000.0,845307130.802223,484000000.0,803314701.9112855,1770000000.0,2092080593.663257,994000000.0,319181792.23475844,146000000.0,315354740.2235319,1140000000.0,41868093.716133356
434,1542,2,9209798000.0,4092043296.13769,3242862000.0,2703823160.4622183,3654836000.0,1980565963.0055046,758604000.0,390291506.25226676,-63000.0,350156202.51157284,758541000.0,815039776.605505,306700000.0,104595201.17548823,451904000.0,265879173.74300176,306700000.0,66685543.11372143
1765,981,2,3861516000.0,3579024241.0084076,3060094000.0,2304598410.5101385,801422000.0,1265775540.401764,246503000.0,310667787.98334515,543454000.0,439897675.13215876,789957000.0,724647790.2830408,-286586000.0,51116628.69613343,130761000.0,251673949.20117134,115742000.0,66685543.11372143
667,231,2,3117800000.0,3171179349.1420403,2444800000.0,1970101966.2784908,673000000.0,1039654445.3695952,86700000.0,283553154.45439917,411500000.0,397389870.96750975,498200000.0,589575434.3193302,-419900000.0,49067570.207092956,63400000.0,235742508.1997224,23300000.0,66685543.11372143
1194,1588,3,84073.0,1507767778.5711718,2814055.0,1285904885.1912067,-2729982.0,410994534.4540578,0.0,133771544.54928517,0.0,146413624.2308141,0.0,193716847.1481495,-647078.0,23238195.836867154,647078.0,132380912.52945289,-647078.0,62599367.512352765
626,281,2,250689000.0,2160328897.594004,83024000.0,1258408152.9490933,167665000.0,538975365.4905921,0.0,161362715.93086648,33193000.0,213042705.52736914,33193000.0,329710948.88269734,-43672000.0,17760108.476102576,43672000.0,207308443.68756694,-43672000.0,66032846.15113607
1654,95,3,2267553000.0,2733044831.116187,1375272000.0,1737526390.7408988,519294000.0,1049660148.7020525,30179000.0,277541166.2209604,36686000.0,317382077.8823207,66865000.0,436979302.1790509,-15417000.0,56610255.68689058,38864000.0,190219935.48452717,-8685000.0,80146883.77326247
288,1008,0,2221575000.0,4013724164.9752274,1034139000.0,2192454010.8469205,1187436000.0,1944633243.8464124,131964000.0,260267278.2966049,106311000.0,314912818.01312745,188755000.0,478491420.5323043,3712000.0,53761913.76716584,128252000.0,247857780.567666,3712000.0,76065646.91001943
1665,605,3,555271000.0,2282560784.9758506,273881000.0,1893991122.888472,281390000.0,824194116.2472649,77610000.0,202209641.90592116,73228000.0,257288934.53991407,150838000.0,358207867.7924293,6400000.0,55558310.774014965,144438000.0,155542296.5160335,-66828000.0,76025614.68804996
652,935,3,1810200000.0,2469222193.2585087,1334200000.0,1879356027.6725597,472000000.0,882311222.2363973,111400000.0,238630227.2576552,439000000.0,290426252.60244995,550400000.0,557730747.1097534,53300000.0,55280992.03848233,43800000.0,169077896.2462648,67600000.0,72195397.39527293
1078,46,2,339972000.0,2058832042.4111476,145992000.0,1326767267.6599562,193980000.0,694286561.624364,800000.0,178691147.23462993,85000.0,231478640.36513716,885000.0,334833909.90553737,-35502000.0,18262934.01589887,45899000.0,217716115.46387854,-45099000.0,66685543.11372143
778,1331,2,992330000.0,2147375089.7838097,401273000.0,1594706111.9296157,544681000.0,1007981754.9626932,417282000.0,252218739.34009,0.0,320966631.1985593,417282000.0,481474184.01223063,5536000.0,27958101.072678015,411746000.0,220951111.85040548,5536000.0,66032846.15113607
29,1129,4,600271000.0,2093481363.217041,137438000.0,1533641370.6102755,462833000.0,645156683.9242234,73869000.0,171366896.08077094,24421000.0,285920903.5229122,98290000.0,357831513.816849,-8089000.0,38725824.04664122,81958000.0,223136396.77131045,-8089000.0,44465391.71904379
854,464,4,47193000.0,1581306829.039825,31000000.0,1337241694.59852,16193000.0,515480962.3051064,4954000.0,147162569.28453517,3898000.0,195429088.39600223,8852000.0,240519229.26674485,-615000.0,32685488.792023532,5569000.0,197782597.35763633,-615000.0,33753297.969521075
1423,1344,4,150549000.0,1866939231.0438118,163792000.0,1548133400.13084,16674000.0,619426620.7599607,28323000.0,159771252.76595017,6429000.0,231147676.2546305,34752000.0,294991123.93967545,-13758000.0,31360709.4949075,21733000.0,223538330.506815,6590000.0,38446412.437035926
1406,183,0,62996000.0,3401005673.244366,12638000.0,1251960951.2683144,50358000.0,1869906116.298963,9919000.0,152257954.42679417,5920000.0,156532420.0005138,13543000.0,242408662.7718042,1979000.0,51045800.935142525,7940000.0,223432185.50189567,1979000.0,70132263.73874438
1624,411,2,56415000000.0,42518362481.29005,26707757359.48695,17644378145.05351,20622000000.0,10238918755.0715,4258000000.0,2498735781.868037,2744000000.0,1561260518.9960651,7002000000.0,4882795436.527517,471000000.0,498382673.9410796,1302000000.0,707612589.3744233,2956000000.0,66032846.15113607
926,211,2,572995000.0,2466398665.580977,271264937.13018215,1471570477.0725107,210105000.0,818425039.820652,-46109000.0,210494169.188511,111142000.0,323787853.2165483,65033000.0,429401344.9374212,53448000.0,32142339.637759976,184993000.0,247714034.54301447,-231102000.0,66032846.15113607
1324,186,2,11156646.0,1711987092.9229846,14063458.0,1181350632.220797,-2906812.0,376269687.0910518,-483256.0,130610991.98801273,692752.0,150638326.58606714,209496.0,247240720.37520838,-2378023.0,12690914.175001025,1407493.0,211297245.76180643,-1890749.0,66032846.15113607
809,491,2,746651000.0,2190817703.359178,563281000.0,1369636653.6869922,350347808.70326334,691689566.3880087,20268000.0,189932668.34556136,132273000.0,326543813.8487006,152541000.0,430239018.2011292,1482000.0,27270748.838024214,18377000.0,224227438.90395567,1891000.0,63481390.367345564
492,346,2,203605000.0,2032178142.6377087,164863000.0,1401016275.8749917,38742000.0,541036135.3958188,38308000.0,191159643.5939013,13284000.0,244528451.3646143,51592000.0,354787852.9626746,8585000.0,28688127.499317363,22801000.0,232342131.78186256,15507000.0,66032846.15113607
383,831,2,35610551.0,1710863274.3835816,44852933.0,1178885749.4368744,-9242382.0,420093409.0487038,3037874.0,146426540.84292537,5691278.0,168538252.50120336,8729152.0,272626644.38766944,-7028283.0,13984848.173887998,15757435.0,209500058.54952383,-12719561.0,66685543.11372143
1250,12,2,4596600000.0,5616851165.958916,2319347415.031524,2673158937.0604396,3466600000.0,2325530776.658601,2555100000.0,633605509.0671463,3033000000.0,1017364536.0248392,5588100000.0,1803541275.9334064,1174900000.0,363886134.3712573,1380200000.0,360146195.5592883,1174900000.0,66685543.11372143
229,649,4,3802385000.0,4408373452.815619,2636965000.0,2152637011.3003373,1165420000.0,1305457152.136446,157645000.0,267119017.2483828,488142000.0,485054711.9309472,645787000.0,717997597.0279256,66824000.0,65748704.258850574,83253000.0,264498698.1550175,74392000.0,46976152.754098594
1531,264,4,12852000.0,1449548791.9907203,5815000.0,1204837683.4208055,7037000.0,477285361.06924653,1838000.0,131375763.47941503,1427000.0,180477102.90125024,400000.0,224011920.31847596,-1116000.0,24244672.82712502,2954000.0,178405167.89039418,-1116000.0,35003813.11603394
1035,1424,4,11747000000.0,7143763178.193962,7158000000.0,4657648059.815512,4503000000.0,3406937936.9854426,770000000.0,451410023.2068181,1424000000.0,875496879.8319254,2194000000.0,1781640128.812365,154000000.0,49414920.180359714,2040000000.0,404099995.60560226,-1270000000.0,40671556.531869575
1774,1335,3,7236206.0,1625276971.2553163,4913744.0,1463347078.6456702,2190428.0,414228360.09494746,634746.0,140153209.2399391,2326079.0,151934249.78349984,2960825.0,212439692.79861927,-234151.0,30568371.465171203,886442.0,136163895.33598977,-251696.0,65380689.74254367
868,1093,0,6411000000.0,4877676539.598412,3370100000.0,3035080892.039259,3176144611.7201624,1937396812.5606697,371800000.0,340283251.53469974,637000000.0,556924156.0448534,1008800000.0,973313529.7165563,180100000.0,71547982.69168796,166200000.0,240396088.58834678,205600000.0,73484455.18574017
1391,1232,1,345836000.0,1922707596.8397017,48837000.0,1849705947.4330645,296999000.0,626971791.7085509,3870000.0,227754486.92700964,113328000.0,208624213.93383527,116752000.0,333958694.4397522,297000.0,52673440.36295725,3573000.0,239486590.58409816,297000.0,64152054.62012125
1734,577,1,20108000.0,1614833305.8142605,9068000.0,1288365532.7876194,11040000.0,406301381.0209844,3847000.0,186733860.18265185,661000.0,128957750.64512014,4508000.0,245454093.05714393,-4126000.0,37098240.246940896,7973000.0,196014576.01204878,-4126000.0,47423906.02804828
1416,1268,0,1564856000.0,3885000157.2848997,1122858000.0,1992925972.5710328,416354000.0,1886062012.934781,276207000.0,261660144.99730846,-11227000.0,221028972.50714064,264980000.0,476445909.29675555,5657000.0,50034103.121965446,270550000.0,262195215.62708843,5657000.0,70462582.55969685
352,288,0,1125373000.0,3932218004.3753777,521681703.6382896,1879002339.779775,29987000.0,1886062012.934781,142411000.0,274769498.2143253,-42080000.0,200551591.93218374,100331000.0,459093652.75036156,17283000.0,53271848.3367558,125128000.0,257654528.1006832,17283000.0,72575005.52881621
135,561,2,630871000.0,2286185354.9870157,398464000.0,1367809899.8112223,232407000.0,688034980.5610099,80823000.0,245203015.43413305,413091000.0,318113156.3434518,493914000.0,432251508.98504865,-14453000.0,33168809.09735573,95276000.0,222389895.714246,-14453000.0,66685543.11372143
1338,659,4,123668000.0,1734842668.2531748,40963000.0,1527230310.8972797,50285000.0,566466047.4181468,29188000.0,153503275.7785564,11108000.0,215233525.27821302,40296000.0,299489057.4190551,-25553000.0,33135212.699153356,35508000.0,228289221.78152132,-6320000.0,39523659.17790306
1076,444,4,34865437.0,1506947210.2097917,19085704.0,1164738030.6556993,15779733.0,486321990.33985555,0.0,146894336.75975364,1198.0,165533311.3030122,1198.0,222312393.60104835,-6520186.0,25076016.346794464,6520186.0,196432130.59968,-6520186.0,27768286.939878643
1426,1104,4,1275550000.0,2023594728.5136766,1504271000.0,1642049989.144059,-228721000.0,721672716.62957,-35238000.0,176074913.5952176,59168000.0,271944466.97326154,23930000.0,386976232.5919839,6621000.0,41996743.3303592,102745000.0,242099514.81455266,-137983000.0,33421340.550392292
2023,1321,2,151712000.0,1861635404.4502087,195428000.0,1182772951.2977667,28605000.0,522309439.62478304,11588000.0,190324910.7502852,43977000.0,212999170.35787427,55565000.0,330752642.67189205,-8864000.0,20324911.87096484,20452000.0,230750350.93897763,-8864000.0,63481390.367345564
1219,102,1,1812825000.0,3017043604.8453474,1134969000.0,2152063604.574154,677856000.0,984289531.365658,53184000.0,248590139.97026408,120142000.0,282759123.12500215,173326000.0,452752563.56932235,31929000.0,59817099.88784195,16945000.0,263296997.76111066,36239000.0,59542670.823189095
201,633,0,-1450776000.0,4084334247.84076,-894261000.0,1906080595.9920433,-556515000.0,1944633243.8464124,162740000.0,314493120.2389181,213058000.0,341480067.4467318,375798000.0,632680041.5502913,-31210000.0,49795665.43016777,193950000.0,275289059.80911005,-31210000.0,73594812.82803677
580,782,1,526507000.0,2306789497.3687816,370554000.0,1864900415.9447732,155953000.0,804394672.8843465,66328000.0,265125837.54254162,107226000.0,290601247.2254911,173554000.0,386625908.7264011,-7923000.0,55634754.933299296,69543000.0,249501837.19221002,-3215000.0,72077207.3891155
268,1214,4,3089123000.0,3148851079.821024,1300561000.0,2280128130.8973017,1788562000.0,1429016247.4542959,286131000.0,306377395.2452191,850247000.0,416487102.45266443,1136378000.0,691639354.0825036,205227000.0,55498853.366131544,1010678000.0,316224138.88749826,-724547000.0,40865115.85989017
484,1597,4,2026392000.0,2841822814.566437,773709000.0,1797393395.4074824,1259138837.126244,922525281.6946009,36270000.0,226838047.51849887,906000.0,310605688.5616472,37176000.0,475540603.0309108,-286393000.0,27810183.256750204,341823000.0,242686167.9574682,-305553000.0,42820706.07310715
1169,141,2,59798486.0,1657834718.2555575,24561228.0,1151592207.857162,24680354.49630476,434254857.4896035,-143441.0,127500276.91602075,231837.0,172580730.65629977,88396.0,257546322.34557414,-6239976.0,11686231.15693435,6096535.0,201617543.06569225,-6239976.0,64864721.7069978
595,745,3,269960000.0,2083284097.8672333,370356000.0,1802854012.5482159,-100396000.0,569651420.8402137,29296000.0,180418671.77587694,911000.0,211310349.4179235,30207000.0,264018020.23428452,-31260000.0,36228722.00186722,67269000.0,161679705.23283124,-37973000.0,73123940.10023907
1664,134,4,1411497000.0,2595377645.190943,713457000.0,1738741812.6152527,667698000.0,848391802.1045967,123110000.0,185010238.50981113,21917000.0,281636014.0127392,145027000.0,394582211.71157396,16171000.0,43694840.167626806,124278000.0,251187392.90718,-1168000.0,44063194.2024408
1737,1476,2,1068388000.0,2240747561.024413,793168000.0,1326502869.930322,275220000.0,763334433.8800888,1125000.0,190116991.0782425,126961000.0,313057542.21792006,114574000.0,431521416.41310894,-123332000.0,25566462.481815696,124457000.0,220494342.90119287,-123332000.0,66685543.11372143
1105,754,4,736494000.0,1838084132.3654552,390655000.0,1499754737.2423282,345839000.0,697625646.1197758,107458000.0,148332020.86717552,77264000.0,236877734.0831287,184722000.0,327835568.82710373,-21496000.0,30880189.71565175,128954000.0,213022133.0860683,-21496000.0,41996158.57768794
366,1105,3,1026034000.0,2671025358.973884,544592518.5648394,1817150796.0406213,829659000.0,1097720183.1057217,179923000.0,266414472.6486731,-1664000.0,271427256.76409155,178259000.0,424386628.9928889,43073000.0,64326569.694912046,136850000.0,190690292.70013672,43073000.0,79508023.87870198
847,1594,2,2995900000.0,2899243198.4299517,1720300000.0,1911489531.2018878,1275600000.0,980992463.7088301,234800000.0,238237464.90548447,244100000.0,377905279.74008477,478900000.0,595209861.3359036,25200000.0,46852644.30519698,209600000.0,260543542.87586576,25200000.0,64864721.7069978
1604,937,1,700529000.0,2037007084.5273767,363632000.0,1720487875.3837328,335762000.0,620007169.5242822,46249000.0,248522939.37082538,72678000.0,229993748.66885477,118927000.0,393896117.3169329,-13197000.0,49929919.66275932,59446000.0,237186427.10956264,-13197000.0,59385853.759327404
579,168,0,5913288000.0,4741260324.1421385,5639252000.0,3145346168.252097,274036000.0,1944633243.8464124,470311000.0,373963375.8916192,1040995000.0,891769619.2886753,1511306000.0,1643356691.9559088,65962000.0,77136493.38611637,404349000.0,245128846.25168404,65962000.0,71243756.74618718
874,482,1,232365000.0,2309938731.2303348,164743000.0,1835424651.355737,67622000.0,754844882.4016814,43176000.0,263485711.18421173,202053000.0,242590891.0362252,245229000.0,364728414.1484556,9035000.0,57075423.275390744,31930000.0,229499739.04082948,11246000.0,56216863.78564713
193,38,0,24556000.0,3353054651.3574276,5997000.0,1074035189.5846176,18559000.0,1869906116.298963,-561000.0,129226630.86325258,1648000.0,137908605.79314077,1087000.0,229499345.98715568,-8770000.0,42528764.01413746,3225000.0,210785779.16328496,-3786000.0,68068775.35555232
680,820,3,7852974.0,1688893640.4757938,8726749.0,1523842637.4215288,-873775.0,450258630.1179242,1562860.0,140180066.02270353,0.0,153981113.04731494,1562860.0,205776648.52342713,-1603437.0,33679851.23428423,3166297.0,137904477.84402213,-1603437.0,72391478.01230733
702,1325,3,52606000.0,1830653808.3641915,31088000.0,1714093021.0331795,21518000.0,518034589.9975945,2202000.0,151917341.91893113,21569000.0,164331554.45612216,23771000.0,241987223.72658193,-1737000.0,40039994.489594735,2889000.0,148309716.49806812,-687000.0,77399177.43219513
499,967,1,641605000.0,2173662473.106103,98505000.0,1907301303.7442205,543100000.0,715782905.8374622,35752000.0,263657151.0015379,3063000.0,231050809.47873718,38815000.0,380231994.6139859,-5995000.0,52925346.983088374,24767000.0,241780717.22653633,10985000.0,64155212.42342008
277,961,2,428119000.0,2122985365.997303,200385000.0,1354208474.785781,227734000.0,695527429.9609777,32734000.0,173687801.89722902,3693000.0,273217937.70755816,36427000.0,363165311.0774331,-31432000.0,18984600.85260193,67859000.0,222472808.11126027,-35125000.0,66032846.15113607
1540,700,3,1748597000.0,2854260106.191656,773677579.6790999,1779553563.6515787,871968000.0,1126079988.5376236,88936000.0,253376406.2639023,314131000.0,298428193.43977267,403067000.0,474098887.8551514,36520000.0,58431244.29204532,38806000.0,171414905.80196038,50130000.0,77274589.48531957
40,1512,1,-12646800000.0,3658248393.4578714,-10176700000.0,1775665761.4506943,-2456100000.0,1339163747.0062687,244400000.0,297979198.75995004,496400000.0,540260989.2980239,740800000.0,1000034732.2871912,16300000.0,255030170.01545757,228100000.0,279030284.2018362,16300000.0,64699716.91292505
109,958,0,1646711000.0,4044324976.779379,1388441000.0,2138223224.9182732,258270000.0,1944633243.8464124,48094000.0,235711863.72925782,144654000.0,290833485.6104007,147710000.0,541743832.7815195,-42502000.0,50459746.874293156,79586000.0,239995885.27784032,-31492000.0,71409226.89238672
111,1108,0,632540000.0,3829607980.5527515,270366000.0,1863724080.687744,362174000.0,1886062012.934781,197077000.0,264373703.17098865,14622000.0,229031614.6302719,211699000.0,413841603.63858914,-57776000.0,53250428.070593335,97890000.0,252033446.58668417,99187000.0,72693497.63243645
662,285,3,156269000.0,2103029919.74579,70363000.0,1821510180.8929336,85906000.0,657710474.3313437,19503000.0,175358971.9662549,30881000.0,179793086.36675763,50384000.0,266688809.20834446,3657000.0,51253949.49528375,15846000.0,145996489.9963461,3657000.0,80762811.29831034
1749,1091,2,12875300000.0,6910216620.593021,6095371591.431398,4129096968.468375,1810000000.0,2824191048.2944584,1227700000.0,619198167.2708056,4400600000.0,2487488129.0281343,5628300000.0,3835826407.0029254,478400000.0,270139531.9229896,749300000.0,365957711.1609854,478400000.0,66685543.11372143
340,1347,1,441781000.0,2096887278.0488982,86587000.0,1562228532.2234108,355194000.0,666998848.9354508,97393000.0,251726652.8185665,44971000.0,248123039.65895218,142364000.0,344984076.4158932,9954000.0,53077545.55968225,87439000.0,220715896.38197157,9954000.0,55376213.96260457
811,109,4,1903960000.0,2980981981.0925255,1118147333.3250542,1885513485.7927506,464992000.0,845215513.2189171,314173000.0,242341913.9164738,381360000.0,378877393.7543356,695533000.0,656766054.7299024,49703000.0,55089440.51314684,262823000.0,249883392.47999763,51350000.0,39707924.5391926
1016,567,1,413017000.0,1919920552.9772997,156380700.0672279,1430925570.1616013,290614000.0,563502416.3818475,164000.0,209747140.84503394,0.0,155150339.38284278,164000.0,290351103.2347615,-47612000.0,34277600.14243886,47776000.0,220101409.01575318,-47612000.0,53536189.22794246
1696,268,0,6459000000.0,5441471191.137526,3814000000.0,3069040501.2172456,2645000000.0,1944633243.8464124,417000000.0,367397413.9510723,1137000000.0,867996094.3929952,1554000000.0,1471676434.0295532,109000000.0,84169100.42313373,308000000.0,245071305.6793893,109000000.0,75497457.86537984
200,763,0,6683800000.0,5416679826.20953,2530688381.1304083,2601630217.265077,4153111618.869592,1944633243.8464124,363300000.0,350929938.2904732,268000000.0,485908328.967013,631300000.0,847585284.147676,83300000.0,84922505.42929348,257700000.0,242040661.25691953,105600000.0,74260067.32415296
1994,1188,0,165094000.0,3446867754.348018,70482000.0,1476225670.1327093,94612000.0,1869906116.298963,17629000.0,180039562.11476052,13074000.0,186951864.28160417,30703000.0,277165054.3868828,1152000.0,50971499.19275457,16477000.0,238770519.5828371,1152000.0,70724318.73887494
735,352,1,8604673.0,1652084288.4479656,2338502.0,1255188011.1180959,6266171.0,468095852.05367875,1119391.0,197483827.28951067,1576117.0,146160761.0413245,2695508.0,248931910.6048454,23726.0,44172031.06795331,1095665.0,194478205.21655563,23726.0,40603004.20929086
1160,1540,4,30395557000.0,14648131291.643667,16133181687.752192,4901480750.807621,6297705000.0,4261239331.740534,3044686000.0,1955380056.7235136,6751495000.0,3641858141.699913,9796181000.0,5301839617.042946,692314000.0,260217603.35878888,2352372000.0,519232626.9303957,692314000.0,97493084.3293582
2018,841,2,764077821.0,2120152656.032011,149164973.0,1338271159.541835,540969385.0,633032459.6004517,20737462.0,200080920.8366159,3810639.0,264622240.8867411,24548101.0,349474075.83500373,-1942729.0,21260185.994111985,26490830.0,233658472.96816075,-5753368.0,66032846.15113607
597,1362,1,19932000000.0,12420014137.216156,15924000000.0,6050863024.792053,3938000000.0,3035244359.629732,677000000.0,713093213.2354307,2894000000.0,1909749298.5784974,3571000000.0,3195283444.0689554,325000000.0,104179070.11218698,132000000.0,292178313.04078805,545000000.0,67076167.34301692
1089,365,3,114455000.0,1930243334.0953336,66800000.0,1605132864.9789674,47655000.0,539586125.8158251,-324000.0,167107441.63922757,692000.0,166169991.6844263,368000.0,222228665.23678756,-4444000.0,39843644.14646571,6127000.0,143198121.14809623,-6451000.0,72179974.17493676
1635,1058,0,123009000000.0,22843206209.830914,61047097858.95223,23598199953.547867,24132000000.0,1937396812.5606697,3661000000.0,1233399354.1253052,846000000.0,1230843885.8158689,4507000000.0,2496075595.666059,401000000.0,91334799.04359905,5487000000.0,1061600646.8345953,-1826000000.0,77423729.97867467
394,898,0,1472222000.0,3916489722.000639,444895000.0,1843123616.8374739,1027327000.0,1886062012.934781,423804000.0,276520374.8790452,0.0,225037727.22340918,423804000.0,469439916.4624759,44683000.0,51839014.96283931,379121000.0,250423384.62286976,44683000.0,70925238.76820464
176,1342,1,1707972000.0,2160188851.707194,826699000.0,1833035233.9908257,881273000.0,728445818.5086706,161237000.0,271140797.6418625,18721000.0,288331448.92645824,179958000.0,450079937.37583864,-38330000.0,52997415.78392374,218288000.0,244778007.8031156,-57051000.0,61392231.195570074
958,1209,4,140348000.0,1791178292.5794163,22627000.0,1340000250.2041104,117721000.0,609126928.373631,18849000.0,151117344.26208946,19797000.0,198678845.97856253,38646000.0,269270608.5433371,5179000.0,35133225.79539898,24028000.0,212126325.0715257,-5179000.0,38289140.79537405
651,1103,0,68862000000.0,25232586768.963017,37281000000.0,18155693151.55355,30258000000.0,1944633243.8464124,682000000.0,999365366.8642555,1405000000.0,958856194.3352411,2087000000.0,2175778620.6393805,938000000.0,371987112.6318389,2969000000.0,622474026.6813383,-2287000000.0,75528527.07806325
648,1099,4,484306000.0,2141192323.3932328,160149000.0,1642948826.6603007,324110000.0,734721689.0335767,35935000.0,162123535.19245166,49919000.0,268922857.8396715,85854000.0,363770596.88208175,8224000.0,42636661.31437412,26558000.0,216200355.6194594,9377000.0,47218318.053722456
1124,928,0,263629355.0,3420261811.243566,139827658.8984726,1367344809.0531993,106790041.0,1869906116.298963,4718481.0,163694596.8001125,-3354938.0,168820728.3113414,1363543.0,235768530.73228943,2345966.0,46965903.231289625,2372515.0,235825296.58106416,2345966.0,73190570.49732518
1983,736,2,22654400000.0,14391645317.457487,10023579681.929111,6943270009.426202,12050300000.0,6386750681.2880335,409600000.0,566906239.1070592,3138700000.0,1380011301.480345,3548300000.0,2850683235.842232,145800000.0,305601399.00907695,119900000.0,405139603.9990516,289700000.0,66685543.11372143
1330,241,2,55695000.0,1953610301.1783304,80300000.0,1254308241.839221,-24605000.0,478670440.35151315,-33328000.0,155568303.80886114,45694000.0,218555424.63996083,12366000.0,322829319.3783057,-48025000.0,17438739.43764031,14697000.0,215763542.19237936,-48025000.0,66032846.15113607
445,395,3,33248145.0,2019032300.6616054,21743057.0,1699267145.950401,11505088.0,503217317.96552336,1461398.0,171608407.81209555,569502.0,162606222.89325726,2030900.0,236752963.63549888,-12979193.0,37991889.67245857,15010093.0,137783379.3747656,-13548695.0,79929715.0076975
908,1449,4,19900000000.0,10600743818.481441,10348000000.0,5339212024.949243,9552000000.0,4262348864.5934634,2649000000.0,1117204360.3648345,0.0,552136300.986121,2649000000.0,1940369766.9916432,467000000.0,195397539.2379508,2182000000.0,442726369.625897,467000000.0,40619373.00148193
1585,674,4,2485319000.0,3008930955.2269607,1254039550.5762374,1795723676.809483,1849463000.0,1130580846.0226216,775144000.0,296947767.7483206,0.0,338257640.0324939,775144000.0,636701731.3494697,128435000.0,58399127.96942374,646709000.0,251656321.51172614,128435000.0,45341062.00612576
643,1569,0,959084000.0,3976425153.3833313,491986000.0,2089279054.1379,395838334.6316486,1869906116.298963,56609000.0,208952693.58287415,47928000.0,280138869.23609674,104537000.0,409375006.0671754,-22287000.0,45472895.58473433,141301000.0,235043980.47566688,-84692000.0,74222750.87345017
1240,1570,4,1657157000.0,4231172543.927922,2335507000.0,2683067446.794829,-678350000.0,1346035787.14716,-96698000.0,315125330.39178884,98929000.0,446259686.89094305,2231000.0,639704019.2881641,-125632000.0,49292058.71963943,312618000.0,290310967.78304565,-409316000.0,40650256.27731994
64,427,1,1590600000.0,2664128873.287047,748600000.0,2044092184.561486,842000000.0,939133588.6927518,59700000.0,268407709.12663013,141700000.0,336704743.54223645,201400000.0,483398177.98964286,13800000.0,62188366.73705807,37700000.0,263405706.5487432,22000000.0,66018591.179281294
1027,658,0,919607000.0,3926363217.3510866,266509000.0,1870696944.4599729,653098000.0,1886062012.934781,68886000.0,229286816.58575016,19532000.0,229507114.11365813,84131000.0,381279038.4783665,-18050000.0,49493980.34269891,86936000.0,235051995.70762485,-18050000.0,72495830.21961705
1034,320,3,121754701.0,1875860553.2174468,28424394.0,1412239627.9223545,93330307.0,526165317.8755896,1406469.0,172750458.27068752,-1378985.0,185149696.98485315,27484.0,281969192.5661701,-14928443.0,19407749.837991744,16334912.0,141828375.59501565,-14928443.0,64952370.84759952
802,514,4,12973000000.0,6293224337.1474,6013807636.489885,2487308628.7459197,6537000000.0,2390123974.2683916,82000000.0,451428167.2189418,545000000.0,662840544.7948126,627000000.0,1459442934.9025083,7000000.0,113869564.36332849,46000000.0,316158716.8043348,36000000.0,35759365.7584029
981,945,3,613608000.0,2300644076.7634993,391072000.0,1657400638.5809777,222536000.0,703878225.5648081,1437000.0,211607882.719343,10955000.0,288873544.42071176,12392000.0,357295900.6617992,-84729000.0,42042606.963390596,40703000.0,152417712.41436753,-39266000.0,73952430.19914554
1046,867,1,102303000.0,1692049260.1604533,104192000.0,1424605524.409951,-1889000.0,497305087.5922557,12811000.0,224155659.1341055,42439000.0,202218791.48765904,55250000.0,315398665.4690033,700000.0,49164970.88384227,12111000.0,204344371.30514482,700000.0,52409303.09993855
581,454,4,1023085000.0,2429519834.166165,937155000.0,1924613605.979068,85930000.0,782329301.4498912,87759000.0,210597646.3372891,257840000.0,338041797.482608,345599000.0,579676219.9758426,-36941000.0,38520861.65409792,111965000.0,250461975.35566974,-24206000.0,38334340.94979438
1033,472,1,822101000.0,2287939953.7509513,260505000.0,1860572176.1983333,561596000.0,623545158.8750787,113425000.0,231736951.37136656,-8261000.0,238514410.67958003,105164000.0,344833587.3552427,25956000.0,44295957.59294184,87469000.0,231826579.74766785,25956000.0,57155352.00493641
1908,1238,0,972779000.0,3921294699.2877436,674585000.0,2102096286.8943133,298194000.0,1886062012.934781,81122000.0,225964699.72800505,33069000.0,250391417.51110613,114191000.0,407418551.31105137,-12742000.0,50354945.586109996,93864000.0,237474598.0483411,-12742000.0,70962840.79892823
1486,904,4,505122000.0,1911333011.5333276,329765000.0,1678740666.3009784,175357000.0,649535025.2503955,66862000.0,188930519.41591522,-15726000.0,276838365.65283656,51136000.0,381061058.7493906,-8784000.0,47042936.88414082,75646000.0,220779444.1770585,-8784000.0,37692914.081546284
640,990,3,420505000.0,2033523737.9210563,230508000.0,1556932262.001003,189997000.0,665541194.9016801,53603000.0,189817614.49491712,71511000.0,196972138.31695223,125114000.0,266995308.0374664,16734000.0,42172914.31882081,36869000.0,151625724.1555487,16734000.0,76065162.30239111
1988,706,2,216274000000.0,95923816418.50414,73401000000.0,42991614304.772194,142873000000.0,32245072720.781044,27936000000.0,9802973376.403013,6210000000.0,3758321504.9657536,34146000000.0,20063918521.11853,13748000000.0,2379107558.417272,20398000000.0,5889459309.94438,7538000000.0,66685543.11372143
469,262,1,122531000000.0,24661585553.12933,74517000000.0,20508646711.406498,57494689417.43809,9208285353.774376,11370000000.0,4079053247.2542887,10501000000.0,4781669667.44276,21871000000.0,14665335291.966623,5767000000.0,1521504875.1395059,5604000000.0,1864493566.296997,5766000000.0,63822980.53321639
606,1374,4,5723214000.0,4967921649.3676405,2776207000.0,1692087944.0119727,2947007000.0,1932279443.2604556,448941000.0,399066090.84246165,516900000.0,568950274.4894055,865197000.0,918096329.0264881,78214000.0,61212423.631344885,370727000.0,254077196.44182238,78214000.0,41765454.052300066
1877,1138,0,689227000.0,3551967557.505849,562767000.0,1599910711.7994542,126460000.0,1886062012.934781,40662000.0,208257472.43625933,11086000.0,221111217.47188658,47740000.0,282387321.5209694,-28335000.0,49326574.84647327,68997000.0,233663622.6597054,-28335000.0,72834120.588547
1148,1255,3,600857000.0,2155071957.692819,331349000.0,1713595347.609284,269508000.0,678287343.2052847,50595000.0,212263465.97948265,6532000.0,216966870.96760362,57127000.0,269631848.13285387,-62120000.0,31161619.932089373,83188000.0,158118425.20065618,-32593000.0,72271779.87585956
1653,1150,3,56794000.0,1975677193.7740908,12682000.0,1738455670.6281438,44112000.0,552500352.5729971,25087000.0,171069671.25843093,14791000.0,189262997.23947442,39878000.0,261179589.26985633,-4627000.0,38187557.531706,44505000.0,143416684.6175062,-19418000.0,82496760.4419686
1205,743,0,3747000.0,3225216365.73833,4407000.0,958549993.288753,-660000.0,1869906116.298963,-1515000.0,132580574.32024926,1515000.0,134431398.94352353,0.0,217246404.76844454,-2598000.0,41197483.28122044,1083000.0,192198893.1311757,-2598000.0,69878643.85175236
1612,891,2,3505835000.0,3917523181.9273243,1860807256.214476,2428439995.035616,1470074000.0,1746009660.4263873,601953000.0,409071642.36087865,626097000.0,575107688.6831081,1228050000.0,1062697392.6491281,88554000.0,65552874.247443505,475916000.0,271512681.0821987,126037000.0,66685543.11372143
1894,1039,4,203011000.0,1608626376.4987273,255300000.0,1474207642.1514864,-52289000.0,627086542.1268151,8409000.0,153472188.55165738,25579000.0,221992739.69602704,33988000.0,288107625.2153448,-8212000.0,30291670.444217205,15533000.0,217183796.3722012,-7124000.0,37081729.67755529
458,712,1,3126495000.0,2581168914.403025,2137404000.0,2011590456.5212615,989091000.0,1273785004.0682404,70679000.0,289238871.4243994,930828000.0,517980270.0220927,1001507000.0,625820548.3386872,21039000.0,58945291.094396316,49640000.0,265638183.8752625,21039000.0,59776471.705026805
782,165,3,36175654.0,2009277589.2319899,19187381.496044576,1775776151.9696944,18868678.0,495591968.4857911,22295962.0,157832321.59261948,2274626.0,167892342.86685175,24570588.0,253071724.50927794,-1191082.0,43585616.103406735,23487044.0,144808251.11705714,-1191082.0,79626025.41611812
21,232,1,3642433000.0,3748055864.2278423,1611617055.0351417,2229676290.112825,2307595000.0,1471287788.4352582,392263000.0,386118655.29786694,1442178000.0,981645226.1138176,1834441000.0,1199281236.1520176,185633000.0,78120138.54258464,1648808000.0,419268566.08231795,-1256545000.0,63658103.47265057
323,342,1,102171000.0,1710604023.7823954,80142000.0,1358046057.029035,22029000.0,532167991.434741,11994000.0,231557222.59984583,1280000.0,149947309.28596747,12084000.0,264237776.815786,-8453000.0,42332596.240877405,20447000.0,214104369.09927562,-8453000.0,49124619.19567753
1847,1419,4,11562769000.0,7886818262.434263,8634392000.0,3331495655.8732986,2928377000.0,2778587582.713331,696915000.0,542937467.4750042,4617768000.0,2055122697.3581772,5314683000.0,3085802122.4591904,87484000.0,69603155.50774126,6096071000.0,1735789452.8987057,-5399156000.0,-768227060.5014104
1304,989,4,1061958000.0,2319541143.4538426,603583000.0,1517647359.635441,275904000.0,732284916.432358,75380000.0,159617475.0048678,85007000.0,315132082.968686,160387000.0,354169936.1137128,19279000.0,37843795.17522148,56101000.0,233989533.58975968,19279000.0,44871759.99630096
1031,77,1,1709464000.0,2297118601.090955,792444897.6724385,2036198105.5592198,917019102.3275616,948272955.6409367,-50089000.0,285491957.53125715,206500000.0,264060533.0225042,156411000.0,397912497.8614979,62554000.0,60505686.053783186,32611000.0,272204383.32265466,-82700000.0,60804828.02875738
1109,1048,0,1182200000.0,4111306815.526868,559672263.5892134,2038932119.7502973,993300000.0,1944633243.8464124,77500000.0,271930153.5345212,102700000.0,286092432.0314038,175100000.0,489058885.90759134,21600000.0,56466130.0461961,55900000.0,241432246.53167373,21600000.0,73168212.2914619
1483,1507,1,15318000000.0,10340177280.173986,8995872209.433592,4388719125.59997,2835000000.0,2035403703.4584942,2220000000.0,1016828833.6765465,7363000000.0,4680335423.681668,9583000000.0,6394386245.5176115,348000000.0,125811956.62802374,1879000000.0,630935819.9296716,341000000.0,69428957.49552181
739,1417,1,2898416000.0,1797324299.6522136,2080781000.0,1521378118.758759,476998000.0,494306392.4207479,19746000.0,214577267.9404011,-19746000.0,185535224.9392147,0.0,294767164.1617906,-16089000.0,38162729.10945986,35835000.0,207662139.24784523,-16089000.0,54309896.14477845
1565,1261,2,37777000.0,1883065699.1478047,8088000.0,1209542476.8841558,29689000.0,543068421.1693695,1942000.0,143382470.0533527,1878000.0,203606040.28131682,3820000.0,287429741.2997296,-3377000.0,14848105.891879633,5319000.0,212093717.53480008,-3377000.0,66032846.15113607
1547,48,0,350115000.0,3691944769.2549925,124447000.0,1694311679.1520236,144501356.0121529,1944633243.8464124,23341000.0,187933582.9655087,74465000.0,258330352.7620715,97806000.0,452714647.22731817,1273000.0,49471400.56197811,21144000.0,223730257.0196022,2197000.0,79773086.4087092
1772,61,2,60756000.0,1844688154.065318,14120000.0,1231265328.0815802,46636000.0,492280370.61663663,39398000.0,160948843.01650912,0.0,202384237.62610066,39398000.0,316186536.84325266,1277000.0,18332260.552591845,38121000.0,207045887.84916675,1277000.0,66032846.15113607
396,1484,4,2329417000.0,3229352966.3629293,1103945000.0,1844533915.230177,1225472000.0,903839629.4790738,201803000.0,212500687.8132868,84310000.0,338902992.94703174,286113000.0,546873252.6881852,4458000.0,53296444.67750567,134794000.0,242257687.30362776,67009000.0,41891140.74032973
370,1128,0,322707000.0,3539231664.6077647,203952000.0,1821431715.4285247,133189378.04611006,1869906116.298963,59563000.0,207319108.60979947,32549000.0,207802378.77603322,92112000.0,352292680.3223672,2829000.0,52404865.51966222,56734000.0,228877655.40434432,2829000.0,72801302.20631297
1387,362,1,16986396.0,1529635763.543579,28398941.0,1027837743.7135696,7976898.609990532,405856787.6100031,-2992.0,180080030.94900382,2987192.0,137351865.9491992,2984200.0,237529776.75550723,-2823081.0,34432756.81529443,2820089.0,202365608.3677082,-2823081.0,40747525.27187824
1633,1474,4,5507733.0,1355527774.0849595,3754986.0,1134751044.9669678,1752747.0,481560175.846048,77969.0,123394636.4125242,690.0,124755643.9239344,78659.0,206035570.02852082,-1288944.0,15484174.58123213,1288944.0,167239676.5816748,-1210975.0,34660249.76587555
1459,843,0,2951779000.0,4109461113.025463,1733504809.66769,2174386325.215092,-705417000.0,1944633243.8464124,103159000.0,244636584.74011934,95357000.0,285717610.74693036,198516000.0,467815473.1259246,63542000.0,61347808.46470346,39617000.0,254914212.60698956,63542000.0,73187974.13296649
447,15,2,1389340000.0,2380338698.873033,870172000.0,1609839666.7121823,518687000.0,890167147.0263286,122910000.0,238966395.7529804,509918000.0,367593471.57765925,632828000.0,485035059.6971077,77637000.0,39787549.79680755,35836000.0,236637261.9070648,87074000.0,66032846.15113607
1342,527,1,670100000.0,1945176616.4028363,96919000.0,1448681507.7299993,573181000.0,586632366.1386038,45369000.0,237928570.61344722,10723000.0,184766662.65929973,56092000.0,354331787.7209461,-44376000.0,40343011.61875068,100468000.0,210163804.93424246,-55099000.0,47977979.88111684
1101,1050,3,796235000.0,1898393290.3448267,203741000.0,1579827716.206122,463390000.0,549770543.3745122,475000.0,174067827.3922293,0.0,180048912.59611642,475000.0,235675110.82606792,-25797000.0,40029470.869415216,26272000.0,141866936.9599651,-25797000.0,75457599.67472559
1559,148,0,243654000.0,3475366986.0505157,108112000.0,1356259852.9507961,135542000.0,1886062012.934781,37230000.0,150786655.1614737,3845000.0,176621617.99908614,4798000.0,262526967.2394601,-21869000.0,37300658.74456936,59099000.0,208920578.49798802,-21869000.0,74944524.24288613
1859,83,0,63057347.0,3446461132.3567696,37031977.76980746,1226795299.9089193,50373559.0,1869906116.298963,5114390.0,151738540.30159765,9540399.0,160119887.30024207,14654789.0,250705134.09095633,3126608.0,49100813.36357013,1987782.0,223942256.7444015,3126608.0,73458747.42561156
625,862,1,2120798000.0,2123253050.685154,1472395000.0,1611581655.0773633,648403000.0,771752769.9465008,67913000.0,255270212.88123646,30767000.0,288893686.1510941,98680000.0,539167667.5556991,-9629000.0,42172568.93227358,77542000.0,229759714.49945685,-9629000.0,57316715.742506795
1728,309,4,706517000.0,1973688557.5796375,905805000.0,1688617040.9516854,-199288000.0,752145084.1163743,73709000.0,181072188.66751716,16853000.0,286813860.3957665,90562000.0,407144762.53823113,38915000.0,46658633.7834354,34794000.0,246792783.99281633,38915000.0,42264379.24832173
1404,810,3,76126346.0,1790880500.844222,61120101.0,1694197081.7068236,15006245.0,436091561.5098331,2282652.0,147889371.99183524,31006950.0,165978515.85010785,33289602.0,244445134.41612363,-2890968.0,35872539.0663705,5173620.0,146670184.66384977,-2890968.0,70894738.65824291
1515,939,4,156303000.0,1960420313.0826635,83901000.0,1429096381.2980309,72402000.0,643872368.1162953,17689000.0,152745474.361099,41469000.0,239936536.08286107,59158000.0,279666479.7691847,-2517000.0,30963477.092202857,20206000.0,213550349.09471086,-2517000.0,33934050.513286024
1800,66,2,3271200000.0,3829756282.4523787,1447362713.447565,2399053985.865878,-21400000.0,1188073988.3281806,31300000.0,288001133.5913061,847700000.0,547449110.4339787,879000000.0,859745589.0798249,-16400000.0,52210250.50662429,66600000.0,278404752.60568243,-35300000.0,66032846.15113607
4,694,4,7361000.0,1426519722.82192,2671000.0,1188008727.5157435,4573903.262590003,429722654.5509094,349000.0,130762748.77737513,109000.0,157505404.349913,458000.0,212870801.29764903,-670000.0,17827849.292109683,1019000.0,176820787.8029039,-670000.0,35516504.32652868
1400,327,1,-4860602000.0,3204535635.6280956,-990657000.0,2172136676.8895836,-3869945000.0,1139578515.6953278,193881000.0,296931055.01723,378009000.0,504928866.54829955,571890000.0,616563397.8836185,36078000.0,82712894.01246007,124685000.0,274467031.3348241,69196000.0,54861091.151732124
617,1153,0,5475000000.0,4878627200.481946,4861300000.0,3134951572.406471,613700000.0,1944633243.8464124,130600000.0,310503958.3235753,1421300000.0,796255973.5434005,1551900000.0,1312986654.4614604,23900000.0,73663807.2074916,81800000.0,249428031.17412913,48800000.0,71861381.0966897
570,813,0,9643000.0,3312615261.205674,6164000.0,1157363071.1993623,3479000.0,1886062012.934781,1843000.0,148721978.48063397,2246000.0,141635735.893968,4089000.0,220989598.75376058,-437000.0,47638761.85416352,2240000.0,215953483.77195036,-397000.0,71449759.03832419
2015,17,2,12012800000.0,5419224499.023985,6608200000.0,2624028219.871671,4911800000.0,2225745800.7615156,457000000.0,394656979.1946027,316800000.0,417805941.31382096,773800000.0,878517707.5744867,145800000.0,78316198.05025394,203500000.0,246268882.47776395,253500000.0,66685543.11372143
576,1047,1,6644800000.0,4057682479.628252,3248100000.0,2576752211.6399145,2786600000.0,1682790145.7549572,345800000.0,302106225.66220105,33000000.0,399991378.5730412,378800000.0,843128480.2721908,36000000.0,58199653.552211,342800000.0,285055861.70585567,3000000.0,57330829.58798879
1397,68,0,136174000.0,3464186630.8384595,62163000.0,1331282083.8244233,72304000.0,1886062012.934781,10072000.0,152548429.75775242,-3712000.0,151018934.7718011,6360000.0,268157266.00278234,-12604000.0,41674604.890945464,22676000.0,222465898.67490053,-12604000.0,71829117.43853182
1134,1221,2,160043000.0,1833935253.242394,101422000.0,1163449475.9807034,58621000.0,564781385.6270044,15202000.0,156868353.69021612,-14386000.0,191163900.3068177,816000.0,304579406.46153367,-14398000.0,13345154.738798529,29600000.0,231603973.55860797,-14398000.0,66032846.15113607
188,196,2,9282000.0,1710863274.3835816,3493000.0,1142305418.2280197,5789000.0,411243769.56905293,355000.0,122630529.80100363,552000.0,169488162.60995013,907000.0,271362931.8020272,-972000.0,14334321.561943412,1327000.0,206019042.2680006,-972000.0,66032846.15113607
488,145,3,16124000000.0,6579185642.171598,13383000000.0,3970350449.985792,2741000000.0,3052934058.6475124,5251000000.0,918233850.7355597,4961000000.0,1610627393.6648772,9233000000.0,3190312108.9765368,1583000000.0,175491755.95102912,3668000000.0,821894702.3175831,1583000000.0,75674003.99658808
1211,498,0,1601068000.0,4031559510.7765083,1081707000.0,1975306329.258632,519361000.0,1886062012.934781,248876000.0,285353520.7051922,-34521000.0,230252931.72410166,214355000.0,420844069.1820203,19006000.0,55417200.992436945,229870000.0,258414257.0278213,19006000.0,70499196.51050673
1580,184,4,779622000.0,2205136675.9907146,153452000.0,1512634470.312944,626170000.0,723964005.8766997,134561000.0,187900156.92368412,57608000.0,318356469.7235627,192169000.0,483820961.21430755,56917000.0,51226169.46859759,77644000.0,244660881.7286369,56917000.0,41556188.44948864
1533,213,0,4162272000.0,4833504991.561848,862254000.0,2503971390.946106,3299439000.0,1944633243.8464124,357871000.0,331691991.07189655,794265000.0,612575295.9823177,1152136000.0,1008203841.3230671,114028000.0,81582449.32880884,194829000.0,259991774.90052503,163042000.0,75197576.0423681
818,583,0,13900400000.0,6649786046.976648,12204100000.0,3270068831.6372504,7319729781.089915,1944633243.8464124,78200000.0,378238513.32036626,235100000.0,619132706.79594,313300000.0,1097917955.8260171,174900000.0,87458235.58211014,116600000.0,290011175.186636,-38400000.0,71212793.4052065
50,537,1,594022000.0,2143245639.8720899,132343000.0,1760845239.2877934,461679000.0,742080605.2576473,121956000.0,250542334.47240663,1645000.0,236863588.13772714,123601000.0,370942279.329546,31177000.0,58531433.49073898,45262000.0,226560905.9524562,76694000.0,55654634.86830789
590,1171,2,1341960000.0,2283220277.892372,666970000.0,1465881555.9318392,674990000.0,822322340.6889673,55930000.0,236094745.5420796,179410000.0,370363244.02843046,235340000.0,495217755.59126717,23760000.0,42474266.29553337,32290000.0,239977255.31821352,23640000.0,66685543.11372143
377,276,2,52901000.0,1868998356.814303,24522965.98920461,1237782355.3387523,33404000.0,548424650.696811,-1183000.0,160212107.7021516,24144000.0,200860580.53922462,22961000.0,279304714.31080234,-5692000.0,16414092.020691752,28653000.0,211398671.8870749,-29836000.0,66032846.15113607
1953,1136,2,877565000.0,2397377908.87026,1336553000.0,1538093703.5287926,-475192000.0,1001650888.3885477,522812000.0,303912334.7443892,-345617000.0,348075539.4479124,177195000.0,690643749.2427373,31868000.0,45039164.94268339,490944000.0,266248165.97823864,31868000.0,66685543.11372143
1018,1253,0,26568400000.0,14834213849.298862,13080400000.0,10364557681.05444,13246000000.0,1944633243.8464124,1346200000.0,785609088.1053933,1952200000.0,1170048771.6429305,3298400000.0,2573338114.638537,592200000.0,113394653.01596402,746800000.0,326497579.0391258,599400000.0,73224169.00859469
709,868,0,2933971000.0,4084901943.3770237,2618511000.0,2372615610.529187,315460000.0,1886062012.934781,65062000.0,246194026.5317589,2191000.0,329154225.5094652,67253000.0,502610683.9786198,-143265000.0,51085410.077665806,69951000.0,247682263.66894752,-4889000.0,71371015.83097911
1121,747,1,27828200000.0,16525257318.13565,13810622382.415062,6606390339.688173,7212400000.0,4992290115.081251,821300000.0,456550817.8071961,181300000.0,692965845.7319381,1002600000.0,1640753317.9389496,233000000.0,97474970.62948748,794400000.0,456014565.01300186,26900000.0,61197360.87344299
1026,1037,1,2788943000.0,3277042415.941224,2662320000.0,2003026215.982261,126623000.0,921141073.1133472,299166000.0,314720187.24336034,0.0,304278517.5916414,299166000.0,547610830.8537003,-281667000.0,50045749.46609726,580833000.0,244491050.16271675,-281667000.0,59951291.362310134
1015,242,1,2489159000.0,3420516084.959894,1954765000.0,1932297054.7446458,488897000.0,1097554835.9292855,294443000.0,267923434.85002652,370069000.0,480444941.9672115,636496000.0,773454968.3953424,64600000.0,64972742.72683439,229652000.0,265102718.191873,64791000.0,71475443.2267071
1575,208,0,11961066.0,3328938103.2984657,1068497.0,987126880.6097903,10892569.0,1869906116.298963,611174.0,126617034.94294697,0.0,121511783.90519392,611174.0,201092914.6156248,-1146685.0,36132707.874285236,1757859.0,190122289.43535158,-1146685.0,66287372.645233385
826,84,4,93941000000.0,45871522677.0081,39446000000.0,17047018484.271832,53466000000.0,27603955246.276405,4178000000.0,3103231449.9526153,15656000000.0,8995918397.464722,18582000000.0,18098445964.63952,1764000000.0,1953195913.3081644,2414000000.0,1205685510.4605637,1764000000.0,291736703.7704565
463,901,2,32097000000.0,20344356041.214905,20419000000.0,9667421016.36302,10658000000.0,5554170435.799042,2071000000.0,1087364610.5642402,6360000000.0,2986837455.3903675,8431000000.0,4559539167.352131,950000000.0,449941463.2513032,831000000.0,465345810.8529202,1240000000.0,63481390.367345564
1660,1497,1,6578196.0,1618239659.9930863,4441488.0,1284916361.2194028,2465776.0,466591146.61045516,2008368.0,199963558.34432095,923641.0,137923125.70989847,2932009.0,243885310.7788694,-1328968.0,41781745.00051946,3337336.0,207345800.49975917,-1328968.0,45010737.95291516
700,60,3,1658042000.0,2920077274.231914,1223260000.0,1829086799.2637687,434782000.0,1023042252.9407007,207698000.0,241490035.91587245,674127000.0,364284791.8016738,881825000.0,560747423.3586173,25549000.0,51152176.62389714,179614000.0,176901817.035309,28084000.0,79906087.43346909
402,1152,1,9094896.0,1639687996.9255285,13593163.0,1336891373.3440044,-4498267.0,483869429.5152756,-928960.0,185227131.1019066,1115703.0,139794223.10309124,186743.0,249611235.64513826,-5136642.0,32886953.22090943,4207682.0,207025950.0431373,-5136642.0,49179596.75094306
591,406,2,16788482.0,1771060779.8382692,821758.0,1101361644.2527978,15966723.0,424503359.44742405,906228.0,143748099.0182857,333325.0,154563751.76723784,1239553.0,254355660.38834715,-1096396.0,18912236.479942128,2002625.0,205192336.7092784,-1096397.0,66032846.15113607
412,1415,3,1678241000.0,2794537705.3743434,730813000.0,1776661221.28745,947428000.0,871465311.8147589,62311000.0,218983025.17082456,89643000.0,273731729.3379644,127553000.0,393670296.74835896,-24195000.0,44815136.43504306,86506000.0,165265677.51167387,-24195000.0,78221609.73093282
26,113,0,1363308942.0,3524851434.391012,629855415.0,1805595775.815077,733453527.0,1886062012.934781,93681798.0,222244856.99648356,0.0,212327040.62612438,93681798.0,368109738.2966603,39573525.0,56060803.30572448,54108273.0,245794597.09356195,39573525.0,68843409.68377721
205,526,2,15264467000.0,6533882799.144934,7226441209.924589,4031137123.2274494,3059451000.0,2911204975.4138737,592816000.0,424361162.60168034,378076000.0,506922287.4580863,970892000.0,1534331278.2909012,444977000.0,223643093.82861066,147839000.0,297123825.79215693,444977000.0,66685543.11372143
699,1263,0,65987000.0,3444791815.2464237,35279000.0,1312816141.2479115,30708000.0,1869906116.298963,5319000.0,148461740.64640844,28050000.0,166662832.20578265,33369000.0,257399448.95966852,1124000.0,51351336.80444912,4195000.0,221333155.27129132,1124000.0,72803456.35595565
550,304,4,31945000000.0,22246216870.217422,26424000000.0,10549506531.641655,5506000000.0,4914598733.19511,1191000000.0,833003083.6703984,2895000000.0,1974567524.6150117,4086000000.0,3980685576.8474293,834000000.0,226710088.25387475,357000000.0,388640971.7654045,834000000.0,40369796.11736664
140,207,1,2655001000.0,3117205730.840437,1989549000.0,2245370317.4528656,665452000.0,1112724378.2984204,67554000.0,338093183.1594668,403267000.0,396628954.43854743,470821000.0,650766112.6179981,-3426000.0,61631593.11770353,30096000.0,263172155.7715359,37458000.0,62488601.201130584
2004,586,2,9403000.0,1634171697.357789,5511000.0,1140658904.465331,3892000.0,381083027.34716487,-48000.0,119466881.20070785,1387000.0,157525661.92120212,1339000.0,264732294.40643716,-903000.0,11633726.745495573,855000.0,195734080.77906215,-903000.0,66032846.15113607
28,456,2,551232000.0,2103869982.0834656,628224000.0,1273939363.555287,-138322000.0,594532598.0560971,23716000.0,207983802.31797895,12709000.0,223319612.64400816,36425000.0,365251061.67472124,7478000.0,31092638.265086845,48579000.0,243016468.07113034,-24863000.0,66685543.11372143
844,949,4,435750000.0,2138570326.3059483,62826000.0,1521398696.9117887,372924000.0,716367765.3624074,28152000.0,159169019.7051008,49267000.0,245392529.53360713,77419000.0,302823946.3511678,143000.0,38337492.91555106,28009000.0,218166929.38848737,143000.0,44733457.15636415
967,1059,4,367699000.0,1783161109.2198238,382822000.0,1535516835.0006983,-15123000.0,583199923.522907,310000.0,178478984.71818405,0.0,243928588.13593405,310000.0,355139532.49646604,-47413000.0,33419627.478437483,47723000.0,229066009.447415,-47413000.0,38864527.41110491
433,1396,2,3810682000.0,2939154714.3795433,2050315000.0,1941799698.6808708,1303319000.0,773025638.8621213,110314000.0,257751764.11620066,71850000.0,302708637.3998319,148990000.0,511081960.9088482,11661000.0,40284466.815848164,98653000.0,242108686.18720943,11661000.0,66032846.15113607
228,315,3,2333529000.0,3100648439.256899,1032484368.2283514,1837541124.4191713,1202771000.0,1151643188.3633852,71236000.0,253619666.59855792,490990000.0,339724984.89994246,562226000.0,599267394.1871829,19517000.0,60607392.914452024,46091000.0,183652266.85409924,25145000.0,68747357.34801532
1855,735,3,20737275.0,1805571525.368586,10788720.0,1758393268.938353,10368036.0,-398183706.10836864,562564.0,172434568.95892286,77061.0,177653058.6380217,87201.0,219985062.9670763,-4142505.0,38684732.01060861,4705069.0,133006749.48955953,-4142505.0,-20713184.7107753
776,330,3,386844000.0,2208764638.6469603,412960000.0,1819295489.233389,-26116000.0,698163298.0336622,16927000.0,171941174.87128097,91131000.0,208917411.54321492,108058000.0,293257825.85554755,-813000.0,46381855.41981778,13060000.0,151203836.1435635,3867000.0,82485629.23471116
839,1420,3,6911775000.0,4704688444.446821,5109042000.0,2167039530.36363,1802733000.0,1725239229.5662308,225256000.0,391700247.4412326,195092000.0,458004172.6490039,420348000.0,806685964.8112204,132530000.0,77777327.69677219,92726000.0,264924749.0364069,132530000.0,78629062.8025156
793,1146,2,2883631000.0,3795996390.193411,1772390000.0,1921586403.9508445,1110345000.0,1532209102.0372465,319055000.0,311896622.7514275,1257690000.0,1281773642.3655572,1576745000.0,1429542130.3594584,38222000.0,63168727.85248969,280833000.0,278625698.48572516,38222000.0,66032846.15113607
820,846,2,133032000.0,2071379511.3074965,232711000.0,1286773116.0934818,-16246000.0,531311100.94425774,12296000.0,168429018.1869542,62277000.0,256412737.5943973,74573000.0,352095397.7616304,-14749000.0,21505316.428415075,89322000.0,218139167.0225329,-77026000.0,66032846.15113607
2016,513,0,296638000.0,3462421199.718098,208509000.0,1365877224.2548087,88129000.0,1886062012.934781,7319000.0,182428428.3770116,0.0,186930589.4747342,7319000.0,310345215.7344971,-46633000.0,39558850.23793183,53952000.0,225990648.99398446,-46633000.0,69490479.2107402
1438,1294,4,38809000.0,1819500057.8468275,43090000.0,1353956535.631564,-4281000.0,612140492.884895,7318000.0,153919136.24386168,25818000.0,251679877.44993538,33136000.0,256933449.590109,-933000.0,29394610.382957645,8251000.0,198471908.5497467,-933000.0,36290049.30734579
866,229,1,2376172000.0,2628662167.0843735,1870972000.0,1789526965.9540315,486613000.0,847534537.810925,-5214000.0,243422909.45593193,182832000.0,290141209.589041,304976000.0,467480574.6711434,-103708000.0,47786488.775819965,98494000.0,251905080.6601107,-103708000.0,61864922.58463844
689,1207,1,3719784000.0,4016645048.696033,3332984000.0,1998029270.6732337,286813000.0,1325738849.698968,2618169000.0,631685571.136813,-531777000.0,454989678.5737841,2086392000.0,1033588980.3295687,44074000.0,84396972.38639133,2574095000.0,551727308.7294763,44074000.0,62239723.66048921
919,481,2,1537935000.0,2343125427.114924,1281456000.0,1672897323.3290088,256479000.0,911707607.9374887,229699000.0,220823636.11624032,0.0,296576854.0330771,229699000.0,483893679.854987,-26947000.0,25291208.877256498,256646000.0,221575153.67053744,-26947000.0,66032846.15113607
1827,890,3,1182488000.0,2689818501.5385838,303489000.0,1860038535.244115,759221000.0,1035189463.3411136,56265000.0,240505717.98948702,333008000.0,255891805.29018807,251870000.0,417585138.4826497,16750000.0,57180088.8683104,39515000.0,169531421.5229033,16750000.0,73306462.33983685
1182,716,2,8225559.0,1785157347.4907427,12447189.0,1201717810.1131144,-4221630.0,395211725.30162966,17564.0,114194254.45197672,106922.0,129553932.78930628,124486.0,249249124.87203348,-8095209.0,13623972.337066188,8112773.0,200333140.17842644,-8095209.0,66032846.15113607
