epiphany24262/financial-performance-prediction/results/oof/m3d_catboost_direct_history_metadata_engineered.csv
Id,group_id,fold,actual_Q0_TOTAL_ASSETS,pred_Q0_TOTAL_ASSETS,actual_Q0_TOTAL_LIABILITIES,pred_Q0_TOTAL_LIABILITIES,actual_Q0_TOTAL_STOCKHOLDERS_EQUITY,pred_Q0_TOTAL_STOCKHOLDERS_EQUITY,actual_Q0_GROSS_PROFIT,pred_Q0_GROSS_PROFIT,actual_Q0_COST_OF_REVENUES,pred_Q0_COST_OF_REVENUES,actual_Q0_REVENUES,pred_Q0_REVENUES,actual_Q0_OPERATING_INCOME,pred_Q0_OPERATING_INCOME,actual_Q0_OPERATING_EXPENSES,pred_Q0_OPERATING_EXPENSES,actual_Q0_EBITDA,pred_Q0_EBITDA
196,617,1,1192950000.0,1915363690.3146625,1055816000.0,1298535752.0915875,137134000.0,864936468.6932304,25598000.0,137267995.43422675,61899000.0,96122217.64144671,42992000.0,233284219.18084323,15222000.0,43083675.30193597,10383000.0,185372048.22309414,15215000.0,35217415.99785243
1568,1171,2,1219954000.0,2190425418.483891,835046000.0,1664626030.3747635,384908000.0,898973373.5129197,111786000.0,193126962.26979017,217796000.0,330618806.4240116,329582000.0,397728404.0413078,28908000.0,22184044.942490563,85522000.0,189643693.5734745,26264000.0,62455436.36436098
1218,1371,0,-135820000000.0,-10374662668.747917,-37972000000.0,-2890318851.879833,-97848000000.0,-3671072793.7587833,-435000000.0,2249612037.7227,4445000000.0,5162793311.203683,4010000000.0,6931771250.50901,-1472000000.0,337905374.0343957,219000000.0,696726593.0308527,-654000000.0,719150819.4513745
23,1487,3,83298000.0,1011640168.5143657,16040000.0,707908189.4977527,-31633000.0,212270853.20556927,494000.0,78149405.29232079,3339000.0,1716561.0538275242,3833000.0,-12735038.611782074,-12348000.0,-7094204.384972602,12842000.0,66811788.62106758,-12348000.0,59953251.1600669
783,1578,2,148546000.0,1782702464.308168,56555000.0,908559750.0405507,91991000.0,348981609.5303472,1761000.0,115146339.41283822,-2375000.0,58740478.021485925,-614000.0,96218236.67676497,-10098000.0,10631731.226463452,11859000.0,160581468.64426798,-10098000.0,54874014.77317865
1251,366,2,7304300000.0,4529848540.142455,2451900000.0,2598754486.9286747,4830200000.0,2783448944.239502,578200000.0,372149783.6230047,581100000.0,592888710.750048,1159300000.0,1026656260.9085592,245200000.0,141965101.2826472,333000000.0,289836403.32443124,245200000.0,58997125.442400776
1224,512,1,1976905000.0,2584569387.454633,699909000.0,1261055715.546926,1276996000.0,901858051.920512,53993000.0,173006587.21251056,315825000.0,230876595.25059295,369818000.0,333334610.72368014,-1572000.0,42428073.69554043,371390000.0,194925389.38119832,-317397000.0,21749118.26699116
1410,663,0,2097274000.0,2903887399.319093,1132234000.0,1782078855.100217,965931000.0,1065860116.0836135,70481000.0,265232641.06487912,291052000.0,332905632.85652596,361533000.0,392172713.11397207,58709000.0,47945335.71031287,11772000.0,213043302.48188645,58709000.0,59359171.02078368
529,886,2,31183000.0,1346508053.9498882,15926000.0,643542368.0315213,15257000.0,195070329.33609867,2456000.0,76336332.02802408,2151000.0,19766835.272851586,4607000.0,5799915.109829903,-2931000.0,-11697082.698946819,5387000.0,125295039.79709703,-2931000.0,47035220.897099815
730,534,4,978523000.0,2514398848.3864503,851196000.0,1400828216.2400205,-94184000.0,765157627.986906,24321000.0,183909518.2012403,137937000.0,229147815.11505812,162258000.0,351069034.1944921,-764000.0,33749982.95631913,25085000.0,165349296.67280176,-764000.0,59081358.78831789
1590,1012,1,27253000.0,1112895365.2738876,14465193.072010836,587148541.9922848,12787806.927989164,480710699.60827875,-17000.0,61135983.90622008,17493000.0,19955453.534187913,17476000.0,35663893.26342821,1196000.0,16899885.13706641,138000.0,112758447.51177287,-155000.0,16643699.007762216
367,1492,3,798398000.0,1719988246.305663,795372000.0,1199525282.0606368,3026000.0,620866474.8131738,37121000.0,188191256.97149566,256160000.0,203885233.62786978,293281000.0,268416946.616619,10257000.0,28225196.58102709,26864000.0,115752198.76802239,10257000.0,66367161.586440206
636,599,4,1059052000.0,2473269868.9150953,883921000.0,1452630374.1994736,175131000.0,810311101.5394628,91945000.0,178087270.95554486,202788000.0,282724817.15428644,235132000.0,326878285.25161695,-287000.0,39207337.79471059,84957000.0,159208927.12522393,6988000.0,60179432.16579612
1270,1531,4,11069000000.0,7874681673.105781,5919000000.0,3814171899.2439833,5105000000.0,3117530108.9374676,727000000.0,591218485.4131167,1752000000.0,1127685241.3502245,2479000000.0,1984277342.3064258,462000000.0,195673524.0969966,265000000.0,274621501.5926682,462000000.0,59081358.78831789
102,977,1,12331000.0,794891496.2634249,10875000.0,423698201.2048855,1456000.0,214061353.62543845,1472000.0,41759105.99883306,1968000.0,-13130000.397708416,3440000.0,-8409567.208263636,-4166000.0,14888021.937486574,5638000.0,110490257.65448433,-4166000.0,30252855.02044872
1658,615,3,180372000.0,1559170697.4222708,121221000.0,1237869310.4091375,30642000.0,608705372.7488644,18014000.0,133816911.4489302,31653000.0,128379481.04488313,49667000.0,106971346.73705041,-11599000.0,20484728.910058796,29613000.0,68533050.81838009,-11599000.0,58489945.942538336
6,460,3,2319806000.0,4042608129.903731,1534495000.0,1568547600.602123,785311000.0,1449140058.8840241,376397000.0,266338908.5571296,415254000.0,362502802.76048243,791651000.0,682195871.2946433,93430000.0,56404452.33357102,288680000.0,253109342.5566821,87717000.0,61089396.19949492
1147,1021,2,19295025.0,1211586204.8806233,28370931.0,751263796.4337263,-13369686.0,118292816.01832497,2067435.0,126916192.90107894,4847499.0,19061907.422344327,6914934.0,25531650.885347605,-1108124.0,-2784908.6298640817,3175559.0,161498308.1600952,-1108124.0,52371127.135367185
114,283,0,3549408000.0,3137550586.6812544,2109262000.0,1993652684.362514,1440146000.0,1268096644.523909,264579000.0,311770293.4260591,494402000.0,452791194.1413089,758981000.0,705377077.2866731,58594000.0,79946237.07234795,205985000.0,238230495.3844564,58594000.0,51032612.23297763
139,282,1,331401784.0,1379090584.709741,56254670.0,772377469.3989425,275147114.0,539842442.956272,17982150.0,62305666.218479395,0.0,30019043.13536191,17982150.0,66677800.49221361,-40215832.0,11811913.066335186,58197982.0,141571360.93706143,-40215832.0,44971260.339446306
411,1343,0,5533000.0,935193828.7128601,4648000.0,158990043.69156265,885000.0,569481020.3803113,-1669000.0,114463687.74131334,2438000.0,-6828939.524222016,769000.0,-3888937.298578143,-6339000.0,13066682.783510923,4670000.0,101002396.61295834,-6339000.0,14876030.53692779
681,669,4,36550000000.0,28342922836.846478,16943241279.095451,12803886830.32805,15250000000.0,7974663614.119972,577000000.0,684837661.3984029,3467000000.0,2160615499.038409,4044000000.0,3723805220.7221746,714000000.0,190282963.04928288,627000000.0,547566791.6194495,-50000000.0,60099891.41933412
1671,916,2,100449000.0,1285472773.8484826,141057000.0,681427998.0882168,-40608000.0,265781138.48796463,-171000.0,102460531.05886489,512000.0,9566299.46398735,341000.0,66705263.72369099,-48297000.0,-21304552.924159482,24344000.0,140101736.3686486,-24515000.0,52002444.587430954
500,695,3,10599934.0,944120295.9348459,26203416.0,628239612.1185303,-15603482.0,167936639.98427296,-6219.0,114044294.90417153,193120.0,-11172506.513580203,186901.0,995314.645745635,-1076399.0,-1979490.0320966393,1070180.0,63204744.131837964,-1076399.0,66372262.570021585
1203,1352,1,13322000.0,1086191875.2178965,67881000.0,637610109.8950272,8277888.77383834,386675771.2709359,3223000.0,58752212.51061344,1889000.0,37531200.896296024,5112000.0,65079966.48950863,-3552000.0,11416715.727974087,8664000.0,144441246.45522818,-5441000.0,19790258.557906143
180,258,0,635001000.0,1861929302.532495,115305000.0,1219466306.0107908,502273000.0,777405100.6610534,21465000.0,174146918.1511997,40457000.0,139133811.03401083,61922000.0,145848035.75268698,-143360000.0,39769538.67601203,205282000.0,188870099.4512133,-183817000.0,33215466.174511287
1960,1146,2,2672864000.0,2774367686.776187,288913000.0,1587000361.8153067,2383951000.0,1168944881.0537603,132902000.0,236682194.45507717,168499000.0,306598134.90121925,301401000.0,410138325.9092418,55706000.0,53251315.4235716,77196000.0,214044888.43616593,55706000.0,53616134.42764136
356,1603,3,8388335000.0,5817705796.530474,5163154000.0,3707937499.043536,3225181000.0,2161196108.9053574,313343000.0,350241512.8667386,687959000.0,684650348.0349046,1001302000.0,1103696243.9752576,116260000.0,75650650.67241687,85661000.0,246826918.93164808,227682000.0,67073481.82182223
1646,823,0,1563399000.0,1845775798.065557,1445358000.0,1753474325.2919576,-136248000.0,804451668.5407882,72333000.0,191098908.81865224,116682000.0,207713920.86670285,189015000.0,235686813.9185114,23506000.0,47317551.28136695,11423000.0,197222889.34052807,60910000.0,46445242.58736629
1793,854,4,320019000.0,1741988261.0253239,126984000.0,1140943441.6895027,193035000.0,834903726.7764534,177377000.0,151531296.0731087,58492000.0,235411155.84021252,235869000.0,266742762.02440345,25509000.0,35026718.552706115,151868000.0,227066542.6129989,25509000.0,57961392.75791148
235,268,0,0.0,932829223.7274714,0.0,174284897.0351367,-804876.0,489421275.7965617,0.0,60989779.05643964,0.0,1819682.571781516,0.0,30764.678017377853,-14550.0,11659635.279779315,14550.0,72672425.7156887,-14550.0,-3470822.440633327
1668,1096,2,267194000.0,1560784262.7488632,175308000.0,1089008350.9991632,91886000.0,407251393.2493048,5103000.0,112557063.55404204,0.0,4496189.925594449,5103000.0,88793472.97976077,-32762000.0,-8687298.596131742,37865000.0,155352902.88490358,-32762000.0,56265639.57805159
1456,668,0,2249377000.0,3914915965.547716,1923326000.0,1980051880.9890141,326519000.0,1056505343.7909018,-76300000.0,196739096.837389,416103000.0,374722633.296301,339803000.0,519728555.4579231,34941000.0,44531436.87739237,184914000.0,256714447.27027777,-261214000.0,41408551.51925905
1291,1438,2,396890000.0,1636424735.0138297,107071000.0,1038888862.0915446,289819000.0,346873962.5570389,52569000.0,149040125.77194005,13634000.0,69030906.2368803,66203000.0,123982616.90867662,8375000.0,2242569.8879452944,57828000.0,196365053.37171268,-5259000.0,54703668.61585581
1376,1540,0,7827000.0,1002466270.4717112,4744000.0,304316960.1312437,3083000.0,451473200.2155688,1288000.0,120777928.38504517,867000.0,3384389.3750338554,2155000.0,6546726.804221749,-3880000.0,11875303.874918222,5168000.0,108648596.39121422,-3880000.0,15561210.549755707
1702,45,3,11990000.0,1036569991.6160817,3030000.0,633440349.9771266,8960000.0,191229786.2594632,1480000.0,82256595.09897012,3017000.0,17114777.98470843,4497000.0,14069799.623348236,-944000.0,-4536352.831772536,2424000.0,51741023.95219594,-944000.0,62245143.31892844
1591,554,4,7472874.0,630558080.0826092,3243445.0,723307249.103411,4067990.0,132584794.01902413,3065804.0,73503509.24667591,0.0,-37230667.704333186,3065804.0,-9815480.812833548,-21884.0,3938736.8896619827,3087688.0,91514330.33262038,-21884.0,53257805.430399105
647,262,1,2182494000.0,2527055504.1386065,2467501000.0,1727480430.4551778,-484456000.0,865918247.268229,389190000.0,219445133.10369757,141172000.0,226816267.51838762,531030000.0,440021808.4567776,-54175000.0,28527800.232545123,443365000.0,222030606.07862297,-54175000.0,38619587.86588497
100,1452,3,12166000.0,996629030.9768009,2892000.0,573782851.7843475,9274000.0,148451397.70762002,5000.0,77449133.1986602,54000.0,11197080.165620327,59000.0,842234.2333085537,-3433000.0,5798211.2953668535,3433000.0,61850565.0169009,-3428000.0,65358700.72176649
507,1344,4,189783000.0,1060855443.2698207,45792000.0,879374671.3156214,143991000.0,348304861.48159957,2372000.0,103028473.5068484,0.0,77590870.8198201,2372000.0,76970292.3076948,-18270000.0,18612439.612258703,20642000.0,134701271.10291964,-18270000.0,58545103.25084992
547,140,3,1072653000.0,1877713377.465466,455367000.0,914398323.6483328,617286000.0,422754365.1448437,134998000.0,112531309.05793053,27783000.0,105566222.57577801,163452000.0,132280517.02469635,5489000.0,20657210.163358405,129509000.0,105759407.7343683,5489000.0,57444142.9726605
457,31,2,665104000.0,1902398434.599866,575531000.0,1266361901.5968606,89573000.0,552209581.2581977,30803000.0,166240688.10250288,19437000.0,78923040.46253097,50240000.0,140906364.00077057,10357000.0,9839747.935930058,22017000.0,167398801.52632672,8786000.0,57350827.14068824
560,1384,1,1900367000.0,2843255730.90663,289037000.0,876017026.5057197,1613343000.0,915768901.0019159,45433000.0,186714623.80473384,413911000.0,269550300.6967167,459344000.0,465977701.72042143,-6757000.0,64307822.15174183,52246000.0,185937478.07124954,-6813000.0,34182040.94175902
1402,659,4,88944000.0,897664564.1394038,45361000.0,917684931.4769251,43583000.0,316100054.52645826,0.0,81243213.26687956,45000.0,33211597.654456496,45000.0,38099744.50394678,-14351000.0,23225800.599442095,14351000.0,122554439.4471764,-14351000.0,60179432.16579612
1274,1288,0,5390785000.0,4559480348.998041,4083098000.0,2861115287.175061,1050686000.0,1428684908.081315,352054000.0,313602893.7085893,284900000.0,476198635.7410835,636954000.0,875294812.7745224,120850000.0,61922267.42969197,187232000.0,262489900.0081209,164822000.0,43430099.57666616
799,432,1,18535000.0,966563354.6289339,13748000.0,649742134.7583237,4787000.0,385982769.22972345,2839000.0,41911780.632387996,7502000.0,22002571.60800433,10341000.0,69747261.34153533,-2229000.0,22768003.301670745,3071000.0,94824360.35389882,-232000.0,15677948.940686982
1436,1049,4,13281300000.0,7730147366.408228,5777300000.0,3171408497.991306,7484300000.0,3135286650.6530313,1030700000.0,649982905.2162262,1150100000.0,632573042.3090082,2180800000.0,1637696085.244945,687000000.0,285790847.65617,343700000.0,270418148.41328233,687000000.0,59976270.584009886
1518,865,3,108681735.0,1091862597.3847337,9192190.0,822471266.7151954,67531550.37365061,316985162.24741304,2201326.0,89694034.04523796,255772.0,15251080.957481384,2457098.0,-8666190.091274261,-8935951.0,-1983480.7621643096,11137277.0,65507040.80314699,-8935951.0,57842524.78031751
211,165,3,189692000.0,1421497322.5889354,90178000.0,1051382971.9091403,99514000.0,525940551.7187841,-4411000.0,115157891.98427755,24963000.0,109183967.61407185,20552000.0,91357131.43209124,-10000000.0,15073691.897453696,5589000.0,64108420.65849197,-10000000.0,61154767.85730617
1542,1155,3,230878000.0,1390383107.4329066,57278000.0,1036839173.1033151,173600000.0,550963453.0719616,26973000.0,128917956.50585425,7041000.0,95138590.62819862,34014000.0,65441089.9477185,-11169000.0,16740825.933447406,38142000.0,92884788.37386769,-11169000.0,62268530.222493395
1496,989,4,73773000.0,1176060773.5672884,50819000.0,1043684931.3577011,38847689.64492722,474334593.08301246,5428000.0,99228374.44375211,22481000.0,110927166.93466198,27909000.0,113303378.5537771,-1778000.0,22331564.1054919,7206000.0,114997326.57586008,-1778000.0,58276740.57553755
1891,1233,0,1582767000.0,1662553716.9463859,680421000.0,1257911325.3861256,880211000.0,845469505.7390447,56683000.0,186139927.80399233,17637000.0,169963986.09579813,74320000.0,186459342.7656387,-5119000.0,33295290.21886249,35279000.0,190069024.6913873,21404000.0,42770861.636721216
362,708,0,5641000.0,997559049.1139774,5200000.0,318203878.9183979,-3859000.0,628582891.773622,1192000.0,141313423.1849178,781000.0,7836091.959497452,1973000.0,28745368.978141546,-97000.0,19453112.231844068,2070000.0,116558291.22327527,-878000.0,14968608.341995984
605,1393,2,3208196000.0,3100668262.8333073,2133043000.0,2031157467.924141,1075153000.0,1454285853.890371,625972000.0,298470397.7461377,1066275000.0,752517506.7548355,1692247000.0,1259983622.1273413,91616000.0,88124040.28662458,497965000.0,300831709.0250645,128007000.0,69488983.89692445
384,1490,0,13057000.0,896263682.5538378,4943774.229094189,225521962.23704338,10949000.0,545539720.0695043,7944000.0,89028832.16077691,0.0,-25721864.55517137,7944000.0,-11626261.11160767,1997000.0,13855588.353352427,5947000.0,79529337.5754438,1997000.0,7101173.094691299
438,158,0,5973000000.0,4734883836.572998,4408000000.0,2899325173.372856,1554000000.0,1748172129.0348396,244000000.0,310716101.5232442,1526000000.0,999111591.0196557,1770000000.0,1440392041.350502,147000000.0,72232356.08778834,127000000.0,223226294.45282722,117000000.0,60760761.420078225
1761,674,4,589088000.0,1574877060.040463,253950000.0,977919850.0255551,335138000.0,672359795.5310527,19294000.0,139380845.61438137,99428000.0,205000272.93673557,118722000.0,177899645.0016259,9057000.0,37640562.715572305,10237000.0,147385993.82970065,9057000.0,59204979.62364213
403,899,4,21286772.0,889531870.2251768,1383236.0,840069282.2180109,19903536.0,268357698.70904434,781782.0,72634213.06920534,421382.0,33403041.657516837,1203164.0,34288710.8576709,-1960898.0,19561452.114912912,2742680.0,124318721.24958983,-1960898.0,51399365.39257297
388,1242,1,3445920.0,986709457.2816653,1859560.0,584758820.8109083,1616914.0883314284,222350107.75122714,2970901.0,57135571.65559733,569508.0,27822965.628163338,805185.0,30039726.220003128,2437201.0,9868834.747654498,533700.0,97206023.7076729,2437201.0,30233378.09420573
1452,1509,1,328158000.0,1473245807.011736,124250521.82515822,967790893.0290337,270486000.0,614724152.6179942,24944000.0,91688655.27753699,16521000.0,73297096.4232117,41465000.0,155713824.15648508,-7674000.0,24776452.793669626,24827000.0,142353548.19832835,117000.0,27908597.805261534
1876,471,2,2498305.0,1089274103.6619782,2997402.0,531217084.8855643,-3454854.0,57472124.62017894,467340.0,94119831.07842481,346611.0,6669997.15534389,813951.0,-10272218.732269526,-114631.0,-3848069.110489756,581971.0,144784619.4098872,-114631.0,45314300.202889144
757,46,2,1288046000.0,2499202392.6665864,649920845.9604261,1661345676.8752134,889849000.0,919761359.5007589,105384000.0,197278008.7931894,285360000.0,278992131.6282791,390744000.0,392804906.467566,53190000.0,26292657.91002202,52194000.0,173580998.03074342,53190000.0,56086725.15422348
660,415,3,600057000.0,1873172044.9127803,369915000.0,1245168160.8078349,225443000.0,603939898.6377015,43121000.0,173393633.23210418,106269000.0,168802753.61807317,149390000.0,225256964.9769454,7853000.0,41638674.2797393,30439000.0,88117953.12130111,12682000.0,65272501.51341926
197,225,3,538955000.0,1192865600.9515276,291671000.0,921977263.793853,247284000.0,319537688.6944479,-14193000.0,87427474.76425874,14235000.0,55631064.160544634,42000.0,67719187.45123684,-51845000.0,-1658194.6917494833,37652000.0,70361941.71683452,-51845000.0,62191691.26960648
93,1545,0,25334074.0,990239634.0860109,18917048.0,594177913.4035158,5501613.0,625677637.0732903,-536032.0,136472591.49067056,4501393.0,21428368.069581747,3965361.0,42679961.21292043,-2975120.0,21312176.224552512,2439088.0,118464071.87808639,-2975120.0,23383403.754804038
472,277,1,1934400000.0,2855192920.0522566,855887268.5537325,1702563483.0498886,957200000.0,1091809562.6187181,84000000.0,193527744.8083985,375600000.0,307298649.5021215,459600000.0,421805274.2661388,30800000.0,61164920.52125175,59000000.0,179863957.9685477,25000000.0,41889224.84523223
1345,219,4,102973000.0,1161908767.6603503,162948000.0,842994740.2197206,-346214000.0,426181917.8168168,-13037000.0,102017012.17972451,25768000.0,81939641.93680233,12731000.0,116389393.1725142,-23219000.0,21782047.429810926,35950000.0,160063365.21743795,-48987000.0,51883667.73963587
1672,153,0,2501300000.0,3102541888.8459635,1075500000.0,1988915383.2127376,1407900000.0,1254075963.8223605,99600000.0,234674169.23341748,151100000.0,306360931.2928192,250700000.0,420827870.2163085,31900000.0,50732713.74320064,67700000.0,202602020.3359663,31900000.0,46219460.159979634
521,1602,2,27910000000.0,26942801737.67728,24392000000.0,15967492366.536034,14058781786.346067,9197001568.47773,1525000000.0,930434231.5992785,6421000000.0,3841070255.8299923,7946000000.0,6612992610.697647,561000000.0,243619323.27531567,638000000.0,508592702.3069087,887000000.0,42943880.84168793
1143,1298,0,105238000.0,1271731327.1437387,42240000.0,965181944.0660229,62998000.0,705869489.3425808,8572000.0,174783453.42185068,322000.0,42513734.91557562,8894000.0,63815163.80677283,2218000.0,34360249.8907544,6354000.0,143316280.20549193,2218000.0,38569881.596585825
502,342,1,2010176000.0,2781648090.6896434,889414829.379791,1637462989.4327285,1057656000.0,1032970464.8338048,113627000.0,204095160.44683552,250202000.0,298507088.1805947,363829000.0,405890487.8246404,44531000.0,55395190.67727655,69096000.0,178688975.3909164,44531000.0,43197128.83110307
319,1498,2,15154000000.0,8380903881.676655,5534200000.0,4663901955.904645,9554000000.0,4227557608.1842017,739300000.0,492911204.8802897,999600000.0,692445131.4925234,1738900000.0,1461349926.712215,318400000.0,183121767.05708164,315200000.0,261459919.5727734,424100000.0,56861255.26333537
471,26,3,346507000.0,1720272870.8409224,100361000.0,1219215576.9595168,246146000.0,537390313.4355918,14398000.0,137567702.90967143,62502000.0,112446078.54449552,72480000.0,147413051.8146392,4926000.0,26558373.771516755,9472000.0,73414135.43085557,4926000.0,64708873.54235003
1756,240,3,229309000.0,1278372512.00038,190264000.0,1163600061.8411758,-44269000.0,534859056.9112638,9225000.0,127629739.17907655,52669000.0,133889262.17568135,61894000.0,174744995.98028862,1401000.0,16516460.885467127,7511000.0,63852971.427248955,1714000.0,58586071.47791158
848,969,4,101740000.0,1106752884.4302177,28463000.0,1060807246.5353992,50734000.0,356171360.21947324,29850000.0,120413509.86916095,12745000.0,73208729.97365713,40857000.0,74551230.1758064,2689000.0,29057961.856571198,27161000.0,143921170.59824583,2689000.0,56857412.0783337
1310,1304,4,9582645000.0,4694378966.652284,3280269000.0,2213631448.55941,6302376000.0,2312204815.8980484,376175000.0,346394807.87080896,424915000.0,462780101.2233509,801090000.0,1070036280.9853557,272965000.0,79828720.88727626,103421000.0,262808607.87156898,272754000.0,59976270.584009886
202,832,1,609678000.0,1910846329.156415,288631252.1743736,1052093838.4705982,366720000.0,691015245.4153392,84451000.0,118831601.15958267,21802000.0,100472743.77462637,106253000.0,248116989.9936099,5683000.0,19200527.88081968,78768000.0,164900230.5284094,5683000.0,39361045.22928549
1444,1237,1,43441700000.0,28612783822.273605,21559314449.01792,15543018919.281956,21882385550.98208,9804072610.182446,1370000000.0,1014692648.090455,587400000.0,881657763.5391454,1957400000.0,2593918295.2395625,472000000.0,291749538.921211,1485400000.0,926331724.5587133,-115400000.0,29777833.448843997
1578,477,1,1146353000.0,2634980578.815181,752649000.0,1264604708.3198237,393704000.0,831327856.378984,95229000.0,116191893.58469856,32092000.0,156674500.62237954,127321000.0,308127325.42931485,-58245000.0,16190098.276320577,153474000.0,191181696.45527688,-58245000.0,36610829.750658564
451,976,2,796771.0,865246436.3614707,1072746.0,513594388.6152353,-275975.0,87616518.03624773,205707.0,92525740.67343283,158335.0,19809462.66751933,364042.0,2114100.184388876,-168127.0,-3971681.8008399606,373834.0,133185746.30465737,-168127.0,39004204.27001901
35,1533,2,9069035000.0,4644095810.744495,2563480000.0,2541980582.278678,6505555000.0,2768697277.837732,942419000.0,477623038.39023125,522866000.0,549964673.2633462,1285548000.0,933930218.4130924,602695000.0,367415557.35232955,339724000.0,328316221.4711441,602695000.0,61717610.70239543
237,773,0,48924605000.0,37155115688.03041,25766652000.0,19525743964.452766,22441501000.0,17289369688.897415,1560160000.0,919316879.8866289,915531000.0,732687676.9373167,2475691000.0,2776986410.027322,558196000.0,245823636.6544642,1001964000.0,510759757.0386921,558196000.0,75207717.16809443
917,1251,2,514281000.0,1809663919.2613258,309957000.0,1200097575.629663,198004000.0,691291403.3409996,106985000.0,204094697.11528766,149052000.0,203458062.54181153,309744000.0,304219461.50968707,62399000.0,24155927.51502344,44586000.0,217853774.7217514,62399000.0,57635057.10089988
558,1396,4,17876000000.0,10606141502.342037,4077000000.0,2854039241.66025,13799000000.0,4055012844.146316,-917000000.0,268033979.44936243,1453000000.0,463418940.9245461,536000000.0,1078993797.3541389,-1774000000.0,-12516268.726253316,857000000.0,501488860.4193434,-1774000000.0,55915976.20801959
73,1571,4,218354000.0,1195064472.635294,62021000.0,923692059.5056758,156333000.0,420541642.3662858,-143000.0,93523683.9989199,848000.0,101773766.94372666,705000.0,58396045.26522398,-31577000.0,22736906.97473272,40859000.0,135945227.98134294,-41002000.0,58545103.25084992
532,183,0,2268100000.0,3562835337.064153,1627400000.0,2291719352.5159454,640700000.0,1178984379.9668374,78400000.0,252220784.60848862,665200000.0,536607395.8728481,743600000.0,757990999.8656355,19100000.0,57259484.58543242,724500000.0,320024354.2301837,-646100000.0,37966896.00344363
986,1457,3,49117000.0,1158952274.2886539,7104000.0,753186643.9500065,42013000.0,348181059.3153837,1616000.0,100236492.9670409,3273000.0,72128675.95558798,4889000.0,40866103.65493107,-1489000.0,2715632.078243196,3105000.0,59688488.76059115,-1489000.0,61166074.715332836
252,209,4,12822000.0,805272157.487267,1624000.0,757007198.1013651,11198000.0,242411671.7304027,0.0,61960901.75044173,0.0,-618343.7889367342,0.0,-1441838.8289581537,-1983000.0,16817335.77844575,1983000.0,92911127.53351286,-1983000.0,52965100.35088823
982,954,4,543788000.0,1611225047.4198952,205894547.02387,953857872.2465606,402777000.0,592617450.3964266,1944000.0,163265557.31342602,0.0,176546202.5009761,1944000.0,178975788.6088289,-51279000.0,16601090.643961683,53223000.0,163991458.6609258,-51279000.0,59081358.78831789
1947,1003,0,16965000000.0,9661503569.145775,7506269391.549871,5245537101.909145,7744800000.0,3746296792.6348104,1329900000.0,692074901.9970977,1175700000.0,782418267.3902301,2505600000.0,2321583553.437624,1069200000.0,386793034.10541886,32700000.0,267353315.3479777,1297200000.0,108235253.09378979
1206,1336,2,29788000.0,1355231252.8834186,27907000.0,793248031.1028805,1881000.0,301016213.39888537,0.0,93718472.44650888,3452000.0,-14489606.305916429,3452000.0,46083544.286649466,-23801000.0,-11359939.239473253,23801000.0,153241327.03281817,-23801000.0,48345930.764309675
542,750,3,39315010.0,1254788272.2175655,15768167.0,785981617.7675312,23791305.0,280097889.5151373,7600979.0,88899498.57849425,41810204.0,59542684.895419,49411183.0,85281647.58567357,-1588725.0,9513466.706500709,9189704.0,55968328.07829666,-1588725.0,51185122.781862974
15,585,3,184728000.0,1133796092.567296,40367000.0,814812903.0759003,144361000.0,371041793.23525107,0.0,77814473.43703824,8094000.0,43934480.0168494,8094000.0,15891363.922793388,-23114000.0,7549308.95110558,23114000.0,69250558.55504912,-23114000.0,56356414.75324236
1754,771,2,5014090000.0,3788810115.4759746,2606263000.0,2391638377.5494175,2407827000.0,1779040662.642209,420690000.0,304625737.8207028,905430000.0,587472585.0033532,1326120000.0,994834708.6003108,237492000.0,124842522.77512488,183198000.0,259933077.55878538,237492000.0,57441765.31999013
1448,1284,4,3543460000.0,2860718888.5850887,2602227000.0,1507450980.762407,941233000.0,999342510.7700107,443568000.0,281245106.1899545,134292000.0,367501612.10082316,414603000.0,627005885.3569809,14363000.0,25628015.721563824,429205000.0,218403422.95301405,14363000.0,59504734.78444993
459,1460,0,747087000.0,1505599810.568169,79688000.0,1005949471.0352402,667399000.0,677231220.2383827,34565000.0,154622577.88986844,22203000.0,89602753.05325317,57261000.0,112127638.77339983,-16306000.0,32087425.646602392,50871000.0,169051842.0153112,-16306000.0,39518480.544277355
1505,88,0,4578121000.0,5004899147.386754,2310023301.364386,4085345810.85112,2489780000.0,1897266019.2761116,2190001000.0,1467322555.1261413,-1465670000.0,147670074.7072056,724331000.0,1231451526.8659158,216069000.0,177385823.40335262,1973932000.0,834050076.1147116,216069000.0,36153759.17183657
1613,408,0,11895943000.0,7872175620.544801,3479745000.0,3414532960.275382,8416198000.0,4452193011.56599,335683000.0,348926551.9404379,296441000.0,444271352.49101806,632124000.0,1007066738.1790245,90949000.0,119821823.32707882,201199000.0,349095577.57984227,134484000.0,23318951.76725825
1214,313,0,1059300000.0,1941087467.8747149,513000000.0,1388048900.6612754,545000000.0,951050565.1300613,132000000.0,255954176.7051577,172700000.0,266054942.7478403,304700000.0,343728545.467602,34700000.0,53637632.90175486,88200000.0,197461153.245859,43800000.0,51963139.63796825
454,30,4,11204065000.0,7634753699.872222,4242197120.938668,3686504677.489014,3489373000.0,2849923279.2433624,480702000.0,385742544.97824407,457696000.0,429249728.4910301,938398000.0,985750289.5766488,172392000.0,64693712.587494895,308310000.0,325773998.4173978,172392000.0,57961392.75791148
1392,1216,2,531121000.0,1601324126.0945497,248900000.0,1272583991.8589053,282221000.0,608039958.467808,62379000.0,153880147.83834505,135419000.0,189324523.49989617,197798000.0,252940780.4535929,18703000.0,15715882.080813304,43698000.0,153472087.9418215,18681000.0,54439000.42564039
1519,152,1,961035000.0,2227835490.847792,1381722000.0,1330156418.3374505,-420687000.0,850322500.6451486,271111000.0,209756454.44775978,201537000.0,275053953.13038015,472648000.0,414766143.07784903,5387000.0,45966942.035052076,265724000.0,217834682.14662936,5387000.0,47160282.225331515
1060,972,1,3194462000.0,3079091379.3937917,1643299000.0,1810679538.4612005,1512215000.0,1360785812.7597058,817744000.0,423862966.1609316,0.0,287003670.6209883,817744000.0,675498048.7732142,37900000.0,62438644.72419994,779844000.0,327116754.8722818,37900000.0,37072341.37741547
1100,1359,4,6042273.0,702567933.3826976,3627261.0,679905902.7341132,2415012.0,193455038.89633477,0.0,63236539.45349282,0.0,-13606349.698606491,0.0,-2045995.4517828226,-1829562.0,13773151.583634019,1829562.0,90065005.92820188,-1829562.0,51450326.43271044
203,1317,1,76266906.0,979643927.7314959,57438990.0,718255456.9802237,40912361.81482647,460416750.66139555,9146097.0,79171595.99542892,0.0,6199193.145717025,9146097.0,54131694.19026995,-2633902.0,20724765.591940165,11779999.0,141664599.99678966,-2633902.0,25197934.09335046
1493,39,4,-3532973000.0,218741738.8123026,-2747133000.0,292389917.82234764,-773571000.0,903025887.7885616,87737000.0,182095045.97832528,40236000.0,330135801.67737657,103187000.0,570309413.4676284,7123000.0,39266375.91294126,80614000.0,203211784.49623895,7123000.0,59059466.13538971
543,1231,2,846734000.0,1977498472.7226357,635659000.0,1201909618.0283017,69332000.0,546583938.0315902,204774000.0,175210075.65744913,-13024000.0,84276240.52876663,191750000.0,235338514.82663786,-52860000.0,-17649622.475274757,257634000.0,177316575.0780773,-52860000.0,60760343.69839473
1966,423,0,1354514000.0,1800485248.279986,675720000.0,1114991295.518858,319291000.0,801767724.3486693,-16558000.0,161866851.25344142,64132000.0,140488840.8626235,47574000.0,184414847.12441158,22229000.0,33303449.21773824,13428000.0,178538374.5406259,-29986000.0,41776765.80178993
1802,943,0,270533000.0,1328433826.9579673,240046000.0,1051628884.595572,30487000.0,739047630.475277,26052000.0,153083192.308983,12454000.0,120890359.20947242,38506000.0,110036526.98180914,-21038000.0,24648077.025028452,47090000.0,166893603.15706038,-21038000.0,40102532.02040976
1372,102,1,583783000.0,1907298015.2321572,717382000.0,1068228202.9051347,-133599000.0,761831170.2597984,41865000.0,100494566.87839246,32703000.0,99455852.38912284,74568000.0,180904712.12567604,-32006000.0,10855448.909607247,48224000.0,191963218.5083737,-6359000.0,34264333.54740287
1325,468,0,534446.0,926501344.2942114,9794849.0,206124573.0413313,-9132038.0,582468724.9170108,6264.0,108926991.93909854,3881.0,-9185497.774279594,10145.0,6773056.018819451,-961868.0,15963897.314242035,972013.0,101673474.84620914,-965749.0,5503240.236901753
1504,1328,0,106308000.0,1112700425.314539,29369000.0,781819232.6280994,76939000.0,594386853.9434054,15630000.0,125766726.93478733,0.0,41944797.2872951,15630000.0,47154748.34942508,-23899000.0,26116346.485717386,39529000.0,138923060.17117357,-23899000.0,25761558.69729127
1347,666,2,369031000.0,1685769226.8238401,216722530.1814524,672637008.7403345,188777000.0,500199094.4034612,45044000.0,166909373.78670725,42173000.0,160296366.44623363,87217000.0,230472641.10711443,-3804000.0,11319863.63435322,48848000.0,172035548.65816337,-3804000.0,51195023.821737856
1492,1528,2,327784000.0,1753063848.8288746,323919000.0,1224238832.8665376,3865000.0,432020330.8671441,33496000.0,147250554.62378317,8201000.0,45498167.46000409,41697000.0,119385949.58322299,-4913000.0,-32385.33924730122,37287000.0,176206024.25498444,-3791000.0,56560840.98865851
1107,494,4,85658000000.0,23946928739.49219,88335000000.0,38187525113.92966,-2772000000.0,5258298555.164927,5387000000.0,4443118491.645066,14002000000.0,14595486890.478971,16935000000.0,19594843198.163742,1165000000.0,830836972.4781291,4222000000.0,3119984989.2269764,1165000000.0,58164554.33969772
1336,1408,2,898860000.0,1773301860.8079152,527877640.3036609,1055317490.2528358,360528000.0,480138718.492332,68259000.0,157432953.3670439,42065000.0,141759792.05350745,110324000.0,153170402.51733363,-1325000.0,7064361.003535286,69584000.0,161052389.62228805,-1325000.0,48238131.89720373
599,339,4,50546000.0,1033358938.2646046,5959000.0,896602516.0214849,44587000.0,401686200.0873059,1989000.0,83147339.85353374,1909000.0,64641886.31788576,3898000.0,55553845.49506581,-1895000.0,27133326.109583296,3884000.0,119928738.12067863,-1895000.0,59284520.37010413
117,2,2,939056000.0,2034536559.9625053,419590000.0,1392831566.2979155,517473000.0,630887782.0634937,90527000.0,178345204.64619544,120216000.0,188445428.57127923,210268000.0,282210259.2657777,61012000.0,38756351.71477748,29515000.0,173869328.82918087,61012000.0,54862948.89649552
1825,558,0,20027115000.0,12150512177.603716,12952737000.0,5907539674.832297,5611108000.0,3501217367.1706543,32786000.0,330334399.65791845,283742000.0,402800571.96788144,316528000.0,964171759.4502875,-1347477000.0,63227868.915465005,1910658000.0,322372687.40440303,-1877872000.0,20339116.201799512
1507,1259,4,124094000.0,1074511929.8577309,18130000.0,901046036.3476098,105964000.0,357426923.8542906,830000.0,89062763.17604327,0.0,75425554.61894381,830000.0,32510296.772812724,-5787000.0,21330508.68315541,6617000.0,148373680.31916103,-5787000.0,57650191.45515792
321,77,1,68675000.0,966817396.4431505,40331082.646745786,709949574.7740197,53645000.0,474318919.5736207,10938000.0,58131102.539079726,6604000.0,13974787.347546339,17542000.0,69765408.95216858,880000.0,22280971.696505055,10058000.0,138206373.1762738,880000.0,19816005.787404288
1482,1163,0,1833700000.0,2018996546.5010862,811331929.4597701,1530582202.3961673,482900000.0,959006800.8551277,110200000.0,244720273.82197616,356000000.0,276197182.9236387,466200000.0,349129473.0181525,45700000.0,42891693.05474228,55600000.0,202426061.20120126,54600000.0,42030997.81510775
508,974,4,62515472.0,1267329780.0707345,29595817.732691668,979167272.1311927,21861273.0,414097185.52429307,7032458.0,123973898.87496102,11256239.0,114263431.75297219,18288697.0,69396377.70451331,-1564350.0,29896280.63011153,8596808.0,126195325.69006678,-1564350.0,57156774.54513114
1411,1190,3,33859785.0,939206159.0973296,6178818.0,561278693.0637736,27680967.0,238926177.75306058,-63384.0,69011598.57594591,87873.0,-21885386.79391718,24489.0,-6189627.806518316,-2675666.0,-2571935.915815428,2612282.0,60822293.10298258,-2675666.0,65345248.86615425
718,594,4,770792000.0,2009110728.7807813,581187000.0,1186698118.2818365,188503000.0,714100776.7332333,456709000.0,214833815.04239422,0.0,242509821.0495556,456709000.0,329956117.1096097,-29756000.0,29088914.60978076,486465000.0,163778745.39733332,-29756000.0,59976270.584009886
1865,766,2,4753100000.0,2404792405.792303,2691038000.0,1677962594.7991886,2062062000.0,1274903437.0230618,383135000.0,331381209.1422184,0.0,192939765.4153105,383135000.0,483168122.8408288,126771000.0,37390248.88601164,256364000.0,219370870.69022357,126771000.0,57518412.34972812
710,491,2,9330700000.0,5437171252.044085,4987700000.0,2580151766.2228055,4343000000.0,2628717092.2611885,590200000.0,393431578.03124547,367100000.0,509905197.69111705,444000000.0,916388974.634653,121300000.0,77079350.15909451,468900000.0,267015822.67482692,121300000.0,65594355.179853454
285,371,2,1797231000.0,2379400748.996619,1568932000.0,1276521369.8700686,228299000.0,651280422.4042913,143030000.0,142654231.61137354,0.0,144636604.73946798,143030000.0,276985768.3515358,-113543000.0,-22154249.953998983,256573000.0,201712019.25360104,-113543000.0,56750857.52106717
1609,1195,3,90048000.0,1432128140.8986921,45436321.63528667,928148584.9605196,37547000.0,338055641.7418262,2482000.0,133320808.22973603,9262000.0,78087164.88527238,11744000.0,109106698.673774,1360000.0,16069477.207224354,2815000.0,58177950.944370985,-333000.0,67629356.64488511
1814,1009,4,190817000.0,1434545641.824152,91955000.0,1039220836.7346699,118567925.39840196,512251215.007372,16838000.0,133718779.67039526,21962000.0,143783124.86637133,38800000.0,101062086.96687675,3292000.0,35407782.757283986,13546000.0,145648328.61109322,3292000.0,58276740.57553755
720,503,0,24930824.0,960100390.2793684,6278564.0,439909559.67864656,18652260.0,649832952.617945,7866761.0,127741197.62532759,20382092.0,42216024.713373065,28248853.0,64531823.31010568,1448213.0,18101305.62668097,6418548.0,128052461.1956676,1448213.0,33327558.044194426
1707,905,3,6071000000.0,5317021130.254065,14261000000.0,5888375053.669481,-8190000000.0,1504322909.199103,1287000000.0,792162788.7786368,421000000.0,582196834.8188635,1708000000.0,1542116911.802999,613000000.0,257704216.6392984,1095000000.0,896945071.4487675,192000000.0,66428368.57420612
485,1039,4,5768300000.0,4351543562.237075,3017800000.0,2068786520.2003727,2739100000.0,1819887136.9826245,487400000.0,378573438.6555339,888400000.0,488148758.34394544,1375800000.0,1152812371.772946,276300000.0,111616063.37058252,211100000.0,260091993.35116267,276300000.0,59081358.78831789
1364,576,2,3486179000.0,3997401700.2605305,1927467000.0,2251452324.3462934,1501742000.0,1549654362.6737602,315111000.0,288242992.50745535,669472000.0,469667334.96187866,949217000.0,957803753.0264397,-24190000.0,60325541.9658501,194277000.0,246709125.09681082,120834000.0,54759808.22783944
1943,705,3,496042000.0,1873628471.8316884,349488000.0,1354166898.65503,146554000.0,597639368.3676038,33924000.0,183251431.0199474,212763000.0,178344872.886863,246687000.0,265562457.58796358,12448000.0,34712629.61438614,21476000.0,81993605.907154,12448000.0,63666339.20851707
708,7,3,1713800000.0,2464604309.712665,864747334.9608463,1442704590.4307177,585500000.0,1248090068.3289645,141400000.0,235002209.89622915,205900000.0,274361924.942947,347300000.0,401290324.1897769,100200000.0,53041672.62682511,64600000.0,152062135.39225686,76800000.0,65508545.89363436
1795,1481,4,5817000.0,790592165.1616292,1413000.0,766334036.9943416,5436000.0,205177288.6331489,5000.0,64111015.45309627,0.0,10763183.247848988,5000.0,-3007300.928771496,-3525000.0,17118271.22679828,3530000.0,113682715.15863901,-3525000.0,55141396.4401841
1196,275,3,4180537.0,1134750520.1999764,13379601.0,732081837.9948192,-9199064.0,328630998.1938021,1107842.0,72839539.72629565,974711.0,28288622.585791945,2069845.0,24690248.640396714,-2577294.0,-5007184.635195285,3685136.0,64799368.08301604,-2577294.0,59378779.941532984
1785,608,0,6656000000.0,4947266210.968281,2127000000.0,2931588026.8208942,4529000000.0,2242642824.832814,386000000.0,339684821.68696904,110000000.0,567989696.6377653,496000000.0,1162482181.2283857,-53000000.0,68201087.61060116,439000000.0,288107247.9123701,-53000000.0,60416293.55289752
1117,1429,1,191593000.0,1537564997.2877927,250675000.0,897891520.3113456,89973054.63642293,638927888.0947267,28173000.0,113762450.72360057,35245000.0,88667798.05856133,63418000.0,153404089.74257755,-6852000.0,16635422.986737996,35025000.0,161019724.72242346,-6852000.0,32531661.070557594
611,864,4,69753000.0,1201232367.6355405,24624000.0,889270134.3006968,45129000.0,314299112.63770473,4333000.0,100883225.24843699,3937000.0,89638131.99226606,8270000.0,65302895.981289744,-17948000.0,19909635.934942216,22281000.0,157522248.65153503,-17948000.0,59081358.78831789
1037,807,1,12798100000.0,10046509199.274902,7698700000.0,4985651933.265165,5099400000.0,2846034997.579976,578600000.0,549134042.5006989,1141600000.0,930013408.620313,1720200000.0,1537826056.837224,210200000.0,107374439.22491482,368400000.0,256246053.0172809,210200000.0,47400076.094446026
1049,56,2,41718000.0,1381747422.4182715,16883000.0,892666727.4045167,24835000.0,222405786.70523238,4472000.0,105522607.90944892,-7000.0,9870042.83642459,4465000.0,7613295.954113245,467000.0,17194.354832440615,4005000.0,141105869.76546437,467000.0,56628464.368750244
181,1519,1,2175066000.0,2297037682.914074,720018000.0,1227569451.840796,1455048000.0,829009389.9531617,262895000.0,164506839.81258267,0.0,103515992.57070267,262895000.0,268023948.01467907,-74357000.0,27350410.198272854,337252000.0,202731277.44358304,-74357000.0,28121616.20135549
1530,1357,1,432444000.0,1372261715.190555,58115000.0,815462379.8244696,374329000.0,531856482.9832324,30953000.0,91852785.94298196,9019000.0,56612148.6968956,39972000.0,131627263.28189504,-4508000.0,24901507.716979027,35461000.0,148177799.8168294,-4508000.0,37049075.37926695
1172,1002,1,1951144000.0,2599257388.279088,976648000.0,1394922083.1370392,828149000.0,935471221.2275236,81471000.0,185387287.696929,811299000.0,434057307.1616115,892770000.0,570166065.3020362,21174000.0,41980084.406785496,35340000.0,175496444.98972633,46131000.0,34906612.527678445
1844,1200,3,5184000.0,965653051.4290271,33317000.0,408798378.6649494,2568262.933576247,148734079.1939757,28000.0,84419816.776627,1138000.0,17559558.566621065,1166000.0,4587597.365619421,-1174000.0,-4857016.711280316,1202000.0,60713788.69901317,-1174000.0,62674576.92228064
937,215,3,30042800000.0,22829688805.19069,15158963259.867964,10311803857.190504,10331300000.0,5964592037.840526,1541600000.0,1101292352.6292772,2284300000.0,1562796577.9477053,3825900000.0,3015166641.188427,727800000.0,335610858.98225725,402100000.0,397131305.95105386,1139500000.0,68420904.11890312
1319,657,1,3143366000.0,3168490413.5766935,724791000.0,1444529806.4027784,1686216654.8151803,1003032793.2047124,293240000.0,215852492.1627367,0.0,150613160.78014588,293240000.0,276146883.06808305,242794000.0,45332724.83871268,50446000.0,155917955.17345518,242794000.0,23824068.215723634
785,291,2,2558318838.0,2763801554.4270253,289865031.0,1773252915.5325627,2268453807.0,1217560801.942204,191440633.0,232482450.16417736,384407857.0,317587711.94760066,575848490.0,438142343.7023481,122416529.0,69386511.14925075,69024104.0,205160999.73550594,122416529.0,56664826.985397495
534,1172,1,355784000.0,1683848431.6965656,359982000.0,969585029.6302118,21035000.0,698224654.8538308,21274000.0,96082206.44220102,23247000.0,74527199.86432815,43857000.0,137034326.47016692,-2501000.0,16760671.340514243,23775000.0,166523088.12163565,-2501000.0,27887222.817933206
1073,476,2,107571000000.0,74539596767.14322,49865975585.04998,40149222757.82431,57705024414.95002,42548306062.24955,4680000000.0,2506236497.719204,16059000000.0,16433856577.415033,20739000000.0,16301887974.38598,2233000000.0,1286408381.984809,234000000.0,1119035163.6514993,4446000000.0,70221521.57495092
871,35,3,357016000.0,1532266853.8625193,134021000.0,1238196500.392141,222995000.0,577350609.2577713,10859000.0,152883213.2556098,60424000.0,120408297.4147839,71283000.0,154021641.8981731,4410000.0,30532971.52400466,6449000.0,71454255.02205768,4410000.0,64995452.89906494
145,1121,2,10492900000.0,6236654714.896259,4642648635.342979,3885734008.1185017,7724300000.0,4396304628.084242,1077000000.0,696954428.0947423,2546000000.0,2434512205.7195845,3623000000.0,3250739237.5494547,389500000.0,384036519.0353207,626900000.0,377959639.2891959,450100000.0,53589788.51801345
1137,1052,1,221167000.0,1364469695.0272622,272405000.0,1152096521.45401,-51238000.0,685066085.5864953,26384000.0,106806600.39970088,0.0,33263317.94961846,26384000.0,124643548.10133612,3123000.0,18783889.363114744,23261000.0,167137679.4362146,3123000.0,35276703.628125936
1853,994,4,644700000.0,2111116808.331418,668700000.0,1248121263.767568,-24000000.0,692920310.2087686,11300000.0,174796232.08084932,30400000.0,257200495.94728076,40500000.0,261749909.5074066,-2900000.0,47378859.79192777,9300000.0,176085253.01550466,2000000.0,56330803.48636086
1607,915,3,5733000000.0,5380430445.828093,4386600000.0,2412823430.6728916,1332700000.0,1820850179.6719227,508800000.0,363785278.2073934,1740100000.0,1010368721.3375866,2248900000.0,1820690567.4103308,201100000.0,109267300.12779993,328200000.0,332602413.74965054,180600000.0,62673154.081479535
497,445,3,3187469000.0,2522493921.665684,1581882073.387936,1513026800.7403803,1402929000.0,1302458375.6397612,12023000.0,238575061.297452,118303000.0,332305057.0985848,130326000.0,524067001.7307277,121116000.0,50892570.07322833,236940000.0,240430844.62848973,-224917000.0,64872935.30106442
1789,1072,1,160962000.0,1207130346.5960965,136871000.0,827945298.4272408,14091000.0,495938903.79605377,33234000.0,85621258.34511077,28516000.0,47076203.784532666,61750000.0,53754196.76075983,-4105000.0,17510499.714916214,29699000.0,146595156.04876876,3535000.0,39259566.2592046
1733,641,2,1070082000.0,1661054288.8667622,790095000.0,1205290647.6514468,279987000.0,577935088.1874235,59499000.0,147995992.11937922,92514000.0,191082181.02800894,152013000.0,241299377.4527843,-6147000.0,11811623.575390562,65646000.0,159222634.20897815,-6147000.0,57010384.80073805
1735,406,2,55335000.0,1553367224.9656343,11648000.0,823702808.8642402,43687000.0,224063167.52992415,13874000.0,111361304.74088776,0.0,7208360.748775601,13874000.0,46731773.50349212,364000.0,-2708170.543415889,13510000.0,139290310.84152034,364000.0,52743146.180686645
1273,683,0,8855100000.0,4798353059.128337,4468096700.788768,2705156870.4236393,3543300000.0,1835296271.0475452,468100000.0,320354176.73525006,2041800000.0,1337432436.9489698,2509900000.0,1915294669.3612034,256500000.0,61751416.494196266,211600000.0,222660162.67310396,256500000.0,63250458.160710424
226,326,2,1045317000.0,1459540391.122291,491551000.0,1070164238.3513336,553766000.0,507854443.52424276,49476000.0,137996180.85903555,27012000.0,115666891.34939504,76488000.0,122040704.35844839,5569000.0,1149625.7050475627,43907000.0,174466151.6491268,5569000.0,44076466.51694554
856,206,2,3335011000.0,2748719042.5605917,1532336000.0,1789937494.2735457,1376443773.6613572,783781818.4058359,158805000.0,224638371.49727815,458734000.0,340446343.18416595,617539000.0,545041907.0574276,82276000.0,36893740.09161579,26748000.0,265657708.4414751,132057000.0,47557585.01238022
610,1330,3,50788000000.0,34327477399.44992,23543456582.29001,17579000208.153465,11845000000.0,6850882520.532722,1286000000.0,1000979942.9843286,484000000.0,754124838.4753989,1770000000.0,2606338217.1654243,994000000.0,500530414.65695417,146000000.0,356877206.53561455,1140000000.0,68267037.30416663
434,768,0,9209798000.0,5022547683.599607,3242862000.0,2420985995.2355843,3654836000.0,1764686323.6062634,758604000.0,332376476.23974544,-63000.0,340565934.37575805,758541000.0,627416117.6525632,306700000.0,86104290.35576177,451904000.0,262173177.9530189,306700000.0,61197477.749254815
1765,75,3,3861516000.0,3710441046.7484784,3060094000.0,1681613369.9479408,801422000.0,1322453226.1237478,246503000.0,261342206.97595796,543454000.0,386232190.0685158,789957000.0,710982116.1386917,-286586000.0,38434039.95324781,130761000.0,255063300.93376634,115742000.0,65781023.848113336
667,732,1,3117800000.0,2818126710.8395596,2444800000.0,1910487360.1605973,673000000.0,1358157972.2769582,86700000.0,230331881.08308244,411500000.0,339171547.60761034,498200000.0,561306965.649784,-419900000.0,46743570.393537454,63400000.0,207387093.0878767,23300000.0,52219042.90090554
1194,1500,0,84073.0,824832532.764492,2814055.0,95732581.38567924,-2729982.0,490154640.0339501,0.0,60813400.40202707,0.0,-8765167.08566451,0.0,-7830490.039937019,-647078.0,7491930.702880502,647078.0,94620961.89885521,-647078.0,-17634091.727525398
626,829,4,250689000.0,1383177536.5795732,83024000.0,854075142.7945166,167665000.0,477515207.4807,0.0,121249368.23483449,33193000.0,150284218.75012892,33193000.0,90015932.61820734,-43672000.0,12634460.85069348,43672000.0,143586892.37402648,-43672000.0,59081358.78831789
1654,1124,4,2267553000.0,3192342013.927981,1375272000.0,1601841789.0856323,519294000.0,969222780.3669126,30179000.0,231585862.50753736,36686000.0,292932336.16836905,66865000.0,429830168.97127414,-15417000.0,41889472.84027527,38864000.0,200809848.01073065,-8685000.0,59204979.62364213
288,1576,4,2221575000.0,2606930187.032982,1034139000.0,1182983940.3480859,1187436000.0,900784425.0693189,131964000.0,202858927.50750235,106311000.0,341803879.4983407,188755000.0,400188731.714468,3712000.0,33116094.499088474,128252000.0,191675307.35239226,3712000.0,58085013.593235716
1665,1524,1,555271000.0,1755805612.0784478,273881000.0,1101276828.830009,281390000.0,769470533.0139927,77610000.0,111741101.86979324,73228000.0,99050675.77651799,150838000.0,228244717.76029027,6400000.0,26807015.577689335,144438000.0,169875459.50482598,-66828000.0,27482882.076461423
652,243,0,1810200000.0,2788207934.533061,1334200000.0,1754727234.4138515,472000000.0,1002174774.8067824,111400000.0,235257371.96563974,439000000.0,324037600.90172213,550400000.0,392384536.6774039,53300000.0,43276552.868941344,43800000.0,216651354.4662472,67600000.0,44849238.46619173
1078,991,2,339972000.0,1841984261.3022132,145992000.0,989071327.8285923,193980000.0,403262300.056936,800000.0,136033993.25220454,85000.0,44562756.04314494,885000.0,126542309.53651643,-35502000.0,1140988.1381833553,45899000.0,165303382.0713239,-45099000.0,55438157.88576667
778,188,0,992330000.0,1588014073.8302188,401273000.0,1210072140.8221598,544681000.0,859152998.191238,417282000.0,222777928.1216746,0.0,172058610.4206453,417282000.0,296453334.5004631,5536000.0,39447798.38091088,411746000.0,200753507.724964,5536000.0,46859757.221317716
29,1409,1,600271000.0,1800364029.818036,137438000.0,1112361184.0743256,462833000.0,703375636.7151062,73869000.0,106494187.24477255,24421000.0,75849493.30368733,98290000.0,216519545.41796923,-8089000.0,30818039.79656449,81958000.0,143753124.39885572,-8089000.0,37304708.34410566
854,119,4,47193000.0,1200031980.1204133,31000000.0,962730006.2164962,16193000.0,355119640.45070374,4954000.0,97983738.82574159,3898000.0,88073799.87979102,8852000.0,54454561.53402674,-615000.0,28695156.83619246,5569000.0,117990590.07850108,-615000.0,55305970.85923473
1423,1555,0,150549000.0,1144167021.1202555,163792000.0,971829727.489923,16674000.0,568346886.8747032,28323000.0,139105803.9909116,6429000.0,96989185.65300196,34752000.0,54419051.22807896,-13758000.0,30662934.389923558,21733000.0,149045127.2641312,6590000.0,36142503.48833206
1406,885,3,62996000.0,1277607655.7329612,12638000.0,956296244.5379822,50358000.0,392391743.4647696,9919000.0,138264771.19048095,5920000.0,93409441.31427383,13543000.0,88728696.65716755,1979000.0,23486233.82914512,7940000.0,72366961.47442272,1979000.0,63817823.42792936
1624,871,2,56415000000.0,52047081241.83268,26707757359.48695,19853103143.20374,20622000000.0,14081192826.265253,4258000000.0,3143331716.0030456,2744000000.0,2887689038.254823,7002000000.0,7166326253.068165,471000000.0,923555794.8429896,1302000000.0,843699840.9124472,2956000000.0,216220260.1265029
926,1136,2,572995000.0,2301971047.4806104,271264937.13018215,1211628190.675971,210105000.0,639346859.2546139,-46109000.0,197096108.91869813,111142000.0,175090762.81137502,65033000.0,309019679.0629735,53448000.0,23370346.00047554,184993000.0,207848126.02320796,-231102000.0,56420744.36179991
1324,1025,3,11156646.0,907851423.2344513,14063458.0,621827198.0504174,-2906812.0,117801513.53410387,-483256.0,88274153.0749129,692752.0,3423789.6467933655,209496.0,-5103826.111941457,-2378023.0,118888.88369867206,1407493.0,59528182.425429225,-1890749.0,63433219.21665512
809,948,0,746651000.0,1518080222.1142526,563281000.0,1078527876.6732574,350347808.70326334,702772721.7699707,20268000.0,172504464.20398587,132273000.0,209999827.37957937,152541000.0,202979054.87563288,1482000.0,39117136.31189018,18377000.0,163184924.38042757,1891000.0,38145390.38073154
492,1059,4,203605000.0,1573710878.6618338,164863000.0,1340125591.3327265,38742000.0,566248325.2354813,38308000.0,160183057.63581312,13284000.0,210167913.9475662,51592000.0,187936940.66990793,8585000.0,38170536.62675057,22801000.0,161173804.04173803,15507000.0,57961392.75791148
383,753,0,35610551.0,1075084331.361722,44852933.0,531488321.0831151,-9242382.0,637435635.705168,3037874.0,127095549.17087,5691278.0,22616993.97131586,8729152.0,8655003.268575191,-7028283.0,17956551.634167075,15757435.0,137656945.00374198,-12719561.0,25260264.75388387
1250,1092,1,4596600000.0,6164572050.092785,2319347415.031524,2827994389.208952,3466600000.0,2161985734.3513107,2555100000.0,726517765.7690666,3033000000.0,1450928873.8555036,5588100000.0,2215627094.74786,1174900000.0,262187903.6782049,1380200000.0,460022980.4792836,1174900000.0,112765357.02344775
229,1285,3,3802385000.0,3501557968.5098085,2636965000.0,1551299066.4467237,1165420000.0,1362814873.9221904,157645000.0,291327988.9905452,488142000.0,436029509.9423043,645787000.0,711545505.0476992,66824000.0,65961468.192725524,83253000.0,200862599.68768713,74392000.0,68890578.02814722
1531,436,2,12852000.0,1262423011.7829418,5815000.0,686863463.8688335,7037000.0,149801213.06667888,1838000.0,90084803.95180649,1427000.0,23111737.96799946,400000.0,4965699.882641077,-1116000.0,-5019299.18175441,2954000.0,112750274.69897693,-1116000.0,47562117.10467069
1035,379,4,11747000000.0,9076356164.613256,7158000000.0,5447853428.817318,4503000000.0,3255573290.6252975,770000000.0,540365847.5035478,1424000000.0,1113828697.2425153,2194000000.0,2208491900.431853,154000000.0,106750576.36318867,2040000000.0,843509270.4857855,-1270000000.0,57961392.75791148
1774,384,4,7236206.0,800958361.9922061,4913744.0,687525153.253171,2190428.0,225635554.4937681,634746.0,79087510.40919101,2326079.0,15370744.117671967,2960825.0,12079376.780642748,-234151.0,24143068.895472445,886442.0,86776533.48224908,-251696.0,52653864.23003504
868,900,3,6411000000.0,4213905349.76531,3370100000.0,1843519344.5207043,3176144611.7201624,1684624837.238327,371800000.0,349893657.5109578,637000000.0,558999761.3127698,1008800000.0,902798444.1614859,180100000.0,94503314.375885,166200000.0,239593891.25532007,205600000.0,60595264.55471485
1391,726,2,345836000.0,1678131074.9508133,48837000.0,1063142457.3001552,296999000.0,410910339.85463905,3870000.0,141455926.76957554,113328000.0,121525936.20146191,116752000.0,122129434.26782525,297000.0,11431868.677319825,3573000.0,163853559.1047255,297000.0,56579250.81722606
1734,41,2,20108000.0,1063403612.0651579,9068000.0,628807264.4937377,11040000.0,142964987.75624478,3847000.0,70840400.27433574,661000.0,-23194955.420677066,4508000.0,-15039184.249791622,-4126000.0,-15168316.412046298,7973000.0,121482752.21311536,-4126000.0,49895259.59658207
1416,186,2,1564856000.0,2463158355.4072485,1122858000.0,1357720762.0758097,416354000.0,785239063.9124286,276207000.0,184533539.0486598,-11227000.0,121550355.88927889,264980000.0,305957939.8169253,5657000.0,10707423.42021595,270550000.0,182531321.0625124,5657000.0,60736136.92838329
352,642,1,1125373000.0,2059480058.477508,521681703.6382896,1224375424.707983,29987000.0,921680734.5382969,142411000.0,163385996.64544985,-42080000.0,100423361.98267996,100331000.0,242324884.89689946,17283000.0,34162062.117981225,125128000.0,169959967.76487795,17283000.0,24433446.36501051
135,273,0,630871000.0,1834474577.8654413,398464000.0,1378707307.2213838,232407000.0,810497617.250466,80823000.0,208482384.34117925,413091000.0,222660613.25440592,493914000.0,251122677.78495324,-14453000.0,34201889.7526356,95276000.0,200338736.60750446,-14453000.0,46583107.0806839
1338,391,2,123668000.0,1530254628.2329364,40963000.0,1001511153.7153268,50285000.0,290625407.71612954,29188000.0,124403673.2946927,11108000.0,72318760.79974055,40296000.0,102353770.86987233,-25553000.0,417688.22776828706,35508000.0,162787178.74784213,-6320000.0,49453571.91914177
1076,1378,2,34865437.0,1208669102.4686408,19085704.0,622224363.0954742,15779733.0,106979175.87587869,0.0,90482016.33335769,1198.0,-3248435.323026061,1198.0,37082406.61108351,-6520186.0,-9537182.209226415,6520186.0,106707975.88276747,-6520186.0,48998745.981758066
1426,1389,1,1275550000.0,1673163219.7255673,1504271000.0,1270268811.3841743,-228721000.0,764249127.5333863,-35238000.0,137826037.51003498,59168000.0,107340176.8328551,23930000.0,190856378.19125974,6621000.0,29370093.041170567,102745000.0,188868355.549041,-137983000.0,41572205.19932401
2023,758,0,151712000.0,1289492544.237616,195428000.0,879351056.103468,28605000.0,663610667.5890304,11588000.0,135807233.85574746,43977000.0,77160586.58085132,55565000.0,89188979.69999611,-8864000.0,19155070.392387092,20452000.0,156576111.93725395,-8864000.0,25899098.69251603
1219,1466,4,1812825000.0,3007825164.1713476,1134969000.0,1620788148.2588463,677856000.0,811801509.6998277,53184000.0,214033064.01912647,120142000.0,307404954.8188105,173326000.0,438609230.7340671,31929000.0,50203738.377205454,16945000.0,180209565.08914784,36239000.0,58085013.593235716
201,814,4,-1450776000.0,-63650693.95967102,-894261000.0,125237121.62503862,-556515000.0,626634955.1989938,162740000.0,124634155.16995364,213058000.0,284228647.09830946,375798000.0,462919647.46770275,-31210000.0,22618637.204856053,193950000.0,158784789.2542785,-31210000.0,58040933.504373476
580,988,0,526507000.0,1786999895.502277,370554000.0,1193532663.0157495,155953000.0,851490182.8047016,66328000.0,173251191.46091646,107226000.0,272083834.78310394,173554000.0,351983553.2979053,-7923000.0,38600198.033400975,69543000.0,189725995.24684498,-3215000.0,44281188.76778378
268,1306,2,3089123000.0,2983326465.452972,1300561000.0,2427868191.390745,1788562000.0,1344755394.4316735,286131000.0,298876842.3334421,850247000.0,515386282.21410733,1136378000.0,906701896.8903748,205227000.0,99137334.68169227,1010678000.0,423917296.58571434,-724547000.0,52810913.087651856
484,784,4,2026392000.0,2140775155.2391844,773709000.0,1161006144.5258465,1259138837.126244,768199238.5963187,36270000.0,189696038.08338806,906000.0,212295329.55310744,37176000.0,326136692.37660515,-286393000.0,12686472.375634924,341823000.0,187188587.3833808,-305553000.0,58856304.55360347
1169,1024,4,59798486.0,881009066.0316458,24561228.0,865490162.3926132,24680354.49630476,243461562.4801123,-143441.0,71929924.11006808,231837.0,50296052.33623397,88396.0,36495337.97966015,-6239976.0,21513443.819998994,6096535.0,114918703.87399018,-6239976.0,56114520.11475709
595,957,1,269960000.0,1386486256.243929,370356000.0,771803394.0522671,-100396000.0,554668772.7310218,29296000.0,92861872.11831182,911000.0,63911144.90201807,30207000.0,119097619.11106455,-31260000.0,16841770.342685983,67269000.0,153081001.44364753,-37973000.0,33999851.36867669
1664,236,2,1411497000.0,2123479867.720292,713457000.0,1412607582.8021872,667698000.0,717384417.7750504,123110000.0,175119269.01298088,21917000.0,134341042.78639305,145027000.0,255341536.4840629,16171000.0,18749609.667862654,124278000.0,208968585.0829495,-1168000.0,53374268.47762593
1737,91,2,1068388000.0,1752571720.3161473,793168000.0,1215404890.520484,275220000.0,534915355.80635977,1125000.0,136099381.1205176,126961000.0,174099620.09725565,114574000.0,182058094.28630102,-123332000.0,-7489082.026001558,124457000.0,178995475.91901392,-123332000.0,55434695.5736917
1105,1395,0,736494000.0,1513485123.9047322,390655000.0,1084512268.2863765,345839000.0,681823833.1008728,107458000.0,137670943.00493598,77264000.0,99003905.97256494,184722000.0,181449176.76143312,-21496000.0,26835578.88209319,128954000.0,180823060.06904313,-21496000.0,25826499.89086034
366,1224,4,1026034000.0,1909214331.131791,544592518.5648394,1016846678.9509809,829659000.0,901139725.1510128,179923000.0,197884021.87033182,-1664000.0,225375918.86780488,178259000.0,266159744.7884946,43073000.0,44035734.05439834,136850000.0,190692082.89874002,43073000.0,59976270.584009886
847,851,2,2995900000.0,2724326452.016507,1720300000.0,1476146798.6996846,1275600000.0,1141921005.973459,234800000.0,243963063.0332196,244100000.0,290006915.5410913,478900000.0,477048878.23102283,25200000.0,40296876.312946744,209600000.0,181244814.6756455,25200000.0,52491129.76719146
1604,1022,1,700529000.0,1839530814.906868,363632000.0,1043818345.3563523,335762000.0,548560847.65463,46249000.0,103914290.20896,72678000.0,111708852.82470977,118927000.0,185855225.37645507,-13197000.0,23082269.559957042,59446000.0,166955369.4978393,-13197000.0,23477746.44486704
579,1157,1,5913288000.0,5442839807.548444,5639252000.0,3530280151.9737606,274036000.0,1924533969.0559666,470311000.0,480847756.0226784,1040995000.0,879842241.2040591,1511306000.0,1491888527.8414361,65962000.0,97552839.75253707,404349000.0,313571510.67053527,65962000.0,48962904.13670707
874,1087,1,232365000.0,1441850402.5446053,164743000.0,1122445012.4123302,67622000.0,691413486.740429,43176000.0,104943329.1491527,202053000.0,114040734.62937045,245229000.0,199938669.28375793,9035000.0,39403053.73354395,31930000.0,163662050.24079242,11246000.0,42900759.31410005
193,444,4,24556000.0,888410422.416565,5997000.0,911083454.0394347,18559000.0,281391129.8297466,-561000.0,85206204.05531335,1648000.0,35784917.25773382,1087000.0,58114561.04908681,-8770000.0,25225788.210872583,3225000.0,114421567.45666233,-3786000.0,55816093.8215303
680,1346,2,7852974.0,1089614820.4327393,8726749.0,530276762.1853981,-873775.0,60524545.646580935,1562860.0,73119599.06444979,0.0,-27417276.79138732,1562860.0,-15847695.228720903,-1603437.0,-15600768.55793032,3166297.0,106449009.6405024,-1603437.0,50189578.159060076
702,1153,0,52606000.0,982266194.8237038,31088000.0,745182892.8821564,21518000.0,575972652.6304274,2202000.0,130956573.32988715,21569000.0,38621212.78884578,23771000.0,53527371.50911367,-1737000.0,24515670.610861823,2889000.0,120152973.17850187,-687000.0,27304814.611021437
499,780,3,641605000.0,1957715832.7889442,98505000.0,1213939183.330685,543100000.0,594679626.3718302,35752000.0,147580920.7161178,3063000.0,200337195.82782853,38815000.0,221561540.10287917,-5995000.0,27191175.291887283,24767000.0,104193922.515106,10985000.0,63422071.301011525
277,1226,2,428119000.0,1668615131.1893659,200385000.0,977683172.0372252,227734000.0,460809251.53354657,32734000.0,117426007.91536814,3693000.0,65966335.68498528,36427000.0,161105960.76018357,-31432000.0,-8316296.238804013,67859000.0,197099508.36558884,-35125000.0,55614372.28762719
1540,1308,0,1748597000.0,1866860431.805893,773677579.6790999,1438884994.3484538,871968000.0,1010766855.3075529,88936000.0,211858224.25983152,314131000.0,240328078.9122312,403067000.0,308662444.17524755,36520000.0,46852346.76374901,38806000.0,194395018.15168223,50130000.0,55184794.3603951
40,795,3,-12646800000.0,2755952072.9299946,-10176700000.0,1525462816.3695316,-2456100000.0,1423301310.2698076,244400000.0,297647375.9827584,496400000.0,423662241.9695735,740800000.0,898493640.470362,16300000.0,161344472.8157351,228100000.0,334726630.08042276,16300000.0,59906826.065703556
109,1178,0,1646711000.0,2342481652.8793354,1388441000.0,1677263067.442122,258270000.0,969556061.6479995,48094000.0,208218646.04262683,144654000.0,375704413.05870545,147710000.0,516480678.00931466,-42502000.0,50577035.334079534,79586000.0,196158038.1030333,-31492000.0,36366635.28004937
111,942,1,632540000.0,2356937654.274862,270366000.0,1174288586.8912892,362174000.0,915600060.6426275,197077000.0,129523475.84864336,14622000.0,102910193.46642494,211699000.0,237835315.4355607,-57776000.0,25795848.049182832,97890000.0,169925253.63571122,99187000.0,30694196.864740938
662,1223,0,156269000.0,1188142155.228457,70363000.0,873933442.8752956,85906000.0,721878501.8526331,19503000.0,157047620.74176458,30881000.0,126360125.95711589,50384000.0,113448917.1180439,3657000.0,32098931.062433273,15846000.0,142173939.06730548,3657000.0,39664014.055617854
1749,1075,3,12875300000.0,7474631352.551655,6095371591.431398,4738310575.183578,1810000000.0,2821642775.539505,1227700000.0,740158625.1943226,4400600000.0,3428507500.3500667,5628300000.0,5093861428.100859,478400000.0,180413769.2549491,749300000.0,622498117.8439416,478400000.0,62485082.19088744
340,1604,4,441781000.0,1552020160.7375007,86587000.0,1172723423.608889,355194000.0,686282704.4619272,97393000.0,145682425.90292382,44971000.0,159209415.49129283,142364000.0,142353722.03765094,9954000.0,36735188.703996524,87439000.0,157268894.58284652,9954000.0,57318271.54459668
811,76,2,1903960000.0,2793974026.2693024,1118147333.3250542,1541009695.6698277,464992000.0,1081674986.473081,314173000.0,251491931.1439065,381360000.0,408876260.59963334,695533000.0,663111715.0188348,49703000.0,39292659.0256438,262823000.0,224922295.35659423,51350000.0,60934323.185644
1016,285,3,413017000.0,1128874759.8481684,156380700.0672279,846241624.0161355,290614000.0,363850605.3705702,164000.0,108318846.64373845,0.0,28606054.76661253,164000.0,61969496.01311481,-47612000.0,7632931.45349884,47776000.0,85252812.09489292,-47612000.0,61786548.49594025
1696,1098,0,6459000000.0,4560882181.41679,3814000000.0,2862384118.424139,2645000000.0,1675297116.5088916,417000000.0,323159538.788026,1137000000.0,648262569.3719146,1554000000.0,1267385005.1931844,109000000.0,56127556.50795085,308000000.0,259873286.8834631,109000000.0,60192961.97025915
200,606,2,6683800000.0,3749733075.271386,2530688381.1304083,2671138374.9643106,4153111618.869592,1689843585.7969797,363300000.0,333234259.1031369,268000000.0,470598819.25502205,631300000.0,753246576.7015336,83300000.0,55581786.655081905,257700000.0,217409219.34027207,105600000.0,54956579.539822556
1994,1434,1,165094000.0,1225137215.924478,70482000.0,860490204.6071625,94612000.0,532825240.00940704,17629000.0,92245442.07238615,13074000.0,49279366.53127694,30703000.0,97149150.50048602,1152000.0,27251622.35220425,16477000.0,135937907.94723898,1152000.0,34423318.32919291
735,820,3,8604673.0,1079583356.3676105,2338502.0,539132676.2411699,6266171.0,176416525.77941298,1119391.0,95509851.59672594,1576117.0,21353355.417193055,2695508.0,23265499.381523132,23726.0,-2739916.523910448,1095665.0,50853979.640161455,23726.0,61822677.187192895
1160,541,2,30395557000.0,20985474859.752316,16133181687.752192,7487792545.064012,6297705000.0,4907757383.431389,3044686000.0,2132493590.4000506,6751495000.0,5112991473.171796,9796181000.0,7740491459.164388,692314000.0,644654674.5575691,2352372000.0,1199625790.3194942,692314000.0,70185528.7638639
2018,1005,3,764077821.0,1630774385.0569324,149164973.0,1299723345.707967,540969385.0,507276571.0827139,20737462.0,131478188.68493801,3810639.0,135366450.62181532,24548101.0,135840439.3214891,-1942729.0,25415216.344934717,26490830.0,106711875.89237228,-5753368.0,64108636.33886746
597,411,2,19932000000.0,15493207947.883656,15924000000.0,8740866151.323492,3938000000.0,3469954329.32666,677000000.0,608642412.1635652,2894000000.0,2712273276.121169,3571000000.0,3769258750.353785,325000000.0,218921140.9226442,132000000.0,296397322.340738,545000000.0,51697998.03701019
1089,561,2,114455000.0,1425071177.6358447,66800000.0,957645343.952014,47655000.0,312074889.65644586,-324000.0,96635220.02515787,692000.0,-731419.8787896633,368000.0,-2133011.403416395,-4444000.0,-9055364.24258636,6127000.0,160219540.75365627,-6451000.0,52093818.79172057
1635,1106,2,123009000000.0,-21760549615.281357,61047097858.95223,-20136206791.669376,24132000000.0,7375900911.824096,3661000000.0,2011766164.2258363,846000000.0,973919552.8888619,4507000000.0,4091218874.884828,401000000.0,438781095.93363297,5487000000.0,2356189175.651733,-1826000000.0,74430330.65288746
394,712,1,1472222000.0,2713187416.322573,444895000.0,1538687717.1205778,1027327000.0,1092496805.0854611,423804000.0,237240439.05044764,0.0,218939620.27588505,423804000.0,422934888.74067736,44683000.0,55047789.15619486,379121000.0,225795170.72368938,44683000.0,54945834.69995608
176,611,2,1707972000.0,1987481124.974352,826699000.0,1403865627.8522363,881273000.0,725830700.2707367,161237000.0,149929878.20253313,18721000.0,166206484.04541183,179958000.0,272865423.39014673,-38330000.0,20725605.953600124,218288000.0,200912901.4659409,-57051000.0,56313445.940959446
958,800,3,140348000.0,1569312989.861247,22627000.0,994963851.1927722,117721000.0,479644534.3130379,18849000.0,108472405.09754252,19797000.0,58181605.125835896,38646000.0,58888094.04115796,5179000.0,12103676.271776602,24028000.0,81118017.51627684,-5179000.0,55711698.32020088
651,322,1,68862000000.0,56312811032.74806,37281000000.0,32723450091.72852,30258000000.0,23874467094.764687,682000000.0,949620564.8658428,1405000000.0,1321545258.3113828,2087000000.0,2810929008.9354744,938000000.0,488621400.2718289,2969000000.0,1548731431.576483,-2287000000.0,-352904509.1233228
648,1558,2,484306000.0,1641913598.6234827,160149000.0,1172982749.4898424,324110000.0,573475919.2899547,35935000.0,162141899.59251904,49919000.0,111935676.46888793,85854000.0,185943335.97305417,8224000.0,15319844.41271235,26558000.0,160716418.85576937,9377000.0,55671153.3637896
1124,702,1,263629355.0,1218556736.0790062,139827658.8984726,920740358.0085411,106790041.0,624642216.3452868,4718481.0,101155813.83355945,-3354938.0,8092921.409319639,1363543.0,65373893.75548279,2345966.0,26495206.79453355,2372515.0,156888283.12868425,2345966.0,34085573.24768811
1983,198,0,22654400000.0,14945644012.38525,10023579681.929111,7545674035.086067,12050300000.0,6546091131.695075,409600000.0,662501982.3444659,3138700000.0,2388659010.3760366,3548300000.0,4458546152.634182,145800000.0,242010065.52462226,119900000.0,322733799.1850152,289700000.0,160672973.2131585
1330,788,0,55695000.0,918369631.3269777,80300000.0,649506270.0602098,-24605000.0,573121897.3408904,-33328000.0,115377138.45634758,45694000.0,24533929.505861282,12366000.0,38822325.26984608,-48025000.0,19656842.5870744,14697000.0,124546570.30147433,-48025000.0,32406903.95989215
445,759,4,33248145.0,906537533.9448543,21743057.0,821925294.3928242,11505088.0,238981940.5207088,1461398.0,71004329.83227795,569502.0,61707116.26021838,2030900.0,35620583.438810825,-12979193.0,23753703.155673414,15010093.0,122899843.475896,-13548695.0,50697601.84204664
908,1168,0,19900000000.0,9780908406.730871,10348000000.0,5654531096.900836,9552000000.0,4972989210.6677,2649000000.0,1484495870.4127533,0.0,457421260.03112185,2649000000.0,2052671740.0012608,467000000.0,321284349.6193378,2182000000.0,776254717.351224,467000000.0,79149144.77727774
1585,827,1,2485319000.0,3146431975.0181456,1254039550.5762374,1785806646.3369794,1849463000.0,1247598956.23672,775144000.0,364488377.73143524,0.0,256963801.2487648,775144000.0,591335388.3868183,128435000.0,56116401.32124177,646709000.0,368855074.45667464,128435000.0,50453321.21779652
643,716,2,959084000.0,2049266223.955504,491986000.0,1402828123.7635238,395838334.6316486,580261698.6826859,56609000.0,165926858.31913522,47928000.0,152068312.28763437,104537000.0,214299752.09526205,-22287000.0,5679747.330701858,141301000.0,179514403.57638445,-84692000.0,55003130.24856846
1240,286,2,1657157000.0,3212431957.900159,2335507000.0,1772571636.0331173,-678350000.0,827327157.4263847,-96698000.0,259344578.86889905,98929000.0,284925489.8235906,2231000.0,533199808.98544323,-125632000.0,16501223.273833007,312618000.0,266922287.61935812,-409316000.0,52969876.12348834
64,793,0,1590600000.0,1808260887.0408726,748600000.0,1399757435.3735309,842000000.0,950909029.4203162,59700000.0,219389832.0247991,141700000.0,284595362.6644607,201400000.0,303816554.5819634,13800000.0,39103386.53242863,37700000.0,185827857.84051737,22000000.0,49417076.290690534
1027,1557,3,919607000.0,1884481827.3967142,266509000.0,1123241010.3659413,653098000.0,572887136.4961721,68886000.0,119845964.76386416,19532000.0,132241727.07653242,84131000.0,179984365.2539556,-18050000.0,28307319.45541151,86936000.0,117462408.06805936,-18050000.0,64841710.409978725
1034,492,1,121754701.0,1159988251.4213605,28424394.0,648331364.4259272,93330307.0,395847378.2572992,1406469.0,77471607.01799655,-1378985.0,14050789.361651063,27484.0,67990874.84661508,-14928443.0,-14748972.867944077,16334912.0,166648452.94773576,-14928443.0,14398421.993797254
802,1188,0,12973000000.0,8838038357.211578,6013807636.489885,4332528591.933716,6537000000.0,2934020270.0392146,82000000.0,581260070.4413741,545000000.0,570070523.1977024,627000000.0,1616293221.242073,7000000.0,226974183.84397036,46000000.0,331295666.25457203,36000000.0,54324335.13446234
981,450,3,613608000.0,1429453893.5432878,391072000.0,1174119470.486313,222536000.0,454672945.17882717,1437000.0,111797108.5518592,10955000.0,124088817.6445769,12392000.0,101172100.57767391,-84729000.0,12333736.420078784,40703000.0,109548965.82191631,-39266000.0,53866121.20525033
1046,264,4,102303000.0,1192273099.865664,104192000.0,898792602.837899,-1889000.0,409342222.1984948,12811000.0,104165472.30501932,42439000.0,128525634.74345481,55250000.0,110455224.39523935,700000.0,30958479.12073084,12111000.0,147719869.97041786,700000.0,58406661.40697169
581,781,2,1023085000.0,2248165981.2037196,937155000.0,1559030030.6803033,85930000.0,865966007.6011722,87759000.0,221676129.44399554,257840000.0,365806708.00762457,345599000.0,476236608.7386787,-36941000.0,10283111.490074739,111965000.0,197987892.79600167,-24206000.0,60500778.6122169
1033,587,1,822101000.0,1738822035.8128538,260505000.0,1109594520.2183657,561596000.0,694642769.4395772,113425000.0,110073934.57372034,-8261000.0,45712801.64259493,105164000.0,141067726.34117508,25956000.0,25446784.947247848,87469000.0,167891713.32690093,25956000.0,42334572.75933879
1908,52,1,972779000.0,2453206846.3627677,674585000.0,1465362649.6923065,298194000.0,776305383.3558573,81122000.0,140737910.76689208,33069000.0,166881051.05267602,114191000.0,329709472.2532356,-12742000.0,26125915.496371582,93864000.0,178439410.86744037,-12742000.0,32212347.06550129
1486,1525,0,505122000.0,1462333676.0352411,329765000.0,1181986100.9989872,175357000.0,720581151.055329,66862000.0,155663900.3127457,-15726000.0,127222356.6224817,51136000.0,120660244.97109413,-8784000.0,33080277.504315227,75646000.0,202112575.83096355,-8784000.0,49993179.81933597
640,1126,2,420505000.0,1536430840.4489226,230508000.0,1057959331.1327868,189997000.0,395886585.9084637,53603000.0,143919373.5850628,71511000.0,111306246.1414628,125114000.0,124960810.5066346,16734000.0,13983707.16504334,36869000.0,178510192.79994386,16734000.0,49291255.22177543
1988,1423,2,216274000000.0,126469741549.4311,73401000000.0,48844578575.734764,142873000000.0,54820796752.92355,27936000000.0,12653351454.135069,6210000000.0,5270631568.411401,34146000000.0,27117591364.570732,13748000000.0,3661057875.9011993,20398000000.0,11876593009.543146,7538000000.0,197966427.28643423
469,523,0,122531000000.0,59454219223.287506,74517000000.0,44313612154.85749,57494689417.43809,11239232126.184828,11370000000.0,7326468874.624395,10501000000.0,6025513507.262484,21871000000.0,15975793722.947676,5767000000.0,2709998164.1567574,5604000000.0,3422349247.330131,5766000000.0,1656978191.6151085
606,610,3,5723214000.0,3784449009.5233655,2776207000.0,976084989.6138201,2947007000.0,1289309582.2301295,448941000.0,458578213.4575452,516900000.0,411805214.8470012,865197000.0,918810939.9315842,78214000.0,69234734.61859748,370727000.0,324834801.1332304,78214000.0,62097003.78918682
1877,222,1,689227000.0,1703981611.7201853,562767000.0,1200767213.1473713,126460000.0,716075273.9308084,40662000.0,91580203.96782547,11086000.0,59616422.39985263,47740000.0,137195767.59194946,-28335000.0,25297001.420726508,68997000.0,173940021.5210817,-28335000.0,42479003.39359149
1148,835,3,600857000.0,1353498351.0893831,331349000.0,1166316292.0734484,269508000.0,480874974.1609448,50595000.0,148177399.25264585,6532000.0,70758582.59637737,57127000.0,143071650.12842584,-62120000.0,22596526.605327964,83188000.0,108666870.562085,-32593000.0,62498968.73353861
1653,1071,2,56794000.0,1597964272.0212083,12682000.0,863673635.4722238,44112000.0,277194468.71724415,25087000.0,116101754.17863947,14791000.0,52845911.38689482,39878000.0,75310349.24842453,-4627000.0,-2993109.19388853,44505000.0,144841226.13274515,-19418000.0,52911081.31590878
1205,1215,3,3747000.0,869890738.6617494,4407000.0,475559433.1683731,-660000.0,89208824.08630931,-1515000.0,66061082.15171075,1515000.0,-1225289.534305811,0.0,-1113199.7043466568,-2598000.0,-1004910.2525581121,1083000.0,60879312.457715034,-2598000.0,58172109.10101291
1612,469,4,3505835000.0,3463395037.7050166,1860807256.214476,1940282469.0380847,1470074000.0,1296142588.958436,601953000.0,462351377.0153999,626097000.0,499230749.1265744,1228050000.0,1173247448.5685043,88554000.0,63125650.819728225,475916000.0,286762440.1175501,126037000.0,59381113.949125685
1894,1176,2,203011000.0,1531069707.499991,255300000.0,980633968.7424269,-52289000.0,270457106.7664306,8409000.0,133933012.87916565,25579000.0,67828327.4636885,33988000.0,91186637.07402742,-8212000.0,-2800944.9971048236,15533000.0,161456121.78501078,-7124000.0,55175615.52993117
458,389,4,3126495000.0,3047225298.788329,2137404000.0,1431901825.194258,989091000.0,1194132940.9902093,70679000.0,226661605.6362396,930828000.0,345950069.3932184,1001507000.0,602984176.8082337,21039000.0,59919542.38224091,49640000.0,172464543.92484584,21039000.0,59976270.584009886
782,84,4,36175654.0,1158055030.5588222,19187381.496044576,1005646257.634017,18868678.0,322287012.88420606,22295962.0,98023670.33220619,2274626.0,81509137.2130847,24570588.0,47982587.1352644,-1191082.0,24381026.81933988,23487044.0,117458818.4597984,-1191082.0,54411059.06354273
21,1515,0,3642433000.0,3842467875.567593,1611617055.0351417,2366968723.783903,2307595000.0,1465979881.2312522,392263000.0,288769213.4864348,1442178000.0,934601884.5982138,1834441000.0,1261515177.9875596,185633000.0,70201013.60449247,1648808000.0,585529993.7112801,-1256545000.0,16561255.154251143
323,413,0,102171000.0,1154606203.4127665,80142000.0,700036500.0368733,22029000.0,625064803.1936076,11994000.0,104925896.35025412,1280000.0,29970004.446020126,12084000.0,28713248.544403076,-8453000.0,21315897.1243563,20447000.0,143432653.0949512,-8453000.0,17861257.398537293
1847,390,3,11562769000.0,5213898994.345757,8634392000.0,3671318375.092834,2928377000.0,2238738913.5248427,696915000.0,823745124.5714731,4617768000.0,3362399514.869902,5314683000.0,4616060538.193062,87484000.0,76752827.16364664,6096071000.0,5117677854.290924,-5399156000.0,-45332012.62599069
1304,355,3,1061958000.0,1973428538.6911516,603583000.0,1071906980.1926434,275904000.0,485340093.75741726,75380000.0,135266800.2137882,85007000.0,132487735.5599631,160387000.0,177694945.38814473,19279000.0,17908657.36310324,56101000.0,112408822.0459418,19279000.0,60727619.59576623
1031,797,1,1709464000.0,2301518265.3822255,792444897.6724385,1250053243.415358,917019102.3275616,856385098.1947949,-50089000.0,164288041.70495328,206500000.0,211978191.57814014,156411000.0,230135209.98930895,62554000.0,54583913.94794046,32611000.0,182036666.99216405,-82700000.0,34265589.17486949
1109,1480,0,1182200000.0,1958464974.3654752,559672263.5892134,1325162528.747109,993300000.0,968209211.2733375,77500000.0,186838249.13153756,102700000.0,233141081.1067878,175100000.0,286067867.3228394,21600000.0,36346282.23998491,55900000.0,202502427.07021642,21600000.0,29461108.74362768
1483,58,0,15318000000.0,10255910024.775162,8995872209.433592,5931734622.650934,2835000000.0,2062089391.2642198,2220000000.0,1769645440.6341434,7363000000.0,7342779763.937108,9583000000.0,8747950227.491102,348000000.0,250216729.58464637,1879000000.0,871242243.8048898,341000000.0,88760379.64210655
739,93,0,2898416000.0,1305744016.901113,2080781000.0,683353859.46804,476998000.0,749840654.8976967,19746000.0,132065477.43437546,-19746000.0,46370381.15155864,0.0,49913913.97594416,-16089000.0,23978945.610722423,35835000.0,147443699.9862195,-16089000.0,19354677.808583267
1565,82,1,37777000.0,1016661597.9189167,8088000.0,728851318.5340772,29689000.0,434967940.8908125,1942000.0,57917934.259735346,1878000.0,14583137.556851387,3820000.0,35266180.77838254,-3377000.0,17261309.725350827,5319000.0,111515673.31171244,-3377000.0,27911385.794390038
1547,294,4,350115000.0,1545035309.3691154,124447000.0,1181771918.1784327,144501356.0121529,637135487.7025948,23341000.0,125099194.02149582,74465000.0,201185024.71760374,97806000.0,219338289.66504943,1273000.0,40122497.2230704,21144000.0,174829490.56281996,2197000.0,59059466.13538971
1772,1076,2,60756000.0,1328408544.8095183,14120000.0,767708800.9499469,46636000.0,346114802.9113258,39398000.0,118858436.645585,0.0,30423492.41103041,39398000.0,85546694.99105024,1277000.0,-2746830.301583424,38121000.0,143741742.9802365,1277000.0,54385160.333232395
396,895,3,2329417000.0,2270416760.3512764,1103945000.0,1361448379.1633236,1225472000.0,1110375427.7476912,201803000.0,246922075.66854075,84310000.0,309731799.9027813,286113000.0,437550874.002671,4458000.0,46256161.189253315,134794000.0,162336881.2646848,67009000.0,62423854.29340107
370,1149,4,322707000.0,1492116855.5069447,203952000.0,1192675292.0624082,133189378.04611006,637782433.493017,59563000.0,138498981.31339163,32549000.0,205671423.906524,92112000.0,128000565.45864189,2829000.0,35492991.02358096,56734000.0,158507674.9265823,2829000.0,57961392.75791148
1387,1142,1,16986396.0,891120009.9868903,28398941.0,400432227.02270794,7976898.609990532,284418485.9248531,-2992.0,45485597.758475125,2987192.0,-3107444.3468677998,2984200.0,18349932.329668522,-2823081.0,13860020.2126237,2820089.0,105381467.19233876,-2823081.0,23085291.65893288
1633,1471,4,5507733.0,568302487.754581,3754986.0,645356246.3484521,1752747.0,172758291.73074996,77969.0,51466002.81748819,690.0,-45631398.26840913,78659.0,-28532738.150059223,-1288944.0,14083596.040811524,1288944.0,92954925.58690101,-1210975.0,51758952.43434305
1459,1018,0,2951779000.0,2203710004.0553713,1733504809.66769,1677858650.1063316,-705417000.0,855114757.6572255,103159000.0,285805084.1347902,95357000.0,213548825.49167794,198516000.0,343748124.6325134,63542000.0,51019798.36960421,39617000.0,228693292.59168607,63542000.0,57900908.6206777
447,743,0,1389340000.0,1989461009.9697762,870172000.0,1534730232.16488,518687000.0,971626977.018082,122910000.0,245073081.56596208,509918000.0,330720982.36641985,632828000.0,414856214.59416723,77637000.0,51966912.55088246,35836000.0,223583330.32736725,87074000.0,53886289.591943264
1342,1015,3,670100000.0,1714441711.4504309,96919000.0,970739679.4063704,573181000.0,419963264.85788286,45369000.0,101330393.98877686,10723000.0,63272624.97934985,56092000.0,82699519.48707902,-44376000.0,5986467.6010890305,100468000.0,108292605.63692716,-55099000.0,59950640.420825325
1101,50,3,796235000.0,1067582483.0427713,203741000.0,921847870.2495005,463390000.0,397659203.12791646,475000.0,111979524.38706392,0.0,66582043.19994128,475000.0,34811593.69049084,-25797000.0,11926357.621155635,26272000.0,89617360.59533909,-25797000.0,61272168.044446744
1559,1356,2,243654000.0,1354003574.4188766,108112000.0,855500469.1109767,135542000.0,303812963.12857807,37230000.0,97686884.9575895,3845000.0,31064810.05116999,4798000.0,56174656.840792775,-21869000.0,-16555930.124201328,59099000.0,170592930.57806146,-21869000.0,53556888.503758565
1859,1506,4,63057347.0,1164225547.011663,37031977.76980746,895050613.1207683,50373559.0,437972802.9743769,5114390.0,111400794.70695615,9540399.0,107766040.89848667,14654789.0,83370398.28605294,3126608.0,37879544.69950901,1987782.0,126380987.62397292,3126608.0,58490076.37215663
625,3,4,2120798000.0,2021352331.7343907,1472395000.0,1135387069.8259773,648403000.0,702301598.3417048,67913000.0,173082539.4262056,30767000.0,167169254.08537167,98680000.0,250427773.2329129,-9629000.0,23422085.033947527,77542000.0,156615286.79146236,-9629000.0,58089562.50496443
1728,295,3,706517000.0,1974792377.0438771,905805000.0,1126698744.401984,-199288000.0,647309336.3319654,73709000.0,187364564.20961586,16853000.0,174179518.68332577,90562000.0,188302975.8855822,38915000.0,36728103.13533156,34794000.0,136334140.00503778,38915000.0,63374643.14431561
1404,1537,3,76126346.0,1227309569.2388072,61120101.0,968413739.2906044,15006245.0,364296392.84893394,2282652.0,111337245.67876309,31006950.0,76152432.70608544,33289602.0,104346850.59137082,-2890968.0,14195162.333002925,5173620.0,58434399.726323426,-2890968.0,66035704.76674782
1515,304,4,156303000.0,1427672743.37327,83901000.0,1006760931.346916,72402000.0,524765134.3345736,17689000.0,95850382.51637846,41469000.0,147906245.03390276,59158000.0,130169882.33792126,-2517000.0,25282467.21856004,20206000.0,138070595.7074931,-2517000.0,57961392.75791148
1800,573,0,3271200000.0,3997493702.45714,1447362713.447565,1986761411.7138999,-21400000.0,1114110834.372798,31300000.0,239590853.92743304,847700000.0,568437388.8711016,879000000.0,929901382.2146187,-16400000.0,29564423.427530378,66600000.0,207551459.76496375,-35300000.0,43154565.99879311
4,842,1,7361000.0,839646324.3860931,2671000.0,240220820.1302209,4573903.262590003,206645913.53994966,349000.0,31234892.673784435,109000.0,2811414.5063482523,458000.0,-18619133.1907866,-670000.0,8227312.537582681,1019000.0,66710691.95306134,-670000.0,19116658.6026768
1400,1203,0,-4860602000.0,1893340698.6868043,-990657000.0,1478189668.9980423,-3869945000.0,1206793932.8593535,193881000.0,310881830.5955083,378009000.0,554367898.2635077,571890000.0,744738655.7456508,36078000.0,72909946.61278029,124685000.0,240663973.04730934,69196000.0,45369417.690105826
617,1499,1,5475000000.0,4785815949.936203,4861300000.0,3154702695.4921966,613700000.0,1615644915.574277,130600000.0,359154738.93158865,1421300000.0,839925239.9836831,1551900000.0,1124179343.7862458,23900000.0,76845110.8131615,81800000.0,199388017.51770535,48800000.0,54848372.023654155
570,614,4,9643000.0,975804977.0538535,6164000.0,854087222.1283221,3479000.0,219263798.8123325,1843000.0,78839405.05230278,2246000.0,55289053.14000845,4089000.0,28261745.855392933,-437000.0,27438030.9637428,2240000.0,123072064.4461312,-397000.0,55141396.4401841
2015,792,1,12012800000.0,5165381238.700944,6608200000.0,2592344862.8234873,4911800000.0,2062300623.0659876,457000000.0,421064678.70976907,316800000.0,346249467.9978692,773800000.0,838642093.6647903,145800000.0,70222561.64296699,203500000.0,275578786.3691701,253500000.0,66256118.36771499
576,1054,4,6644800000.0,4113767136.30108,3248100000.0,1937013179.0758305,2786600000.0,1672937230.9181387,345800000.0,301311339.93644536,33000000.0,394643499.05158496,378800000.0,728297586.4878893,36000000.0,48198088.27587191,342800000.0,285024548.3303019,3000000.0,58085013.593235716
1397,155,3,136174000.0,1239761350.3800178,62163000.0,817428804.122462,72304000.0,295029204.3950578,10072000.0,93298886.33901042,-3712000.0,10038253.047277689,6360000.0,44788885.54756725,-12604000.0,2744664.233625591,22676000.0,79532940.22264233,-12604000.0,61579413.4857173
1134,1493,2,160043000.0,1373311784.4142804,101422000.0,858902414.0292706,58621000.0,286781023.25472987,15202000.0,99823316.73175108,-14386000.0,-27868870.015427828,816000.0,29925327.02786565,-14398000.0,-8894739.843987301,29600000.0,138313658.54151917,-14398000.0,49861716.19024301
188,368,0,9282000.0,951154761.0819864,3493000.0,398454949.2110572,5789000.0,581110430.7710655,355000.0,114041853.98324609,552000.0,739191.8167722225,907000.0,24971258.794109583,-972000.0,17226069.218274534,1327000.0,103441901.8867178,-972000.0,18430038.796784967
488,324,4,16124000000.0,10934522302.83311,13383000000.0,6235149240.867941,2741000000.0,2558321935.9637012,5251000000.0,1430054969.482831,4961000000.0,1860426130.3097506,9233000000.0,4604078488.37117,1583000000.0,387457768.1915695,3668000000.0,839766065.235575,1583000000.0,58468857.215644374
1211,484,4,1601068000.0,2429174145.4461637,1081707000.0,1351553829.6074781,519361000.0,891050831.276787,248876000.0,229183111.43054584,-34521000.0,260362029.7561314,214355000.0,366353839.4859309,19006000.0,44171515.161912225,229870000.0,207584781.9863546,19006000.0,58856304.55360347
1580,868,0,779622000.0,1512514654.0872183,153452000.0,1243396343.724917,626170000.0,819888242.7287884,134561000.0,209308118.41964617,57608000.0,207049566.26302356,192169000.0,259200506.50698197,56917000.0,48655837.51506154,77644000.0,175742169.60395455,56917000.0,52484820.23164749
1533,863,0,4162272000.0,3192403116.507568,862254000.0,1930426741.3361082,3299439000.0,1553823926.6259055,357871000.0,289409406.1996722,794265000.0,576498445.1656361,1152136000.0,1000473041.0119481,114028000.0,93765088.53597039,194829000.0,249172108.53711617,163042000.0,62528006.10052574
818,1420,0,13900400000.0,9163855882.891762,12204100000.0,6564163175.204098,7319729781.089915,3219071024.0115724,78200000.0,358519408.5594037,235100000.0,446711234.41782343,313300000.0,1375640626.3241696,174900000.0,103058218.68360935,116600000.0,303432422.4910529,-38400000.0,58309942.90650448
50,744,4,594022000.0,1470901239.687737,132343000.0,1225871686.403655,461679000.0,659759021.6691773,121956000.0,140277553.84400177,1645000.0,165582480.76446646,123601000.0,155820390.74242067,31177000.0,38490564.05640717,45262000.0,165141818.94596937,76694000.0,53319503.37541051
590,341,2,1341960000.0,1798107773.4760714,666970000.0,1670303319.2613924,674990000.0,860765857.4846272,55930000.0,179491137.21346816,179410000.0,260505907.0432307,235340000.0,328120856.5034574,23760000.0,22285322.24878657,32290000.0,169180066.66083986,23640000.0,54838772.787026584
377,123,0,52901000.0,1115521502.124463,24522965.98920461,696249561.7143817,33404000.0,626132591.5686686,-1183000.0,150490075.76964894,24144000.0,46272171.43997097,22961000.0,59876268.89847779,-5692000.0,25634801.35055667,28653000.0,127896897.19723237,-29836000.0,31780691.620540757
1953,1327,1,877565000.0,2516599631.112267,1336553000.0,1610893184.6533406,-475192000.0,1006031882.9131944,522812000.0,290593060.96932364,-345617000.0,177846058.94332063,177195000.0,488558231.7011051,31868000.0,48239969.241297506,490944000.0,293810730.8567804,31868000.0,53306534.81522244
1018,1089,4,26568400000.0,19722033294.433784,13080400000.0,10923748013.796608,13246000000.0,6791027481.3637085,1346200000.0,691844941.6575265,1952200000.0,1265566066.4033093,3298400000.0,3095251268.5740376,592200000.0,169262685.18545955,746800000.0,318157550.1644642,599400000.0,59081358.78831789
709,872,1,2933971000.0,2542515874.4788485,2618511000.0,1617798339.7467608,315460000.0,1166594365.080232,65062000.0,140924948.58134866,2191000.0,191415644.81461644,67253000.0,471180586.51431274,-143265000.0,16622256.1920394,69951000.0,219371077.72482798,-4889000.0,43642026.57541322
1121,749,4,27828200000.0,17066453511.276527,13810622382.415062,9618450571.342306,7212400000.0,5608944881.948984,821300000.0,592581941.1245338,181300000.0,619685426.9058686,1002600000.0,1534718244.7902803,233000000.0,77540686.14881623,794400000.0,461000619.66721,26900000.0,58856304.55360347
1026,1450,0,2788943000.0,3198934686.919858,2662320000.0,1857618557.3831766,126623000.0,1141161818.0577965,299166000.0,263083971.7840833,0.0,237111100.80005854,299166000.0,516118017.78081095,-281667000.0,31782585.756580114,580833000.0,235881994.42451185,-281667000.0,39377746.58602166
1015,653,0,2489159000.0,2998596694.7544985,1954765000.0,1890148167.7599518,488897000.0,1235121869.1695743,294443000.0,302430858.93698376,370069000.0,439410191.7218162,636496000.0,656238768.9302211,64600000.0,50262724.40786851,229652000.0,236392550.98685038,64791000.0,50174935.00813525
1575,1512,3,11961066.0,971688706.6520033,1068497.0,602863292.0791974,10892569.0,102004648.32871997,611174.0,73018985.513067,0.0,-24992820.380945444,611174.0,-18357506.86208141,-1146685.0,-7510387.001434013,1757859.0,71078015.92022318,-1146685.0,56222466.74524143
826,654,4,93941000000.0,57994532383.44457,39446000000.0,28099556902.487114,53466000000.0,33351804316.414986,4178000000.0,4084054348.2978725,15656000000.0,12283904241.800388,18582000000.0,22112563321.82326,1764000000.0,2369165086.5661283,2414000000.0,2337612703.943471,1764000000.0,60099891.41933412
463,360,3,32097000000.0,24699683072.22535,20419000000.0,13546676837.331104,10658000000.0,5315485376.448729,2071000000.0,1550100054.490343,6360000000.0,4571167559.207071,8431000000.0,7048620204.491001,950000000.0,535743021.26472586,831000000.0,721686452.8772522,1240000000.0,63975046.27554215
1660,879,4,6578196.0,844676825.9967165,4441488.0,898865867.5327382,2465776.0,262587848.75008035,2008368.0,71637902.41800499,923641.0,9949088.063301086,2932009.0,11581051.483819485,-1328968.0,22894006.48729597,3337336.0,121586642.46347123,-1328968.0,48801732.40208506
700,48,0,1658042000.0,1836893714.1433563,1223260000.0,1535060157.832641,434782000.0,900397126.2332045,207698000.0,225881236.41261217,674127000.0,388009407.42082214,881825000.0,453890219.79118407,25549000.0,51905489.33795623,179614000.0,185964546.48820466,28084000.0,56745214.72272395
402,417,1,9094896.0,1029377232.7995706,13593163.0,337707774.2449441,-4498267.0,312169250.4476316,-928960.0,37865162.30802494,1115703.0,-7796268.0467505455,186743.0,36899361.99452758,-5136642.0,7340834.307696596,4207682.0,149762710.68838003,-5136642.0,21869406.792274754
591,843,0,16788482.0,966670372.4760199,821758.0,160622328.67130756,15966723.0,537305523.8251047,906228.0,85941972.65791392,333325.0,908676.5220601559,1239553.0,24826038.581373334,-1096396.0,11321968.866963893,2002625.0,93759391.14499098,-1096397.0,-8307758.875507489
412,358,0,1678241000.0,1523017695.0762506,730813000.0,1223721187.4109735,947428000.0,832745652.3153292,62311000.0,172411256.36507404,89643000.0,151030844.42879802,127553000.0,223585008.99927855,-24195000.0,29327216.474215955,86506000.0,179084688.94992718,-24195000.0,43321635.47870007
26,1117,1,1363308942.0,2038415073.737505,629855415.0,1323645892.1492953,733453527.0,976681243.4322138,93681798.0,149232456.24163687,0.0,60092381.79617965,93681798.0,179683759.6689813,39573525.0,32285872.05119419,54108273.0,186142015.72525793,39573525.0,42452799.4394125
205,711,2,15264467000.0,8139273105.459908,7226441209.924589,4290775918.1995273,3059451000.0,2822703961.3612175,592816000.0,505119692.01355374,378076000.0,621318245.4380687,970892000.0,1691832823.7482078,444977000.0,232499897.7473228,147839000.0,287819861.8893049,444977000.0,62418258.575923316
699,95,3,65987000.0,1316047352.0267239,35279000.0,1063499072.5881302,30708000.0,438751666.62592375,5319000.0,127677661.79048431,28050000.0,104096347.76214242,33369000.0,115594074.04440165,1124000.0,23400132.630787015,4195000.0,64298332.96330181,1124000.0,61640797.02051638
550,826,2,31945000000.0,28334021404.392975,26424000000.0,16233293935.693474,5506000000.0,5208700274.251205,1191000000.0,751918714.1090316,2895000000.0,2625545437.3255863,4086000000.0,3845393641.3377476,834000000.0,613683775.9594394,357000000.0,353543694.09812,834000000.0,54001631.59550713
140,1355,3,2655001000.0,3020585860.825717,1989549000.0,1056336036.711129,665452000.0,1028846182.5552802,67554000.0,245911922.85207048,403267000.0,326003351.24066144,470821000.0,503383886.5394858,-3426000.0,6745239.973459035,30096000.0,189655030.6795839,37458000.0,61298125.71889703
2004,516,2,9403000.0,1077181522.4518433,5511000.0,623258803.2856574,3892000.0,40922489.93617177,-48000.0,79021679.61761594,1387000.0,12086823.567160368,1339000.0,-12359214.396913528,-903000.0,-10225590.819439605,855000.0,112113297.84694913,-903000.0,54370619.480160125
28,171,2,551232000.0,1759513264.5496335,628224000.0,1303520630.5973196,-138322000.0,341095047.28990555,23716000.0,154607888.50824898,12709000.0,103070928.35362017,36425000.0,135588429.6306076,7478000.0,6443690.917666793,48579000.0,220575841.41473374,-24863000.0,53023229.873596445
844,1212,1,435750000.0,1453984039.094851,62826000.0,964378396.2466302,372924000.0,585809294.4695166,28152000.0,92758831.66589773,49267000.0,76217713.87252367,77419000.0,183312822.1920594,143000.0,20867090.578265563,28009000.0,154516536.97613546,143000.0,35565877.18935433
967,354,4,367699000.0,1348742006.5003304,382822000.0,994491882.8073499,-15123000.0,519876601.17753506,310000.0,133332596.72336912,0.0,157159448.15796673,310000.0,159529708.71308112,-47413000.0,26681569.186698206,47723000.0,152338099.11108834,-47413000.0,56330803.48636086
433,1410,0,3810682000.0,2829472718.0073285,2050315000.0,1549090438.3922458,1303319000.0,1114030803.2789364,110314000.0,179815199.7512584,71850000.0,197000653.42950284,148990000.0,376360387.8565645,11661000.0,29696578.093240738,98653000.0,202048275.63115737,11661000.0,39527312.57455486
228,230,3,2333529000.0,2701482348.152825,1032484368.2283514,1466331014.2026532,1202771000.0,1192031694.7315557,71236000.0,238822937.23785228,490990000.0,333835315.19892365,562226000.0,550485379.1336904,19517000.0,52207580.42355665,46091000.0,157498983.3827428,25145000.0,60023820.88329179
1855,54,4,20737275.0,841612573.3569736,10788720.0,604132297.042942,10368036.0,309469049.89587736,562564.0,82996791.78916281,77061.0,39999299.70232165,87201.0,38022240.77174497,-4142505.0,-14464730.062686771,4705069.0,197039587.36768186,-4142505.0,47670544.62686561
776,528,0,386844000.0,1369288583.7928576,412960000.0,1219305511.8992367,-26116000.0,808400360.3391503,16927000.0,179176007.19201213,91131000.0,155227185.76880974,108058000.0,174789639.73546302,-813000.0,34672817.135723725,13060000.0,169666866.40213785,3867000.0,50652345.90061848
839,181,2,6911775000.0,3892354039.2947307,5109042000.0,2932853326.1230493,1802733000.0,1757697486.1952887,225256000.0,365671582.32525057,195092000.0,392963345.75647116,420348000.0,740044690.9014082,132530000.0,75476884.70513219,92726000.0,250435085.6366615,132530000.0,57785942.95139747
793,218,0,2883631000.0,2575909109.621508,1772390000.0,1988901803.3846483,1110345000.0,1112770579.6746716,319055000.0,303575852.2743597,1257690000.0,1021853085.2338879,1576745000.0,1351908918.1279452,38222000.0,49166017.88778476,280833000.0,218159714.87646925,38222000.0,46464089.97188444
820,1469,1,133032000.0,1628564701.3491993,232711000.0,862671588.3876724,-16246000.0,549699928.4378647,12296000.0,86442463.51604784,62277000.0,75063717.38808525,74573000.0,90969196.63391054,-14749000.0,20236596.6086113,89322000.0,170739564.93212715,-77026000.0,32230350.253883757
2016,929,4,296638000.0,1260830168.3254051,208509000.0,882096418.1530848,88129000.0,451790847.8006027,7319000.0,123561612.03322828,0.0,134460561.08660334,7319000.0,147491691.16418338,-46633000.0,25477863.427155346,53952000.0,160590727.80604213,-46633000.0,56110589.07201507
1438,619,4,38809000.0,1183323251.8013053,43090000.0,921960195.5040793,-4281000.0,378472726.8723488,7318000.0,108309487.43593913,25818000.0,106461429.82644242,33136000.0,112870578.38893735,-933000.0,16150312.68606104,8251000.0,125963895.13845152,-933000.0,55587165.36809295
866,1366,1,2376172000.0,1842801316.360649,1870972000.0,585999137.2720299,486613000.0,794425196.6945556,-5214000.0,130586676.20800853,182832000.0,215805649.62133563,304976000.0,376009814.76745427,-103708000.0,17780273.59060256,98494000.0,200592774.47677693,-103708000.0,43634912.80059014
689,729,4,3719784000.0,3999222614.434858,3332984000.0,1836311603.6203163,286813000.0,1316808440.871126,2618169000.0,957888301.4461188,-531777000.0,423168069.0612297,2086392000.0,1070462010.2424706,44074000.0,71279751.24613838,2574095000.0,876318106.8887434,44074000.0,58979925.38892771
919,998,0,1537935000.0,2434463722.9188633,1281456000.0,1569509377.4152167,256479000.0,828524804.1259812,229699000.0,223995171.17996514,0.0,156190468.07251424,229699000.0,324078930.7924613,-26947000.0,30684912.19705221,256646000.0,238526846.33935004,-26947000.0,35960758.93922639
1827,1491,4,1182488000.0,1875037867.1209478,303489000.0,1090622192.506235,759221000.0,846451710.4138261,56265000.0,166875535.46331784,333008000.0,246065408.9427737,251870000.0,227354548.2609992,16750000.0,48471198.9860089,39515000.0,154325404.3785152,16750000.0,58856304.55360347
1182,1607,2,8225559.0,1222280272.4329538,12447189.0,553962679.7146068,-4221630.0,81830636.94326186,17564.0,83484146.7290383,106922.0,13190228.100079417,124486.0,823029.2754437923,-8095209.0,-13187031.368783444,8112773.0,132337980.73106843,-8095209.0,50904845.76041165
