epiphany24262/financial-performance-prediction/results/oof/m4_catboost_residual_history_metadata_engineered.csv
Id,group_id,fold,actual_Q0_TOTAL_ASSETS,pred_Q0_TOTAL_ASSETS,actual_Q0_TOTAL_LIABILITIES,pred_Q0_TOTAL_LIABILITIES,actual_Q0_TOTAL_STOCKHOLDERS_EQUITY,pred_Q0_TOTAL_STOCKHOLDERS_EQUITY,actual_Q0_GROSS_PROFIT,pred_Q0_GROSS_PROFIT,actual_Q0_COST_OF_REVENUES,pred_Q0_COST_OF_REVENUES,actual_Q0_REVENUES,pred_Q0_REVENUES,actual_Q0_OPERATING_INCOME,pred_Q0_OPERATING_INCOME,actual_Q0_OPERATING_EXPENSES,pred_Q0_OPERATING_EXPENSES,actual_Q0_EBITDA,pred_Q0_EBITDA
196,314,4,1192950000.0,934745356.6543264,1055816000.0,1020391229.6236801,137134000.0,-51943293.60958423,25598000.0,33059362.64404001,61899000.0,61676738.892923854,42992000.0,33897659.11897063,15222000.0,23322879.971600275,10383000.0,10381000.302487452,15215000.0,20977017.373600915
1568,1318,0,1219954000.0,1412052821.2603986,835046000.0,1032256301.099285,384908000.0,295233529.48495144,111786000.0,102059357.62132359,217796000.0,213612934.73364654,329582000.0,307057939.6950926,28908000.0,8508704.204938423,85522000.0,88321579.18742386,26264000.0,17352047.266723547
1218,1523,0,-135820000000.0,58220566846.22142,-37972000000.0,11803199348.488888,-97848000000.0,47449741663.001686,-435000000.0,-662221527.1926987,4445000000.0,5592521449.487295,4010000000.0,6333215895.714924,-1472000000.0,-1319871757.513713,219000000.0,354900312.1277011,-654000000.0,-258483489.5687066
23,1421,2,83298000.0,-1070649389.4986632,16040000.0,-402100556.5600811,-31633000.0,-1024583129.4974259,494000.0,16629676.695879143,3339000.0,2982575.000991428,3833000.0,4741280.159301709,-12348000.0,-9226823.446665455,12842000.0,19481604.285990275,-12348000.0,-14691409.058382016
783,1306,2,148546000.0,-965338740.1277986,56555000.0,-328520289.3753005,91991000.0,-997312508.1434321,1761000.0,147649676.69587913,-2375000.0,-117050526.36896817,-614000.0,2009347.3029728679,-10098000.0,83415376.55333452,11859000.0,20147104.285990275,-10098000.0,89902687.76517859
1251,1292,1,7304300000.0,5711747426.587591,2451900000.0,2218981802.9363556,4830200000.0,3605978866.2833786,578200000.0,615364523.6307039,581100000.0,588868100.0764642,1159300000.0,1179663050.7660067,245200000.0,272613791.7293942,333000000.0,328675620.79827636,245200000.0,272328088.6189489
1224,1572,2,1976905000.0,811378881.0265125,699909000.0,168547710.62469947,1276996000.0,242702291.85656786,53993000.0,94669406.93420675,315825000.0,318087457.49125063,369818000.0,394371200.8428501,-1572000.0,19226326.553334534,371390000.0,373562304.2859903,-317397000.0,-297685309.33762676
1410,638,0,2097274000.0,2269356581.598914,1132234000.0,1330181313.0321083,965931000.0,940978239.3604199,70481000.0,174255357.6213236,291052000.0,296512145.0781973,361533000.0,456722463.027508,58709000.0,118661204.20493841,11772000.0,15320629.187423848,58709000.0,134515470.7361911
529,10,4,31183000.0,-250565161.35241795,15926000.0,-68549418.7359584,15257000.0,-170292881.84713912,2456000.0,7569908.210209351,2151000.0,64713.341794490814,4607000.0,-6148993.2946454305,-2931000.0,-2229120.0283997175,5387000.0,7357836.587820567,-2931000.0,-3336579.875953567
730,598,0,978523000.0,1262081741.6522045,851196000.0,928147021.110732,-94184000.0,132021673.05660488,24321000.0,30399357.621323586,137937000.0,155570661.05436853,162258000.0,167997923.88143232,-764000.0,-13563438.06993677,25085000.0,37516379.18742385,-764000.0,-13380466.754514014
1590,740,3,27253000.0,-790767216.0547159,14465193.072010836,-411008100.6621157,12787806.927989164,-450146530.9466336,-17000.0,8583771.6193141,17493000.0,24415529.186002266,17476000.0,25378686.066518165,1196000.0,3066939.266628554,138000.0,2174591.859768511,-155000.0,1641352.064282652
367,140,3,798398000.0,37680770.74941075,795372000.0,384720375.98328805,3026000.0,-415013343.6263198,37121000.0,47816123.51971301,256160000.0,356653174.9225457,293281000.0,391903323.7864476,10257000.0,-5803160.733371437,26864000.0,36197241.85976851,10257000.0,-4294397.935717359
636,741,2,1059052000.0,301412093.197,883921000.0,390961847.9412337,175131000.0,-626188121.0793915,91945000.0,122596676.69587915,202788000.0,233049221.2050172,235132000.0,273330447.30297285,-287000.0,6668726.553334557,84957000.0,102995914.40166646,6988000.0,6398471.420132786
1270,1352,1,11069000000.0,9712494772.543633,5919000000.0,5805119583.287268,5105000000.0,3934809673.8179703,727000000.0,763763673.582478,1752000000.0,1817406789.5740788,2479000000.0,2557055753.0980635,462000000.0,507388791.72939426,265000000.0,232347476.52214068,462000000.0,500239783.66456336
102,263,0,12331000.0,300002516.62097627,10875000.0,39882127.67649071,1456000.0,-68110851.28409576,1472000.0,6186357.6213235855,1968000.0,32356712.930925105,3440000.0,89255492.78877346,-4166000.0,2401261.093664458,5638000.0,4181200.937423848,-4166000.0,2924280.395486016
1658,1092,1,180372000.0,-916418331.2656262,121221000.0,-165408096.53185683,30642000.0,-798622229.6965766,18014000.0,27254909.87524496,31653000.0,30249146.89957355,49667000.0,45659066.52723458,-11599000.0,4320191.729394264,29613000.0,18240462.093263604,-11599000.0,2734140.8814168097
6,33,0,2319806000.0,2704841288.167714,1534495000.0,1916357401.9287825,785311000.0,842920246.6669564,376397000.0,298032397.1621235,415254000.0,332656663.4722718,791651000.0,631782385.5760204,93430000.0,48756154.20493841,288680000.0,265793879.18742386,87717000.0,42963684.316695616
1147,1055,3,19295025.0,-803290623.8884091,28370931.0,-399210006.7812103,-13369686.0,-478655824.83934546,2067435.0,11192192.971579045,4847499.0,5104462.4942264985,6914934.0,6269075.561887055,-1108124.0,788686.4166285549,3175559.0,5071679.936015298,-1108124.0,-1947480.7857173646
114,1011,2,3549408000.0,2103412406.7695017,2109262000.0,1516819413.083432,1440146000.0,-125566616.06663597,264579000.0,250865244.17482963,494402000.0,487796423.37482464,758981000.0,721947447.3029729,58594000.0,94547326.55333452,205985000.0,195082714.40166646,58594000.0,70300963.95746174
139,1334,4,331401784.0,51057647.017091036,56254670.0,-48247454.71464187,275147114.0,128009382.52523571,17982150.0,29326480.570652165,0.0,-467989.0986900142,17982150.0,14708400.348259134,-40215832.0,-28648328.828399703,58197982.0,53035197.19220458,-40215832.0,-33537359.02595356
411,814,4,5533000.0,-296527467.9234543,4648000.0,-85515591.6435892,885000.0,-190983510.0315324,-1669000.0,5025974.191390686,2438000.0,-915461.3284097097,769000.0,-11355970.612149727,-6339000.0,-2908620.0283997194,4670000.0,6300144.6749682035,-6339000.0,-3921579.875953568
681,761,2,36550000000.0,32200605988.914543,16943241279.095451,14950474972.490654,15250000000.0,13394177624.18612,577000000.0,554700406.9342067,3467000000.0,3196461500.370671,4044000000.0,3725810800.84285,714000000.0,488366126.5533343,627000000.0,685713014.4016664,-50000000.0,-161224440.02020827
1671,696,2,100449000.0,-805255778.6048906,141057000.0,-304181152.0587663,-40608000.0,-930679921.0793916,-171000.0,17131406.934206754,512000.0,1149336.6383224728,341000.0,2480180.1593017094,-48297000.0,-45822673.44666544,24344000.0,28536254.285990275,-24515000.0,-24423562.517037638
500,1236,2,10599934.0,-1062057757.776528,26203416.0,-406444898.16267097,-15603482.0,-1044297527.1093659,-6219.0,16004042.898572193,193120.0,996590.9958818621,186901.0,2209756.0593017093,-1076399.0,4771891.253334542,1070180.0,4928890.985990277,-1076399.0,12566.596976480098
1203,449,4,13322000.0,-297473826.18002915,67881000.0,-5177828.866805255,8277888.77383834,-274177016.00238335,3223000.0,4530338.069093896,1889000.0,565961.7501388025,5112000.0,-8562751.078890804,-3552000.0,-4901770.028399723,8664000.0,12510591.681410361,-5441000.0,-8526129.87595357
180,11,3,635001000.0,424239991.2121736,115305000.0,-296941820.39425087,502273000.0,486569171.7779045,21465000.0,33159123.519713007,40457000.0,38096748.00344608,61922000.0,61119841.59687789,-143360000.0,-167359160.73337132,205282000.0,171720841.8597685,-183817000.0,-178427147.93571737
1960,1026,2,2672864000.0,1944703462.7319403,288913000.0,-41593289.37530053,2383951000.0,1494935791.8565679,132902000.0,163886676.69587913,168499000.0,195371869.57885042,301401000.0,342306947.30297285,55706000.0,79574826.55333456,77196000.0,76630314.40166646,55706000.0,73437932.98348898
356,863,0,8388335000.0,8870485825.090307,5163154000.0,5746681208.119629,3225181000.0,3183442639.347945,313343000.0,336140397.1621235,687959000.0,736848279.8227153,1001302000.0,1068009973.3465849,116260000.0,136192179.78758022,85661000.0,93797829.18742386,227682000.0,242683649.72742894
1646,1578,1,1563399000.0,247671489.47607803,1445358000.0,933330347.9194324,-136248000.0,-376777489.27214164,72333000.0,77271699.82794784,116682000.0,115373686.41904373,189015000.0,177945750.76600662,23506000.0,20897891.729394253,11423000.0,13998504.381742394,60910000.0,56515116.87474565
1793,1064,4,320019000.0,36957130.961416006,126984000.0,80808749.2878936,193035000.0,-10193918.768327951,177377000.0,216515795.18206125,58492000.0,86363419.35632496,235869000.0,291286782.72236985,25509000.0,45148103.39390262,151868000.0,183474298.23307824,25509000.0,42615509.05554351
235,94,4,0.0,-328933708.752717,0.0,-101844341.79952824,-804876.0,-209531616.95014653,0.0,5067166.554342381,0.0,-1824200.6977909878,0.0,-13102299.939287804,-14550.0,900823.621600281,14550.0,1933211.2553943254,-14550.0,-386862.5259535683
1668,245,3,267194000.0,-496718312.3668673,175308000.0,-247180328.82526958,91886000.0,-325227885.29666233,5103000.0,12148771.6193141,0.0,-105859.7068508938,5103000.0,475717.24728814885,-32762000.0,-27548160.733371437,37865000.0,33800641.85976851,-32762000.0,-30116897.93571736
1456,1010,3,2249377000.0,1804679694.5021381,1923326000.0,1738715253.0991127,326519000.0,-60137495.88506341,-76300000.0,-63829876.48028699,416103000.0,429978215.4517236,339803000.0,351909144.83077705,34941000.0,14872539.266628535,184914000.0,190234391.8597685,-261214000.0,-262672997.93571737
1291,1021,2,396890000.0,-620703401.2396855,107071000.0,-309779152.0587663,289819000.0,-728820321.0793916,52569000.0,62116676.69587915,13634000.0,14884694.483959997,66203000.0,59194947.30297287,8375000.0,-921573.4466654621,57828000.0,67888904.28599028,-5259000.0,-18480590.68821841
1376,1176,2,7827000.0,-1032649881.604617,4744000.0,-414500152.0587663,3083000.0,-1009259921.0793916,1288000.0,17244518.89857219,867000.0,2767586.382115309,2155000.0,4363580.159301709,-3880000.0,828876.5533345426,5168000.0,10683604.285990277,-3880000.0,-4519813.128373347
1702,1493,0,11990000.0,65694389.77646719,3030000.0,33046947.464342467,8960000.0,51830606.73457788,1480000.0,7337472.8073013015,3017000.0,10469002.499546055,4497000.0,2870105.9074017312,-944000.0,2527984.126566954,2424000.0,5581179.187423848,-944000.0,3110922.7260464104
1591,1286,2,7472874.0,-1062831463.8450042,3243445.0,-421530990.6811537,4067990.0,-1028406010.9864601,3065804.0,16509151.898572193,0.0,3014471.6925748847,3065804.0,4128868.4394923425,-21884.0,2649212.8033345435,3087688.0,7306643.785990277,-21884.0,-2808492.111591122
647,1028,0,2182494000.0,2442645784.658859,2467501000.0,2462352701.939521,-484456000.0,-260696561.72975108,389190000.0,381074357.6213236,141172000.0,148388657.37237048,531030000.0,525377613.2570616,-54175000.0,-50390438.06993674,443365000.0,438893529.1874238,-54175000.0,-49262903.80448606
100,1407,1,12166000.0,-1161164362.7767417,2892000.0,-312888745.1365911,9274000.0,-857777451.5069172,5000.0,10035346.671728864,54000.0,1445236.0424602064,59000.0,-2721449.2339933924,-3433000.0,-2017958.2706057369,3433000.0,7595085.58512346,-3428000.0,-3508110.0762385335
507,447,1,189783000.0,-909898561.6451075,45792000.0,-282283339.63033575,143991000.0,-657852423.6313994,2372000.0,12590554.910637539,0.0,1527046.413619326,2372000.0,-1294733.472765421,-18270000.0,-21156658.270605735,20642000.0,28723825.52680635,-18270000.0,-22962822.099889565
547,960,3,1072653000.0,83480562.39911425,455367000.0,-15089598.357904613,617286000.0,-65557814.868246615,134998000.0,139917832.97157905,27783000.0,27728525.682280604,163452000.0,152045111.6861231,5489000.0,-2091610.7333714506,129509000.0,135371486.2360153,5489000.0,-4906409.578908036
457,632,1,665104000.0,-534361460.9511471,575531000.0,179082479.77458274,89573000.0,-734719778.3826852,30803000.0,39421395.754569344,19437000.0,18591748.225292176,50240000.0,41038250.766006604,10357000.0,1377841.7293942648,22017000.0,25383724.247780122,8786000.0,7569227.725789199
560,618,0,1900367000.0,1625346657.4586945,289037000.0,427125241.8907635,1613343000.0,554654518.8483127,45433000.0,203820512.34810123,413911000.0,493472080.38963616,459344000.0,691271861.0354563,-6757000.0,209380723.09799793,52246000.0,63631479.18742385,-6813000.0,182216597.26672348
1402,1560,4,88944000.0,-203893801.20435572,45361000.0,-42214323.877337635,43583000.0,-139789567.20190668,0.0,4701317.784818238,45000.0,-1333550.167973373,45000.0,-13645300.03307507,-14351000.0,-12270970.028399713,14351000.0,14643317.282430723,-14351000.0,-13800629.875953564
1274,683,0,5390785000.0,5941714744.798213,4083098000.0,4600969871.460546,1050686000.0,1055800659.7882947,352054000.0,362803397.1621235,284900000.0,326496192.9376757,636954000.0,693052989.3649673,120850000.0,128764211.93006329,187232000.0,198853279.18742386,164822000.0,174252107.78616315
799,1475,3,18535000.0,-760694889.0503561,13748000.0,-408564820.2254392,4787000.0,-403565169.35086477,2839000.0,11880771.6193141,7502000.0,9178806.966973428,10341000.0,8711754.352258597,-2229000.0,-476910.7333714436,3071000.0,5522641.859768511,-232000.0,-1021697.9357173636
1436,366,2,13281300000.0,10135395240.243296,5777300000.0,5018801434.113987,7484300000.0,4993994683.933365,1030700000.0,1009461244.1748296,1150100000.0,1106791669.5788505,2180800000.0,2105652447.3029728,687000000.0,640356126.5533344,343700000.0,371623014.40166646,687000000.0,644599877.5225998
1518,564,4,108681735.0,-237627241.8167379,9192190.0,-105179688.71891016,67531550.37365061,-149339571.65579373,2201326.0,5937998.3159024725,255772.0,545035.3573997226,2457098.0,-12589473.724120738,-8935951.0,-9146170.578399718,11137277.0,12070302.131330844,-8935951.0,-10474409.325953567
211,1245,3,189692000.0,-591686753.4903499,90178000.0,-342028328.8252696,99514000.0,-317097082.96439934,-4411000.0,6439771.619314101,24963000.0,25823964.239512682,20552000.0,21337507.973287567,-10000000.0,-3627760.7333714473,5589000.0,6892991.859768511,-10000000.0,-7022797.935717366
1542,539,4,230878000.0,-117484723.50650167,57278000.0,-8868048.3282969,173600000.0,-68287488.63982713,26973000.0,33089243.283420343,7041000.0,4206490.459087967,34014000.0,20719121.959099952,-11169000.0,-9811270.028399717,38142000.0,39787152.378531024,-11169000.0,-11002129.875953566
1496,129,4,73773000.0,-216914027.73700953,50819000.0,-64567460.04714036,38847689.64492722,-180786879.08876413,5428000.0,10414707.571449187,22481000.0,15930759.801135162,27909000.0,16442436.543956406,-1778000.0,-68370.028399718,7206000.0,8418788.507602537,-1778000.0,-1102029.8759535677
1891,794,4,1582767000.0,1388545561.8287177,680421000.0,654994030.9203508,880211000.0,718223868.1625848,56683000.0,61036186.9332853,17637000.0,13946868.545952672,74320000.0,58816112.63794394,-5119000.0,-9604431.978399714,35279000.0,39669506.83363233,21404000.0,18122945.773600917
362,1155,3,5641000.0,-786858525.6331513,5200000.0,-417667280.7812103,-3859000.0,-445139975.14663637,1192000.0,9619832.971579045,781000.0,-378464.1650121296,1973000.0,-1842447.5130972462,-97000.0,1566439.2666285546,2070000.0,3755836.2360152975,-878000.0,-2042897.9357173648
605,905,3,3208196000.0,2214903893.2200623,2133043000.0,1540154990.8774457,1075153000.0,440980089.42449975,625972000.0,659018123.519713,1066275000.0,1075692106.7177138,1692247000.0,1714806588.9287379,91616000.0,92540139.26662852,497965000.0,483954591.8597685,128007000.0,150823552.0642826
384,713,0,13057000.0,7752237.748146981,4943774.229094189,14172410.61962089,10949000.0,45191283.512136795,7944000.0,5831472.8073013015,0.0,6518229.23007821,7944000.0,3198991.090168122,1997000.0,911510.0281370603,5947000.0,5955829.187423848,1997000.0,1606472.7260464113
438,1575,4,5973000000.0,5217749922.050604,4408000000.0,3848559627.143635,1554000000.0,1569065496.7368932,244000000.0,256966852.46432808,1526000000.0,1491056672.243886,1770000000.0,1730664671.4582598,147000000.0,51518353.39390263,127000000.0,121713028.47223859,117000000.0,130907567.37360092
1761,738,0,589088000.0,720959257.3829215,253950000.0,363820456.8275144,335138000.0,360474488.40846586,19294000.0,28259472.8073013,99428000.0,103729861.78199947,118722000.0,120585028.8145962,9057000.0,13722254.204938414,10237000.0,13942979.187423848,9057000.0,15171357.786163151
403,525,3,21286772.0,-788586400.6255901,1383236.0,-420995158.7812103,19903536.0,-407399499.7850152,781782.0,9611090.971579045,421382.0,-66890.43239240907,1203164.0,-2129769.881890537,-1960898.0,32153.966628554743,2742680.0,4550893.486015297,-1960898.0,-2825421.835717364
388,1349,4,3445920.0,-262926670.01859713,1859560.0,-66299169.926041186,1616914.0883314284,-202164691.22585005,2970901.0,5285653.60812927,569508.0,-840270.4022379238,805185.0,-5698418.475829327,2437201.0,2544014.0216002804,533700.0,1370888.9757919665,2437201.0,1472472.2740464315
1452,124,4,328158000.0,82795685.5141275,124250521.82515822,64151214.01177563,270486000.0,107519179.1378578,24944000.0,35015105.04230764,16521000.0,11521774.463283975,41465000.0,30489887.519661203,-7674000.0,-3905470.0283997175,24827000.0,24479958.769775845,117000.0,4619120.124046433
1876,412,1,2498305.0,-1153044490.1759806,2997402.0,-311403212.72448415,-3454854.0,-863727777.4301659,467340.0,8767873.852730459,346611.0,3502482.498803244,813951.0,-3131319.072765421,-114631.0,4868741.52939426,581971.0,3005072.6920902003,-114631.0,434935.71839763457
757,651,2,1288046000.0,294125524.9592246,649920845.9604261,245600048.76635957,889849000.0,-180938608.14343214,105384000.0,112934676.69587915,285360000.0,273407794.48396,390744000.0,368984147.30297285,53190000.0,45482326.55333454,52194000.0,56344564.40166646,53190000.0,41165921.420132786
660,226,2,600057000.0,-531045031.85861814,369915000.0,-141204152.0587663,225443000.0,-819576221.0793916,43121000.0,56012676.69587915,106269000.0,90488069.57885043,149390000.0,128536747.30297287,7853000.0,13142126.553334542,30439000.0,31858364.401666462,12682000.0,10740504.622855678
197,709,4,538955000.0,171308575.39727855,291671000.0,-64417839.88777822,247284000.0,31729579.1148808,-14193000.0,-7357648.692716096,14235000.0,10619791.647158131,42000.0,-7167288.2788131,-51845000.0,-54900670.028399706,37652000.0,49229818.75915848,-51845000.0,-57834129.875953555
93,962,1,25334074.0,-1148786959.1191518,18917048.0,-316575205.996789,5501613.0,-850330560.4364426,-536032.0,9808807.461859602,4501393.0,5121028.443044394,3965361.0,2311694.5980636724,-2975120.0,-2278935.420605738,2439088.0,7579625.502033558,-2975120.0,-4102902.118016068
472,1463,0,1934400000.0,2166478595.850718,855887268.5537325,993618843.435107,957200000.0,955394469.0802546,84000000.0,126228512.34810123,375600000.0,448871706.7132539,459600000.0,569840568.3001676,30800000.0,73125804.20493841,59000000.0,66198779.18742385,25000000.0,66433070.736191064
1345,573,0,102973000.0,404621871.1471061,162948000.0,73036564.01753053,-346214000.0,-198203826.43690753,-13037000.0,1648397.1621235125,25768000.0,32573638.24342107,12731000.0,23255691.560818568,-23219000.0,-9007001.568400636,35950000.0,29666126.81273348,-48987000.0,-30100850.95448605
1672,351,2,2501300000.0,1663213768.4048023,1075500000.0,954195710.6246995,1407900000.0,288866991.85656786,99600000.0,130995676.69587915,151100000.0,164507921.2050172,250700000.0,278652447.30297285,31900000.0,5231126.553334554,67700000.0,124823014.40166646,31900000.0,-7138569.353578799
521,298,0,27910000000.0,32365142383.332645,24392000000.0,27317227032.71287,14058781786.346067,15875239464.459343,1525000000.0,1392136397.1621234,6421000000.0,5264045042.905827,7946000000.0,6501561256.812472,561000000.0,-3362623.4560457617,638000000.0,490572231.87886363,887000000.0,491810949.7274294
1143,519,4,105238000.0,-187718124.8043568,42240000.0,-54538399.40224105,62998000.0,-122142947.73228121,8572000.0,13533295.127736751,322000.0,-2429526.0433323155,8894000.0,-2677768.260390939,2218000.0,5020979.971600281,6354000.0,6624520.174731854,2218000.0,3979117.37360092
502,1365,3,2010176000.0,1123814330.1259387,889414829.379791,391775260.7070439,1057656000.0,637188388.589478,113627000.0,131133123.51971301,250202000.0,252373578.100407,363829000.0,370759541.520481,44531000.0,52879589.26662854,69096000.0,73342141.85976851,44531000.0,50088652.064282626
319,621,2,15154000000.0,13253889581.152027,5534200000.0,5005301434.113987,9554000000.0,7933494683.933364,739300000.0,714200406.9342067,999600000.0,987578505.8650839,1738900000.0,1670852447.3029728,318400000.0,265871126.55333444,315200000.0,313803014.40166646,424100000.0,373162114.21005845
471,516,2,346507000.0,-665112100.8168987,100361000.0,-283246227.79667336,246146000.0,-787991007.0956695,14398000.0,28739518.89857219,62502000.0,62661650.095881864,72480000.0,73290247.30297287,4926000.0,7561076.5533345435,9472000.0,13457864.40166646,4926000.0,2369962.313573651
1756,421,2,229309000.0,-873493234.5847863,190264000.0,-210114152.0587663,-44269000.0,-1052279221.0793916,9225000.0,29150676.695879143,52669000.0,77939686.3821153,61894000.0,90365880.15930171,1401000.0,10765426.553334538,7511000.0,10030014.40166646,1714000.0,5553325.998825671
848,415,3,101740000.0,-680425478.4511243,28463000.0,-411962002.3254673,50734000.0,-377239403.1170529,29850000.0,37121771.619314104,12745000.0,12738325.682280604,40857000.0,34855653.7990643,2689000.0,4710739.266628554,27161000.0,27680841.85976851,2689000.0,1810140.4210919659
1310,660,3,9582645000.0,6890843604.455836,3280269000.0,1268913800.1109095,6302376000.0,5580613798.856943,376175000.0,319376123.519713,424915000.0,518052401.60773474,801090000.0,797050469.3894703,272965000.0,120725089.26662853,103421000.0,134673791.8597685,272754000.0,132694440.42109194
202,496,2,609678000.0,-428890259.7855891,288631252.1743736,-135915621.72057062,366720000.0,-677648221.0793916,84451000.0,95040518.89857219,21802000.0,24480990.8054946,106253000.0,103897247.30297287,5683000.0,6987276.553334534,78768000.0,83479964.40166646,5683000.0,2298609.311781584
1444,1250,3,43441700000.0,40242836908.11559,21559314449.01792,19854190892.072716,21882385550.98208,20513085200.979393,1370000000.0,1305956123.519713,587400000.0,569576184.7200172,1957400000.0,1849351478.4668112,472000000.0,486926739.2666284,1485400000.0,1476562341.8597686,-115400000.0,-203449497.9357173
1578,687,1,1146353000.0,48532704.94942093,752649000.0,428864956.02276343,393704000.0,-402422781.04030776,95229000.0,102413197.27451392,32092000.0,34267121.77471412,127321000.0,123788750.7660066,-58245000.0,-57566008.27060572,153474000.0,154090275.23884994,-58245000.0,-58299654.06185292
451,1036,2,796771.0,-1085754577.9956398,1072746.0,-424006188.56854343,-275975.0,-1030955893.179066,205707.0,16369116.695879143,158335.0,1900205.8821153091,364042.0,2386596.6593017094,-168127.0,5584742.253334543,373834.0,4172202.201666461,-168127.0,937050.3358217608
35,1172,1,9069035000.0,5138334963.740457,2563480000.0,1540397909.4680126,6505555000.0,3971060465.987844,942419000.0,896056772.3861685,522866000.0,530804750.3811714,1285548000.0,1233495250.7660067,602695000.0,515644041.7293942,339724000.0,348546618.2003105,602695000.0,519958467.86121106
237,194,4,48924605000.0,44079786370.31047,25766652000.0,21348678969.595825,22441501000.0,22637571611.898502,1560160000.0,1523753761.2701235,915531000.0,937453186.9981673,2475691000.0,2426856004.6316743,558196000.0,457692403.3939026,1001964000.0,1005195302.6163322,558196000.0,465822109.0555435
917,1116,2,514281000.0,-558694813.25214,309957000.0,-56948289.37530053,198004000.0,-906974108.1434321,106985000.0,67393676.69587915,149052000.0,97406559.6610581,309744000.0,183971947.30297285,62399000.0,18716776.55333456,44586000.0,39280364.40166646,62399000.0,15014958.53968333
558,251,2,17876000000.0,21262933318.539837,4077000000.0,2352427107.6418676,13799000000.0,16769658057.040716,-917000000.0,-687299593.0657933,1453000000.0,972294448.8758084,536000000.0,331410800.8428501,-1774000000.0,-1623533873.4466655,857000000.0,965250804.2859902,-1774000000.0,-1651734703.5422852
73,532,1,218354000.0,-862333469.2356353,62021000.0,-253510806.39717942,156333000.0,-635587900.3686833,-143000.0,10536996.042349001,848000.0,2155311.8683013553,705000.0,-2664833.472765421,-31577000.0,-28204908.270605735,40859000.0,38051591.691703394,-41002000.0,-33324671.217550706
532,205,3,2268100000.0,1716416229.3614717,1627400000.0,1325796921.0753975,640700000.0,218758600.6779412,78400000.0,104656123.51971301,665200000.0,717526408.4030395,743600000.0,806064811.7120492,19100000.0,31736739.26662855,724500000.0,775912341.8597685,-646100000.0,-688390559.5789081
986,275,3,49117000.0,-735200644.2052306,7104000.0,-416365820.2254392,42013000.0,-369340153.65298474,1616000.0,10456771.6193141,3273000.0,3629931.275045462,4889000.0,801054.3522585956,-1489000.0,129489.26662855549,3105000.0,5334941.859768511,-1489000.0,-2653347.9357173643
252,1030,3,12822000.0,-768077476.5249891,1624000.0,-418525280.7812103,11198000.0,-414905704.2479181,0.0,8491832.971579045,0.0,-1446588.4154962911,0.0,-4629171.380902123,-1983000.0,-1289510.733371446,1983000.0,4579636.2360152975,-1983000.0,-3853847.935717365
982,1392,1,543788000.0,-392847804.1723211,205894547.02387,-24531152.93162614,402777000.0,-351177821.621759,1944000.0,10950941.832677986,0.0,910507.6098121321,1944000.0,-1223533.472765421,-51279000.0,-52674258.27060575,53223000.0,73636902.85891853,-51279000.0,-57765372.85701076
1947,616,2,16965000000.0,16046105746.042044,7506269391.549871,7143099922.070669,7744800000.0,6677527180.470965,1329900000.0,1169195676.6958792,1175700000.0,1149469632.586141,2505600000.0,2288375180.1593018,1069200000.0,1013891126.5533342,32700000.0,34813014.40166646,1297200000.0,1183650943.923888
1206,918,0,29788000.0,200063922.75501597,27907000.0,122845688.4421064,1881000.0,82460087.98388039,0.0,5956472.8073013015,3452000.0,10722426.704769686,3452000.0,4123190.936272852,-23801000.0,-13948606.52980877,23801000.0,21537635.36273348,-23801000.0,-13357827.27395359
542,1191,2,39315010.0,-1076846235.9896662,15768167.0,-407337261.5600811,23791305.0,-1000455046.2974259,7600979.0,21852891.934206754,41810204.0,31384549.087224875,49411183.0,37358947.95930171,-1588725.0,4557522.853334542,9189704.0,10686479.851666462,-1588725.0,-995112.1283733477
15,899,4,184728000.0,-162575616.6039102,40367000.0,-64191672.88275826,144361000.0,-74649840.72024155,0.0,4419655.42941638,8094000.0,4692352.808871813,8094000.0,-5497993.887846505,-23114000.0,-25789820.02839971,23114000.0,26774416.493756413,-23114000.0,-26394979.875953563
1754,856,2,5014090000.0,3515486001.5463977,2606263000.0,2248073710.6246996,2407827000.0,913247891.8565679,420690000.0,437995676.69587916,905430000.0,898902469.5788504,1326120000.0,1317068047.3029728,237492000.0,232589676.55333453,183198000.0,186190914.40166646,237492000.0,230149913.07704583
1448,1495,3,3543460000.0,2309678599.2449474,2602227000.0,1945423869.7895947,941233000.0,169143847.75779617,443568000.0,435382123.519713,134292000.0,121770204.82535699,414603000.0,388877795.17988706,14363000.0,-36428660.733371414,429205000.0,417185641.8597685,14363000.0,-26275859.57890802
459,1563,1,747087000.0,-330677186.36188173,79688000.0,-218356475.46607864,667399000.0,-136765567.15512037,34565000.0,44790576.47225328,22203000.0,18607351.16376185,57261000.0,51021450.766006604,-16306000.0,-17295058.27060573,50871000.0,59354238.77296556,-16306000.0,-18944602.862524737
1505,8,3,4578121000.0,5882715108.296815,2310023301.364386,2900436087.812337,2489780000.0,2966070467.9791203,2190001000.0,2248708123.519713,-1465670000.0,-1626816338.092438,724331000.0,825268746.4953264,216069000.0,270968039.26662856,1973932000.0,2286160791.8597684,216069000.0,265354602.06428263
1613,399,4,11895943000.0,11926223460.166058,3479745000.0,3576476885.2045493,8416198000.0,8524730170.625087,335683000.0,369794919.86980623,296441000.0,315877646.91409034,632124000.0,672170850.1432862,90949000.0,85118303.39390263,201199000.0,212881764.2048354,134484000.0,153610309.0555435
1214,1410,3,1059300000.0,317512449.86312914,513000000.0,156606282.5111314,545000000.0,107348606.4393574,132000000.0,148456123.519713,172700000.0,181158923.72382143,304700000.0,315141026.93838423,34700000.0,42176739.26662854,88200000.0,86437341.85976851,43800000.0,48850502.06428262
454,235,3,11204065000.0,9575969379.451788,4242197120.938668,3484886891.081185,3489373000.0,2542863808.2889075,480702000.0,507088771.6193141,457696000.0,462861872.30515444,938398000.0,945301064.5214074,172392000.0,144778839.26662856,308310000.0,343385091.8597685,172392000.0,145259640.42109197
1392,34,4,531121000.0,288585567.0127275,248900000.0,245550340.11083674,282221000.0,88886503.87850821,62379000.0,73956939.89344017,135419000.0,139350727.24845952,197798000.0,196091982.72236988,18703000.0,19097879.971600275,43698000.0,53040168.56919618,18681000.0,17746967.37360092
1519,1545,4,961035000.0,623942088.1912692,1381722000.0,1286524405.5667303,-420687000.0,-556388542.5459507,271111000.0,271751013.52487063,201537000.0,196754140.22822776,472648000.0,456915108.2040238,5387000.0,17241903.393902626,265724000.0,261107951.93726096,5387000.0,14560417.373600917
1060,432,1,3194462000.0,1726907613.8433766,1643299000.0,1130317884.6192517,1512215000.0,576412134.4318289,817744000.0,822402298.3332721,0.0,216878.73354880372,817744000.0,809990050.7660066,37900000.0,52786941.729394265,779844000.0,767698777.8687024,37900000.0,50393549.46999248
1100,895,3,6042273.0,-792482165.4606642,3627261.0,-420598410.36693126,2415012.0,-439712712.90192926,0.0,8491832.971579045,0.0,-1071951.84547337,0.0,-3484073.4307359327,-1829562.0,-95529.78337144502,1829562.0,3482232.186015297,-1829562.0,-2955455.3857173645
203,426,2,76266906.0,-972265838.3522655,57438990.0,-377111378.79667336,40912361.81482647,-991524464.250281,9146097.0,25905858.695879143,0.0,767050.0958818621,9146097.0,12273570.55930171,-2633902.0,3521501.8033345444,11779999.0,16326418.685990278,-2633902.0,-2285026.2070265748
1493,1399,4,-3532973000.0,799183907.83711,-2747133000.0,984022632.9400227,-773571000.0,65133516.87887788,87737000.0,105311440.74811219,40236000.0,367676707.2576909,103187000.0,460711482.72236985,7123000.0,40653.39390267292,80614000.0,144817764.20035723,7123000.0,-1450679.8759535423
543,815,3,846734000.0,113455293.35996938,635659000.0,-199273955.7021054,69332000.0,-303875870.80850875,204774000.0,356585123.519713,-13024000.0,-303736806.667932,191750000.0,-1233032.9420871604,-52860000.0,-125186910.73337181,257634000.0,565101791.8597686,-52860000.0,-128617147.93571757
1966,624,4,1354514000.0,999799333.6672568,675720000.0,590600864.0204985,319291000.0,100128590.05013752,-16558000.0,-8152517.698935162,64132000.0,61396019.37177494,47574000.0,39917332.147492975,22229000.0,20661379.97160027,13428000.0,18627427.183724493,-29986000.0,-27045329.87595357
1802,437,1,270533000.0,-934775131.7596817,240046000.0,-112952266.35342693,30487000.0,-827427910.298419,26052000.0,40473410.20991379,12454000.0,19287820.777871296,38506000.0,43968066.52723458,-21038000.0,-9576158.270605735,47090000.0,45315167.11217773,-21038000.0,-11422497.707476104
1372,1341,2,583783000.0,-480929352.8139056,717382000.0,226026847.9412337,-133599000.0,-1148640021.0793915,41865000.0,50063676.69587915,32703000.0,28948100.370670836,74568000.0,59441980.15930171,-32006000.0,-39522673.44666546,48224000.0,49260514.40166646,-6359000.0,-15804461.814922193
1325,1439,4,534446.0,-322704524.19548726,9794849.0,-95065442.25362039,-9132038.0,-227551698.02360237,6264.0,4626246.919071733,3881.0,-1639228.9388945822,10145.0,-9702733.557285352,-961868.0,1086014.1216002807,972013.0,1531680.18955385,-965749.0,-36623.67595356819
1504,1241,2,106308000.0,-891610817.8909342,29369000.0,-377782152.0587663,76939000.0,-903065821.0793916,15630000.0,30292676.695879143,0.0,1659011.2872248748,15630000.0,17099380.15930171,-23899000.0,-2163173.4466654547,39529000.0,26994704.285990275,-23899000.0,-7985184.333045693
1347,1518,0,369031000.0,442404415.58082086,216722530.1814524,283057983.32681155,188777000.0,242189450.91045505,45044000.0,58969397.162123516,42173000.0,56589512.08574488,87217000.0,104347326.82106724,-3804000.0,7214411.930063281,48848000.0,54960579.18742385,-3804000.0,6478247.266723544
1492,872,1,327784000.0,-831905056.6763608,323919000.0,-57209051.77251828,3865000.0,-803552211.2219651,33496000.0,40476349.44108707,8201000.0,9259476.976051532,41697000.0,32597766.52723458,-4913000.0,-12854758.27060574,37287000.0,39786680.452660285,-3791000.0,-6939203.345141363
1107,1504,4,85658000000.0,85217548732.7699,88335000000.0,91576673806.3484,-2772000000.0,-1863499219.2166357,5387000000.0,5062976690.273539,14002000000.0,12897541361.144642,16935000000.0,15590459935.851276,1165000000.0,1111318353.3939023,4222000000.0,4006633426.168502,1165000000.0,1155083446.160136
1336,431,2,898860000.0,-132734090.8066932,527877640.3036609,102963349.27199948,360528000.0,-672700116.5614665,68259000.0,99266676.69587915,42065000.0,48632309.917265266,110324000.0,129482947.30297287,-1325000.0,13997576.553334538,69584000.0,74322014.40166646,-1325000.0,9155026.109058687
599,1357,1,50546000.0,-1095401160.726491,5959000.0,-306177401.70640385,44587000.0,-808488053.9134674,1989000.0,12125921.217227798,1909000.0,4138283.3243475566,3898000.0,2218350.7660066076,-1895000.0,1173191.7293942634,3884000.0,7073200.345491826,-1895000.0,560731.5207438678
117,630,3,939056000.0,-94854876.50715363,419590000.0,-59332820.22543919,517473000.0,-31448039.234633088,90527000.0,118626123.51971301,120216000.0,114710691.8217082,210268000.0,222493876.38637108,61012000.0,75759039.26662853,29515000.0,37155891.85976851,61012000.0,72974902.06428263
1825,1520,3,20027115000.0,18014310266.51221,12952737000.0,10107816816.828728,5611108000.0,6213658544.637042,32786000.0,42418123.51971301,283742000.0,267201255.13460535,316528000.0,300935113.59760684,-1347477000.0,-206212710.73337138,1910658000.0,795049341.8597685,-1877872000.0,-767842147.9357173
1507,300,3,124094000.0,-647822503.8886669,18130000.0,-410116328.8252696,105964000.0,-305658296.3450806,830000.0,10266771.6193141,0.0,-932181.0957171596,830000.0,-4135359.4021640103,-5787000.0,-5249260.733371442,6617000.0,9388141.85976851,-5787000.0,-7694197.935717363
321,587,1,68675000.0,-1083053390.8219743,40331082.646745786,-270698737.076533,53645000.0,-799227356.2882242,10938000.0,20874373.74608208,6604000.0,7311875.583532819,17542000.0,14078166.527234579,880000.0,3485710.3734620577,10058000.0,13066134.075118732,880000.0,1055756.3967910344
1482,433,0,1833700000.0,1989318100.5132444,811331929.4597701,910896320.596107,482900000.0,500687623.0064672,110200000.0,122828512.34810123,356000000.0,360038312.0759897,466200000.0,475429401.81713307,45700000.0,66080804.2049384,55600000.0,58223779.18742385,54600000.0,68873070.73619106
508,1187,1,62515472.0,-1138003591.1123183,29595817.732691668,-312944098.2498709,21861273.0,-838023659.1845102,7032458.0,16783381.42353763,11256239.0,12608656.569509674,18288697.0,15866618.866006609,-1564350.0,940637.2793942615,8596808.0,11062857.139501514,-1564350.0,-596743.6059022762
1411,610,3,33859785.0,-749634659.3703063,6178818.0,-420405528.7812103,27680967.0,-395103286.12553376,-63384.0,8464570.971579045,87873.0,-424211.2296326924,24489.0,-4017561.938445319,-2675666.0,-959250.8833714477,2612282.0,4978324.386015297,-2675666.0,-3805844.685717366
718,1603,3,770792000.0,34885247.44752312,581187000.0,88934538.10420108,188503000.0,-160269946.19741333,456709000.0,470987771.6193141,0.0,1240691.7748104958,456709000.0,450569480.81233543,-29756000.0,-24672310.733371448,486465000.0,473518641.8597685,-29756000.0,-26655547.935717367
1865,1457,1,4753100000.0,1721011882.914285,2691038000.0,1387110399.547019,2062062000.0,598149748.9235283,383135000.0,378166468.68268955,0.0,2240063.535704777,383135000.0,365444850.7660066,126771000.0,41048691.7293943,256364000.0,314551191.6435306,126771000.0,42695469.825656086
710,1426,2,9330700000.0,6072390938.669851,4987700000.0,2807768689.594145,4343000000.0,2957156991.856568,590200000.0,621200406.9342067,367100000.0,389516794.48396,444000000.0,493272447.30297285,121300000.0,111506126.55333455,468900000.0,492960804.2859903,121300000.0,101608758.0777496
285,985,3,1797231000.0,967588307.8840334,1568932000.0,1113040282.5111313,228299000.0,-260293621.16206488,143030000.0,146106123.519713,0.0,1267682.6857495317,143030000.0,134239095.30784202,-113543000.0,-122793210.73337142,256573000.0,259894191.8597685,-113543000.0,-124215547.93571734
1609,179,4,90048000.0,-199664853.54553795,45436321.63528667,-45948725.282933556,37547000.0,-138112140.22310627,2482000.0,6960230.285253855,9262000.0,6174060.355609667,11744000.0,948535.1245650556,1360000.0,1906629.9716002815,2815000.0,3569357.2915659314,-333000.0,557720.1240464326
1814,1095,3,190817000.0,-641106526.1402931,91955000.0,-368948820.2254392,118567925.39840196,-322737926.0954474,16838000.0,24984771.6193141,21962000.0,20318009.76626979,38800000.0,33695039.57229915,3292000.0,5735189.266628556,13546000.0,14382391.85976851,3292000.0,2710152.0642826357
720,50,3,24930824.0,-760141659.7675515,6278564.0,-415419692.2254392,18652260.0,-402925279.7163225,7866761.0,14179531.6193141,20382092.0,14687542.26899598,28248853.0,17464359.159967985,1448213.0,2868135.6666285554,6418548.0,6714391.559768511,1448213.0,69436.66428263579
1707,149,4,6071000000.0,5746307299.938273,14261000000.0,14387472954.394678,-8190000000.0,-8489407090.955914,1287000000.0,1329184794.3386533,421000000.0,412658991.21349174,1708000000.0,1717660743.2070057,613000000.0,561418353.3939027,1095000000.0,1115386895.947509,192000000.0,152816259.0555435
485,1443,0,5768300000.0,5502406691.812265,3017800000.0,3120431425.1855674,2739100000.0,2468327990.720223,487400000.0,501978472.8073013,888400000.0,884559486.5845346,1375800000.0,1376330965.573727,276300000.0,277560563.48283166,211100000.0,208868779.18742386,276300000.0,281550949.727429
1364,1252,1,3486179000.0,2504478753.8197236,1927467000.0,1543119646.9920826,1501742000.0,686734397.2137821,315111000.0,340700873.1166922,669472000.0,661117076.8550469,949217000.0,948441850.7660066,-24190000.0,131316991.72939424,194277000.0,196573366.43474033,120834000.0,130385226.68609476
1943,1464,4,496042000.0,269780813.1093304,349488000.0,343118512.3457241,146554000.0,-22060193.732786298,33924000.0,44272852.489518754,212763000.0,220591099.79307976,246687000.0,247875663.11467972,12448000.0,17363079.971600275,21476000.0,22895452.20797045,12448000.0,16486267.373600917
708,512,1,1713800000.0,623075473.2447379,864747334.9608463,582756686.4189451,585500000.0,-308024020.02072453,141400000.0,134595313.03196964,205900000.0,202841433.6642868,347300000.0,322603050.7660066,100200000.0,84703791.72939426,64600000.0,65760316.43474034,76800000.0,60533101.83562941
1795,256,2,5817000.0,-1047710394.3125834,1413000.0,-413150227.79667336,5436000.0,-1011531107.0956695,5000.0,16055518.898572193,0.0,1765886.3821153091,5000.0,2118280.1593017094,-3525000.0,3106126.5533345426,3530000.0,6489604.285990277,-3525000.0,-2342630.4615911227
1196,860,3,4180537.0,-745095589.7997023,13379601.0,-398548220.2254392,-9199064.0,-431136388.9493569,1107842.0,9933743.6193141,974711.0,931846.3609435312,2069845.0,-514360.5722271418,-2577294.0,-73777.8333714446,3685136.0,5313452.759768511,-2577294.0,-2923016.835717364
1785,368,0,6656000000.0,6843721545.691157,2127000000.0,2233099495.5627055,4529000000.0,4631522694.576634,386000000.0,407778472.8073013,110000000.0,113876333.65301509,496000000.0,523034548.5328071,-53000000.0,-56983484.59599062,439000000.0,465988779.1874238,-53000000.0,-58752345.15502553
1117,1482,1,191593000.0,-968364442.4946485,250675000.0,-106552842.49358028,89973054.63642293,-763555865.2462817,28173000.0,31943389.187292904,35245000.0,39617329.67873633,63418000.0,56839050.766006604,-6852000.0,-11680658.270605737,35025000.0,40523106.966888376,-6852000.0,-12952694.441067953
611,528,0,69753000.0,137588377.32229102,24624000.0,190576063.99693325,45129000.0,34886120.46916492,4333000.0,7409472.8073013015,3937000.0,18093422.085494302,8270000.0,12231848.811097462,-17948000.0,-21104286.17989529,22281000.0,30476129.187423848,-17948000.0,-21144177.27395359
1037,1096,2,12798100000.0,12141290992.733013,7698700000.0,8127153898.695864,5099400000.0,3733330875.059036,578600000.0,606700406.9342067,1141600000.0,1160862796.2999077,1720200000.0,1756592447.3029728,210200000.0,127396126.55333453,368400000.0,365878014.40166646,210200000.0,233707828.29469818
1049,1368,0,41718000.0,116535291.6599168,16883000.0,64854312.713677764,24835000.0,64196172.21345545,4472000.0,10271472.807301302,-7000.0,9189429.150644222,4465000.0,10125299.658610128,467000.0,3940743.470191228,4005000.0,7192379.187423848,467000.0,4281396.195513948
181,192,1,2175066000.0,838701645.1989684,720018000.0,152647745.29473656,1455048000.0,661332483.1330931,262895000.0,270227618.5327603,0.0,-177237.17188567016,262895000.0,252619250.76600662,-74357000.0,-41765508.27060573,337252000.0,306406903.10888135,-74357000.0,-44519759.58335324
1530,1427,1,432444000.0,-680021385.3759773,58115000.0,-243243834.16931283,374329000.0,-453381841.5962806,30953000.0,40563396.27387171,9019000.0,10170293.533843953,39972000.0,36341150.766006604,-4508000.0,-3817208.270605736,35461000.0,38652082.04513286,-4508000.0,-4144892.311606058
1172,703,0,1951144000.0,2243492487.1325693,976648000.0,1090708399.1607938,828149000.0,966535080.8161478,81471000.0,28269512.34810123,811299000.0,857464562.7991014,892770000.0,874224449.8161398,21174000.0,-43244436.51716823,35340000.0,35550929.18742385,46131000.0,-9970166.754513988
1844,177,1,5184000.0,-1133823648.5484092,33317000.0,-300544264.40670854,2568262.933576247,-847198850.1991365,28000.0,9101953.804166567,1138000.0,2700269.1904755053,1166000.0,-2727033.472765421,-1174000.0,1083891.7293942617,1202000.0,6509883.190334112,-1174000.0,-606279.1046843708
937,1211,2,30042800000.0,27453425219.728733,15158963259.867964,13935799505.081087,10331300000.0,8714911507.388588,1541600000.0,1517695676.6958792,2284300000.0,2223661669.5788503,3825900000.0,3714522447.302973,727800000.0,694896126.5533344,402100000.0,394143014.40166646,1139500000.0,1091898046.3736608
1319,819,4,3143366000.0,2804618520.3756623,724791000.0,666009965.4697953,1686216654.8151803,1492690292.9595115,293240000.0,166797473.53296533,0.0,-2416180.3922815006,293240000.0,155833664.06666368,242794000.0,119983153.39390263,50446000.0,50294094.55602071,242794000.0,117749767.37360092
785,508,0,2558318838.0,2477462603.8636923,289865031.0,385490751.2050718,2268453807.0,2138368363.9000762,191440633.0,198861511.8073013,384407857.0,392345072.13367766,575848490.0,585076077.9412501,122416529.0,125660461.31131181,69024104.0,67709451.93742384,122416529.0,126969634.177429
534,742,1,355784000.0,-639574982.107379,359982000.0,28737179.93745196,21035000.0,-720618520.1753078,21274000.0,30448678.699776065,23247000.0,23549807.81018266,43857000.0,41691766.52723458,-2501000.0,-1485208.2706057383,23775000.0,30832800.15356213,-2501000.0,-3799022.8570107534
1073,970,3,107571000000.0,105123791486.10762,49865975585.04998,48551496937.775734,57705024414.95002,54599918273.81286,4680000000.0,4236956123.519713,16059000000.0,14188192045.525406,20739000000.0,18594741117.367107,2233000000.0,1900051121.7124634,234000000.0,250492341.8597685,4446000000.0,1992815502.064285
871,1115,3,357016000.0,-421841043.1478622,134021000.0,-294821820.2254392,222995000.0,-204293995.94441402,10859000.0,18456771.6193141,60424000.0,57818748.15961793,71283000.0,63474280.250884496,4410000.0,4094039.266628553,6449000.0,8551941.85976851,4410000.0,1392202.0642826343
145,1561,3,10492900000.0,9552723182.930433,4642648635.342979,4101269052.2324476,7724300000.0,6608912312.436743,1077000000.0,1231656123.519713,2546000000.0,2695287336.6820536,3623000000.0,3924745426.274757,389500000.0,515416739.2666286,626900000.0,649602341.8597685,450100000.0,573145502.0642825
1137,1231,2,221167000.0,-832299923.1655653,272405000.0,-223995152.0587663,-51238000.0,-1031780721.0793916,26384000.0,40919676.69587915,0.0,2372627.091728044,26384000.0,25998280.15930171,3123000.0,662176.553334536,23261000.0,34206054.285990275,3123000.0,-5558380.104594081
1853,1087,1,644700000.0,-513670536.3445065,668700000.0,413214780.7022587,-24000000.0,-923890437.202527,11300000.0,39085002.582741536,30400000.0,57422384.925315276,40500000.0,41303050.766006604,-2900000.0,14103791.72939425,9300000.0,12687961.349673957,2000000.0,19457111.664137937
1607,435,3,5733000000.0,4430180300.310534,4386600000.0,3656196921.0753975,1332700000.0,815341010.7580559,508800000.0,513956123.519713,1740100000.0,1718467654.0151608,2248900000.0,2229942032.645707,201100000.0,191871739.26662856,328200000.0,329517341.8597685,180600000.0,172890502.06428263
497,361,2,3187469000.0,1886638447.410719,1581882073.387936,1014572015.3979198,1402929000.0,195898591.85656786,12023000.0,9166244.174829636,118303000.0,124989969.57885043,130326000.0,120372200.8428501,121116000.0,105827376.55333453,236940000.0,242510204.28599027,-224917000.0,-237272027.91981173
1789,988,0,160962000.0,228088202.6865539,136871000.0,213046923.72504318,14091000.0,59333519.71536843,33234000.0,40444397.162123516,28516000.0,42443792.32850504,61750000.0,74087314.69054146,-4105000.0,-7374802.52835921,29699000.0,39630949.18742385,3535000.0,3810211.195513945
1733,155,3,1070082000.0,215237656.47879875,790095000.0,389280788.7048249,279987000.0,-190348454.6865629,59499000.0,67911123.51971301,92514000.0,86919109.17343628,152013000.0,143841462.90323204,-6147000.0,-6589910.733371442,65646000.0,68319641.85976851,-6147000.0,-9032447.935717363
1735,42,1,55335000.0,-1058685928.1054511,11648000.0,-294413150.43971556,43687000.0,-789732561.6072887,13874000.0,22220745.088335954,0.0,2920386.1642136183,13874000.0,8752466.527234579,364000.0,1806191.729394265,13510000.0,16693254.098992351,364000.0,192152.87620604993
1273,370,3,8855100000.0,6227666494.512318,4468096700.788768,3080507181.5320334,3543300000.0,2629768827.720672,468100000.0,433456123.519713,2041800000.0,1974973614.377824,2509900000.0,2379508855.432901,256500000.0,204176739.2666285,211600000.0,189582341.8597685,256500000.0,211720502.06428257
226,1510,3,1045317000.0,264687374.1896218,491551000.0,59111997.67453271,553766000.0,114848883.09371269,49476000.0,55877123.51971301,27012000.0,29049074.293862544,76488000.0,72509101.16960426,5569000.0,3370039.266628555,43907000.0,46679191.85976851,5569000.0,482502.06428263546
856,682,1,3335011000.0,1926619427.1643748,1532336000.0,1198124454.0464373,1376443773.6613572,393821820.6437464,158805000.0,153910652.34205273,458734000.0,498233289.7851584,617539000.0,632693450.7660066,82276000.0,59390591.72939427,26748000.0,32841758.06501307,132057000.0,108914583.34099324
610,1489,4,50788000000.0,48683390685.88244,23543456582.29001,22706782291.028873,11845000000.0,11499228280.335373,1286000000.0,1339292769.4795752,484000000.0,475046828.48163927,1770000000.0,1735956297.35091,994000000.0,992268353.3939025,146000000.0,167767637.64118546,1140000000.0,1105207567.3736007
434,1542,2,9209798000.0,7616557085.840525,3242862000.0,2665501710.6246996,3654836000.0,1935432191.8565679,758604000.0,639593676.6958791,-63000.0,3353930.7701934436,758541000.0,617468447.3029729,306700000.0,209754576.55333453,451904000.0,417719414.40166646,306700000.0,199553953.98393968
1765,981,2,3861516000.0,3178016658.3700356,3060094000.0,2334923847.9412336,801422000.0,284013978.92060864,246503000.0,380654518.8985722,543454000.0,499354348.8758083,789957000.0,839683280.1593018,-286586000.0,-162913023.44666547,130761000.0,148930764.40166646,115742000.0,190871463.20192903
667,231,2,3117800000.0,2692387486.061263,2444800000.0,2157786847.9412336,673000000.0,112716578.9206084,86700000.0,144695676.69587913,411500000.0,542692796.2999077,498200000.0,670312447.3029729,-419900000.0,30766126.553334523,63400000.0,74078014.40166646,23300000.0,58686430.64642118
1194,1588,3,84073.0,-803839586.7966076,2814055.0,-420965671.8812384,-2729982.0,-456035998.9458659,0.0,8491832.971579045,0.0,588464.3346365622,0.0,-2263283.6962844487,-647078.0,901455.1666285556,647078.0,2360590.086015297,-647078.0,-1836454.2357173641
626,281,2,250689000.0,-669196800.4496166,83024000.0,-324975152.0587663,167665000.0,-757392421.0793916,0.0,16195676.695879143,33193000.0,32792727.091728043,33193000.0,32475280.15930171,-43672000.0,-34061623.44666545,43672000.0,43971154.285990275,-43672000.0,-39536261.38896447
1654,95,3,2267553000.0,1544273592.6924086,1375272000.0,983358773.911301,519294000.0,154549087.33635378,30179000.0,34597123.51971301,36686000.0,42148249.89219692,66865000.0,76461332.7114447,-15417000.0,30339.26662859181,38864000.0,36896741.85976851,-8685000.0,-1668059.5789080001
288,1008,0,2221575000.0,2319266171.9929614,1034139000.0,1137353803.1197398,1187436000.0,1194803797.8937852,131964000.0,140221472.8073013,106311000.0,121057518.04616407,188755000.0,203527424.76092413,3712000.0,4408870.509686855,128252000.0,132788879.18742386,3712000.0,7771496.195513955
1665,605,3,555271000.0,-99962087.8496809,273881000.0,-76290436.60238945,281390000.0,-87972452.39078963,77610000.0,81172123.51971301,73228000.0,70357637.94295114,150838000.0,143720939.83149692,6400000.0,-45399660.733371444,144438000.0,202365041.8597685,-66828000.0,-128928297.93571736
652,935,3,1810200000.0,899548846.8181388,1334200000.0,847669433.7052164,472000000.0,-8165941.920334935,111400000.0,-287843876.480287,439000000.0,823477418.3942962,550400000.0,570130049.3656244,53300000.0,55307508.49739779,43800000.0,45304658.93293924,67600000.0,-216904741.83815637
1078,46,2,339972000.0,-862639967.3117077,145992000.0,-351215289.3753005,193980000.0,-893676808.1434321,800000.0,21958676.695879143,85000.0,2905527.091728044,885000.0,6851347.302972868,-35502000.0,-36711523.44666546,45899000.0,63728654.285990275,-45099000.0,-52342553.35127706
778,1331,2,992330000.0,-221960033.48031068,401273000.0,-106887289.37530053,544681000.0,-539478808.1434321,417282000.0,430051406.9342067,0.0,2461669.578850431,417282000.0,407738247.30297285,5536000.0,11951226.553334538,411746000.0,400297454.2859903,5536000.0,6416878.394323051
29,1129,4,600271000.0,333358225.81477666,137438000.0,72862915.35758787,462833000.0,288431738.2717223,73869000.0,82468523.4141809,24421000.0,21704971.956868008,98290000.0,86736344.05108963,-8089000.0,-2818070.0283997203,81958000.0,80462182.82454805,-8089000.0,-3778129.875953568
854,464,4,47193000.0,-232511651.1693945,31000000.0,-51560977.11155254,16193000.0,-168776682.93606162,4954000.0,9638573.576023424,3898000.0,2374224.9576771953,8852000.0,-2754831.3029097673,-615000.0,5179.9716002813075,5569000.0,6640953.354783968,-615000.0,-1056279.875953568
1423,1344,4,150549000.0,10184778.572237492,163792000.0,139558871.9231878,16674000.0,-166390264.3090446,28323000.0,14859484.238064056,6429000.0,6346852.7627643645,34752000.0,3536755.612866331,-13758000.0,-50262570.02839971,21733000.0,26286485.925651766,6590000.0,-14861229.87595357
1406,183,0,62996000.0,111991873.39619935,12638000.0,58024920.523504116,50358000.0,82766535.11940044,9919000.0,14971472.807301302,5920000.0,14243319.747102384,13543000.0,17930493.84526986,1979000.0,5254972.399728274,7940000.0,10439429.187423848,1979000.0,5592646.195513947
1624,411,2,56415000000.0,56782391976.99475,26707757359.48695,26909515277.910786,20622000000.0,19541591507.388588,4258000000.0,4251195676.695879,2744000000.0,2762572796.2999077,7002000000.0,6972232447.302973,471000000.0,540666126.5533345,1302000000.0,1266950661.359069,2956000000.0,2972647234.578414
926,211,2,572995000.0,-491933602.4576185,271264937.13018215,-176998212.3113328,210105000.0,-834649894.15971,-46109000.0,247716406.93420675,111142000.0,99419996.29990764,65033000.0,311474047.30297285,53448000.0,54563976.55333453,184993000.0,181285464.40166646,-231102000.0,2929068.3895583902
1324,186,2,11156646.0,-1058518421.8990926,14063458.0,-415653630.3992632,-2906812.0,-1031190448.5076095,-483256.0,15470634.898572193,692752.0,1407674.095881862,209496.0,2133561.0593017093,-2378023.0,1771274.5033345427,1407493.0,5406993.635990277,-1890749.0,-1372180.1949498218
809,491,2,746651000.0,-173328239.32248783,563281000.0,106007772.20332664,350347808.70326334,-620036099.1325121,20268000.0,32429518.89857219,132273000.0,194864832.58614108,152541000.0,212049780.1593017,1482000.0,3488876.5533345374,18377000.0,23991014.401666462,1891000.0,-1673778.579867215
492,346,2,203605000.0,-861392834.962798,164863000.0,-245398152.0587663,38742000.0,-1001870421.0793916,38308000.0,55889676.69587915,13284000.0,12602975.000991428,51592000.0,53257047.30297287,8585000.0,10251426.553334542,22801000.0,28251064.401666462,15507000.0,14771103.818425339
383,831,2,35610551.0,-1070858175.214704,44852933.0,-411076910.5600811,-9242382.0,-1018604920.9974259,3037874.0,19812968.695879143,5691278.0,7893147.082115309,8729152.0,11591272.65930171,-7028283.0,-1894773.346665457,15757435.0,20477564.185990274,-12719561.0,-13573831.731879931
1250,12,2,4596600000.0,3649469173.84528,2319347415.031524,1940142344.1374674,3466600000.0,2255651507.3885875,2555100000.0,1724200406.9342067,3033000000.0,2116677921.205017,5588100000.0,3897912447.302973,1174900000.0,711621126.5533348,1380200000.0,961328014.4016664,1174900000.0,745019588.1556473
229,649,4,3802385000.0,3565544533.2861624,2636965000.0,2704333323.3121347,1165420000.0,1031690143.9422174,157645000.0,143155512.3551261,488142000.0,459534034.0760354,645787000.0,588919196.5292916,66824000.0,43754453.393902615,83253000.0,86215514.49618587,74392000.0,53015067.373600915
1531,264,4,12852000.0,-252866169.0181911,5815000.0,-82176229.26959711,7037000.0,-180685852.99786794,1838000.0,6299452.798619503,1427000.0,569898.3611054178,400000.0,-7124514.300373379,-1116000.0,659529.9716002806,2954000.0,3844179.204148378,-1116000.0,-426429.8759535684
1035,1424,4,11747000000.0,12044198720.749062,7158000000.0,7054706001.186679,4503000000.0,4691392864.805164,770000000.0,774780996.6103175,1424000000.0,1460235307.1474438,2194000000.0,2211720562.078503,154000000.0,217164379.97159946,2040000000.0,2227745399.403118,-1270000000.0,-1233859479.875954
1774,1335,3,7236206.0,-801547871.225434,4913744.0,-421717765.3254673,2190428.0,-442046732.1981149,634746.0,9093994.6193141,2326079.0,1094374.7442413853,2960825.0,-1606664.2965867994,-234151.0,1336398.2666285546,886442.0,2861849.109768511,-251696.0,-1576027.5357173649
868,1093,0,6411000000.0,6671372750.259482,3370100000.0,3981147731.6847215,3176144611.7201624,3303240557.8840704,371800000.0,405278472.8073013,637000000.0,693368539.9409528,1008800000.0,1094735593.5548735,180100000.0,202924518.8188287,166200000.0,170153585.36273348,205600000.0,231355228.31444198
1391,1232,1,345836000.0,-812672836.2343729,48837000.0,-255038384.3896743,296999000.0,-570391234.8589642,3870000.0,1822449.1845254954,113328000.0,93459140.21325682,116752000.0,85026666.52723458,297000.0,-112058.27060573688,3573000.0,6331086.778705973,297000.0,-5201547.968882944
1734,577,1,20108000.0,-1151736563.6509151,9068000.0,-324081888.36842525,11040000.0,-851517756.8869722,3847000.0,11911383.07734137,661000.0,2659783.3243475566,4508000.0,636550.7660066076,-4126000.0,-2729858.270605737,7973000.0,10267943.719654419,-4126000.0,-3203773.5568578523
1416,1268,0,1564856000.0,1655980412.0540013,1122858000.0,1188267722.3230593,416354000.0,454736265.1566378,276207000.0,277991357.6213236,-11227000.0,1156581.269528903,264980000.0,264615786.09284177,5657000.0,6078296.521772188,270550000.0,264303729.18742386,5657000.0,7401909.776018478
352,288,0,1125373000.0,1650356142.0563664,521681703.6382896,788410586.5189445,29987000.0,20622299.683674127,142411000.0,131959472.8073013,-42080000.0,-37017919.58849078,100331000.0,97822829.34250787,17283000.0,13336246.521772249,125128000.0,129150879.18742386,17283000.0,13084607.786163187
135,561,2,630871000.0,-436763224.25847447,398464000.0,-61805289.37530053,232407000.0,-789048808.1434321,80823000.0,76905406.93420675,413091000.0,279733030.77019346,493914000.0,336999347.30297285,-14453000.0,3697976.5533345332,95276000.0,65136264.40166646,-14453000.0,-1633588.0941166547
1338,659,4,123668000.0,-136116453.49337816,40963000.0,-27782339.379676342,50285000.0,-140821661.41366827,29188000.0,39579553.51405084,11108000.0,11080113.97188762,40296000.0,36507548.98416411,-25553000.0,-9493570.028399726,35508000.0,31264728.71429199,-6320000.0,4620267.373600916
1076,444,4,34865437.0,-280859473.2997,19085704.0,-85446352.76877564,15779733.0,-171299464.01687372,0.0,5189903.464491805,1198.0,-342728.30952924443,1198.0,427808.52438962087,-6520186.0,-3834449.4283997198,6520186.0,6377932.454894539,-6520186.0,-5008512.675953568
1426,1104,4,1275550000.0,875254061.5239773,1504271000.0,1241265255.0981655,-228721000.0,-322094079.69816244,-35238000.0,-30127690.069999844,59168000.0,43083843.69888517,23930000.0,15247286.777298568,6621000.0,15137229.971600281,102745000.0,93174326.34586722,-137983000.0,-98873782.62639906
2023,1321,2,151712000.0,-955513642.459135,195428000.0,-301447556.5600811,28605000.0,-992469829.4974259,11588000.0,21007676.695879143,43977000.0,32817986.38211531,55565000.0,37636880.15930171,-8864000.0,-5047923.446665454,20452000.0,18971164.401666462,-8864000.0,-10663069.931182995
1219,102,1,1812825000.0,803331961.5061336,1134969000.0,890189341.4164665,677856000.0,-127613831.4816246,53184000.0,72022395.75456934,120142000.0,127662094.79511155,173326000.0,186195350.76600662,31929000.0,29999191.72939426,16945000.0,25377926.84574597,36239000.0,36945357.60777644
201,633,0,-1450776000.0,675659107.7547718,-894261000.0,369033235.0395264,-556515000.0,351901641.38040584,162740000.0,174089357.6213236,213058000.0,331805121.73219013,375798000.0,570422897.279654,-31210000.0,-40612370.03601934,193950000.0,336327979.1874239,-31210000.0,-36112053.80448609
580,782,1,526507000.0,-620100607.8194251,370554000.0,69519044.76033401,155953000.0,-737371801.3536121,66328000.0,76594799.5126479,107226000.0,117671599.29394327,173554000.0,177463450.76600662,-7923000.0,-2349008.2706057425,69543000.0,73373649.25769839,-3215000.0,-1508541.5085899085
268,1214,4,3089123000.0,2290806931.832384,1300561000.0,1115288962.5427988,1788562000.0,1360746032.3106353,286131000.0,316010782.6807417,850247000.0,837169806.5599351,1136378000.0,1133826062.4891737,205227000.0,212028129.97160026,1010678000.0,995842669.3638271,-724547000.0,-676494579.8759536
484,1597,4,2026392000.0,1603759377.7629147,773709000.0,405256939.4735118,1259138837.126244,1242905813.2042365,36270000.0,50554325.33860184,906000.0,1513210.8486962458,37176000.0,32019347.76169002,-286393000.0,-213428620.0283998,341823000.0,338453847.28271675,-305553000.0,-251139279.87595367
1169,141,2,59798486.0,-1014597063.7954137,24561228.0,-422299174.0415984,24680354.49630476,-1007328580.4964437,-143441.0,16003193.695879143,231837.0,2138210.982115309,88396.0,2218088.3593017096,-6239976.0,-510142.8466654569,6096535.0,10027928.335990276,-6239976.0,-5914265.058382019
595,745,3,269960000.0,-574990789.6067499,370356000.0,-54406328.82526958,-100396000.0,-566426111.0124935,29296000.0,35874771.619314104,911000.0,2129630.652524394,30207000.0,26535631.001710758,-31260000.0,-28286060.733371444,67269000.0,69291391.85976851,-37973000.0,-41290047.93571737
1664,134,4,1411497000.0,1058570698.7023559,713457000.0,650621334.5406051,667698000.0,461836057.73758936,123110000.0,126351547.51924865,21917000.0,22534537.0677263,145027000.0,125792538.03132421,16171000.0,16396229.971600275,124278000.0,122479106.74199969,-1168000.0,-2368329.8759535663
1737,1476,2,1068388000.0,13315889.959681034,793168000.0,232327847.9412337,275220000.0,-770403221.0793915,1125000.0,47235406.934206754,126961000.0,81186748.72592226,114574000.0,98957980.15930171,-123332000.0,-74423773.44666545,124457000.0,114309654.28599028,-123332000.0,-80574701.55560806
1105,754,4,736494000.0,394040005.7208607,390655000.0,308345781.231293,345839000.0,117569705.16976535,107458000.0,107586632.75513288,77264000.0,74308973.25103159,184722000.0,165417887.0485634,-21496000.0,-31140820.028399717,128954000.0,133162836.46454874,-21496000.0,-30283179.87595357
366,1105,3,1026034000.0,152066175.36622036,544592518.5648394,55757551.90367067,829659000.0,360657440.0932375,179923000.0,195520123.519713,-1664000.0,-677168.2135054255,178259000.0,181815660.7069721,43073000.0,47647739.26662855,136850000.0,141295841.8597685,43073000.0,45257302.064282626
847,1594,2,2995900000.0,2032552724.8819964,1720300000.0,1381786847.9412336,1275600000.0,245466578.9206084,234800000.0,237250518.8985722,244100000.0,240119632.58614108,478900000.0,466755180.1593017,25200000.0,45581126.55333456,209600000.0,204316514.40166646,25200000.0,35656364.40894452
1604,937,1,700529000.0,-362939650.6671586,363632000.0,70207362.27114797,335762000.0,-460333838.21169543,46249000.0,53691060.18320641,72678000.0,65994472.972862095,118927000.0,106702966.52723458,-13197000.0,-22755008.270605735,59446000.0,76138227.50807907,-13197000.0,-25544906.634034157
579,168,0,5913288000.0,7198401332.537098,5639252000.0,6534037301.558458,274036000.0,614860219.7569175,470311000.0,488923357.6213236,1040995000.0,980939977.697543,1511306000.0,1473211166.6691868,65962000.0,73711235.12357725,404349000.0,416435079.1874238,65962000.0,75788747.26672357
874,482,1,232365000.0,-934186547.634799,164743000.0,-156904247.87033725,67622000.0,-784320894.4512417,43176000.0,39557673.68466021,202053000.0,144367008.35161588,245229000.0,169012555.96615312,9035000.0,8227741.7293942645,31930000.0,26138648.317540795,11246000.0,8038056.63962335
193,38,0,24556000.0,37598801.72692609,5997000.0,22658744.682792827,18559000.0,49974744.376680136,-561000.0,5428472.8073013015,1648000.0,9654619.629381146,1087000.0,4647521.651610639,-8770000.0,-1535915.8734330484,3225000.0,5051585.3627334805,-3786000.0,1832433.2454860145
680,820,3,7852974.0,-778081719.6356982,8726749.0,-415183658.7812103,-873775.0,-433342689.36379755,1562860.0,9623200.971579045,0.0,-324955.1993968482,1562860.0,-3488997.085251023,-1603437.0,-201762.63337144535,3166297.0,4655792.7360152975,-1603437.0,-3030930.8357173647
702,1325,3,52606000.0,-731240373.2565708,31088000.0,-385994820.2254392,21518000.0,-408106124.96922183,2202000.0,9641771.6193141,21569000.0,17387088.993185338,23771000.0,13713720.7034132,-1737000.0,-931710.7333714454,2889000.0,5328941.859768511,-687000.0,-3215597.9357173652
499,967,1,641605000.0,-522509216.2033825,98505000.0,-207208007.61556113,543100000.0,-328711789.7970159,35752000.0,53387855.15049726,3063000.0,4754829.793189387,38815000.0,45225250.766006604,-5995000.0,1278291.7293942622,24767000.0,31481351.76796294,10985000.0,18035037.592842396
277,961,2,428119000.0,-285190308.12357175,200385000.0,-81900152.0587663,227734000.0,-648499921.0793916,32734000.0,52711676.69587915,3693000.0,6413127.091728045,36427000.0,45820169.939492345,-31432000.0,-31108373.44666545,67859000.0,88894004.28599028,-35125000.0,-41423202.791476645
1540,700,3,1748597000.0,978239136.6302075,773677579.6790999,331209644.10449135,871968000.0,432459514.13358796,88936000.0,98011123.51971301,314131000.0,312596840.10231245,403067000.0,399745606.57285875,36520000.0,37112389.266628556,38806000.0,41031641.85976851,50130000.0,48769952.06428262
40,1512,1,-12646800000.0,-13015184881.758028,-10176700000.0,-9475831193.248034,-2456100000.0,-2106015720.3447452,244400000.0,274414367.7994491,496400000.0,449504703.2366012,740800000.0,734274355.9661531,16300000.0,-103131208.27060568,228100000.0,363218506.0882524,16300000.0,-109534539.12452058
109,958,0,1646711000.0,1911084579.8872857,1388441000.0,1446429014.3564422,258270000.0,472053125.59430575,48094000.0,52137397.162123516,144654000.0,152608755.6856056,147710000.0,159760536.14110786,-42502000.0,-53887888.06993671,79586000.0,97526079.18742386,-31492000.0,-40566877.27395359
111,1108,0,632540000.0,741277098.4714725,270366000.0,265751890.2592566,362174000.0,468405548.0407902,197077000.0,163504512.34810123,14622000.0,16588430.796764158,211699000.0,168995027.10473734,-57776000.0,-8899738.069936713,97890000.0,96491129.18742386,99187000.0,58771970.73619108
662,285,3,156269000.0,-613584649.7042333,70363000.0,-328541820.2254392,85906000.0,-343746194.0353812,19503000.0,28630771.6193141,30881000.0,34173998.13905307,50384000.0,48990452.85561908,3657000.0,5951389.266628554,15846000.0,16810391.85976851,3657000.0,3391352.0642826343
1749,1091,2,12875300000.0,12509996651.824282,6095371591.431398,5984817048.09766,1810000000.0,447321507.3885875,1227700000.0,1197695676.6958792,4400600000.0,4500831669.578851,5628300000.0,5686472447.302973,478400000.0,406301126.5533344,749300000.0,771128014.4016664,478400000.0,404876768.86043483
340,1347,1,441781000.0,-747281064.9641092,86587000.0,-208433257.71052825,355194000.0,-543120309.8634272,97393000.0,106832582.4463846,44971000.0,42671243.628789954,142364000.0,133616366.52723458,9954000.0,8569741.729394263,87439000.0,95378182.34431714,9954000.0,6989521.070890721
811,109,4,1903960000.0,1680766114.2994606,1118147333.3250542,1112807300.07756,464992000.0,197620338.58319527,314173000.0,309464248.9902029,381360000.0,362777051.56308883,695533000.0,658621645.5258477,49703000.0,46866503.39390264,262823000.0,257351408.63047963,51350000.0,48027917.37360092
1016,567,1,413017000.0,-918212916.0777221,156380700.0672279,-225783647.4363886,290614000.0,-680267082.4867592,164000.0,10732996.042349001,0.0,2058156.385379178,164000.0,-2488446.9019363276,-47612000.0,-45797308.270605735,47776000.0,53572585.154356204,-47612000.0,-48758221.51620741
1696,268,0,6459000000.0,6419088126.720582,3814000000.0,3966939457.4149895,2645000000.0,2539733985.2487497,417000000.0,442136397.1621235,1137000000.0,1175888903.7031755,1554000000.0,1616062784.6884794,109000000.0,153070563.48283178,308000000.0,244138779.18742386,109000000.0,195320228.31444198
200,763,0,6683800000.0,6571594879.505675,2530688381.1304083,2535926675.1623445,4153111618.869592,4064588225.443969,363300000.0,384328512.3481012,268000000.0,289425154.21157944,631300000.0,674801726.9290991,83300000.0,80781725.84568384,257700000.0,274193779.1874238,105600000.0,107885949.72742902
1994,1188,0,165094000.0,252238613.15743083,70482000.0,122949529.50965305,94612000.0,134480867.9370938,17629000.0,22643472.8073013,13074000.0,21308187.584422786,30703000.0,33430799.915364817,1152000.0,3240422.399728275,16477000.0,19773379.187423848,1152000.0,3677196.1955139483
735,352,1,8604673.0,-1148584360.764888,2338502.0,-314820166.77185273,6266171.0,-853321739.7240574,1119391.0,10225120.11220237,1576117.0,2891579.7389330296,2695508.0,-1305835.472765421,23726.0,2609937.9793942613,1095665.0,3361464.418353748,23726.0,1188734.4591789206
1160,1540,4,30395557000.0,27786922465.574947,16133181687.752192,15224928294.595598,6297705000.0,4344713645.788147,3044686000.0,2959699026.492213,6751495000.0,6379663558.602162,9796181000.0,9334222929.001245,692314000.0,799833753.3939025,2352372000.0,2199508964.03664,692314000.0,779550059.0555434
2018,841,2,764077821.0,-363338194.834924,149164973.0,-259769748.79667336,540969385.0,-515337091.2956695,20737462.0,36603446.69587915,3810639.0,5234046.474824656,24548101.0,25371956.50297287,-1942729.0,3632135.9033345426,26490830.0,29564282.985990275,-5753368.0,-5326989.362302022
597,1362,1,19932000000.0,18973245965.33328,15924000000.0,16235097823.681934,3938000000.0,2673649534.7157183,677000000.0,662727673.0149261,2894000000.0,2958222176.5683,3571000000.0,3601743050.7660065,325000000.0,335188791.72939426,132000000.0,167308768.28801182,545000000.0,491272794.7636215
1089,365,3,114455000.0,-684183532.4733582,66800000.0,-350878280.7812103,47655000.0,-400561577.63072646,-324000.0,8532832.971579045,692000.0,567321.1449782513,368000.0,-2379351.568570951,-4444000.0,-1952860.733371445,6127000.0,7848136.2360152975,-6451000.0,-7169247.935717364
1635,1058,0,123009000000.0,110869332495.19801,61047097858.95223,54932963498.04056,24132000000.0,22204747909.1485,3661000000.0,3185728512.348101,846000000.0,693511532.1225315,4507000000.0,3854692031.7574396,401000000.0,537131413.7724384,5487000000.0,4809966032.25,-1826000000.0,-1664042389.9740376
394,898,0,1472222000.0,1286351315.2509668,444895000.0,408860979.0931288,1027327000.0,942770727.7243251,423804000.0,441027472.8073013,0.0,8513512.631061079,423804000.0,433057675.726909,44683000.0,51689887.94214861,379121000.0,376161229.1874238,44683000.0,53356120.736191064
176,1342,1,1707972000.0,458209567.58644485,826699000.0,489048979.6563506,881273000.0,-19157393.450140476,161237000.0,183696861.9532448,18721000.0,15481516.53634686,179958000.0,185879766.52723458,-38330000.0,17444491.72939425,218288000.0,181049924.45356962,-57051000.0,5977.142989240121
958,1209,4,140348000.0,-101417023.20414376,22627000.0,-40360632.61944324,117721000.0,-47999126.19561136,18849000.0,22601461.64762032,19797000.0,16082091.190056896,38646000.0,24390948.98416411,5179000.0,9802279.97160029,24028000.0,27708043.507177822,-5179000.0,-6534279.875953568
651,1103,0,68862000000.0,70130188649.24567,37281000000.0,38000675440.264,30258000000.0,30848737883.221264,682000000.0,1079778472.8073013,1405000000.0,1123802081.8446994,2087000000.0,1964317130.8024867,938000000.0,1069481413.7724382,2969000000.0,2751338779.1874237,-2287000000.0,-1636327379.7614846
648,1099,4,484306000.0,208350943.77710247,160149000.0,116773718.37871754,324110000.0,148957125.2419585,35935000.0,45016686.13522592,49919000.0,49825027.248459525,85854000.0,76405282.72236988,8224000.0,13396079.97160028,26558000.0,27376737.897797395,9377000.0,12731617.373600919
1124,928,0,263629355.0,320283689.89330894,139827658.8984726,186005844.9126503,106790041.0,139187443.64825863,4718481.0,10248543.807301302,-3354938.0,3979317.031788316,1363543.0,6439077.008954401,2345966.0,5550253.343664458,2372515.0,5532900.787423848,2345966.0,6130590.745486015
1983,736,2,22654400000.0,22465590992.733013,10023579681.929111,9975365274.551403,12050300000.0,10816391507.388588,409600000.0,587295676.6958791,3138700000.0,2927721669.5788503,3548300000.0,3590882447.302973,145800000.0,457941126.55333465,119900000.0,132943014.40166646,289700000.0,502239587.67271847
1330,241,2,55695000.0,-905822504.4519093,80300000.0,-305894350.54028356,-24605000.0,-982979047.4772085,-33328000.0,11033518.898572193,45694000.0,13864750.095881863,12366000.0,10292680.15930171,-48025000.0,-14912673.446665458,14697000.0,18921104.285990275,-48025000.0,-20012764.320319552
445,395,3,33248145.0,-646835809.1612813,21743057.0,-417809546.30390143,11505088.0,-468540498.4408444,1461398.0,8491832.971579045,569502.0,26895733.820843734,2030900.0,98924669.6995964,-12979193.0,-698179.4333714447,15010093.0,4140580.9360152967,-13548695.0,-3692380.4357173643
908,1449,4,19900000000.0,14359318360.800064,10348000000.0,7817094001.947742,9552000000.0,7260240716.92876,2649000000.0,2526085279.028465,0.0,696835.579177663,2649000000.0,2610179495.864027,467000000.0,612118353.3939027,2182000000.0,2014973053.640003,467000000.0,596366259.0555435
1585,674,4,2485319000.0,2036366001.4787247,1254039550.5762374,1120422967.0064065,1849463000.0,1520010389.4936888,775144000.0,701728389.9054747,0.0,-54102.58867308183,775144000.0,691233120.8325033,128435000.0,117650353.39390261,646709000.0,579822913.652938,128435000.0,118709459.0555435
643,1569,0,959084000.0,1051857129.9401528,491986000.0,505994561.4034201,395838334.6316486,428341620.3390431,56609000.0,64859512.34810123,47928000.0,61951858.35676223,104537000.0,116179029.24805267,-22287000.0,-16712597.492710968,141301000.0,144618535.36273348,-84692000.0,-80577903.80448605
1240,1570,4,1657157000.0,1878863816.119664,2335507000.0,2704179048.6740437,-678350000.0,-857600169.3520489,-96698000.0,239544763.77048662,98929000.0,91876726.08126806,2231000.0,308691109.2746005,-125632000.0,-43667170.02839969,312618000.0,447783360.0695557,-409316000.0,-209528579.87595356
64,427,1,1590600000.0,308199060.6854634,748600000.0,377103376.7523326,842000000.0,-60200290.697142124,59700000.0,86938349.44108707,141700000.0,150185532.3443763,201400000.0,222803550.76600662,13800000.0,30975941.72939426,37700000.0,41803456.60235916,22000000.0,37977513.45284687
1027,658,0,919607000.0,1000871865.6016018,266509000.0,318485712.7548877,653098000.0,677861867.4247525,68886000.0,71499472.8073013,19532000.0,28635897.641682886,84131000.0,83602483.61512311,-18050000.0,-16407329.49031315,86936000.0,86801579.18742386,-18050000.0,-15583766.75451398
1034,320,3,121754701.0,-310917764.60121286,28424394.0,-330160415.8812384,93330307.0,-133643559.50876808,1406469.0,9749378.971579045,-1378985.0,4003008.2950886153,27484.0,-2078438.4893326084,-14928443.0,-210222608.03337136,16334912.0,242795279.58601525,-14928443.0,-240701846.1357173
802,514,4,12973000000.0,12791891795.471443,6013807636.489885,5851436623.9370365,6537000000.0,2861592942.3310347,82000000.0,77988567.72593078,545000000.0,562030086.0824623,627000000.0,774395535.2005719,7000000.0,234568353.39390346,46000000.0,47081364.729871295,36000000.0,166757567.37360123
981,945,3,613608000.0,-285075866.12078583,391072000.0,-59769178.04463971,222536000.0,-214248880.997348,1437000.0,5687631.844256709,10955000.0,8727814.966368688,12392000.0,4335615.863717166,-84729000.0,-60155960.73337146,40703000.0,40920386.2360153,-39266000.0,-43021797.93571735
1046,867,1,102303000.0,-999800987.6555424,104192000.0,-192147271.25164855,-1889000.0,-833400293.4514573,12811000.0,20799192.246762577,42439000.0,44963865.571940474,55250000.0,50586666.52723458,700000.0,-298408.27060573874,12111000.0,17095177.83681579,700000.0,-2285476.729585705
581,454,4,1023085000.0,852740645.4334087,937155000.0,863290009.3595004,85930000.0,-76039395.50969748,87759000.0,103513099.19943681,257840000.0,227205550.0745402,345599000.0,316806450.32313895,-36941000.0,-35667996.606097355,111965000.0,115411049.64136465,-24206000.0,-19810629.87595356
1033,472,1,822101000.0,-768926411.1089754,260505000.0,-119901010.67244285,561596000.0,-613102523.0059848,113425000.0,93436266.09790799,-8261000.0,-5051724.183987208,105164000.0,66810766.52723458,25956000.0,-14813208.270605754,87469000.0,93095141.71156444,25956000.0,-13018861.522405377
1908,1238,0,972779000.0,1496772349.2632382,674585000.0,1218626527.1116326,298194000.0,307737451.3543101,81122000.0,83664357.62132359,33069000.0,43770743.72867745,114191000.0,118571191.78837629,-12742000.0,-11806779.490313157,93864000.0,96122579.18742386,-12742000.0,-11519153.804486053
1486,904,4,505122000.0,248467119.1642599,329765000.0,285671069.2621937,175357000.0,62099227.284988046,66862000.0,75064010.38279441,-15726000.0,-17522070.594312686,51136000.0,41986860.547509454,-8784000.0,9227429.971600285,75646000.0,61182887.068662025,-8784000.0,8456017.373600923
640,990,3,420505000.0,-439999187.9613944,230508000.0,-205775002.3254673,189997000.0,-276476991.38310456,53603000.0,59355771.619314104,71511000.0,71760703.14133516,125114000.0,116465209.30596954,16734000.0,16124239.266628552,36869000.0,36712741.85976851,16734000.0,13913740.421091966
1988,706,2,216274000000.0,174493739216.3126,73401000000.0,54458174228.4803,142873000000.0,125191491507.38858,27936000000.0,26071156676.08936,6210000000.0,5838585862.582172,34146000000.0,31576010835.3259,13748000000.0,8670181487.499996,20398000000.0,22468272644.62363,7538000000.0,2898531357.5383906
469,262,1,122531000000.0,115092411857.16743,74517000000.0,71635043324.05873,57494689417.43809,21133226496.82487,11370000000.0,9968007374.55083,10501000000.0,10664848805.127975,21871000000.0,20511205634.37684,5767000000.0,4224938791.7293935,5604000000.0,5626001037.587152,5766000000.0,4226421861.9881716
606,1374,4,5723214000.0,4235013917.8069763,2776207000.0,2091125560.438498,2947007000.0,2534029240.8003006,448941000.0,496296567.9904314,516900000.0,528831908.74623954,865197000.0,897694904.7145449,78214000.0,96896803.39390257,370727000.0,377127681.17123115,78214000.0,97445717.37360089
1877,1138,0,689227000.0,394219092.3208934,562767000.0,173274272.09155145,126460000.0,224490544.66471514,40662000.0,42519472.8073013,11086000.0,17749449.317220554,47740000.0,48622872.753973685,-28335000.0,2034622.7667144723,68997000.0,38147979.18742385,-28335000.0,2880383.245486015
1148,1255,3,600857000.0,-442059402.23374414,331349000.0,-241464857.7812103,269508000.0,-256691021.35694832,50595000.0,49909832.971579045,6532000.0,5457391.6909606485,57127000.0,40974851.12311137,-62120000.0,-47572269.33337145,83188000.0,74754602.68601528,-32593000.0,-40473322.03571736
1653,1150,3,56794000.0,-706626040.5821847,12682000.0,-409719820.2254392,44112000.0,-365580711.5313388,25087000.0,25490771.6193141,14791000.0,10294725.78769083,39878000.0,24844415.00392454,-4627000.0,-1321010.7333714487,44505000.0,34148741.85976852,-19418000.0,-13735847.935717368
1205,743,0,3747000.0,51625523.21870972,4407000.0,31021798.063996255,-660000.0,38006611.59107041,-1515000.0,3915357.6213235855,1515000.0,10212796.224599998,0.0,3442246.436291769,-2598000.0,482007.82746039284,1083000.0,3987085.3627334805,-2598000.0,653196.1955139474
1612,891,2,3505835000.0,2350777612.977653,1860807256.214476,1363413470.7580476,1470074000.0,9461869.949642062,601953000.0,749836676.6958791,626097000.0,780746248.2799342,1228050000.0,1495381247.3029728,88554000.0,90861976.55333455,475916000.0,563766364.4016664,126037000.0,133012633.10505262
1894,1039,4,203011000.0,-109428580.65322399,255300000.0,128732122.82866871,-52289000.0,-252801403.50564563,8409000.0,14314142.51058535,25579000.0,26713476.484678894,33988000.0,28344063.746155303,-8212000.0,-8715270.028399719,15533000.0,18508916.740150798,-7124000.0,-7379529.875953566
458,712,1,3126495000.0,2061189935.0332153,2137404000.0,1891757152.537363,989091000.0,166294554.46068466,70679000.0,98520463.0346417,930828000.0,889609948.7499474,1001507000.0,972321066.5272346,21039000.0,34446891.72939426,49640000.0,63779469.6345736,21039000.0,32852693.365965836
782,165,3,36175654.0,-747195391.1818955,19187381.496044576,-403995873.24970895,18868678.0,-398233025.795582,22295962.0,22891636.6193141,2274626.0,2379554.558158845,24570588.0,13078535.702424787,-1191082.0,-1703125.4833714454,23487044.0,18854043.55976851,-1191082.0,-4559727.585717365
21,232,1,3642433000.0,2264449943.027588,1611617055.0351417,1205861689.8817792,2307595000.0,1197375837.5090692,392263000.0,400397979.0061118,1442178000.0,1453947413.6604729,1834441000.0,1845600466.5272346,185633000.0,182549763.32710338,1648808000.0,1655103292.9579117,-1256545000.0,-1223118711.6232312
323,342,1,102171000.0,-1009937233.9548888,80142000.0,-221384917.04342324,22029000.0,-808223340.3056095,11994000.0,23637106.89009215,1280000.0,3042516.1869826973,12084000.0,10054750.766006608,-8453000.0,-6066258.2706057355,20447000.0,27786401.138954073,-8453000.0,-6687042.311606056
1847,1419,4,11562769000.0,7971414938.426874,8634392000.0,6060230034.055609,2928377000.0,2304922731.3807592,696915000.0,834104218.7638838,4617768000.0,4271286603.066183,5314683000.0,5075991011.532952,87484000.0,135978529.97160023,6096071000.0,5596330439.869455,-5399156000.0,-4838243129.875954
1304,989,4,1061958000.0,555209146.8995073,603583000.0,308627109.5617006,275904000.0,75564559.61924589,75380000.0,62244325.583805546,85007000.0,88731142.7911529,160387000.0,135607166.092936,19279000.0,-4833220.028399732,56101000.0,65800639.33449263,19279000.0,-4429579.8759535765
1031,77,1,1709464000.0,529112118.8121233,792444897.6724385,469013232.4788567,917019102.3275616,53395864.89724648,-50089000.0,-36184380.19115118,206500000.0,187121315.18320754,156411000.0,145534866.52723458,62554000.0,63485541.729394265,32611000.0,29789570.721988425,-82700000.0,-49069293.40945677
1109,1048,0,1182200000.0,1564903841.48306,559672263.5892134,764698936.0072489,993300000.0,1179135892.8011138,77500000.0,79478472.8073013,102700000.0,117860090.88922562,175100000.0,185827298.85400516,21600000.0,14652770.509686843,55900000.0,59308779.18742385,21600000.0,16734296.195513947
1483,1507,1,15318000000.0,14197921890.485094,8995872209.433592,8761986016.40367,2835000000.0,1134457810.23613,2220000000.0,2135269759.668877,7363000000.0,7392421636.953253,9583000000.0,9550443050.766006,348000000.0,388088791.72939414,1879000000.0,1884117626.4020722,341000000.0,363604755.62643903
739,1417,1,2898416000.0,-789132117.3410633,2080781000.0,-240288694.9452089,476998000.0,-782069949.3846126,19746000.0,24492054.602478556,-19746000.0,-15361852.455829065,0.0,-2756949.2339933924,-16089000.0,-7828308.2706057355,35835000.0,29853917.621942718,-16089000.0,-9988764.987232666
1565,1261,2,37777000.0,-983820653.9264096,8088000.0,-410099152.0587663,29689000.0,-966925421.0793916,1942000.0,18921676.695879143,1878000.0,4075886.382115309,3820000.0,6868580.159301709,-3377000.0,1051576.553334537,5319000.0,13110454.285990277,-3377000.0,-4300564.669245468
1547,48,0,350115000.0,469189908.8958895,124447000.0,194495438.6061421,144501356.0121529,220780699.2511519,23341000.0,33684472.8073013,74465000.0,104920616.45064265,97806000.0,128471020.1589124,1273000.0,3954524.128897286,21144000.0,31200829.187423844,2197000.0,6784770.736191084
1772,61,2,60756000.0,-994270449.0149345,14120000.0,-399416152.0587663,46636000.0,-981010921.0793916,39398000.0,61092676.69587915,0.0,767050.0958818621,39398000.0,46708347.30297287,1277000.0,6631926.553334543,38121000.0,48201604.285990275,1277000.0,1160219.5384088776
396,1484,4,2329417000.0,2008615589.625498,1103945000.0,1059957013.8429126,1225472000.0,196438476.089131,201803000.0,212554532.8088811,84310000.0,86585039.49910165,286113000.0,277339844.05108964,4458000.0,7247403.393902576,134794000.0,125152158.08563483,67009000.0,74825067.3736009
370,1128,0,322707000.0,484296634.5356597,203952000.0,318800459.54435027,133189378.04611006,200033083.1059063,59563000.0,69488357.62132359,32549000.0,43706588.016858816,92112000.0,102837361.37930413,2829000.0,10633861.930063277,56734000.0,59330179.18742385,2829000.0,11549170.736191083
1387,362,1,16986396.0,-1133051543.0666552,28398941.0,-296908048.8340713,7976898.609990532,-848018154.6350435,-2992.0,13084369.154809633,2987192.0,2654167.616286721,2984200.0,1470091.8980636727,-2823081.0,-2931518.4706057417,2820089.0,12379892.70889465,-2823081.0,-5525794.911879281
1633,1474,4,5507733.0,-292484829.13550234,3754986.0,-82283701.31895149,1752747.0,-195500087.01097682,77969.0,5041990.738239911,690.0,-1239563.4651495088,78659.0,-13096153.553970171,-1288944.0,567915.4216002813,1288944.0,1770506.190099137,-1210975.0,-490747.6259535679
1459,843,0,2951779000.0,2978846154.5287585,1733504809.66769,1753031333.0927558,-705417000.0,-695975166.3248601,103159000.0,107230357.62132359,95357000.0,99444143.46396825,198516000.0,211900615.74301425,63542000.0,74645822.2388558,39617000.0,42982779.18742385,63542000.0,77589207.78616314
447,15,2,1389340000.0,265410138.0434773,870172000.0,488165634.8867924,518687000.0,-634840394.15971,122910000.0,167727406.93420675,509918000.0,540809869.5788504,632828000.0,684905447.3029729,77637000.0,98051876.55333453,35836000.0,39796164.40166646,87074000.0,106218211.90588334
1342,527,1,670100000.0,-420127513.3041825,96919000.0,-210981661.36243916,573181000.0,-235138170.93185937,45369000.0,56719071.50009622,10723000.0,11039135.471626448,56092000.0,53034166.52723458,-44376000.0,-37943208.270605735,100468000.0,103068861.88364568,-55099000.0,-50312671.516207404
1101,1050,3,796235000.0,-760380597.2416903,203741000.0,-405203280.7812103,463390000.0,-329293605.82588995,475000.0,8558631.84425671,0.0,-707996.212743212,475000.0,-1943528.0768886358,-25797000.0,-13261860.733371444,26272000.0,18531586.236015297,-25797000.0,-17612897.935717367
1559,148,0,243654000.0,301253867.90811044,108112000.0,142120543.23230338,135542000.0,150452951.1706841,37230000.0,40852472.8073013,3845000.0,14819326.163801342,4798000.0,9840548.457409315,-21869000.0,-17425243.336512137,59099000.0,59269479.18742385,-21869000.0,-17341627.273953583
1859,83,0,63057347.0,164354245.68610045,37031977.76980746,82513265.56288293,50373559.0,95467604.83666284,5114390.0,12139668.621323586,9540399.0,17814741.588701054,14654789.0,19963378.64527598,3126608.0,7337906.247330461,1987782.0,4935497.6127334805,3126608.0,7772447.445513947
625,862,1,2120798000.0,775588572.6249957,1472395000.0,945282894.7944378,648403000.0,-191282882.72214293,67913000.0,70926788.72123955,30767000.0,29942446.795312166,98680000.0,86718366.52723458,-9629000.0,-17131558.270605735,77542000.0,87271963.50816667,-9629000.0,-19473282.367250957
1728,309,4,706517000.0,334178733.4514427,905805000.0,867314486.8290713,-199288000.0,-463654534.1438036,73709000.0,81880520.30548985,16853000.0,16097417.001364965,90562000.0,82014843.1967189,38915000.0,39708353.39390263,34794000.0,40552329.893924505,38915000.0,39140759.05554352
1404,810,3,76126346.0,-767729441.0360016,61120101.0,-374645981.2254392,15006245.0,-462931685.03507626,2282652.0,11535072.6193141,31006950.0,18345654.120470665,33289602.0,18437509.03212176,-2890968.0,1658300.766628554,5173620.0,4734909.309768511,-2890968.0,-1144325.235717365
1515,939,4,156303000.0,-101882384.2129798,83901000.0,24784666.32356119,72402000.0,-94617316.26673341,17689000.0,16851380.636677884,41469000.0,33347827.93591299,59158000.0,36981824.44339948,-2517000.0,-11298620.028399717,20206000.0,26729938.20392993,-2517000.0,-13352579.875953566
1800,66,2,3271200000.0,3108060391.300169,1447362713.447565,1406171610.6258736,-21400000.0,-495513421.0793915,31300000.0,69650518.89857219,847700000.0,941632796.2999077,879000000.0,986205180.1593018,-16400000.0,-242648873.4466654,66600000.0,63313014.40166646,-35300000.0,-15414341.486996837
4,694,4,7361000.0,-314985599.96616554,2671000.0,-98863123.01249051,4573903.262590003,-213087813.73866412,349000.0,4178201.087648675,109000.0,-1160976.8635732871,458000.0,-10318834.366785498,-670000.0,1048129.9716002808,1019000.0,1428119.0611702628,-670000.0,-71129.87595356815
1400,327,1,-4860602000.0,1227499178.493398,-990657000.0,178560357.51317024,-3869945000.0,1042163248.1927431,193881000.0,208263698.98499075,378009000.0,476254583.8584365,571890000.0,716326450.7660066,36078000.0,37861741.72939428,124685000.0,184286800.8784949,69196000.0,72114941.86061919
617,1153,0,5475000000.0,5836042633.376034,4861300000.0,5295290294.0815325,613700000.0,590134867.3990085,130600000.0,184386357.6213236,1421300000.0,1396897746.9720511,1551900000.0,1577913351.063594,23900000.0,56438421.207956634,81800000.0,93588779.18742386,48800000.0,88078070.73619108
570,813,0,9643000.0,58092469.73740759,6164000.0,57615148.33094403,3479000.0,39581126.73601413,1843000.0,7446512.348101228,2246000.0,10005105.796275713,4089000.0,9944467.282375682,-437000.0,4560433.289224715,2240000.0,5614479.187423848,-397000.0,3163796.1955139474
2015,17,2,12012800000.0,1831722272.5841124,6608200000.0,1159769710.6246996,4911800000.0,1312288391.856567,457000000.0,535500406.9342067,316800000.0,265098894.48396,773800000.0,751592047.3029729,145800000.0,128308826.55333453,203500000.0,186951964.40166646,253500000.0,280437239.2450923
576,1047,1,6644800000.0,5761079698.176903,3248100000.0,3227846632.1012044,2786600000.0,1869075752.6653557,345800000.0,352055816.7070583,33000000.0,180680555.76922363,378800000.0,516133050.7660066,36000000.0,53783791.72939425,342800000.0,467578293.6972429,3000000.0,-134950841.00292623
1397,68,0,136174000.0,336975695.22998273,62163000.0,189339762.0401879,72304000.0,150807882.02003682,10072000.0,16816472.8073013,-3712000.0,6279821.864587426,6360000.0,11469629.61248185,-12604000.0,-8341646.785996299,22676000.0,24196529.187423848,-12604000.0,-6200027.273953584
1134,1221,2,160043000.0,-843642149.375454,101422000.0,-337873152.0587663,58621000.0,-911307021.0793916,15202000.0,25300676.695879143,-14386000.0,-1664290.082734734,816000.0,7772880.159301709,-14398000.0,-16233498.446665458,29600000.0,35186264.285990275,-14398000.0,-21859041.905477256
188,196,2,9282000.0,-1060642019.4722579,3493000.0,-415452893.1798389,5789000.0,-1022633078.5935148,355000.0,16764518.898572193,552000.0,1744450.095881862,907000.0,3244347.302972868,-972000.0,5044176.553334543,1327000.0,5532364.401666461,-972000.0,-728113.1875075118
488,145,3,16124000000.0,11328954831.533491,13383000000.0,9929680416.801392,2741000000.0,1519882132.6902132,5251000000.0,3264956123.519713,4961000000.0,3292512939.358742,9233000000.0,5929284022.215681,1583000000.0,749531739.2666285,3668000000.0,2401242341.8597684,1583000000.0,802654440.4210919
1211,498,0,1601068000.0,1665646164.4063284,1081707000.0,1125482971.3287568,519361000.0,575063997.9214579,248876000.0,267272357.6213236,-34521000.0,-21631543.433175396,214355000.0,234868201.35304233,19006000.0,43530337.94214861,229870000.0,226200929.18742386,19006000.0,42176107.78616314
1580,184,4,779622000.0,488340929.1399493,153452000.0,250278607.96937913,626170000.0,378635349.7108199,134561000.0,140354154.04163057,57608000.0,55303321.096267134,192169000.0,175907544.0510896,56917000.0,56640953.393902615,77644000.0,78806216.18524502,56917000.0,54823767.37360091
1533,213,0,4162272000.0,3889182315.5421557,862254000.0,1080030895.237537,3299439000.0,2960959461.664721,357871000.0,367219512.3481012,794265000.0,820196479.5107489,1152136000.0,1188810900.3963203,114028000.0,143984721.20795667,194829000.0,198737879.18742386,163042000.0,169080249.727429
818,583,0,13900400000.0,12080598619.624788,12204100000.0,10399890660.049435,7319729781.089915,6538917483.000464,78200000.0,71686357.62132359,235100000.0,245879786.83789673,313300000.0,317212154.53038114,174900000.0,155022170.50968677,116600000.0,105319679.18742386,-38400000.0,-37607846.22623512
50,537,1,594022000.0,-624706091.3103435,132343000.0,-250742647.2186948,461679000.0,-378989632.5063743,121956000.0,127023192.32657148,1645000.0,3642117.791741307,123601000.0,112554966.52723458,31177000.0,28553463.32710331,45262000.0,47157228.91196158,76694000.0,68778937.95304486
590,1171,2,1341960000.0,287781092.86367464,666970000.0,243715710.62469947,674990000.0,-383436008.14343214,55930000.0,70725676.69587915,179410000.0,180275669.57885042,235340000.0,233156447.30297285,23760000.0,23204626.55333454,32290000.0,38240514.40166646,23640000.0,18286521.420132782
377,276,2,52901000.0,-1012472994.7415735,24522965.98920461,-391970333.24313754,33404000.0,-986922107.0956695,-1183000.0,16374244.174829636,24144000.0,19318150.09588186,22961000.0,20606080.15930171,-5692000.0,1741576.553334542,28653000.0,27289554.28599027,-29836000.0,-24367164.928483203
1953,1136,2,877565000.0,-172805309.30658793,1336553000.0,663556710.6246995,-475192000.0,-1362292908.1434321,522812000.0,530725676.69587916,-345617000.0,-337457903.7000924,177195000.0,176239447.30297285,31868000.0,40476576.55333453,490944000.0,485779754.2859903,31868000.0,34814511.18550047
1018,1253,0,26568400000.0,26847813803.065887,13080400000.0,13418272352.068018,13246000000.0,13188241290.681871,1346200000.0,1224628512.3481011,1952200000.0,2045739168.2215497,3298400000.0,3254914762.932775,592200000.0,401724518.81882876,746800000.0,720608779.1874238,599400000.0,430760228.314442
709,868,0,2933971000.0,2557224700.504402,2618511000.0,1919893228.8439355,315460000.0,599048271.484694,65062000.0,64611397.162123516,2191000.0,13499105.320012096,67253000.0,74038718.41800733,-143265000.0,-90913639.93198763,69951000.0,47290579.18742385,-4889000.0,16229907.786163151
1121,747,1,27828200000.0,24540500722.126236,13810622382.415062,12447815384.973965,7212400000.0,6439186125.537608,821300000.0,827689852.0897658,181300000.0,261541632.96539626,1002600000.0,1063543050.7660066,233000000.0,261403791.72939408,794400000.0,954313182.3533468,26900000.0,-138107352.23434046
1026,1037,1,2788943000.0,2096908311.8860753,2662320000.0,2422537668.7993846,126623000.0,334695225.81355906,299166000.0,309530935.74005187,0.0,-325351.42642998416,299166000.0,297814353.09806365,-281667000.0,-102763758.27060576,580833000.0,434120619.9567061,-281667000.0,-116847371.51620741
1015,242,1,2489159000.0,1204626319.764134,1954765000.0,1582125513.667866,488897000.0,-518011551.07079446,294443000.0,243990356.76287672,370069000.0,343744889.04609114,636496000.0,550354250.7660066,64600000.0,30503441.729394253,229652000.0,234667883.71213534,64791000.0,20421445.857529547
1575,208,0,11961066.0,38614045.68200031,1068497.0,22716248.626082726,10892569.0,54254522.404738784,611174.0,6379517.348101228,0.0,8313185.247421113,611174.0,5411667.883125082,-1146685.0,3076736.64059221,1757859.0,4486322.317733481,-1146685.0,3291389.79604641
826,84,4,93941000000.0,75097876639.09027,39446000000.0,33936584534.67591,53466000000.0,43212220202.52508,4178000000.0,4505710374.622986,15656000000.0,19955696025.28077,18582000000.0,24577615820.60302,1764000000.0,2531968353.393903,2414000000.0,2060308529.7938156,1764000000.0,2504257567.373601
463,901,2,32097000000.0,28821817675.67776,20419000000.0,19745059229.000145,10658000000.0,7884067180.470965,2071000000.0,2164700406.934207,6360000000.0,6413453630.770193,8431000000.0,8509555180.159302,950000000.0,991316126.5533341,831000000.0,846213014.4016664,1240000000.0,1256342367.006008
1660,1497,1,6578196.0,-1147656185.4163153,4441488.0,-304496561.35162246,2465776.0,-858072910.5528872,2008368.0,11474967.001471773,923641.0,4425514.145977625,2932009.0,-881210.3727654209,-1328968.0,1101562.3604366365,3337336.0,6581651.784991393,-1328968.0,-2848446.9448091383
700,60,3,1658042000.0,507214017.4419228,1223260000.0,432254869.78959453,434782000.0,30126022.47331226,207698000.0,217400123.519713,674127000.0,656166176.4769399,881825000.0,857669747.3114974,25549000.0,23498239.266628556,179614000.0,172621041.8597685,28084000.0,25938340.421091966
402,1152,1,9094896.0,-1117782946.1911564,13593163.0,-286761031.35702825,-4498267.0,-873053665.0745095,-928960.0,8148436.181302857,1115703.0,5081378.201298183,186743.0,-2565678.772765421,-5136642.0,-3173270.072896694,4207682.0,7861195.520366806,-5136642.0,-7574215.633840276
591,406,2,16788482.0,-1086104257.5307312,821758.0,-423505624.6811537,15966723.0,-1020534641.9565107,906228.0,16734703.898572193,333325.0,2632392.3136320915,1239553.0,4704489.942850108,-1096396.0,5300437.253334543,2002625.0,4672237.096666461,-1096397.0,-55039.375235175685
412,1415,3,1678241000.0,985672580.2354444,730813000.0,320600282.5111314,947428000.0,582788907.5078065,62311000.0,68847123.51971301,89643000.0,85913750.99306048,127553000.0,120226940.10023837,-24195000.0,-29987810.733371444,86506000.0,91625141.85976851,-24195000.0,-32336147.935717367
26,113,0,1363308942.0,1389148334.494157,629855415.0,687768179.074128,733453527.0,621792032.383097,93681798.0,85077085.34810123,0.0,7400283.542383653,93681798.0,74257521.80262107,39573525.0,36255652.94214863,54108273.0,45313439.58742384,39573525.0,33489129.236191068
205,526,2,15264467000.0,13532527400.841,7226441209.924589,6463167823.994182,3059451000.0,1517440475.0590358,592816000.0,588706406.9342067,378076000.0,376466469.57885045,970892000.0,944089047.3029729,444977000.0,407728376.5533344,147839000.0,161576114.40166646,444977000.0,406246212.53898233
699,1263,0,65987000.0,164320743.3771972,35279000.0,104776234.6560431,30708000.0,75441248.70667192,5319000.0,11660357.621323586,28050000.0,37687112.943793006,33369000.0,35609274.63878752,1124000.0,4729835.098430402,4195000.0,7192585.3627334805,1124000.0,5228696.195513948
550,304,4,31945000000.0,35088496396.812836,26424000000.0,29626784519.447205,5506000000.0,5493614039.53574,1191000000.0,912124049.832265,2895000000.0,2409497920.4584203,4086000000.0,3284751191.1419816,834000000.0,743418353.3939027,357000000.0,314106428.9891282,834000000.0,688207567.373601
140,207,1,2655001000.0,1439884552.0618978,1989549000.0,1528932379.971281,665452000.0,-106561823.03459859,67554000.0,-24585091.232733727,403267000.0,545325180.6597459,470821000.0,473315366.52723455,-3426000.0,-73187708.27060567,30096000.0,35303784.88957879,37458000.0,-70122010.26333824
2004,586,2,9403000.0,-1110812795.3590171,5511000.0,-418922496.16267097,3892000.0,-1030674913.4093659,-48000.0,16374676.695879143,1387000.0,1748150.095881862,1339000.0,3181080.1593017094,-903000.0,4425026.553334543,855000.0,5521604.285990277,-903000.0,-921959.0583820192
28,456,2,551232000.0,-556077908.0461621,628224000.0,-28278693.876615345,-138322000.0,-1169534116.5614665,23716000.0,37105676.69587915,12709000.0,16332584.566167668,36425000.0,36052747.30297287,7478000.0,28809826.553334534,48579000.0,46329604.285990275,-24863000.0,-21887879.487714276
844,949,4,435750000.0,102654342.10373783,62826000.0,-21409159.812304378,372924000.0,189467104.02116752,28152000.0,33749942.829987876,49267000.0,47819770.79840506,77419000.0,63401682.72236988,143000.0,1262679.9716002801,28009000.0,31416557.660094324,143000.0,871420.1240464313
967,1059,4,367699000.0,1185653.5472035408,382822000.0,184700391.42089677,-15123000.0,-159981903.06087136,310000.0,132624477.06926379,0.0,-808524.5065180042,310000.0,101472268.70959006,-47413000.0,16133829.971600277,47723000.0,76776635.92903344,-47413000.0,27019170.12404643
433,1396,2,3810682000.0,2547329088.901845,2050315000.0,1472355422.4093642,1303319000.0,227305570.5025741,110314000.0,121063676.69587915,71850000.0,70848686.3821153,148990000.0,147617380.1593017,11661000.0,12665476.553334542,98653000.0,97702064.40166646,11661000.0,8043031.392208835
228,315,3,2333529000.0,1580693675.6321876,1032484368.2283514,598363238.5542274,1202771000.0,795543912.9351366,71236000.0,75353123.51971301,490990000.0,523923370.48512316,562226000.0,590738077.2109708,19517000.0,22145239.26662856,46091000.0,53055191.85976851,25145000.0,19204890.421091974
1855,735,3,20737275.0,-871514791.2655972,10788720.0,-406236358.96970344,10368036.0,-481029614.37777925,562564.0,8415930.971579045,77061.0,-261003108.99828416,87201.0,16645856.151368037,-4142505.0,-8843102.6350009,4705069.0,50077631.875,-4142505.0,-1824756.9357173648
776,330,3,386844000.0,-390665857.9266819,412960000.0,15515179.77456081,-26116000.0,-441244175.1019983,16927000.0,32554771.6193141,91131000.0,97714217.37455736,108058000.0,119645975.65712415,-813000.0,10908039.266628558,13060000.0,16435691.85976851,3867000.0,8758702.064282635
839,1420,3,6911775000.0,6322951191.220055,5109042000.0,4633814407.364899,1802733000.0,1566522926.704409,225256000.0,230169123.519713,195092000.0,203868294.02399492,420348000.0,426027020.91147304,132530000.0,135637689.26662853,92726000.0,88220691.85976851,132530000.0,133253990.42109197
793,1146,2,2883631000.0,1710263146.6908088,1772390000.0,1306221689.5941446,1110345000.0,-584882775.8138806,319055000.0,405956676.69587916,1257690000.0,1320132150.095882,1576745000.0,1702795747.3029728,38222000.0,99915826.55333452,280833000.0,286629164.40166646,38222000.0,91986054.26212895
820,846,2,133032000.0,-786384352.5683762,232711000.0,-88392152.0587663,-16246000.0,-1029779221.0793916,12296000.0,29816518.89857219,62277000.0,72306750.09588186,74573000.0,88841769.93949234,-14749000.0,-8550273.446665455,89322000.0,105773754.28599028,-77026000.0,-90136537.33918919
2016,513,0,296638000.0,435805424.0309832,208509000.0,303711577.0720676,88129000.0,156834519.31516078,7319000.0,11316357.621323586,0.0,10930894.37365397,7319000.0,12150654.696686482,-46633000.0,-29419652.081511192,53952000.0,52765979.18742385,-46633000.0,-33504340.223981522
1438,1294,4,38809000.0,-259704118.32864738,43090000.0,-41624082.9969939,-4281000.0,-168150824.9825269,7318000.0,11842245.172203433,25818000.0,23729778.21545484,33136000.0,22288335.560148224,-933000.0,-389920.02839971846,8251000.0,8844280.60948794,-933000.0,-1078779.8759535677
866,229,1,2376172000.0,771283238.0849409,1870972000.0,1189239241.292945,486613000.0,-634273730.0188065,-5214000.0,67771573.59998381,182832000.0,145349323.66689044,304976000.0,211802750.76600662,-103708000.0,-54080258.270605735,98494000.0,113741910.09333387,-103708000.0,-54728346.4925965
689,1207,1,3719784000.0,2028402724.3612168,3332984000.0,2456476855.321179,286813000.0,-556610158.2689064,2618169000.0,2476147661.3736463,-531777000.0,-501760118.6128859,2086392000.0,1955786066.5272346,44074000.0,35889641.72939427,2574095000.0,2405801977.8687024,44074000.0,36900463.704788394
919,481,2,1537935000.0,880053825.4542135,1281456000.0,996556772.2033267,256479000.0,-576212507.0956695,229699000.0,238789406.93420675,0.0,2287751.99683761,229699000.0,225159080.1593017,-26947000.0,-113941623.44666548,256646000.0,370082054.2859903,-26947000.0,-133587591.10442981
