epiphany24262/financial-performance-prediction/results/oof/m4_catboost_residual_history_metadata_engineered.csv
Id,group_id,fold,actual_Q0_TOTAL_ASSETS,pred_Q0_TOTAL_ASSETS,actual_Q0_TOTAL_LIABILITIES,pred_Q0_TOTAL_LIABILITIES,actual_Q0_TOTAL_STOCKHOLDERS_EQUITY,pred_Q0_TOTAL_STOCKHOLDERS_EQUITY,actual_Q0_GROSS_PROFIT,pred_Q0_GROSS_PROFIT,actual_Q0_COST_OF_REVENUES,pred_Q0_COST_OF_REVENUES,actual_Q0_REVENUES,pred_Q0_REVENUES,actual_Q0_OPERATING_INCOME,pred_Q0_OPERATING_INCOME,actual_Q0_OPERATING_EXPENSES,pred_Q0_OPERATING_EXPENSES,actual_Q0_EBITDA,pred_Q0_EBITDA
196,617,1,1192950000.0,1085742089.9984674,1055816000.0,1058189447.7823007,137134000.0,62424771.49854684,25598000.0,39189039.32160742,61899000.0,56637319.784483805,42992000.0,30263630.96705228,15222000.0,28052715.592293557,10383000.0,11908944.467010094,15215000.0,23912874.099099036
1568,1171,2,1219954000.0,-199135154.8617127,835046000.0,542930751.5095333,384908000.0,-786860575.2508388,111786000.0,103760055.5324396,217796000.0,205353119.88558745,329582000.0,296464556.3760845,28908000.0,5125544.864145899,85522000.0,91195406.68338493,26264000.0,7458115.478739137
1218,1371,0,-135820000000.0,41519473944.367065,-37972000000.0,2473054670.4576244,-97848000000.0,36669469430.69949,-435000000.0,-660201794.6516435,4445000000.0,5633477111.652871,4010000000.0,6296684089.082913,-1472000000.0,-1306025805.6539857,219000000.0,348458751.0239855,-654000000.0,-293087957.8811384
23,1487,3,83298000.0,54505975.6553545,16040000.0,-36735281.7532357,-31633000.0,-4314967.993190758,494000.0,6708849.402288269,3339000.0,4687808.991291662,3833000.0,2538060.562635109,-12348000.0,-16379849.59940657,12842000.0,19331887.865186233,-12348000.0,-17015300.326093417
783,1578,2,148546000.0,-1387721692.6396353,56555000.0,-326936355.60618794,91991000.0,-1018511467.2661337,1761000.0,136107207.73179108,-2375000.0,-115451280.11441256,-614000.0,-3170154.1521254587,-10098000.0,77556299.69220641,11859000.0,21106364.052166663,-10098000.0,85765488.30226807
1251,366,2,7304300000.0,5332318285.258129,2451900000.0,2085541491.0738883,4830200000.0,3402873723.2612176,578200000.0,614549861.052976,581100000.0,587439956.7236247,1159300000.0,1178011256.3760846,245200000.0,264423718.42721957,333000000.0,330579784.2749628,245200000.0,264714951.2054652
1224,512,1,1976905000.0,1968172184.325327,699909000.0,684261274.5770848,1276996000.0,1231311178.7676992,53993000.0,89446039.32160743,315825000.0,309204602.3786013,369818000.0,378008030.9670523,-1572000.0,20404415.59229355,371390000.0,372242294.4670101,-317397000.0,-293199890.47611845
1410,663,0,2097274000.0,2342092967.152136,1132234000.0,1405018122.6562736,965931000.0,1018196353.2507175,70481000.0,175867205.3483565,291052000.0,305642229.54827183,361533000.0,457881119.0096922,58709000.0,120942976.34784764,11772000.0,14842504.631220037,58709000.0,135628072.55506635
529,886,2,31183000.0,-1460358939.2347815,15926000.0,-405520159.66726506,15257000.0,-1005720262.2095836,2456000.0,2726364.128813984,2151000.0,4804519.88558744,4607000.0,156856.37608449906,-2931000.0,-5006833.286708148,5387000.0,11034127.606629666,-2931000.0,-8418444.962789362
730,534,4,978523000.0,1019428400.2359827,851196000.0,792066952.3257692,-94184000.0,53944791.51811509,24321000.0,28381569.747779604,137937000.0,138586085.56219795,162258000.0,151688546.87157217,-764000.0,-19462043.422065735,25085000.0,34356887.11074679,-764000.0,-22717601.790623337
1590,1012,1,27253000.0,-90048664.57907605,14465193.072010836,-16034852.925534321,12787806.927989164,-38288402.970378906,-17000.0,11358661.44410827,17493000.0,17213045.980756372,17476000.0,15446617.603606582,1196000.0,8179415.592293557,138000.0,2493509.3987531536,-155000.0,6819274.099099055
367,1492,3,798398000.0,697139566.4263337,795372000.0,726740424.2376254,3026000.0,11542898.732604306,37121000.0,48160844.55958566,256160000.0,359521543.23247325,293281000.0,394751032.15190315,10257000.0,-8690495.671500362,26864000.0,39409835.25909111,10257000.0,-4880295.704429623
636,599,4,1059052000.0,1159013620.5509722,883921000.0,741797405.6041667,175131000.0,365820967.54010564,91945000.0,112094405.63788225,202788000.0,221710305.84250957,235132000.0,268111046.87157217,-287000.0,-627207.3345901817,84957000.0,98812187.1107468,6988000.0,-182001.96881475858
1270,1531,4,11069000000.0,11073711183.729717,5919000000.0,6121691919.257698,5105000000.0,5069796975.211039,727000000.0,759079430.5603371,1752000000.0,1806837574.4509315,2479000000.0,2555813046.871572,462000000.0,503249519.54957926,265000000.0,227297530.5966046,462000000.0,493573888.14119536
102,977,1,12331000.0,224141704.98136735,10875000.0,27574027.949347198,1456000.0,-13132415.620822525,1472000.0,11383661.44410827,1968000.0,18784910.880195037,3440000.0,80138015.60360658,-4166000.0,5617586.042293558,5638000.0,3349485.6513858587,-4166000.0,2721971.249099038
1658,615,3,180372000.0,149500037.54476762,121221000.0,105120091.61671054,30642000.0,29711582.959843874,18014000.0,26172070.60424737,31653000.0,33313772.01003738,49667000.0,48728351.626628995,-11599000.0,1873533.4568806258,29613000.0,19195051.264347598,-11599000.0,-98477.01805058005
6,460,3,2319806000.0,2454171914.922495,1534495000.0,1768429051.754872,785311000.0,831971305.1089664,376397000.0,307667361.90404403,415254000.0,323582843.23247325,791651000.0,622010362.7179761,93430000.0,44893355.418167755,288680000.0,266661485.1407826,87717000.0,34836648.06944108
1147,1021,2,19295025.0,-1494725842.079877,28370931.0,-400040432.96592045,-13369686.0,-1043494595.9427718,2067435.0,3689644.794857776,4847499.0,7766665.68558744,6914934.0,3584711.0760844992,-1108124.0,-662360.2286252938,3175559.0,8409133.188375516,-1108124.0,-2455190.455295547
114,283,0,3549408000.0,3199747855.065872,2109262000.0,2088341184.0224273,1440146000.0,1007419659.4846041,264579000.0,242602205.3483565,494402000.0,497644619.97242653,758981000.0,731623249.0311425,58594000.0,95411294.43484843,205985000.0,193748393.8855065,58594000.0,76208213.8246392
139,282,1,331401784.0,455103216.8407171,56254670.0,79154782.69257098,275147114.0,375266816.31244963,17982150.0,36357715.44410827,0.0,-6124378.04972687,17982150.0,10031184.403606582,-40215832.0,-23918493.20770643,58197982.0,54009695.99918621,-40215832.0,-30484455.050900955
411,1343,0,5533000.0,-85201752.23729585,4648000.0,-32359946.099079974,885000.0,3622471.6685097367,-1669000.0,7260959.426123281,2438000.0,8139704.061756018,769000.0,4807622.030978097,-6339000.0,1119193.1038808795,4670000.0,6655728.973424971,-6339000.0,251645.17392269894
681,669,4,36550000000.0,33494448335.207344,16943241279.095451,15694161707.76752,15250000000.0,14571266590.824846,577000000.0,547917504.886137,3467000000.0,3187557764.9399776,4044000000.0,3718313046.871572,714000000.0,481226700.88562727,627000000.0,681529287.1107467,-50000000.0,-153697814.35202244
1671,916,2,100449000.0,-1268839336.530141,141057000.0,-305197629.1474864,-40608000.0,-941728381.220021,-171000.0,4642537.853577662,512000.0,2460619.88558744,341000.0,-3322054.1521254587,-48297000.0,-50639597.03493954,24344000.0,29115966.571082834,-24515000.0,-26877066.322612442
500,695,3,10599934.0,-16417631.177012682,26203416.0,-52090570.27149224,-15603482.0,69931727.93596034,-6219.0,5483460.551783925,193120.0,2616949.8912916617,186901.0,6536.462635108619,-1076399.0,-3853333.4324676017,1070180.0,3953942.3895912636,-1076399.0,-2287163.446529338
1203,1352,1,13322000.0,-62512020.585920334,67881000.0,71495213.49778587,8277888.77383834,-86528362.42562613,3223000.0,11548661.44410827,1889000.0,-4655883.231107736,5112000.0,-10694482.396393418,-3552000.0,-171934.40770644508,8664000.0,14430109.398753155,-5441000.0,-5682840.47611847
180,258,0,635001000.0,1215160971.6629212,115305000.0,169912142.3152671,502273000.0,1006346454.2829587,21465000.0,31664959.42612328,40457000.0,49864036.89385705,61922000.0,70593065.56116769,-143360000.0,-162082083.43066806,205282000.0,171799878.09109154,-183817000.0,-172128904.8260773
1960,1146,2,2672864000.0,1452327592.7500825,288913000.0,-40568143.87684357,2383951000.0,1486748263.3620224,132902000.0,156405363.46619946,168499000.0,195346319.88558745,301401000.0,336465756.3760845,55706000.0,70177434.8377152,77196000.0,77998425.80013198,55706000.0,68000660.39897932
356,1603,3,8388335000.0,9276910081.29024,5163154000.0,5769407672.647462,3225181000.0,3301896826.9715357,313343000.0,345965532.7145452,687959000.0,730591272.0100374,1001302000.0,1057696462.7179761,116260000.0,134246163.802332,85661000.0,94175160.64932694,227682000.0,235854269.57760224
1646,823,0,1563399000.0,1489962004.9448602,1445358000.0,1345463714.0192761,-136248000.0,519948587.7447996,72333000.0,74807205.3483565,116682000.0,124596093.49351569,189015000.0,193076951.41281068,23506000.0,25419351.83612573,11423000.0,13072854.631220037,60910000.0,61095963.82463923
1793,854,4,320019000.0,164789189.2932124,126984000.0,63779372.40978426,193035000.0,89766982.0035212,177377000.0,216193829.1410868,58492000.0,78588309.3816924,235869000.0,301822046.87157214,25509000.0,42528970.13880129,151868000.0,182252630.5966046,25509000.0,35195390.64500811
235,268,0,0.0,-28843300.33557138,0.0,-2165441.6503395364,-804876.0,3828904.026473054,0.0,7798205.3483564975,0.0,7502554.733254215,0.0,6102365.730930839,-14550.0,5080072.020674788,14550.0,3521087.4977523442,-14550.0,4285331.174639229
1668,1096,2,267194000.0,-1208780407.2499175,175308000.0,-243837143.87684357,91886000.0,-913573936.6379777,5103000.0,9549477.632657139,0.0,2436119.88558744,5103000.0,-79454.1521254587,-32762000.0,-31518230.582605623,37865000.0,36604558.572805576,-32762000.0,-33930263.00251068
1456,668,0,2249377000.0,2607581495.0472918,1923326000.0,2242988764.686525,326519000.0,364067511.995075,-76300000.0,-64987794.6516435,416103000.0,441405931.88056,339803000.0,361656712.66775995,34941000.0,19282993.10388086,184914000.0,190652704.63122004,-261214000.0,-256374754.8260773
1291,1438,2,396890000.0,-1091118939.2347815,107071000.0,-303983159.66726506,289819000.0,-734216662.2095836,52569000.0,51511911.73774871,13634000.0,14944019.885587439,66203000.0,54015445.847874545,8375000.0,-9508609.361202873,57828000.0,68814637.80854666,-5259000.0,-23603478.3834676
1376,1540,0,7827000.0,-12891987.272289053,4744000.0,1085268.0532423332,3083000.0,15623181.473736774,1288000.0,8655959.42612328,867000.0,9074091.482919201,2155000.0,6238054.274841597,-3880000.0,2171566.5693318276,5168000.0,8685778.973424971,-3880000.0,491995.17392269894
1702,45,3,11990000.0,-21472103.044260263,3030000.0,-81224483.62611586,8960000.0,9139086.27940035,1480000.0,7303040.526430868,3017000.0,4721180.213727551,4497000.0,409960.5626351086,-944000.0,-4145173.314441755,2424000.0,5325282.036654766,-944000.0,-3746396.19419989
1591,554,4,7472874.0,-185918075.69175243,3243445.0,-102063529.1754685,4067990.0,-21807750.60011644,3065804.0,4241048.531499991,0.0,4957762.423351134,3065804.0,-3303354.628427836,-21884.0,-3280394.376833483,3087688.0,2830708.2264439873,-21884.0,-5607602.24466585
647,262,1,2182494000.0,2235313572.520362,2467501000.0,2324755748.8336844,-484456000.0,-359660877.0759501,389190000.0,386271661.44410825,141172000.0,128694689.63301249,531030000.0,497939330.9670523,-54175000.0,-47509884.407706454,443365000.0,438675058.3516827,-54175000.0,-49363775.90090097
100,1452,3,12166000.0,-2181618.153235197,2892000.0,-38029124.777950585,9274000.0,49872616.39400411,5000.0,5565616.12185462,54000.0,1471180.2137275506,59000.0,248212.65854035993,-3433000.0,-6051666.77727961,3433000.0,7931515.230304266,-3428000.0,-5215913.730487432
507,1344,4,189783000.0,83798044.47157669,45792000.0,-57483890.705273926,143991000.0,156795146.26693368,2372000.0,6183522.816378398,0.0,-2053506.8067857046,2372000.0,-1520353.128427836,-18270000.0,-24777886.158195257,20642000.0,25483672.12545453,-18270000.0,-27888823.423770063
547,140,3,1072653000.0,928543392.716351,455367000.0,396148310.2040447,617286000.0,271907017.3937445,134998000.0,141442226.7233259,27783000.0,29656008.99129166,163452000.0,155057960.5626351,5489000.0,-3679054.5198906767,129509000.0,139046727.58462325,5489000.0,-6087815.271594502
457,31,2,665104000.0,-927308686.8465767,575531000.0,51552735.71911174,89573000.0,-934009800.8224448,30803000.0,34184494.43559882,19437000.0,18756319.88558744,50240000.0,39386456.3760845,10357000.0,-4850779.664223179,22017000.0,25235077.508922692,8786000.0,-1155366.9136635847
560,1384,1,1900367000.0,1439797943.8609304,289037000.0,230179701.29696283,1613343000.0,685460682.557724,45433000.0,209475661.44410828,413911000.0,479090946.85408145,459344000.0,672102617.6036066,-6757000.0,212289965.59229344,52246000.0,63473494.467010096,-6813000.0,181404909.52388147
1402,659,4,88944000.0,-57031887.07524657,45361000.0,-47452386.9057371,43583000.0,44062939.52246475,0.0,3180860.388852076,45000.0,-2009411.0943731293,45000.0,-3741953.128427836,-14351000.0,-14779232.79510455,14351000.0,14381654.98530464,-14351000.0,-17682375.629575826
1274,1288,0,5390785000.0,6063383126.261709,4083098000.0,4640315046.109456,1050686000.0,1127385714.4618988,352054000.0,364465205.3483565,284900000.0,334679443.31848055,636954000.0,693157889.5569632,120850000.0,131164592.41202131,187232000.0,198375154.63122004,164822000.0,175568932.04675713
799,432,1,18535000.0,-78130025.53047466,13748000.0,-14799415.058691502,4787000.0,8383608.042148352,2839000.0,14655661.44410827,7502000.0,2561030.5964426715,10341000.0,-71982.39639341831,-2229000.0,4635565.59229356,3071000.0,5590082.861042312,-232000.0,4156224.099099039
1436,1049,4,13281300000.0,11426514338.019348,5777300000.0,5500629142.9297695,7484300000.0,6378293201.436438,1030700000.0,1000431618.3880754,1150100000.0,1098636925.24593,2180800000.0,2100433046.8715723,687000000.0,633157311.9062574,343700000.0,367457530.5966046,687000000.0,639105878.489714
1518,865,3,108681735.0,43336240.02695608,9192190.0,-40180351.54483652,67531550.37365061,42498009.18044643,2201326.0,6443636.05753424,255772.0,1937359.3137275507,2457098.0,539431.5626351086,-8935951.0,-13520369.53738906,11137277.0,14675361.897688083,-8935951.0,-14300464.882312214
211,165,3,189692000.0,160140535.18027043,90178000.0,953554.8638347983,99514000.0,126010665.28505039,-4411000.0,5170159.890392942,24963000.0,28183643.23247327,20552000.0,25026071.653982207,-10000000.0,-5163961.015810894,5589000.0,7523954.717964217,-10000000.0,-8299629.560255463
1542,1155,3,230878000.0,197198295.85492826,57278000.0,34464853.5012961,173600000.0,125635070.6895647,26973000.0,33704013.73116818,7041000.0,8490408.99129166,34014000.0,32830412.65854036,-11169000.0,-13918654.964498032,38142000.0,42664689.901713125,-11169000.0,-14426680.429010978
1496,989,4,73773000.0,-76280863.0592668,50819000.0,-64864349.88750428,38847689.64492722,9580081.422730632,5428000.0,9774586.70366777,22481000.0,21270100.46098014,27909000.0,20621846.871572163,-1778000.0,-2370211.1338771163,7206000.0,7511737.110746796,-1778000.0,-4456361.728414689
1891,1233,0,1582767000.0,1811525896.5181823,680421000.0,796242776.303506,880211000.0,995407235.3432738,56683000.0,62741205.3483565,17637000.0,24492835.750715002,74320000.0,79740789.79018936,-5119000.0,-5576618.846119116,35279000.0,40332900.93122003,21404000.0,22179123.573922697
362,708,0,5641000.0,-41085998.23581298,5200000.0,-3992868.093113549,-3859000.0,1030475.2536864122,1192000.0,8589959.42612328,781000.0,7371784.975641566,1973000.0,8367939.463730797,-97000.0,5976893.1038808795,2070000.0,4095628.973424971,-878000.0,4255345.173922699
605,1393,2,3208196000.0,1504344297.3124652,2133043000.0,1578683460.2697058,1075153000.0,-297097080.16716564,625972000.0,663675038.3574401,1066275000.0,1078045656.7236247,1692247000.0,1715118456.3760846,91616000.0,90085649.39661363,497965000.0,488932485.2246363,128007000.0,145099774.09510642
384,1490,0,13057000.0,-80628564.61792324,4943774.229094189,-18938639.929379977,10949000.0,7015965.1235134695,7944000.0,7514959.426123281,0.0,8359344.995916463,7944000.0,3805786.1432153657,1997000.0,3279243.1038808813,5947000.0,5120028.973424971,1997000.0,2498495.1739227
438,158,0,5973000000.0,5606087009.697909,4408000000.0,3958445604.9837055,1554000000.0,1708034711.3520184,244000000.0,258798205.3483565,1526000000.0,1504831282.9346688,1770000000.0,1755967611.119781,147000000.0,55820817.36662666,127000000.0,119310654.63122004,117000000.0,135462713.82463923
1761,674,4,589088000.0,455848340.6683724,253950000.0,190908780.6756261,335138000.0,317044395.86250067,19294000.0,26677219.768649608,99428000.0,86264062.05510344,118722000.0,113246246.87157217,9057000.0,9392829.399660002,10237000.0,10783487.110746797,9057000.0,5778720.934208131
403,899,4,21286772.0,-138337811.5474887,1383236.0,-100095717.050919,19903536.0,11356897.946803909,781782.0,4632241.2342897765,421382.0,280886.7674364196,1203164.0,-2099983.228427836,-1960898.0,-2102708.585048629,2742680.0,2413285.658423768,-1960898.0,-4802229.996982054
388,1242,1,3445920.0,-31420357.917693138,1859560.0,-49825582.838526905,1616914.0883314284,2324066.837455198,2970901.0,12478753.44410827,569508.0,-6309583.675769623,805185.0,-7187487.962945108,2437201.0,7273849.6422935575,533700.0,2536932.400952808,2437201.0,4502910.910258478
1452,1509,1,328158000.0,323142503.9011185,124250521.82515822,115394420.72861274,270486000.0,305246021.7179334,24944000.0,40355661.44410827,16521000.0,8687011.78880141,41465000.0,30354417.60360658,-7674000.0,824365.5922935596,24827000.0,25928454.16451355,117000.0,7672024.099099038
1876,471,2,2498305.0,-1513748920.079877,2997402.0,-419069752.96592045,-3454854.0,-1041886235.2461023,467340.0,1892395.1718246378,346611.0,2648918.38558744,813951.0,-3978729.223915501,-114631.0,3196276.50988317,581971.0,5502084.304538337,-114631.0,289919.9804420008
757,46,2,1288046000.0,-183929407.2499175,649920845.9604261,246625194.26481652,889849000.0,-189126136.63797772,105384000.0,105509363.23290235,285360000.0,273467119.88558745,390744000.0,363142956.3760845,53190000.0,37394209.85794963,52194000.0,57762642.1969229,53190000.0,34715884.92889259
660,415,3,600057000.0,608440049.9632726,369915000.0,259365054.942603,225443000.0,292524711.3987036,43121000.0,48137969.69340938,106269000.0,90266972.01003738,149390000.0,126612251.626629,7853000.0,7611747.3605981665,30439000.0,33378135.101241343,12682000.0,10742845.701242762
197,225,3,538955000.0,389338291.91415524,291671000.0,52114290.11060333,247284000.0,230479728.5618018,-14193000.0,-3394825.12978312,14235000.0,13044480.21372755,42000.0,1202623.7498874576,-51845000.0,-56322142.59509458,37652000.0,52732812.00324365,-51845000.0,-67959998.41813499
93,1545,0,25334074.0,19520840.30607781,18917048.0,20167859.472273648,5501613.0,23893154.252614066,-536032.0,7495589.426123281,4501393.0,12988862.650776891,3965361.0,9440629.33414944,-2975120.0,1224465.95388088,2439088.0,7147050.14109154,-2975120.0,10939.123922699131
472,277,1,1934400000.0,2251333579.7859926,855887268.5537325,972053426.618825,957200000.0,995255458.0798886,84000000.0,131977039.32160743,375600000.0,432399966.45051813,459600000.0,545206217.6036066,30800000.0,76124215.59229356,59000000.0,66040794.467010096,25000000.0,65748809.523881525
1345,219,4,102973000.0,175272767.1240356,162948000.0,-70762812.99782556,-346214000.0,-216562744.10903132,-13037000.0,-1415277.4020671742,25768000.0,19963063.12374521,12731000.0,14230346.871572163,-23219000.0,-13523954.493331427,35950000.0,26290733.599563114,-48987000.0,-37144664.60984918
1672,153,0,2501300000.0,2823533228.611807,1075500000.0,1507220712.4928396,1407900000.0,1397961681.0782661,99600000.0,122598205.3483565,151100000.0,176925402.19970146,250700000.0,289259527.01054966,31900000.0,6019765.343799522,67700000.0,123798699.35101624,31900000.0,-1364393.4491766645
521,1602,2,27910000000.0,30753591509.789898,24392000000.0,26701643436.935913,14058781786.346067,14777463318.463861,1525000000.0,1316298558.3339236,6421000000.0,5247609956.723625,7946000000.0,6559791256.376084,561000000.0,-71243.15099652484,638000000.0,533785601.68155324,887000000.0,464148081.21575737
1143,1298,0,105238000.0,165438915.23198798,42240000.0,88584419.00274122,62998000.0,84909270.96120685,8572000.0,16088205.348356497,322000.0,10358001.982620152,8894000.0,19585257.02483378,2218000.0,9214845.126708023,6354000.0,7343828.344554883,2218000.0,8067336.44349559
502,342,1,2010176000.0,2104126322.2506657,889414829.379791,896764630.587529,1057656000.0,1115489952.4172204,113627000.0,133560661.44410828,250202000.0,243809231.83417973,363829000.0,359445517.6036066,44531000.0,57992065.59229355,69096000.0,74080594.4670101,44531000.0,55056959.523881525
319,1498,2,15154000000.0,12736985377.711174,5534200000.0,5006414848.9855175,9554000000.0,7908713723.261217,739300000.0,714817166.7320077,999600000.0,985749956.7236247,1738900000.0,1665011256.3760846,318400000.0,255624566.58823448,315200000.0,315752351.2584264,424100000.0,366350708.4200836
471,26,3,346507000.0,365620566.7855172,100361000.0,52554322.67342013,246146000.0,227699604.3820839,14398000.0,21184600.025034443,62502000.0,64135172.01003738,72480000.0,71365751.626629,4926000.0,-1163398.7253223949,9472000.0,12930844.200593524,4926000.0,2330309.961356676
1756,240,3,229309000.0,123501205.8959353,190264000.0,126374226.8657738,-44269000.0,-51858312.52719784,9225000.0,22092473.359905805,52669000.0,78436372.01003738,61894000.0,88162660.56263511,1401000.0,4530213.176026057,7511000.0,9399817.296642648,1714000.0,4008480.2198577505
848,969,4,101740000.0,-2574618.7534923553,28463000.0,-72326273.22081953,50734000.0,83546755.2178948,29850000.0,30936860.430604592,12745000.0,12621604.13116923,40857000.0,35457346.87157217,2689000.0,2727827.4445098117,27161000.0,25048922.12545453,2689000.0,29599.73273529997
1310,1304,4,9582645000.0,7838040649.310615,3280269000.0,1733786643.0479012,6302376000.0,6146253661.049472,376175000.0,316034325.0641228,424915000.0,507705931.1086033,801090000.0,788712046.8715721,272965000.0,117193094.35999899,103421000.0,132410737.1107468,272754000.0,127243809.7957737
202,832,1,609678000.0,551488560.6846454,288631252.1743736,281180509.6091391,366720000.0,357517037.2246908,84451000.0,90373661.44410828,21802000.0,15880565.889464542,106253000.0,89812430.96705228,5683000.0,8165365.592293549,78768000.0,81892518.0491862,5683000.0,6104574.099099033
1444,1237,1,43441700000.0,41785816635.07186,21559314449.01792,20917754435.322998,21882385550.98208,20998227573.365982,1370000000.0,1308477039.3216074,587400000.0,554467845.1048709,1957400000.0,1838270830.2370548,472000000.0,492039215.5922934,1485400000.0,1477524896.1070285,-115400000.0,-198271575.90090093
1578,477,1,1146353000.0,1152829201.8818388,752649000.0,752740494.5195792,393704000.0,363489736.361606,95229000.0,103510039.32160743,32092000.0,27022028.751349393,127321000.0,113001917.60360658,-58245000.0,-53360584.40770643,153474000.0,152710304.16451356,-58245000.0,-56402475.90090095
451,976,2,796771.0,-1514932977.079877,1072746.0,-422981971.96592045,-275975.0,-1038023526.9767995,205707.0,1339942.0256459555,158335.0,2592439.38558744,364042.0,-4077327.123915501,-168127.0,1178261.638170311,373834.0,4641520.935337976,-168127.0,1743581.450002227
35,1533,2,9069035000.0,4694095560.336594,2563480000.0,1379527621.4657521,6505555000.0,3769404032.8122716,942419000.0,899657939.1173468,522866000.0,525118556.72362477,1285548000.0,1231843456.3760846,602695000.0,510954821.17293924,339724000.0,350354722.3409479,602695000.0,511746212.91556025
237,773,0,48924605000.0,44448077493.96232,25766652000.0,21344285087.88298,22441501000.0,22702095890.49141,1560160000.0,1518315205.3483565,915531000.0,963745201.1098965,2475691000.0,2447879671.320808,558196000.0,461682295.12670803,1001964000.0,1003241704.63122,558196000.0,469216137.2752997
917,1251,2,514281000.0,-1035468154.8617127,309957000.0,-56483248.490466714,198004000.0,-918007075.2508389,106985000.0,58490401.56543925,149052000.0,97409919.88558744,309744000.0,178130756.3760845,62399000.0,10728248.878352378,44586000.0,40395166.206869096,62399000.0,7903921.664921679
558,1396,4,17876000000.0,22328334891.334106,4077000000.0,2735650034.321691,13799000000.0,16614761302.657185,-917000000.0,-688376927.1668675,1453000000.0,965830010.6239384,536000000.0,323913046.87157214,-1774000000.0,-1630406342.9235682,857000000.0,960775578.4084238,-1774000000.0,-1647522011.5741863
73,1571,4,218354000.0,106821664.9074471,62021000.0,-39616603.26913148,156333000.0,169226374.28856423,-143000.0,4176600.4804747747,848000.0,-1298813.6764519513,705000.0,-2890453.128427836,-31577000.0,-31813621.714058463,40859000.0,34178878.40842377,-41002000.0,-38005999.33876646
532,183,0,2268100000.0,2528486351.8708744,1627400000.0,1882537672.4320393,640700000.0,715671548.3596004,78400000.0,103161959.42612328,665200000.0,727741532.4823537,743600000.0,817750421.4607102,19100000.0,36147193.103880875,724500000.0,776330654.63122,-646100000.0,-681975595.3343865
986,1457,3,49117000.0,-43685802.74844837,7104000.0,-91747789.08371806,42013000.0,25590759.743739843,1616000.0,7301987.991066435,3273000.0,5088280.213727551,4889000.0,5413060.562635109,-1489000.0,-4528274.022471785,3105000.0,6711119.812185812,-1489000.0,-3364842.3666584096
252,209,4,12822000.0,-159963092.90485477,1624000.0,-110663857.58564597,11198000.0,-12463766.030252457,0.0,3546014.7095962153,0.0,-1303201.866302953,0.0,-3786953.128427836,-1983000.0,-3597510.332553017,1983000.0,2226872.12545453,-1983000.0,-5686707.591161537
982,954,4,543788000.0,551154112.4240148,205894547.02387,198796854.32710654,402777000.0,418064762.2898771,1944000.0,4412030.468963316,0.0,-8070250.283888578,1944000.0,-1449153.128427836,-51279000.0,-56296393.37068671,53223000.0,70162087.1107468,-51279000.0,-63842216.0310599
1947,1003,0,16965000000.0,17345364055.0422,7506269391.549871,7733891088.503422,7744800000.0,7839250815.256101,1329900000.0,1160798205.3483565,1175700000.0,1157305552.493004,2505600000.0,2294817574.969723,1069200000.0,1015219199.8132982,32700000.0,33310654.631220035,1297200000.0,1188015672.5550663
1206,1336,2,29788000.0,-1355338407.2499175,27907000.0,-336299143.8768436,1881000.0,-976245736.6379777,0.0,1874826.9436137713,3452000.0,2436119.88558744,3452000.0,-3241654.1521254587,-23801000.0,-17991796.621104367,23801000.0,22883069.44022213,-23801000.0,-23097081.79308632
542,750,3,39315010.0,-16818948.98695135,15768167.0,-27866144.70361495,23791305.0,-15412605.273577973,7600979.0,13095321.696035542,41810204.0,31026081.03247327,49411183.0,35155728.362635106,-1588725.0,-3152985.4653672576,9189704.0,10255471.927916642,-1588725.0,-2717848.4441707935
15,585,3,184728000.0,93892698.5466268,40367000.0,-3680438.3625380397,144361000.0,96839724.87496185,0.0,7214805.610752083,8094000.0,7616380.213727551,8094000.0,6020960.562635109,-23114000.0,-27091424.427846108,23114000.0,29947767.62801431,-23114000.0,-30586198.270488996
1754,771,2,5014090000.0,2995924592.7500825,2606263000.0,2249098856.1231565,2407827000.0,905060363.3620223,420690000.0,432983755.83565617,905430000.0,898876919.8855875,1326120000.0,1311226856.3760846,237492000.0,220944426.52145272,183198000.0,187890949.50845113,237492000.0,224108663.22529802
1448,1284,4,3543460000.0,2925476718.0279603,2602227000.0,2295494950.3697896,941233000.0,638452017.906548,443568000.0,436373240.29285544,134292000.0,118211837.77083664,414603000.0,389751446.87157214,14363000.0,-39001526.119094335,429205000.0,414308890.5195411,14363000.0,-29571958.388748907
459,1460,0,747087000.0,873940079.4568385,79688000.0,122139325.28259736,667399000.0,775805675.941224,34565000.0,41933959.426123284,22203000.0,28455501.875645246,57261000.0,61241774.05042173,-16306000.0,-13464467.90016725,50871000.0,56351678.09109154,-16306000.0,-15179904.826077301
1505,88,0,4578121000.0,6710708699.485406,2310023301.364386,3408381137.134252,2489780000.0,3401483229.562196,2190001000.0,2247213959.426123,-1465670000.0,-1845756451.2045228,724331000.0,715711827.3862132,216069000.0,275378493.1038809,1973932000.0,2286579104.63122,216069000.0,272196964.36073697
1613,408,0,11895943000.0,12292807349.332317,3479745000.0,3793315924.671431,8416198000.0,8702300903.30803,335683000.0,370281205.3483565,296441000.0,335318855.15447634,632124000.0,695450705.781953,90949000.0,89420767.36662665,201199000.0,211654554.63122004,134484000.0,158006763.82463923
1214,313,0,1059300000.0,1232757830.0399594,513000000.0,753234330.712392,545000000.0,566770332.810477,132000000.0,147298205.3483565,172700000.0,191803106.4341549,304700000.0,328649804.34342265,34700000.0,46753245.126708016,88200000.0,87333699.35101624,43800000.0,55420852.44773859
454,30,4,11204065000.0,10509423799.783323,4242197120.938668,3984647310.449819,3489373000.0,2939538615.282152,480702000.0,503624177.2619795,457696000.0,453625047.2673334,938398000.0,942077946.8715721,172392000.0,141795413.5740829,308310000.0,341027161.77928567,172392000.0,140941488.65354803
1392,1216,2,531121000.0,-962858154.8617127,248900000.0,-118392248.49046671,282221000.0,-783122975.2508389,62379000.0,74616504.18315765,135419000.0,144116519.88558745,197798000.0,206005456.3760845,18703000.0,13245915.501678392,43698000.0,57211620.43844685,18681000.0,9576350.805246383
1519,152,1,961035000.0,776413756.6277194,1381722000.0,1357297415.1210747,-420687000.0,-401549244.34764177,271111000.0,275722039.3216074,201537000.0,192273217.96410933,472648000.0,454314330.9670523,5387000.0,21767765.592293553,265724000.0,262979344.46701008,5387000.0,17286659.52388153
1060,972,1,3194462000.0,3144603340.3019333,1643299000.0,1572094455.920005,1512215000.0,1636076492.1711128,817744000.0,822573039.3216075,0.0,-7379107.204170917,817744000.0,799203217.6036066,37900000.0,56992365.59229356,779844000.0,765567344.4670101,37900000.0,53363159.52388153
1100,1359,4,6042273.0,-174691670.19775224,3627261.0,-101226607.95337401,2415012.0,1074761.1747244839,0.0,3582656.680753113,0.0,-859899.6287617497,0.0,-3786953.128427836,-1829562.0,-2274430.989888612,1829562.0,1310946.8018861427,-1829562.0,-4268074.829320531
203,1317,1,76266906.0,38378233.913546085,57438990.0,28028749.16227126,40912361.81482647,37225493.28639498,9146097.0,21093843.44410827,0.0,-7004965.373752572,9146097.0,-2433978.632947717,-2633902.0,4699590.84229356,11779999.0,14349705.911475364,-2633902.0,1890920.149099038
1493,39,4,-3532973000.0,848504211.7141788,-2747133000.0,952317584.0338151,-773571000.0,118894298.53222477,87737000.0,104116186.56335962,40236000.0,357014104.583441,103187000.0,471246746.87157214,7123000.0,-3386055.956401378,80614000.0,142437580.5966046,7123000.0,-8845090.52735814
543,1231,2,846734000.0,-626334771.9253016,635659000.0,-198368811.1735506,69332000.0,-889043492.8377396,204774000.0,350120095.495284,-13024000.0,-310429980.11441255,191750000.0,-2461054.1521254587,-52860000.0,-121605748.67268026,257634000.0,568014516.2204907,-52860000.0,-131505530.40019554
1966,423,0,1354514000.0,1361457632.0021138,675720000.0,715665402.6140777,319291000.0,361760491.15724355,-16558000.0,-6394083.654372425,64132000.0,73571425.9923045,47574000.0,57138068.17838192,22229000.0,24894684.82966164,13428000.0,17213349.35101624,-29986000.0,-22599997.5522614
1802,943,0,270533000.0,218391576.30613443,240046000.0,228392497.866504,30487000.0,67446074.82757492,26052000.0,37722959.426123284,12454000.0,24116822.895830553,38506000.0,54227261.666941516,-21038000.0,-5579515.877340104,47090000.0,45513399.35101624,-21038000.0,-7574463.556504408
1372,102,1,583783000.0,428700073.80993843,717382000.0,648747183.457257,-133599000.0,-147934415.61926794,41865000.0,45251661.44410827,32703000.0,18597461.277077354,74568000.0,44734430.96705228,-32006000.0,-38344584.40770644,48224000.0,47673068.04918621,-6359000.0,-11798075.900900966
1325,468,0,534446.0,-55558249.95545076,9794849.0,3166917.0773124173,-9132038.0,-7479164.7398781255,6264.0,7471218.426123281,3881.0,7706261.086323051,10145.0,4238968.256007893,-961868.0,5113827.25388088,972013.0,3192072.3477523443,-965749.0,4442260.86561349
1504,1328,0,106308000.0,167309036.51969528,29369000.0,63192637.62830083,76939000.0,155092236.96713197,15630000.0,21558959.42612328,0.0,8354165.649699036,15630000.0,19903707.00781668,-23899000.0,-1687106.8961191177,39529000.0,25015278.09109154,-23899000.0,-2688654.826077299
1347,666,2,369031000.0,-1099717440.2514305,216722530.1814524,-186092616.34984225,188777000.0,-854547105.8789948,45044000.0,56838401.88750444,42173000.0,51077519.88558744,87217000.0,97859556.3760845,-3804000.0,-1637711.4756368105,48848000.0,56714631.78430091,-3804000.0,-5021218.671970135
1492,1528,2,327784000.0,-1207175407.2499175,323919000.0,-174602143.87684357,3865000.0,-988909536.6379777,33496000.0,35550738.72820546,8201000.0,9761619.885587439,41697000.0,32412045.84787454,-4913000.0,-18331786.86053048,37287000.0,41900645.898497745,-3791000.0,-14875083.853939805
1107,494,4,85658000000.0,86419139453.29294,88335000000.0,90867577091.95377,-2772000000.0,-4144727543.7166495,5387000000.0,4709675654.919773,14002000000.0,12869349677.18024,16935000000.0,15612953724.21455,1165000000.0,1108255113.832331,4222000000.0,4013507884.326345,1165000000.0,1086934083.9519022
1336,1408,2,898860000.0,-613806588.9183459,527877640.3036609,104586518.61475158,360528000.0,-680335442.6071599,68259000.0,88464330.90465601,42065000.0,49254719.88558744,110324000.0,123641756.3760845,-1325000.0,4604625.035299633,69584000.0,75947070.78779393,-1325000.0,4868302.784176195
599,339,4,50546000.0,-114722983.42014647,5959000.0,-90436107.84774584,44587000.0,81068313.4370389,1989000.0,5910510.352296004,1909000.0,-246405.97919742577,3898000.0,1188346.871572164,-1895000.0,-1886181.1253122315,3884000.0,3561087.1107467962,-1895000.0,-4785197.904998411
117,2,2,939056000.0,-821587939.2347815,419590000.0,-51505159.66726506,517473000.0,-677973062.2095836,90527000.0,116024596.553985,120216000.0,116133519.88558744,210268000.0,218024456.3760845,61012000.0,70597551.43364276,29515000.0,40472724.03516865,61012000.0,67488974.85679662
1825,558,0,20027115000.0,18752943255.237255,12952737000.0,10642648108.005768,5611108000.0,6718030025.143912,32786000.0,40923959.426123284,283742000.0,274394654.4543108,316528000.0,308456013.12081283,-1347477000.0,-201636204.87329194,1910658000.0,795467654.63122,-1877872000.0,-762353022.2163911
1507,1259,4,124094000.0,-18876024.865192413,18130000.0,-98489879.02757633,105964000.0,103343198.47767663,830000.0,6126630.755627325,0.0,-2641226.3181349784,830000.0,-2249653.128427836,-5787000.0,-7675278.833914509,6617000.0,6971378.408423767,-5787000.0,-10387625.70729452
321,77,1,68675000.0,36647010.11020827,40331082.646745786,35694533.14312063,53645000.0,30301796.41396547,10938000.0,22304661.44410827,6604000.0,-819543.3334812,17542000.0,4095717.6036065817,880000.0,7691134.236361355,10058000.0,12552387.399445733,880000.0,4851295.285539716
1482,1163,0,1833700000.0,2049324074.6163812,811331929.4597701,944771996.6384398,482900000.0,521145902.74855393,110200000.0,124898205.3483565,356000000.0,362759792.4954783,466200000.0,479613027.2617933,45700000.0,68528628.37067477,55600000.0,58223699.35101624,54600000.0,70323373.31633002
508,974,4,62515472.0,-130860388.2843368,29595817.732691668,-81233725.10468782,21861273.0,28504309.74024444,7032458.0,10813605.604867432,11256239.0,8512737.354582261,18288697.0,14836614.971572164,-1564350.0,-2190751.671352607,8596808.0,7791090.510746796,-1564350.0,-4800927.5240148865
1411,1190,3,33859785.0,-2514664.0873219967,6178818.0,-54001440.69818205,27680967.0,96010705.89988212,-63384.0,4472087.013432132,87873.0,1615218.7137275506,24489.0,414189.55854035995,-2675666.0,-6375279.582196666,2612282.0,5459201.088198518,-2675666.0,-3610763.3273094404
718,594,4,770792000.0,676888941.0418627,581187000.0,501740408.50421506,188503000.0,179236896.53242147,456709000.0,466334287.4637435,0.0,-8243516.819061024,456709000.0,448388946.87157214,-29756000.0,-27495653.29368406,486465000.0,471288554.98530465,-29756000.0,-29550389.19434173
1865,766,2,4753100000.0,1327899368.1630507,2691038000.0,1250604963.0813937,2062062000.0,419271369.86190164,383135000.0,379158281.8312929,0.0,1609956.7236247587,383135000.0,363793056.3760845,126771000.0,32729651.984512284,256364000.0,315079417.3723756,126771000.0,34385245.29812829
710,491,2,9330700000.0,5561073220.700377,4987700000.0,2809849377.8074822,4343000000.0,2947854799.177555,590200000.0,617940960.671894,367100000.0,389576119.88558745,444000000.0,487431256.3760845,121300000.0,99726863.80262221,468900000.0,494414700.52361023,121300000.0,94144189.53425965
285,371,2,1797231000.0,191586592.7500825,1568932000.0,1112454856.1231565,228299000.0,-862358936.6379777,143030000.0,145643248.40410957,0.0,2436119.88558744,143030000.0,131428345.84787454,-113543000.0,-128028497.96624592,256573000.0,263125599.1814855,-113543000.0,-129012397.92916554
1609,1195,3,90048000.0,-32417465.408414125,45436321.63528667,-76670596.58273718,37547000.0,6866883.769273996,2482000.0,9444365.908326961,9262000.0,11006308.99129166,11744000.0,10984512.65854036,1360000.0,-2611529.983005208,2815000.0,6593671.114303876,-333000.0,-1779500.0185422925
1814,1009,4,190817000.0,14293287.260047913,91955000.0,-27359046.33735615,118567925.39840196,128930935.38491659,16838000.0,20382561.718562618,21962000.0,14354557.21513445,38800000.0,32471346.871572163,3292000.0,2983862.802356318,13546000.0,12119337.110746797,3292000.0,-364264.3086848585
720,503,0,24930824.0,20115494.394910485,6278564.0,11414033.452297896,18652260.0,46296983.92759098,7866761.0,13368965.348356497,20382092.0,25571764.089146707,28248853.0,29927192.366156876,1448213.0,7263972.747847645,6418548.0,6867520.047752345,1448213.0,6834607.155066338
1707,905,3,6071000000.0,6176516595.601486,14261000000.0,14532257174.203661,-8190000000.0,-8310852057.428282,1287000000.0,1320946119.2686145,421000000.0,415940572.01003736,1708000000.0,1681807951.626629,613000000.0,559891882.4922553,1095000000.0,1116133008.2341857,192000000.0,162895829.55788726
485,1039,4,5768300000.0,5620544064.6143675,3017800000.0,3037055055.2602205,2739100000.0,2660593951.250765,487400000.0,501717970.7052711,888400000.0,864236286.8656257,1375800000.0,1357143046.8715723,276300000.0,272406207.93149084,211100000.0,205760498.4711624,276300000.0,272390152.3341128
1364,576,2,3486179000.0,2111536592.7500825,1927467000.0,1404868925.1512876,1501742000.0,502195863.3620225,315111000.0,341435527.30201924,669472000.0,662643119.8855875,949217000.0,946790056.3760844,-24190000.0,124745645.8362848,194277000.0,196763743.98759398,120834000.0,123701122.72385155
1943,705,3,496042000.0,515959860.6088433,349488000.0,320472828.35271794,146554000.0,158986223.87478566,33924000.0,45849468.0244786,212763000.0,226111272.0100374,246687000.0,260623751.626629,12448000.0,13396837.67177447,21476000.0,24952834.731973965,12448000.0,13629787.403783506
708,7,3,1713800000.0,1903146978.666159,864747334.9608463,847866090.6417147,585500000.0,629646166.8482683,141400000.0,135476595.83228925,205900000.0,204250572.0100374,347300000.0,325041632.15190315,100200000.0,80917184.49902955,64600000.0,65843033.0574421,76800000.0,59313092.71098158
1795,1481,4,5817000.0,-192797488.13061237,1413000.0,-105894089.27450436,5436000.0,-29954258.90807891,5000.0,3888676.209544485,0.0,1772745.236045057,5000.0,-3723853.128427836,-3525000.0,-2890935.9443814806,3530000.0,2386614.102624104,-3525000.0,-4889405.755257888
1196,275,3,4180537.0,-77634613.47795367,13379601.0,-56976665.845213056,-9199064.0,-29279492.975197695,1107842.0,8452012.546905182,974711.0,2519172.8137275507,2069845.0,2403156.3626351086,-2577294.0,-2418064.8596493746,3685136.0,5898647.756027048,-2577294.0,-3301253.3580594426
1785,608,0,6656000000.0,6952737962.815148,2127000000.0,2224419138.93643,4529000000.0,4647124522.67936,386000000.0,409461959.42612326,110000000.0,56614071.65603859,496000000.0,481084328.60747755,-53000000.0,-54280617.90016723,439000000.0,465510654.63122004,-53000000.0,-57786254.8260773
1117,1429,1,191593000.0,72371336.45900273,250675000.0,179277534.3904916,89973054.63642293,24504393.067671686,28173000.0,33141039.32160742,35245000.0,30797829.89954225,63418000.0,46052217.60360658,-6852000.0,-7475234.40770644,35025000.0,38794954.16451355,-6852000.0,-10249425.900900962
611,864,4,69753000.0,-102397870.63197541,24624000.0,41052850.75947338,45129000.0,-48366804.28029801,4333000.0,8345293.097934835,3937000.0,1408191.3690823242,8270000.0,4301046.871572164,-17948000.0,-26081488.00249017,22281000.0,27316637.110746797,-17948000.0,-29692042.3600851
1037,807,1,12798100000.0,13361573254.176521,7698700000.0,8640549116.850998,5099400000.0,4878036669.445257,578600000.0,601477039.3216075,1141600000.0,1152489878.2227154,1720200000.0,1741616217.6036067,210200000.0,128574215.59229356,368400000.0,364568528.5005721,210200000.0,238253809.5238815
1049,56,2,41718000.0,-1472908154.8617127,16883000.0,-407326248.4904667,24835000.0,-1011944675.2508389,4472000.0,7745973.971353891,-7000.0,3612019.88558744,4465000.0,1254256.376084499,467000.0,-1641348.5642370442,4005000.0,9220340.150456259,467000.0,-4410999.254724567
181,1519,1,2175066000.0,2156365067.5772524,720018000.0,563231932.5225223,1455048000.0,1522579449.4442856,262895000.0,271055039.3216074,0.0,-6766715.759653771,262895000.0,242723830.96705228,-74357000.0,-37560084.40770643,337252000.0,301622804.1645135,-74357000.0,-41792875.90090095
1530,1357,1,432444000.0,528799123.4840734,58115000.0,93270587.40394318,374329000.0,408302536.6795869,30953000.0,41408661.44410827,9019000.0,2917628.7513493933,39972000.0,26445730.96705228,-4508000.0,388215.5922935605,35461000.0,37147991.51147536,-4508000.0,-2321690.4761184654
1172,1002,1,1951144000.0,2031412254.0384767,976648000.0,1010723869.7296815,828149000.0,835712636.6594415,81471000.0,33924661.44410827,811299000.0,840409111.7888014,892770000.0,853010217.6036066,21174000.0,-40170784.40770644,35340000.0,35392944.467010096,46131000.0,-10172475.900900966
1844,1200,3,5184000.0,33112040.660633802,33317000.0,-3974340.6047725677,2568262.933576247,-1526414.5101464181,28000.0,7908657.889709013,1138000.0,3178008.9912916617,1166000.0,686260.5626351086,-1174000.0,288528.17896498507,1202000.0,5561388.492932705,-1174000.0,-948131.4032866317
937,215,3,30042800000.0,29281380004.53173,15158963259.867964,14627284189.021227,10331300000.0,10218726650.366505,1541600000.0,1519825874.720997,2284300000.0,2223440572.0100374,3825900000.0,3712771632.151903,727800000.0,696658033.6884325,402100000.0,394747916.6276787,1139500000.0,1094869335.4830635
1319,657,1,3143366000.0,3004702837.4248657,724791000.0,667301580.2072225,1686216654.8151803,1653733963.820516,293240000.0,172170661.44410828,0.0,-7201671.899399082,293240000.0,153326217.60360658,242794000.0,124509015.59229356,50446000.0,51302644.467010096,242794000.0,120476009.52388154
785,291,2,2558318838.0,801130655.7500825,289865031.0,-145301744.87684357,2268453807.0,1042176857.9620222,191440633.0,200567523.84600988,384407857.0,388430513.18558747,575848490.0,570080487.2760845,122416529.0,118215786.56953892,69024104.0,70433722.25845112,122416529.0,116568659.65786591
534,1172,1,355784000.0,415350473.51569986,359982000.0,321853212.1960562,21035000.0,50344226.026299044,21274000.0,32505661.44410827,23247000.0,16264530.09549398,43857000.0,31709317.60360658,-2501000.0,2720215.5922935577,23775000.0,30238318.049186204,-2501000.0,-700575.9009009623
1073,476,2,107571000000.0,104249188614.7582,49865975585.04998,48641775067.21044,57705024414.95002,55603589538.634125,4680000000.0,4245368706.6355762,16059000000.0,14536009956.723625,20739000000.0,18777491256.376083,2233000000.0,1861252679.895092,234000000.0,285065239.4780889,4446000000.0,1932364321.6254027
871,35,3,357016000.0,393375129.32842636,134021000.0,69897306.72635007,222995000.0,254257969.69827557,10859000.0,17109280.376835585,60424000.0,59812672.01003738,71283000.0,66241051.626628995,4410000.0,-660365.4282398107,6449000.0,10371120.22099443,4410000.0,777741.1267841076
145,1121,2,10492900000.0,8733787389.76551,4642648635.342979,4125349436.894574,7724300000.0,6037768415.568385,1077000000.0,1238669223.0842028,2546000000.0,2694269956.7236247,3623000000.0,3912581256.3760843,389500000.0,509903350.519572,626900000.0,653078381.5749366,450100000.0,568425220.3011327
1137,1052,1,221167000.0,100302857.47447586,272405000.0,167730066.98262197,-51238000.0,-31693748.938961968,26384000.0,36107661.44410827,0.0,-7169706.662530884,26384000.0,11290730.967052283,3123000.0,1840265.5922935503,23261000.0,32690611.038771503,3123000.0,-1298420.900900965
1853,994,4,644700000.0,508157219.2233484,668700000.0,668385773.0206585,-24000000.0,-13337553.610490337,11300000.0,35151865.11691088,30400000.0,49799771.894021735,40500000.0,40273046.87157217,-2900000.0,10599721.365390021,9300000.0,8061057.588481882,2000000.0,13420227.397178408
1607,915,3,5733000000.0,5450161273.182069,4386600000.0,4161035938.902514,1332700000.0,1300821171.1606545,508800000.0,520645824.53993505,1740100000.0,1720820572.0100374,2248900000.0,2228507951.626629,201100000.0,190771795.18468744,328200000.0,332822008.27465403,180600000.0,173532865.114324
497,445,3,3187469000.0,2896129451.6917477,1581882073.387936,1379461302.3577824,1402929000.0,1240402171.0357094,12023000.0,4052808.4141715765,118303000.0,124768872.01003738,130326000.0,116343032.15190318,121116000.0,98768775.31270726,236940000.0,244428990.0422973,-224917000.0,-239496399.06290358
1789,1072,1,160962000.0,92809709.99344015,136871000.0,138384594.3265375,14091000.0,-1093088.1193805933,33234000.0,45691661.44410827,28516000.0,24837209.58106996,61750000.0,53724917.60360658,-4105000.0,-3935158.2354713613,29699000.0,39291839.68920455,3535000.0,3709339.0990990354
1733,641,2,1070082000.0,-504183154.8617127,790095000.0,390663751.5095333,279987000.0,-812477475.2508389,59499000.0,64919266.104865015,92514000.0,89149319.88558744,152013000.0,141710356.3760845,-6147000.0,-12995874.2681955,65646000.0,71504449.2126818,-6147000.0,-14913530.194153953
1735,406,2,55335000.0,-1423326939.2347815,11648000.0,-406108159.66726506,43687000.0,-972773762.2095836,13874000.0,15948211.189882562,0.0,2573619.88558744,13874000.0,7905056.376084499,364000.0,-1340507.7056666655,13510000.0,17937035.703457266,364000.0,-4669437.701233196
1273,683,0,8855100000.0,7125557528.557522,4468096700.788768,3655055184.766101,3543300000.0,3135009101.5140786,468100000.0,432298205.3483565,2041800000.0,1979765533.3203678,2509900000.0,2393492223.4071503,256500000.0,209605251.8361257,211600000.0,190478699.35101625,256500000.0,218517713.8246392
226,326,2,1045317000.0,-450089676.39870596,491551000.0,61496538.973136365,553766000.0,-457797470.01385367,49476000.0,52160514.14005583,27012000.0,30862219.88558744,76488000.0,70640156.3760845,5569000.0,-2251620.6402642727,43907000.0,49650827.3460857,5569000.0,-1893334.8481059896
856,206,2,3335011000.0,1581937927.5317762,1532336000.0,1082789370.8525136,1376443773.6613572,238022654.503914,158805000.0,148363412.29406723,458734000.0,494563319.88558745,617539000.0,631041656.3760844,82276000.0,54536854.328410245,26748000.0,32054147.662991002,132057000.0,103179205.20212291
610,1330,3,50788000000.0,49485470299.75226,23543456582.29001,22942929862.314655,11845000000.0,11887707592.617882,1286000000.0,1341886850.967116,484000000.0,479255673.1484394,1770000000.0,1741842543.2432504,994000000.0,986113157.2306186,146000000.0,166370926.47026667,1140000000.0,1107024481.3182142
434,768,0,9209798000.0,8936602834.596817,3242862000.0,3343604192.276343,3654836000.0,3084671375.4065676,758604000.0,631196205.3483565,-63000.0,16838917.579289153,758541000.0,633710966.5327642,306700000.0,210396695.12670803,451904000.0,416695099.3510162,306700000.0,203963877.7836089
1765,75,3,3861516000.0,4332527550.728691,3060094000.0,2755129084.072634,801422000.0,1337106330.8946078,246503000.0,376207637.0012401,543454000.0,498947308.99129164,789957000.0,837309732.1519032,-286586000.0,-163193908.47904035,130761000.0,148721791.41711363,115742000.0,191658004.34034732
667,732,1,3117800000.0,3938110330.1094074,2444800000.0,2696249438.032361,673000000.0,1236607449.2136416,86700000.0,139883661.44410828,411500000.0,533977949.9447691,498200000.0,655336217.6036066,-419900000.0,31944215.59229354,63400000.0,72895794.4670101,23300000.0,63113424.09909903
1194,1500,0,84073.0,-92364140.04646309,2814055.0,-1226982.2040084824,-2729982.0,-23136036.252895918,0.0,7421916.345627575,0.0,6632709.928042535,0.0,3897593.547184581,-647078.0,6217972.17228545,647078.0,2700382.8234249707,-647078.0,4701854.878165709
626,829,4,250689000.0,221796472.98230672,83024000.0,-19157934.403800905,167665000.0,212634463.58427453,0.0,4342672.016372349,33193000.0,24901598.9618064,33193000.0,26633146.871572163,-43672000.0,-40476380.507016174,43672000.0,39649637.11074679,-43672000.0,-43804308.56830939
1654,1124,4,2267553000.0,2197689300.011479,1375272000.0,1397989437.5453582,519294000.0,598386007.9788592,30179000.0,33097235.25149683,36686000.0,32506537.672177605,66865000.0,77361946.87157217,-15417000.0,-3623716.305395132,38864000.0,34651930.59660457,-8685000.0,-6951395.8832313735
288,1576,4,2221575000.0,2131935529.2480776,1034139000.0,1009770776.8946146,1187436000.0,1155434550.5998325,131964000.0,138416949.19325396,106311000.0,96154737.96827023,188755000.0,190461946.87157217,3712000.0,-835292.8779061495,128252000.0,129629387.1107468,3712000.0,-2999004.4791305023
1665,1524,1,555271000.0,582357227.9295895,273881000.0,346628460.6336279,281390000.0,232836682.54015005,77610000.0,83693039.32160743,73228000.0,68621832.85399982,150838000.0,133902317.60360658,6400000.0,-40287184.40770644,144438000.0,203327596.10702845,-66828000.0,-123959990.47611846
652,243,0,1810200000.0,1777690155.7162564,1334200000.0,1471830812.3588567,472000000.0,438070074.8094253,111400000.0,-289001794.6516435,439000000.0,839961101.3622117,550400000.0,580604231.7379972,53300000.0,59869397.60144402,43800000.0,46201016.42418697,67600000.0,-209257751.3992947
1078,991,2,339972000.0,-1314845407.2499175,145992000.0,-350190143.8768436,193980000.0,-901864336.6379777,800000.0,10382036.350218907,85000.0,2969019.88558744,885000.0,1671845.8478745413,-35502000.0,-46113861.78273639,45899000.0,64348093.76760571,-45099000.0,-59371586.281372204
778,188,0,992330000.0,988524274.804095,401273000.0,453207714.55799294,544681000.0,575035275.0449476,417282000.0,420812959.42612326,0.0,9438570.999893967,417282000.0,413998451.36812145,5536000.0,12993354.523630321,411746000.0,398389028.3445549,5536000.0,12025380.169403654
29,1409,1,600271000.0,620461436.4849257,137438000.0,153020450.0734222,462833000.0,462465152.0356927,73869000.0,88554039.32160743,24421000.0,16751711.78880141,98290000.0,85607017.60360658,-8089000.0,1911765.5922935568,81958000.0,82047804.16451356,-8089000.0,-725225.9009009623
854,119,4,47193000.0,-108192703.25384998,31000000.0,-63029772.197491705,16193000.0,8510132.667876244,4954000.0,8009555.8823239235,3898000.0,93936.12638787925,8852000.0,4579346.871572164,-615000.0,-2529781.1253122333,5569000.0,6139737.110746796,-615000.0,-5063754.368723908
1423,1555,0,150549000.0,330051114.62732136,163792000.0,271015470.3033268,16674000.0,106823683.08053562,28323000.0,17080959.42612328,6429000.0,16151627.51151134,34752000.0,24366540.08912547,-13758000.0,-45907567.90016724,21733000.0,27799754.631220035,6590000.0,-10688004.826077303
1406,885,3,62996000.0,100810987.11926389,12638000.0,-35534179.00188434,50358000.0,61918047.49377465,9919000.0,15962538.635961412,5920000.0,7393743.232473269,13543000.0,13735212.65854036,1979000.0,273609.221884707,7940000.0,11530071.114303876,1979000.0,592887.6192183383
1624,871,2,56415000000.0,56216765104.37579,26707757359.48695,26916142985.666916,20622000000.0,19474125489.204678,4258000000.0,4235619419.9399157,2744000000.0,2762409956.7236247,7002000000.0,6966391256.376084,471000000.0,526562219.8266823,1302000000.0,1268340161.6353374,2956000000.0,2954524794.8027396
926,1136,2,572995000.0,-985295692.6396353,271264937.13018215,-178344202.80431315,210105000.0,-855270967.2661337,-46109000.0,233143026.60534683,111142000.0,100083319.88558744,65033000.0,306294545.8478745,53448000.0,46983893.43421251,184993000.0,182084957.57109183,-231102000.0,-5784673.286285623
1324,1025,3,11156646.0,-22841895.108711958,14063458.0,-37752399.49948865,-2906812.0,-10846184.998446703,-483256.0,5305430.503114389,692752.0,3028032.9912916617,209496.0,291093.55854035995,-2378023.0,-6235797.92771271,1407493.0,4855132.712890184,-1890749.0,-1243758.1882866523
809,948,0,746651000.0,847197411.1277292,563281000.0,582723499.8413699,350347808.70326334,449148995.23988986,20268000.0,24177205.348356497,132273000.0,201204581.8095352,152541000.0,219109753.34614852,1482000.0,5383011.233048033,18377000.0,22488654.631220035,1891000.0,4833567.042238089
492,1059,4,203605000.0,73825373.87109613,164863000.0,103538952.28159142,38742000.0,46890910.30447292,38308000.0,45260893.82764034,13284000.0,3818858.814334091,51592000.0,48037646.87157217,8585000.0,3533505.159034701,22801000.0,24067337.110746797,15507000.0,10627866.475678656
383,753,0,35610551.0,3790788.5926635563,44852933.0,17382190.273756236,-9242382.0,26373059.19173147,3037874.0,10935905.539439889,5691278.0,12494670.185472377,8729152.0,14237170.233860973,-7028283.0,-1213215.0703383544,15757435.0,18498137.991091542,-12719561.0,-8220585.864813615
1250,1092,1,4596600000.0,5219763397.514618,2319347415.031524,2530820655.1865067,3466600000.0,3516600156.949637,2555100000.0,1718977039.3216074,3033000000.0,2108115599.9053338,5588100000.0,3883827630.9670525,1174900000.0,714176902.1131853,1380200000.0,960018528.5005721,1174900000.0,749278809.5238817
229,1285,3,3802385000.0,4075365520.5730624,2636965000.0,2748550135.3253074,1165420000.0,1241607944.8534048,157645000.0,151645990.1598972,488142000.0,463368872.01003736,645787000.0,596423851.626629,66824000.0,40416235.14815678,83253000.0,86191348.18059967,74392000.0,50852710.66657013
1531,436,2,12852000.0,-1488891588.918346,5815000.0,-413877524.53386325,7037000.0,-1021996042.6071599,1838000.0,2383744.715356961,1427000.0,4654819.88558744,400000.0,111956.37608449906,-1116000.0,-465894.88019870967,2954000.0,8412756.176328767,-1116000.0,-3804914.3985395865
1035,379,4,11747000000.0,12435475189.143019,7158000000.0,7182513570.283292,4503000000.0,4929758305.3843975,770000000.0,771280238.7833233,1424000000.0,1459045377.7581336,2194000000.0,2219513046.871572,154000000.0,213018950.7752271,2040000000.0,2223079287.110747,-1270000000.0,-1243511172.638287
1774,384,4,7236206.0,-160323154.47785854,4913744.0,-93157186.83703762,2190428.0,-8070672.769818878,634746.0,4476748.830768115,2326079.0,4429292.422702008,2960825.0,-966238.1284278361,-234151.0,-714291.3273039099,886442.0,411408.10188614274,-251696.0,-3080645.9517971086
868,900,3,6411000000.0,7005064979.623981,3370100000.0,3972092642.913638,3176144611.7201624,3367096711.5660505,371800000.0,415879536.1215071,637000000.0,687640572.0100374,1008800000.0,1079441632.1519032,180100000.0,202892094.63026065,166200000.0,172645515.35459223,205600000.0,226562796.79954973
1391,726,2,345836000.0,-1171244154.8617127,48837000.0,-360377248.4904667,296999000.0,-751758375.2508389,3870000.0,-3596929.9550228408,113328000.0,95445419.88558744,116752000.0,84179256.3760845,297000.0,-4532618.878426356,3573000.0,7782055.161365671,297000.0,-11599803.408891622
1734,41,2,20108000.0,-1480701407.2499175,9068000.0,-415292143.8768436,11040000.0,-1015030236.6379777,3847000.0,2725107.8385471683,661000.0,2988419.88558744,4508000.0,-1015243.6239155009,-4126000.0,-4642084.839931181,7973000.0,12437428.275448043,-4126000.0,-9466043.61124263
1416,186,2,1564856000.0,-8425407.249917507,1122858000.0,650935856.1231564,416354000.0,-629928036.6379777,276207000.0,280248472.97702384,-11227000.0,-7390680.11441256,264980000.0,253170356.3760845,5657000.0,-1529609.1374475518,270550000.0,266779658.76118055,5657000.0,-3395741.2160100527
352,642,1,1125373000.0,1365891487.174422,521681703.6382896,710360609.4366059,29987000.0,-50500543.79092434,142411000.0,137564661.44410828,-42080000.0,-54186913.37504257,100331000.0,81387430.96705228,17283000.0,16337215.592293616,125128000.0,128932408.35168275,17283000.0,12298909.52388157
135,273,0,630871000.0,725447574.565299,398464000.0,444067558.35969114,232407000.0,339103785.76948744,80823000.0,68003205.3483565,413091000.0,285809572.7216437,493914000.0,346508979.1056503,-14453000.0,4652667.366626646,95276000.0,63633904.631220035,-14453000.0,3934163.8246392226
1338,391,2,123668000.0,-1370573407.2499175,40963000.0,-366877143.8768436,50285000.0,-988157236.6379777,29188000.0,37324644.068186484,11108000.0,16685619.885587439,40296000.0,42721556.3760845,-25553000.0,-11184435.507006379,35508000.0,34819537.69774294,-6320000.0,-408567.6878838334
1076,1378,2,34865437.0,-1479862097.918346,19085704.0,-411393201.53386325,15779733.0,-1016330250.1071599,0.0,1643672.2352078538,1198.0,3876119.88558744,1198.0,8191256.376084499,-6520186.0,-6251559.135132302,6520186.0,10627050.559866771,-6520186.0,-9204548.78265685
1426,1389,1,1275550000.0,1254870056.001916,1504271000.0,1360636600.2065227,-228721000.0,-161998283.58483624,-35238000.0,-25367338.55589173,59168000.0,38695535.55094452,23930000.0,9215417.603606582,6621000.0,19867065.592293557,102745000.0,93611468.0491862,-137983000.0,-95937925.90090092
2023,758,0,151712000.0,110495818.51248193,195428000.0,141910517.337692,28605000.0,56499673.61806259,11588000.0,12233916.345627576,43977000.0,38479893.6991587,55565000.0,41743169.44418939,-8864000.0,-3499741.704887403,20452000.0,17468804.631220035,-8864000.0,-5507663.556504408
1219,1466,4,1812825000.0,1856450763.0489502,1134969000.0,1119486915.6487393,677856000.0,778261912.536967,53184000.0,67737866.75572734,120142000.0,116599754.81537001,173326000.0,185165346.87157217,31929000.0,25438083.69460483,16945000.0,21188480.596604574,36239000.0,30347257.234119043
201,814,4,-1450776000.0,228420992.14016366,-894261000.0,188966256.91013572,-556515000.0,-17163794.706473827,162740000.0,173735310.44243932,213058000.0,310465466.8391842,375798000.0,558916846.8715721,-31210000.0,-45645170.897686854,193950000.0,333168487.11074686,-31210000.0,-45815347.87480892
580,988,0,526507000.0,440753454.6668531,370554000.0,431921665.9441207,155953000.0,154614889.1132135,66328000.0,73827205.3483565,107226000.0,120513722.36168805,173554000.0,189078591.88326073,-7923000.0,2172451.8361257324,69543000.0,73075343.88550651,-3215000.0,3477647.8203962184
268,1306,2,3089123000.0,1014965592.7500825,1300561000.0,695140856.1231564,1788562000.0,443947563.3620223,286131000.0,321678678.2831748,850247000.0,839991819.8855875,1136378000.0,1143558945.8478746,205227000.0,203522695.94676116,1010678000.0,999902487.2137374,-724547000.0,-684457245.0300934
484,784,4,2026392000.0,1722615638.2176871,773709000.0,384015715.71541387,1259138837.126244,1366276581.5464087,36270000.0,48044752.424155094,906000.0,-1826840.5010758154,37176000.0,39435646.87157217,-286393000.0,-216910120.37573618,341823000.0,334289687.1107468,-305553000.0,-256978038.24105963
1169,1024,4,59798486.0,-98499770.71513438,24561228.0,-92960986.18579131,24680354.49630476,16077015.737185135,-143441.0,3295709.1904858206,231837.0,2884836.9520580512,88396.0,-3624044.928427836,-6239976.0,-6274256.597573138,6096535.0,5337546.17545453,-6239976.0,-9092633.36111916
595,957,1,269960000.0,167645216.2450974,370356000.0,351620114.08770835,-100396000.0,-149346498.08952665,29296000.0,38649661.44410827,911000.0,-5431416.204890595,30207000.0,16162530.967052283,-31260000.0,-23173584.407706443,67269000.0,69670795.5140805,-37973000.0,-36112125.90090096
1664,236,2,1411497000.0,-200419407.2499175,713457000.0,270388856.1231564,667698000.0,-426143036.6379777,123110000.0,128097931.88604578,21917000.0,23698219.88558744,145027000.0,135292656.3760845,16171000.0,9760510.232641697,124278000.0,125061275.4529617,-1168000.0,-10588286.34790751
1737,91,2,1068388000.0,-464162407.2499175,793168000.0,231761856.12315643,275220000.0,-777530336.6379776,1125000.0,38473219.81323388,126961000.0,82701119.88558744,114574000.0,93155745.84787454,-123332000.0,-81373401.32431807,124457000.0,115965074.73598585,-123332000.0,-83344915.09588154
1105,1395,0,736494000.0,794717015.3527524,390655000.0,431350564.8979949,345839000.0,386718061.32282674,107458000.0,109723916.34562758,77264000.0,84377156.71779424,184722000.0,184690876.11679026,-21496000.0,-25806934.33079225,128954000.0,133173328.09109154,-21496000.0,-25591961.100169234
366,1224,4,1026034000.0,837613456.2871742,544592518.5648394,448311101.86316955,829659000.0,769082902.9096496,179923000.0,190023745.0067418,-1664000.0,-10788505.618620267,178259000.0,178924746.87157217,43073000.0,44529299.0976128,136850000.0,139083998.4711624,43073000.0,42126667.376815446
847,851,2,2995900000.0,1546207592.7500825,1720300000.0,1381220856.1231565,1275600000.0,238339463.36202228,234800000.0,231627326.52855355,244100000.0,239806119.88558745,478900000.0,460291256.3760845,25200000.0,36357240.25482555,209600000.0,204396558.05651724,25200000.0,30042487.889556374
1604,1022,1,700529000.0,730477063.0021436,363632000.0,389311111.99288857,335762000.0,321893788.204931,46249000.0,54939661.44410827,72678000.0,59959286.633534595,118927000.0,97611930.96705228,-13197000.0,-18549584.407706443,59446000.0,71380308.35168275,-13197000.0,-22176975.900900964
579,1157,1,5913288000.0,7081988434.0893955,5639252000.0,6418288660.236578,274036000.0,575774169.8986431,470311000.0,494120661.44410825,1040995000.0,964490480.6767739,1511306000.0,1448612317.6036067,65962000.0,76778965.5922936,404349000.0,416216608.3516827,65962000.0,74977059.52388157
874,1087,1,232365000.0,215036232.3055339,164743000.0,145231864.76475787,67622000.0,84473886.81491089,43176000.0,40378039.32160742,202053000.0,134923909.42303735,245229000.0,158985830.96705228,9035000.0,12433165.59229356,31930000.0,24517444.467010096,11246000.0,11034424.09909904
193,444,4,24556000.0,-163361963.64733768,5997000.0,-100441822.43996024,18559000.0,38527240.19701934,-561000.0,3933507.0492238086,1648000.0,8577708.213383466,1087000.0,-2857053.128427836,-8770000.0,-5391770.91135018,3225000.0,2017287.1107467965,-3786000.0,-4592776.489198537
680,1346,2,7852974.0,-1501005880.4114485,8726749.0,-416123704.3089008,-873775.0,-1032739048.5735897,1562860.0,636539.8324915711,0.0,2436119.88558744,1562860.0,-3307302.4239155008,-1603437.0,-1071040.2268109391,3166297.0,7379021.159651391,-1603437.0,-3788842.3250875985
702,1153,0,52606000.0,-11857135.915432513,31088000.0,20981327.812187262,21518000.0,43813396.28068364,2202000.0,8831205.348356497,21569000.0,24991591.294027064,23771000.0,22583415.580942266,-1737000.0,3464126.3478476433,2889000.0,5389578.973424971,-687000.0,3855232.0467571276
499,780,3,641605000.0,602645832.545661,98505000.0,18798900.463676333,543100000.0,535955437.816108,35752000.0,51305669.80345254,3063000.0,5081643.232473269,38815000.0,47951062.71797609,-5995000.0,-4936313.783839849,24767000.0,33021612.925078243,10985000.0,12202198.468784103
277,1226,2,428119000.0,-737778407.2499175,200385000.0,-82466143.87684357,227734000.0,-655627036.6379777,32734000.0,41643744.340886906,3693000.0,6476619.88558744,36427000.0,38427845.847874545,-31432000.0,-40712846.97365955,67859000.0,89607776.0795223,-35125000.0,-48082244.653833926
1540,1308,0,1748597000.0,1901056956.0538664,773677579.6790999,877807870.6756948,871968000.0,891735694.0489054,88936000.0,96853205.3483565,314131000.0,325456273.8921439,403067000.0,414923462.4818807,36520000.0,41508226.34784764,38806000.0,41927999.35101624,50130000.0,55535122.55506633
40,795,3,-12646800000.0,-12192735485.345243,-10176700000.0,-9253206797.124462,-2456100000.0,-1242731905.4128177,244400000.0,275853127.24124074,496400000.0,477100543.23247325,740800000.0,737042543.2432503,16300000.0,-102527873.63695295,228100000.0,363628694.91639376,16300000.0,-113045234.38828062
109,1178,0,1646711000.0,1855352683.279824,1388441000.0,1438872462.3935902,258270000.0,474818961.6470428,48094000.0,53799205.3483565,144654000.0,153879450.86028865,147710000.0,154636261.32851216,-42502000.0,-51382167.90016724,79586000.0,97047954.63122004,-31492000.0,-39369195.33438651
111,942,1,632540000.0,581793317.9685264,270366000.0,208443128.31709093,362174000.0,378208342.0121424,197077000.0,169159661.44410828,14622000.0,-146195.9551816713,211699000.0,149130530.96705228,-57776000.0,-6019184.407706435,97890000.0,96272658.35168275,99187000.0,58297324.09909904
662,1223,0,156269000.0,225322823.13627085,70363000.0,137845098.95590794,85906000.0,137856100.00361022,19503000.0,27820205.348356497,30881000.0,43818351.00286108,50384000.0,65895191.88166396,3657000.0,10347226.347847642,15846000.0,17228704.631220035,3657000.0,10156522.555066336
1749,1075,3,12875300000.0,14009413303.953352,6095371591.431398,6668269825.590493,1810000000.0,1789112442.909104,1227700000.0,1197780987.1063206,4400600000.0,4500610572.010037,5628300000.0,5684547951.626629,478400000.0,400384959.3908046,749300000.0,772125155.4595772,478400000.0,403447144.65566814
340,1604,4,441781000.0,256661019.7067089,86587000.0,13992027.986757696,355194000.0,291903531.239903,97393000.0,99578103.0582449,44971000.0,37777102.45755936,142364000.0,133390746.87157217,9954000.0,5171776.802373403,87439000.0,87416087.1107468,9954000.0,2531641.0214936193
811,76,2,1903960000.0,549420912.2022507,1118147333.3250542,791081151.1961472,464992000.0,-711426003.730427,314173000.0,312155538.0709889,381360000.0,365808256.72362477,695533000.0,665884856.3760844,49703000.0,44388051.408380635,262823000.0,261631559.7801676,51350000.0,41630268.59622432
1016,285,3,413017000.0,239061617.94702077,156380700.0672279,96638320.4877904,290614000.0,147948051.13413355,164000.0,7255519.664541947,0.0,1447380.2137275506,164000.0,368671.65398220613,-47612000.0,-50193481.11773286,47776000.0,54421472.13730027,-47612000.0,-52331169.94064924
1696,1098,0,6459000000.0,6519943544.443755,3814000000.0,4040980601.269605,2645000000.0,2598071384.2842574,417000000.0,443798205.3483565,1137000000.0,1181787403.3422663,1554000000.0,1618723476.365675,109000000.0,155427576.34784764,308000000.0,244138699.35101625,109000000.0,197218373.31633002
200,606,2,6683800000.0,4899317845.138288,2530688381.1304083,2004599587.3469415,4153111618.869592,2964167621.0635014,363300000.0,392667611.1767267,268000000.0,284496119.88558745,631300000.0,654861256.3760844,83300000.0,70471686.74143067,257700000.0,276545808.1430704,105600000.0,96755081.93055606
1994,1434,1,165094000.0,156358684.26479936,70482000.0,56151571.1196512,94612000.0,101825073.70163393,17629000.0,28248661.44410827,13074000.0,5098092.4604893625,30703000.0,15619117.603606582,1152000.0,6185315.592293559,16477000.0,19286404.2038824,1152000.0,3576324.0990990386
735,820,3,8604673.0,-30670749.64112687,2338502.0,-84681549.55763125,6266171.0,-7474988.071694374,1119391.0,6793903.640049785,1576117.0,3627915.8912916617,2695508.0,2107458.562635109,23726.0,-1479430.3747193273,1095665.0,4125875.3846237315,23726.0,-1186789.3427850478
1160,541,2,30395557000.0,26758260079.51173,16133181687.752192,14572215977.00785,6297705000.0,3278802631.392235,3044686000.0,2984373293.4231715,6751495000.0,6387981156.723625,9796181000.0,9346711356.376085,692314000.0,803040417.1807005,2352372000.0,2210629869.5747647,692314000.0,774761920.4363217
2018,1005,3,764077821.0,733621679.5963218,149164973.0,143153049.78048682,540969385.0,506620324.5192595,20737462.0,29358045.055667028,3810639.0,6018695.110037381,24548101.0,23621141.351903185,-1942729.0,-2598509.9585111686,26490830.0,30927141.072053008,-5753368.0,-7389793.652513272
597,411,2,19932000000.0,18574563092.321457,15924000000.0,16100373637.256174,3938000000.0,2521782292.6330614,677000000.0,664760729.341057,2894000000.0,2953509956.7236247,3571000000.0,3600091256.3760843,325000000.0,331790310.7690597,132000000.0,167890085.96668234,545000000.0,486007242.72385716
1089,561,2,114455000.0,-1395547939.2347815,66800000.0,-344034159.66726506,47655000.0,-992473462.2095836,-324000.0,1445951.5764377974,692000.0,3243619.88558744,368000.0,-3620743.623915501,-4444000.0,-5192912.294588877,6127000.0,10801288.755032219,-6451000.0,-9344915.354682352
1635,1106,2,123009000000.0,112061187319.4147,61047097858.95223,55981914772.82927,24132000000.0,21331665795.056297,3661000000.0,3215714209.391945,846000000.0,685236119.8855875,4507000000.0,3832052945.8478746,401000000.0,525756479.1107841,5487000000.0,4790876772.6082325,-1826000000.0,-1671713695.1305382
394,712,1,1472222000.0,1480948991.845534,444895000.0,461666291.7419293,1027327000.0,1012140371.7798169,423804000.0,446726039.3216074,0.0,-6408822.134937656,423804000.0,412373130.9670523,44683000.0,54579965.59229355,379121000.0,376003244.4670101,44683000.0,52671859.523881525
176,611,2,1707972000.0,56866592.75008249,826699000.0,356076856.1231564,881273000.0,-219467436.63797772,161237000.0,181461104.74266642,18721000.0,18880719.88558744,179958000.0,185032356.3760845,-38330000.0,9541992.801541861,218288000.0,181140572.90794882,-57051000.0,-8695987.749704707
958,800,3,140348000.0,109153624.58269548,22627000.0,-17164445.53452599,117721000.0,147899939.48763394,18849000.0,23650730.497577935,19797000.0,19910808.99129166,38646000.0,34865660.56263511,5179000.0,3825012.812145045,24028000.0,28820565.563275877,-5179000.0,-9965318.739130799
651,322,1,68862000000.0,70731220006.04364,37281000000.0,38298476234.75456,30258000000.0,30961816032.540688,682000000.0,1085383661.4441082,1405000000.0,1139926576.9008937,2087000000.0,2029875139.659884,938000000.0,1072844215.5922931,2969000000.0,2751120308.3516827,-2287000000.0,-1636566190.476119
648,1558,2,484306000.0,-1058385154.8617127,160149000.0,-255442248.4904667,324110000.0,-739695375.2508389,35935000.0,45879252.72279772,49919000.0,54590819.88558744,85854000.0,86318756.3760845,8224000.0,7968434.449340578,26558000.0,31594899.15308651,9377000.0,5527464.065859109
1124,702,1,263629355.0,286071026.3688183,139827658.8984726,121991644.28238699,106790041.0,149347891.81786442,4718481.0,15853732.44410827,-3354938.0,-10898447.144624228,1363543.0,-12239361.196393419,2345966.0,8766578.292293558,2372515.0,4701185.501385858,2345966.0,5928281.599099038
1983,198,0,22654400000.0,23683195824.44554,10023579681.929111,10565776014.14852,12050300000.0,11968531220.144253,409600000.0,578898205.3483565,3138700000.0,2941521590.733202,3548300000.0,3603994725.5164213,145800000.0,458402576.34784776,119900000.0,131440654.63122004,289700000.0,509670451.2335715
1330,788,0,55695000.0,93641825.91441011,80300000.0,129931950.85466559,-24605000.0,54547837.71166133,-33328000.0,2444959.426123281,45694000.0,19995784.106402986,12366000.0,13909636.051559428,-48025000.0,-14109417.900167253,14697000.0,17280954.631220035,-48025000.0,-14979754.826077301
445,759,4,33248145.0,-51994098.89405203,21743057.0,-117023531.3252067,11505088.0,-7871974.892500306,1461398.0,3557264.088406892,569502.0,23066144.848830573,2030900.0,89894844.87157217,-12979193.0,-2752311.4943261766,15010093.0,1815586.8495631148,-13548695.0,-5416786.581755549
908,1168,0,19900000000.0,14774391186.22528,10348000000.0,8072881317.896632,9552000000.0,7432577687.524378,2649000000.0,2524798205.3483567,0.0,17082511.828819707,2649000000.0,2641946264.7511125,467000000.0,616108245.126708,2182000000.0,2011788699.3510163,467000000.0,599998746.9704232
1585,827,1,2485319000.0,2511802136.0454655,1254039550.5762374,1203701665.9580472,1849463000.0,1827121785.31652,775144000.0,706005661.4441082,0.0,-7102971.410200355,775144000.0,684572117.6036066,128435000.0,122176215.59229356,646709000.0,580464408.3516828,128435000.0,121277009.52388154
643,716,2,959084000.0,-610318407.2499175,491986000.0,-21443143.87684357,395838334.6316486,-654821069.692074,56609000.0,65393526.079724215,47928000.0,52267719.88558744,104537000.0,103762145.84787454,-22287000.0,-25322424.85801673,141301000.0,146154106.00118998,-84692000.0,-90710462.53264824
1240,286,2,1657157000.0,767422307.3603647,2335507000.0,2411401644.393812,-678350000.0,-1682833467.2661335,-96698000.0,235334464.23246643,98929000.0,96094719.88558744,2231000.0,314847056.3760845,-125632000.0,-48768893.875888154,312618000.0,449114012.40504503,-409316000.0,-216333738.81305084
64,793,0,1590600000.0,1647403024.6499202,748600000.0,803562313.1747668,842000000.0,872716103.1448643,59700000.0,83598205.3483565,141700000.0,162756693.96385992,201400000.0,236560915.7314767,13800000.0,34630778.37067479,37700000.0,40006049.35101624,22000000.0,42663563.82463923
1027,1557,3,919607000.0,888871520.4858754,266509000.0,190654961.1273299,653098000.0,601919529.5606706,68886000.0,72910716.37923789,19532000.0,20363108.99129166,84131000.0,78147260.56263511,-18050000.0,-21269504.54850862,86936000.0,88352548.9059745,-18050000.0,-23322127.285816014
1034,492,1,121754701.0,199906550.94892192,28424394.0,64592611.0299387,93330307.0,275778285.71700966,1406469.0,12641207.44410827,-1378985.0,-8515371.563102806,27484.0,-12598341.432947718,-14928443.0,-205110131.70770636,16334912.0,243407661.3991862,-14928443.0,-235523924.10090092
802,1188,0,12973000000.0,11788940107.771307,6013807636.489885,6292788955.523167,6537000000.0,2948095384.4059434,82000000.0,77798205.3483565,545000000.0,470865149.49609166,627000000.0,647506829.4632491,7000000.0,238543628.37067562,46000000.0,44188699.35101624,36000000.0,171856833.0114538
981,450,3,613608000.0,457724818.85412836,391072000.0,304131316.634336,222536000.0,126539500.97961971,1437000.0,7346097.512412306,10955000.0,10995008.99129166,12392000.0,6176962.717976096,-84729000.0,-64353892.69313327,40703000.0,44068267.82838683,-39266000.0,-45423233.36968544
1046,264,4,102303000.0,-33585160.562143564,104192000.0,856130.6968402267,-1889000.0,7623964.121141914,12811000.0,14199661.718818415,42439000.0,36856346.000267275,55250000.0,50361046.87157217,700000.0,-3874993.0911615314,12111000.0,14217964.102624103,700000.0,-7516892.580236318
581,781,2,1023085000.0,-321531099.8520856,937155000.0,576496978.8718154,85930000.0,-902978100.3020434,87759000.0,105275890.60040568,257840000.0,230812356.72362477,345599000.0,323155756.3760845,-36941000.0,-38246883.77839547,111965000.0,120079464.58829251,-24206000.0,-26967414.076594815
1033,587,1,822101000.0,427955767.8059399,260505000.0,254482230.63872474,561596000.0,270072120.2518332,113425000.0,94536661.44410828,-8261000.0,-13078549.521582205,105164000.0,57719730.96705228,25956000.0,-10607784.407706458,87469000.0,91127608.35168275,25956000.0,-9588175.900900971
1908,52,1,972779000.0,1298331406.4102933,674585000.0,1114772456.3674984,298194000.0,214447685.91782284,81122000.0,88861661.44410828,33069000.0,26121965.889464542,114191000.0,97999830.96705228,-12742000.0,-8815334.407706443,93864000.0,95904108.35168275,-12742000.0,-11829640.476118468
1486,1525,0,505122000.0,694255343.6725855,329765000.0,485387932.617079,175357000.0,217235820.5537267,66862000.0,76143959.42612328,-15726000.0,-6497890.940445701,51136000.0,63554069.955909364,-8784000.0,13255243.103880884,75646000.0,61953204.631220035,-8784000.0,12512195.173922703
640,1126,2,420505000.0,-1136088588.918346,230508000.0,-203850524.53386325,189997000.0,-871609042.6071599,53603000.0,55317292.428076185,71511000.0,72523519.88558744,125114000.0,115724956.3760845,16734000.0,11794036.872170415,36869000.0,40111298.611361444,16734000.0,11509635.577171562
1988,1423,2,216274000000.0,177435765104.3758,73401000000.0,54452004674.09431,142873000000.0,125162230054.95549,27936000000.0,26810035411.69012,6210000000.0,5924421961.506941,34146000000.0,31567437983.94957,13748000000.0,9616280441.154541,20398000000.0,22474971532.192623,7538000000.0,3619479478.159278
469,523,0,122531000000.0,117844513735.486,74517000000.0,72499848836.3379,57494689417.43809,22699772622.71823,11370000000.0,9947798205.348356,10501000000.0,10591830515.664955,21871000000.0,20365143680.97537,5767000000.0,4228427576.3478465,5604000000.0,5619058751.023986,5766000000.0,4221769265.890765
606,610,3,5723214000.0,4126321351.8584986,2776207000.0,1821870064.0721111,2947007000.0,2725379958.67241,448941000.0,502568229.0986989,516900000.0,532470843.23247325,865197000.0,909733351.626629,78214000.0,96657423.55190197,370727000.0,378987284.858071,78214000.0,95172864.8737363
1877,222,1,689227000.0,385278032.16562414,562767000.0,199398766.38294232,126460000.0,201878201.5815909,40662000.0,48124661.44410827,11086000.0,1989792.2643861407,47740000.0,28131730.96705228,-28335000.0,5360565.592293557,68997000.0,37630945.5140805,-28335000.0,2678074.0990990372
1148,835,3,600857000.0,314571955.9030194,331349000.0,191329060.84219778,269508000.0,148925506.80693072,50595000.0,49426531.568174854,6532000.0,6718892.091291661,57127000.0,43412750.85398221,-62120000.0,-47786528.454485476,83188000.0,78365395.86348557,-32593000.0,-42544101.392421804
1653,1071,2,56794000.0,-1444365407.2499175,12682000.0,-408254143.8768436,44112000.0,-983885536.6379777,25087000.0,20481963.21500717,14791000.0,12894119.885587439,39878000.0,23672756.3760845,-4627000.0,-3735786.952663616,44505000.0,36347109.94649788,-19418000.0,-15627904.727282392
1205,1215,3,3747000.0,-32877049.445257425,4407000.0,-53623796.59355676,-660000.0,-11681767.948995113,-1515000.0,4937829.856852291,1515000.0,3684680.2137275506,0.0,212912.65854035993,-2598000.0,-4768447.893158033,1083000.0,3846804.7179642166,-2598000.0,-4521422.265393531
1612,469,4,3505835000.0,3132970553.2600975,1860807256.214476,1689515991.13488,1470074000.0,1304697616.8776817,601953000.0,744772533.8581305,626097000.0,766268410.3694801,1228050000.0,1490161846.8715723,88554000.0,84335143.35425453,475916000.0,558987184.0053989,126037000.0,128689151.42808148
1894,1176,2,203011000.0,-1293282407.2499175,255300000.0,-197570143.87684357,-52289000.0,-1056558336.6379777,8409000.0,12622943.196391087,25579000.0,31872519.88558744,33988000.0,34269456.3760845,-8212000.0,-13467230.772437587,15533000.0,22710390.986132655,-7124000.0,-11630347.823461028
458,389,4,3126495000.0,3201208722.8755217,2137404000.0,2141684704.9457958,989091000.0,1108327038.2882085,70679000.0,92327009.18806945,930828000.0,877632322.3691312,1001507000.0,972095446.8715721,21039000.0,30797118.536988065,49640000.0,58618204.98530464,21039000.0,27381952.947156608
782,84,4,36175654.0,-115265911.81176233,19187381.496044576,-64931091.15722722,18868678.0,8981360.641191296,22295962.0,17607465.679129925,2274626.0,601705.7112150146,24570588.0,12906530.271572165,-1191082.0,-4120455.7819884173,23487044.0,16590988.810746796,-1191082.0,-6611628.164708374
21,1515,0,3642433000.0,3563653425.633013,1611617055.0351417,1646565224.4846256,2307595000.0,2170586133.53703,392263000.0,396244959.42612326,1442178000.0,1465932078.2886875,1834441000.0,1862671615.491197,185633000.0,186976368.59215903,1648808000.0,1652261799.3510163,-1256545000.0,-1217308413.5565045
323,413,0,102171000.0,106760356.60025653,80142000.0,100594077.73208857,22029000.0,51910149.65786932,11994000.0,20827613.539439887,1280000.0,8655013.200820077,12084000.0,18682495.23493449,-8453000.0,-2523417.193165496,20447000.0,23827928.09109154,-8453000.0,-3533904.8260772973
1847,390,3,11562769000.0,8368934297.315581,8634392000.0,6097384151.012202,2928377000.0,2460940738.1480036,696915000.0,851344325.7276487,4617768000.0,4271676072.0100374,5314683000.0,5080032332.151903,87484000.0,136555046.0203688,6096071000.0,5600985989.637199,-5399156000.0,-4847854864.018997
1304,355,3,1061958000.0,863664283.2093766,603583000.0,334587676.7147053,275904000.0,209615981.83291006,75380000.0,64539738.0444601,85007000.0,93869408.99129166,160387000.0,146327760.5626351,19279000.0,-7411183.670260525,56101000.0,69746542.4212524,19279000.0,-6404380.0180671895
1031,797,1,1709464000.0,1623829196.4726298,792444897.6724385,798670954.9480522,917019102.3275616,861118588.4789762,-50089000.0,-34693338.55589173,206500000.0,176863410.30932915,156411000.0,135552417.60360658,62554000.0,67690965.59229356,32611000.0,28505708.351682745,-82700000.0,-45254025.90090095
1109,1480,0,1182200000.0,1574151876.9469554,559672263.5892134,752204705.7585574,993300000.0,1206104918.5309577,77500000.0,81498205.3483565,102700000.0,119197058.77905522,175100000.0,186639831.78330845,21600000.0,17178659.168054543,55900000.0,58830654.631220035,21600000.0,17753745.1739227
1483,58,0,15318000000.0,15615542975.197813,8995872209.433592,9276863382.801744,2835000000.0,2209933890.201827,2220000000.0,2157798205.3483567,7363000000.0,7396542768.674404,9583000000.0,9584824142.061798,348000000.0,391980094.4348483,1879000000.0,1875358751.0239854,341000000.0,370218373.31633
739,93,0,2898416000.0,366895758.80252814,2080781000.0,102478830.13552324,476998000.0,69177707.70139635,19746000.0,22556205.348356497,-19746000.0,-8789138.766975012,0.0,6599694.730503725,-16089000.0,-4173471.6293252083,35835000.0,27951028.09109154,-16089000.0,-5572786.17536077
1565,82,1,37777000.0,36382598.312720776,8088000.0,-16815408.131332338,29689000.0,55774482.47125841,1942000.0,14109661.44410827,1878000.0,-5120773.973424542,3820000.0,-8730382.396393418,-3377000.0,2229665.592293552,5319000.0,11385218.049186204,-3377000.0,-475625.900900966
1547,294,4,350115000.0,137757976.98690176,124447000.0,30494757.584304392,144501356.0121529,11946258.23356679,23341000.0,34188096.27137164,74465000.0,88334442.65875885,97806000.0,121137346.87157217,1273000.0,-806287.5581367606,21144000.0,28041337.110746797,2197000.0,-3116216.6590489354
1772,1076,2,60756000.0,-1444304588.918346,14120000.0,-399872524.53386325,46636000.0,-989213942.6071599,39398000.0,47802593.20053606,0.0,2436119.88558744,39398000.0,40867156.3760845,1277000.0,-339544.0753269971,38121000.0,49065974.28479536,1277000.0,-4209083.097129567
396,895,3,2329417000.0,2336225391.393029,1103945000.0,990971206.7544768,1225472000.0,323416665.213434,201803000.0,216891404.19581187,84310000.0,90225772.01003738,286113000.0,289262251.626629,4458000.0,3809940.9979116023,134794000.0,128501359.06449734,67009000.0,72752830.1113632
370,1149,4,322707000.0,204509188.24192405,203952000.0,157366704.80391496,133189378.04611006,151030128.39097112,59563000.0,66656150.03943625,32549000.0,26117167.10863986,92112000.0,94629746.87157217,2829000.0,5618405.159034702,56734000.0,56170687.11074679,2829000.0,2307612.5977530796
1387,1142,1,16986396.0,-43747803.1666224,28398941.0,14558931.92907101,7976898.609990532,-23626165.227778275,-2992.0,15229047.44410827,2987192.0,-7310408.97732209,2984200.0,-9529443.596393418,-2823081.0,1778331.5645286357,2820089.0,12296472.650952809,-2823081.0,-2190579.1009009643
1633,1471,4,5507733.0,-161673893.84841657,3754986.0,-93548649.68216568,1752747.0,-14237794.738933705,77969.0,2648135.93957196,690.0,1214267.7043034607,78659.0,-3753803.728427836,-1288944.0,-1873015.6867010542,1288944.0,1006058.276443987,-1210975.0,-4519638.653428701
1459,1018,0,2951779000.0,2916642540.1867094,1733504809.66769,1829426222.3437893,-705417000.0,-639543017.5502212,103159000.0,108842205.3483565,95357000.0,107030567.3814127,198516000.0,214313135.73724243,63542000.0,77050976.34784758,39617000.0,42146978.97342497,63542000.0,78906032.04675712
447,743,0,1389340000.0,1497579719.7397954,870172000.0,1085323342.0362394,518687000.0,502794955.41233677,122910000.0,158825205.3483565,509918000.0,550628744.5927039,632828000.0,696164615.5127609,77637000.0,98513326.34784764,35836000.0,38771849.35101624,87074000.0,112059582.04675713
1342,1015,3,670100000.0,570547013.8962057,96919000.0,62288833.14670974,573181000.0,530378324.3414309,45369000.0,53447534.4912218,10723000.0,12769808.99129166,56092000.0,56808212.65854036,-44376000.0,-44359576.31565306,100468000.0,99924355.53762864,-55099000.0,-55769217.495165035
1101,50,3,796235000.0,2360416.1859595776,203741000.0,25663310.53373015,463390000.0,100371767.57346725,475000.0,9755848.667162463,0.0,2387408.9912916617,475000.0,855123.7498874575,-25797000.0,-11514217.562196359,26272000.0,21614208.398952473,-25797000.0,-18776886.300554007
1559,1356,2,243654000.0,-1248887336.530141,108112000.0,-324645629.1474864,135542000.0,-927282181.220021,37230000.0,39115530.7929948,3845000.0,5993919.88558744,4798000.0,1339845.8478745413,-21869000.0,-20886460.249197926,59099000.0,61731790.82148746,-21869000.0,-23778783.060470995
1859,1506,4,63057347.0,-111034260.59707975,37031977.76980746,-78213828.33104944,50373559.0,45453144.57879282,5114390.0,9439828.06468517,9540399.0,5360805.764930785,14654789.0,12699353.971572164,3126608.0,3185163.081366151,1987782.0,1934167.235304641,3126608.0,203975.13440959714
625,3,4,2120798000.0,1743420532.0030606,1472395000.0,1162688424.0958977,648403000.0,608896260.2522612,67913000.0,64459557.002928704,30767000.0,35561521.72976713,98680000.0,86492746.87157217,-9629000.0,-21054331.79820117,77542000.0,79827537.1107468,-9629000.0,-23793374.151274897
1728,295,3,706517000.0,601580423.9361558,905805000.0,917894637.2755952,-199288000.0,-254561295.97426057,73709000.0,85066530.84098944,16853000.0,18363843.23247327,90562000.0,92955960.56263511,38915000.0,36025044.51213233,34794000.0,43284290.37796308,38915000.0,35563910.58048272
1404,1537,3,76126346.0,-40241013.799030304,61120101.0,-59307791.51497519,15006245.0,-18835208.110058926,2282652.0,9272402.225331692,31006950.0,21022572.01003738,33289602.0,21393759.06263511,-2890968.0,-2195861.9473603577,5173620.0,6025384.746642648,-2890968.0,-797188.3805871843
1515,304,4,156303000.0,23461967.184006453,83901000.0,-2003348.2650418878,72402000.0,96286257.98304987,17689000.0,16616860.994167978,41469000.0,34217344.88419299,59158000.0,44527246.87157217,-2517000.0,-13905597.221352607,20206000.0,26086237.110746797,-2517000.0,-19128759.518625546
1800,573,0,3271200000.0,4183280216.0283375,1447362713.447565,1931439755.5496175,-21400000.0,582770107.2440575,31300000.0,61398205.3483565,847700000.0,948798345.2412485,879000000.0,993146414.4104333,-16400000.0,-240985766.09524825,66600000.0,61810654.631220035,-35300000.0,-7704327.444933679
4,842,1,7361000.0,-40279680.748165846,2671000.0,-26853949.81424308,4573903.262590003,-17894475.036975477,349000.0,11599661.44410827,109000.0,-7551245.918042142,458000.0,-13269482.396393418,-670000.0,5777965.592293558,1019000.0,3287855.250952808,-670000.0,2981774.099099038
1400,1203,0,-4860602000.0,2469311107.4165,-990657000.0,628514743.3547117,-3869945000.0,2024094015.3358216,193881000.0,205047205.3483565,378009000.0,484212244.5587722,571890000.0,733648417.9140437,36078000.0,41350526.347847655,124685000.0,182058928.09109157,69196000.0,77835201.23357144
617,1499,1,5475000000.0,5907068922.210807,4861300000.0,5296849376.774258,613700000.0,647929938.54422,130600000.0,189677039.3216074,1421300000.0,1382706014.016686,1551900000.0,1553606217.6036067,23900000.0,59394215.59229356,81800000.0,93430794.4670101,48800000.0,87393809.52388154
570,614,4,9643000.0,-157279244.79405284,6164000.0,-101640817.27914375,3479000.0,30664376.274424076,1843000.0,5347123.811721541,2246000.0,1069510.7613500152,4089000.0,157546.8715721639,-437000.0,-446010.6951642686,2240000.0,2673514.102624104,-397000.0,-3369273.078948541
2015,792,1,12012800000.0,3648978513.525904,6608200000.0,2159309205.461647,4911800000.0,2509545812.5424323,457000000.0,530277039.3216074,316800000.0,256759398.56118912,773800000.0,736615817.6036066,145800000.0,129486915.59229356,203500000.0,185769744.46701008,253500000.0,284672909.5238815
576,1054,4,6644800000.0,6916692220.533444,3248100000.0,3513424353.9643407,2786600000.0,2775117288.3154764,345800000.0,349292347.3483101,33000000.0,166846794.64400992,378800000.0,515103046.87157214,36000000.0,49820596.91086083,342800000.0,462797254.98530465,3000000.0,-142944732.78033447
1397,155,3,136174000.0,161859801.87814307,62163000.0,97493393.8953228,72304000.0,69725835.31475425,10072000.0,18572227.119232263,-3712000.0,-2275491.0087083383,6360000.0,7451912.65854036,-12604000.0,-16164156.955916407,22676000.0,23726225.579562694,-12604000.0,-13105527.877903763
1134,1493,2,160043000.0,-1292092154.8617127,101422000.0,-338999248.4904667,58621000.0,-921279575.2508389,15202000.0,13067288.007426012,-14386000.0,-1041880.1144125601,816000.0,1970645.8478745413,-14398000.0,-22349491.09349186,29600000.0,36038271.14104669,-14398000.0,-25679215.345265407
188,368,0,9282000.0,-64606551.90447618,3493000.0,-5113254.515163012,5789000.0,1060462.1241520876,355000.0,8175959.426123281,552000.0,9221080.43355498,907000.0,6179723.444482051,-972000.0,5520243.1038808795,1327000.0,3672328.973424971,-972000.0,4504295.173922699
488,324,4,16124000000.0,12305280635.184347,13383000000.0,10455849307.180395,2741000000.0,2036128235.7018943,5251000000.0,3563524893.068394,4961000000.0,3262969140.075807,9233000000.0,5913408523.822507,1583000000.0,747536921.1967754,3668000000.0,2399030498.4711623,1583000000.0,796496475.0345067
1211,484,4,1601068000.0,1492480050.6672404,1081707000.0,1003564273.892813,519361000.0,589286701.3511539,248876000.0,265734038.02213636,-34521000.0,-39657105.24971987,214355000.0,220828446.87157217,19006000.0,37964648.83795108,229870000.0,223092648.4711624,19006000.0,33942384.186042495
1580,868,0,779622000.0,919806323.3375976,153452000.0,440471204.3591428,626170000.0,548042466.55148,134561000.0,140359205.3483565,57608000.0,66476920.498680234,192169000.0,199385951.0540399,56917000.0,60630845.126708016,77644000.0,80494349.35101624,56917000.0,58911986.44349559
1533,863,0,4162272000.0,4030164184.2882104,862254000.0,1154273633.252748,3299439000.0,3036057114.8839936,357871000.0,369289205.3483565,794265000.0,826220564.0252253,1152136000.0,1193782176.3925872,114028000.0,146389928.37067482,194829000.0,198737799.35101625,163042000.0,170882013.82463923
818,1420,0,13900400000.0,12133692954.109882,12204100000.0,10454522758.04402,7319729781.089915,6583929200.782322,78200000.0,73298205.3483565,235100000.0,251998113.7685306,313300000.0,313761530.8806332,174900000.0,157463028.37067473,116600000.0,105319599.35101624,-38400000.0,-35575992.687912986
50,744,4,594022000.0,322984296.90754724,132343000.0,-46738940.24027568,461679000.0,519398074.9463828,121956000.0,122105730.84461926,1645000.0,-761838.481076071,123601000.0,112329346.87157217,31177000.0,25918610.689231876,45262000.0,41608600.61131231,76694000.0,66759857.94088174
590,341,2,1341960000.0,-210692154.8617127,666970000.0,244180751.5095333,674990000.0,-394468975.2508389,55930000.0,61387068.14337042,179410000.0,180250119.88558745,235340000.0,227315256.3760845,23760000.0,12868439.185666136,32290000.0,39523337.55035104,23640000.0,10929262.639606416
377,123,0,52901000.0,-60490655.35920286,24522965.98920461,6290308.397551388,33404000.0,53007012.5569789,-1183000.0,7774959.426123281,24144000.0,24060995.502684332,22961000.0,24136312.637984097,-5692000.0,2217643.1038808785,28653000.0,25310128.09109154,-29836000.0,-18685495.334386505
1953,1327,1,877565000.0,892073111.3757532,1336553000.0,1161350706.421434,-475192000.0,-237421274.75895375,522812000.0,525913661.44410825,-345617000.0,-347447549.4028961,177195000.0,161263217.60360658,31868000.0,41654665.592293546,490944000.0,484399258.3516827,31868000.0,38355859.52388152
1018,1089,4,26568400000.0,27045802685.38301,13080400000.0,13499741554.697716,13246000000.0,13395731170.391502,1346200000.0,1228931941.5317247,1952200000.0,2033677359.99184,3298400000.0,3229673046.871572,592200000.0,396382503.4535389,746800000.0,717500498.4711624,599400000.0,419056633.25771713
709,872,1,2933971000.0,2429084475.095048,2618511000.0,1915173181.0290537,315460000.0,444487919.7275709,65062000.0,69858661.44410828,2191000.0,-4696682.368559519,67253000.0,47531717.60360658,-143265000.0,-87836984.4077064,69951000.0,46951469.68920455,-4889000.0,15653824.09909904
1121,749,4,27828200000.0,25780031917.64512,13810622382.415062,12846530394.947311,7212400000.0,7486968620.974437,821300000.0,825374699.7872365,181300000.0,253428432.35568762,1002600000.0,1062513046.8715721,233000000.0,257172201.71508482,794400000.0,948329287.1107467,26900000.0,-147879860.3083315
1026,1450,0,2788943000.0,3300403244.391641,2662320000.0,2845976797.132138,126623000.0,1249889945.6630752,299166000.0,305974959.42612326,0.0,10451049.557954762,299166000.0,309042809.8465461,-281667000.0,-98933167.90016726,580833000.0,433426004.63122004,-281667000.0,-112547404.8260773
1015,653,0,2489159000.0,2291031930.1667795,1954765000.0,1942764233.5632346,488897000.0,425090814.3425772,294443000.0,239783205.3483565,370069000.0,349909913.69721705,636496000.0,563983278.8289376,64600000.0,34172895.126708016,229652000.0,232538343.8855065,64791000.0,24762786.44349557
1575,1512,3,11961066.0,-11770357.620343447,1068497.0,-21330371.250316024,10892569.0,6184162.457034972,611174.0,6103391.251315797,0.0,2387408.9912916617,611174.0,479290.0626351086,-1146685.0,-2065444.8288000927,1757859.0,4622778.6956367,-1146685.0,-3315686.5901122824
826,654,4,93941000000.0,75824298521.95348,39446000000.0,33925222950.905334,53466000000.0,46694131836.84819,4178000000.0,4522518844.145292,15656000000.0,19969629022.80977,18582000000.0,24577367509.93614,1764000000.0,2528149519.549579,2414000000.0,2054257884.3263452,1764000000.0,2494507488.9439707
463,360,3,32097000000.0,31309292476.74022,20419000000.0,20826057874.25079,10658000000.0,8981054781.78956,2071000000.0,2166662485.600967,6360000000.0,6412340572.010037,8431000000.0,8507642543.24325,950000000.0,992020445.0149075,831000000.0,847019519.0305591,1240000000.0,1253552218.570232
1660,879,4,6578196.0,-199536903.30986786,4441488.0,-111122916.51578122,2465776.0,-34014150.61574058,2008368.0,6022833.590841042,923641.0,1555073.4730508276,2932009.0,-1106830.028427836,-1328968.0,-1812465.9360535278,3337336.0,2847761.9518861426,-1328968.0,-4047316.821291077
700,48,0,1658042000.0,1443426463.4422636,1223260000.0,1024110823.0242931,434782000.0,495789846.43594027,207698000.0,216242205.3483565,674127000.0,668550694.6237282,881825000.0,872140477.0609174,25549000.0,28060128.37067479,179614000.0,173517399.35101625,28084000.0,32852273.31633002
402,417,1,9094896.0,-47157648.17134476,13593163.0,-9600850.23857373,-4498267.0,-57533688.660551295,-928960.0,9952459.44410827,1115703.0,-5719679.107751882,186743.0,-12548127.696393419,-5136642.0,922682.1922935601,4207682.0,7262942.3231063355,-5136642.0,-2217518.027283939
591,843,0,16788482.0,-42834076.28955829,821758.0,-1692263.9159480631,15966723.0,-5989030.622916054,906228.0,8106101.345627575,333325.0,10079670.355256243,1239553.0,6848397.766952369,-1096396.0,5981995.529661645,2002625.0,2904693.042752344,-1096397.0,4972134.56349559
412,358,0,1678241000.0,1897867125.3855953,730813000.0,813542476.0983894,947428000.0,1067929543.9674566,62311000.0,67689205.3483565,89643000.0,95821960.02904731,127553000.0,128208034.42158017,-24195000.0,-25250167.900167253,86506000.0,92043454.63122004,-24195000.0,-26037904.8260773
26,1117,1,1363308942.0,1264007946.9007218,629855415.0,665836482.3040991,733453527.0,611829872.08849,93681798.0,90732234.44410828,0.0,-5807964.791021974,93681798.0,57869933.303606585,39573525.0,39145730.59229356,54108273.0,44974330.08920454,39573525.0,32804868.023881517
205,711,2,15264467000.0,12990034900.147915,7226441209.924589,6444133904.170134,3059451000.0,1490148395.4335077,592816000.0,587369987.9917202,378076000.0,375614756.72362477,970892000.0,938247856.3760844,444977000.0,398463404.47218174,147839000.0,163779093.95142257,444977000.0,399391126.6605609
699,95,3,65987000.0,40839212.699234486,35279000.0,-37031320.0221014,30708000.0,51380279.75571489,5319000.0,13508818.078387247,28050000.0,30787643.23247327,33369000.0,35259212.65854036,1124000.0,-1530806.287276035,4195000.0,7538952.6346237315,1124000.0,-920600.541621994
550,826,2,31945000000.0,33674985307.360363,26424000000.0,29151979644.39381,5506000000.0,4453118032.733867,1191000000.0,927318546.8302612,2895000000.0,2455436119.885587,4086000000.0,3380952945.8478746,834000000.0,738991979.0939208,357000000.0,315863996.55053973,834000000.0,685811250.2127019
140,1355,3,2655001000.0,2615749585.893507,1989549000.0,1770113600.0953393,665452000.0,684958387.0921211,67554000.0,-26340312.802858245,403267000.0,548738408.9912916,470821000.0,476845562.7179761,-3426000.0,-79605990.4544734,30096000.0,34936738.35020085,37458000.0,-73705506.18178836
2004,516,2,9403000.0,-1505208582.079877,5511000.0,-415134706.96592045,3892000.0,-1036024773.0427718,-48000.0,295618.8982182015,1387000.0,3417219.88558744,1339000.0,-3282843.623915501,-903000.0,-726752.0743973695,855000.0,6263552.039291842,-903000.0,-3416899.796337248
28,171,2,551232000.0,-1041821676.398706,628224000.0,-26195461.026863635,-138322000.0,-1180179670.0138538,23716000.0,26295085.165250905,12709000.0,16420819.885587439,36425000.0,30873245.84787454,7478000.0,20388705.68875957,48579000.0,47657182.01043916,-24863000.0,-25799833.720996946
844,1212,1,435750000.0,433162391.121259,62826000.0,62878288.82462132,372924000.0,374385080.79789233,28152000.0,39688661.44410827,49267000.0,42326796.33485295,77419000.0,65071530.96705228,143000.0,5992515.592293557,28009000.0,31638458.351682745,143000.0,3924324.0990990372
967,354,4,367699000.0,150332894.35810208,382822000.0,176422750.0949729,-15123000.0,51970579.72074653,310000.0,132017628.47033653,0.0,-6582162.932612417,310000.0,110383146.87157217,-47413000.0,12663130.203006033,47723000.0,74441964.1026241,-47413000.0,21958922.275835913
433,1410,0,3810682000.0,3751131408.646387,2050315000.0,1983519413.7887225,1303319000.0,1312430418.4426482,110314000.0,112289916.34562758,71850000.0,82062456.21942644,148990000.0,158943024.14504585,11661000.0,13180982.8068345,98653000.0,96199704.63122004,11661000.0,13252895.173922699
228,230,3,2333529000.0,2473727960.655242,1032484368.2283514,990288085.3730228,1202771000.0,1262158336.0761366,71236000.0,80324502.0104686,490990000.0,523591643.23247325,562226000.0,594038543.2432503,19517000.0,20573087.489852205,46091000.0,55478589.908682995,25145000.0,15777669.77497899
1855,54,4,20737275.0,-318519613.9260261,10788720.0,-94434176.69074278,10368036.0,-153073652.63141108,562564.0,-136649797.39258143,77061.0,-80170384.9896423,87201.0,82490046.87157217,-4142505.0,-46822417.3309527,4705069.0,44690815.637335256,-4142505.0,-27523795.68677118
776,528,0,386844000.0,502226306.96596843,412960000.0,541630446.1884103,-26116000.0,50805156.43515732,16927000.0,31744205.348356497,91131000.0,109088121.17825569,108058000.0,132827848.84068832,-813000.0,15469928.370674793,13060000.0,16854004.631220035,3867000.0,15861573.31633002
839,181,2,6911775000.0,5422059592.750082,5109042000.0,4612540856.123157,1802733000.0,822631163.3620223,225256000.0,232029164.74928358,195092000.0,206032119.88558745,420348000.0,419684656.3760845,132530000.0,127788793.44343495,92726000.0,95588212.51999983,132530000.0,128183715.4326828
793,218,0,2883631000.0,2713842241.7726355,1772390000.0,1751898759.168285,1110345000.0,521296522.1031586,319055000.0,397559205.3483565,1257690000.0,1328049609.6919038,1576745000.0,1709691293.5400288,38222000.0,100377276.3478476,280833000.0,284474901.02398545,38222000.0,102799172.55506629
820,1469,1,133032000.0,73309461.83535004,232711000.0,266999349.07022443,-16246000.0,-60958384.12159443,12296000.0,25149661.44410827,62277000.0,65059018.3232968,74573000.0,71652717.60360658,-14749000.0,-7372184.407706439,89322000.0,104048518.0491862,-77026000.0,-85436525.90090095
2016,929,4,296638000.0,145328530.55168366,208509000.0,124962328.1906007,88129000.0,76539225.68111873,7319000.0,8691362.03216779,0.0,-3623037.466371987,7319000.0,1530746.871572164,-46633000.0,-34119709.48304825,53952000.0,49606487.11074679,-46633000.0,-41974892.18958767
1438,619,4,38809000.0,-116970945.93119669,43090000.0,-80175736.25289124,-4281000.0,29502279.66705871,7318000.0,11357428.293040842,25818000.0,19849448.462228928,33136000.0,29242546.871572163,-933000.0,-3248631.9548543347,8251000.0,8987214.102624103,-933000.0,-5717637.0933856685
866,1366,1,2376172000.0,1953928867.0392318,1870972000.0,1658889909.17666,486613000.0,111007785.83584353,-5214000.0,67827039.32160743,182832000.0,138955857.96223038,304976000.0,201123611.1991642,-103708000.0,-49874834.40770644,98494000.0,112508654.16451356,-103708000.0,-51753125.90090096
689,729,4,3719784000.0,3194693443.962013,3332984000.0,2741099400.8110375,286813000.0,413605931.63782096,2618169000.0,2468697153.1597667,-531777000.0,-511878653.85279936,2086392000.0,1955560446.8715723,44074000.0,31328533.694604836,2574095000.0,2400687280.5966043,44074000.0,28199659.99448207
919,998,0,1537935000.0,1958154393.9857078,1281456000.0,1507279136.3404684,256479000.0,513229262.51392263,229699000.0,229550959.4261233,0.0,12098208.082187627,229699000.0,231420211.25341597,-26947000.0,-113138367.9001673,256646000.0,368441904.63122004,-26947000.0,-128033704.8260773
1827,1491,4,1182488000.0,1000947587.6167796,303489000.0,267598428.02983457,759221000.0,751252935.2773421,56265000.0,64848892.864119776,333008000.0,330693899.19721526,251870000.0,256474646.87157217,16750000.0,21166797.99998004,39515000.0,35107954.98530464,16750000.0,19210647.14407261
