epiphany24262/financial-performance-prediction/results/oof/m4_catboost_residual_history_metadata_engineered.csv
Id,group_id,fold,actual_Q0_TOTAL_ASSETS,pred_Q0_TOTAL_ASSETS,actual_Q0_TOTAL_LIABILITIES,pred_Q0_TOTAL_LIABILITIES,actual_Q0_TOTAL_STOCKHOLDERS_EQUITY,pred_Q0_TOTAL_STOCKHOLDERS_EQUITY,actual_Q0_GROSS_PROFIT,pred_Q0_GROSS_PROFIT,actual_Q0_COST_OF_REVENUES,pred_Q0_COST_OF_REVENUES,actual_Q0_REVENUES,pred_Q0_REVENUES,actual_Q0_OPERATING_INCOME,pred_Q0_OPERATING_INCOME,actual_Q0_OPERATING_EXPENSES,pred_Q0_OPERATING_EXPENSES,actual_Q0_EBITDA,pred_Q0_EBITDA
196,1119,4,1192950000.0,1224685293.5203612,1055816000.0,1118012213.7158866,137134000.0,116787359.19607721,25598000.0,36600472.98166382,61899000.0,61435334.172235705,42992000.0,40584223.207482345,15222000.0,21229369.161666,10383000.0,12126753.249168154,15215000.0,16921400.199463658
1568,556,2,1219954000.0,842554300.9521914,835046000.0,847800739.3886068,384908000.0,-506808384.88689554,111786000.0,108485915.7783888,217796000.0,203177412.8521949,329582000.0,296509508.364834,28908000.0,8866233.492705058,85522000.0,88508859.86862506,26264000.0,14605259.332231605
1218,1577,0,-135820000000.0,27702476058.65493,-37972000000.0,-2397628276.4005966,-97848000000.0,28110382378.26096,-435000000.0,-627178686.2330713,4445000000.0,5661692914.945882,4010000000.0,6447190742.236077,-1472000000.0,-1323116904.8168118,219000000.0,350890540.92725104,-654000000.0,-281217133.83881396
23,1062,1,83298000.0,6330391.739600658,16040000.0,-6416133.264332175,-31633000.0,-36655132.08092069,494000.0,5082625.44737436,3339000.0,-3987708.3245211914,3833000.0,-7514630.606893454,-12348000.0,-17287871.751633804,12842000.0,17420294.558692798,-12348000.0,-19986987.824924693
783,805,3,148546000.0,-987654135.8338976,56555000.0,-250622672.86886507,91991000.0,-228987466.12727475,1761000.0,141565745.8177988,-2375000.0,-115299819.99068406,-614000.0,472669.62981021684,-10098000.0,81867922.35370211,11859000.0,18347322.914867647,-10098000.0,93378228.6310848
1251,822,1,7304300000.0,7197423186.523397,2451900000.0,2557765805.058676,4830200000.0,4678893133.813368,578200000.0,611877908.4550714,581100000.0,593861761.279777,1159300000.0,1175345325.434171,245200000.0,268978741.2665828,333000000.0,326254494.5586928,245200000.0,262553058.45452145
1224,228,0,1976905000.0,1905701615.6556566,699909000.0,656309170.4623086,1276996000.0,1344353877.0761347,53993000.0,83197616.81323165,315825000.0,327289159.73472446,369818000.0,402206995.20166725,-1572000.0,14625797.034517892,371390000.0,373702040.927251,-317397000.0,-294579508.50148517
1410,1451,2,2097274000.0,1731464537.2098231,1132234000.0,1198843986.7214766,965931000.0,146791265.15489578,70481000.0,180394690.01156968,291052000.0,287794712.8521949,361533000.0,440764798.88626117,58709000.0,119018733.49270505,11772000.0,15390521.936349573,58709000.0,131896109.33223161
529,34,4,31183000.0,35700914.04324603,15926000.0,26319475.94173467,15257000.0,-10486823.34764349,2456000.0,6641007.54083039,2151000.0,-1787519.8456877843,4607000.0,-7242759.492243573,-2931000.0,-4900125.290357193,5387000.0,8977620.533416992,-2931000.0,-6765952.828235259
730,909,4,978523000.0,1099638087.7774978,851196000.0,861655907.0295663,-94184000.0,30508864.07154934,24321000.0,30184508.171584807,137937000.0,141812054.57885748,162258000.0,149098849.57613945,-764000.0,-18797994.599432286,25085000.0,37668565.06497022,-764000.0,-22862449.152204547
1590,1344,4,27253000.0,-39172374.45318198,14465193.072010836,-12859489.194022192,12787806.927989164,1163405.8681678511,-17000.0,5214326.769789298,17493000.0,18974491.371988785,17476000.0,22824247.362658437,1196000.0,1181518.216147195,138000.0,2850391.905136365,-155000.0,8150.0613973238505
367,268,0,798398000.0,837102441.9117321,795372000.0,814384005.9735385,3026000.0,62441489.68465475,37121000.0,42030284.89146168,256160000.0,360092196.28641343,293281000.0,406841177.79707795,10257000.0,-6427669.607958116,26864000.0,38395440.92725098,10257000.0,-705708.5014851787
636,839,4,1059052000.0,1305004766.8842642,883921000.0,838980187.1979464,175131000.0,351087180.2847988,91945000.0,110860812.9150606,202788000.0,228072410.61857194,235132000.0,263138957.68421495,-287000.0,948644.7990653142,84957000.0,101751041.90513636,6988000.0,3475101.4229563777
1270,1065,3,11069000000.0,9958104443.292906,5919000000.0,5792294636.410127,5105000000.0,4768415459.953714,727000000.0,762111745.8177987,1752000000.0,1816121892.0292025,2479000000.0,2566452770.056961,462000000.0,509774137.35268897,265000000.0,230207298.42233384,462000000.0,502818195.9248455
102,712,1,12331000.0,37976124.15072918,10875000.0,25410670.915761054,1456000.0,-54817776.738800384,1472000.0,8042573.344344792,1968000.0,10015912.995445553,3440000.0,84352681.37268718,-4166000.0,141495.5171208938,5638000.0,3329677.6537408237,-4166000.0,-396092.5621311688
1658,812,1,180372000.0,103015694.71681023,121221000.0,57549738.321371794,30642000.0,12741594.897075653,18014000.0,22851472.84908103,31653000.0,21437183.56618511,49667000.0,38120249.65832323,-11599000.0,-734414.6683274773,29613000.0,17590894.558692798,-11599000.0,-1064414.1729177344
6,356,2,2319806000.0,2279482643.644799,1534495000.0,1785108586.5339236,785311000.0,79838683.14295626,376397000.0,304296584.8925541,415254000.0,322542712.8521949,791651000.0,617677708.3648341,93430000.0,49113683.49270505,288680000.0,266008379.44785914,87717000.0,40115459.3322316
1147,318,0,19295025.0,25252620.683665782,28370931.0,27150663.070300415,-13369686.0,26307503.10091558,2067435.0,5445845.337810382,4847499.0,9949807.765153777,6914934.0,19431985.641921602,-1108124.0,158752.20801197877,3175559.0,7549034.627250984,-1108124.0,1641208.6485148163
114,141,2,3549408000.0,2597086771.4494295,2109262000.0,1842054876.369559,1440146000.0,152363213.58571494,264579000.0,246885288.81354886,494402000.0,486600912.8521949,758981000.0,715319598.8862612,58594000.0,93084533.49270502,205985000.0,194317722.85080594,58594000.0,72444209.33223158
139,890,3,331401784.0,-596785624.1661842,56254670.0,-285921229.00966597,275147114.0,106792563.06362015,17982150.0,35085799.81779878,0.0,2947598.7301969747,17982150.0,25198792.31047894,-40215832.0,-26350531.255726367,58197982.0,53778945.41367164,-40215832.0,-31618500.518915176
411,956,2,5533000.0,-477227342.7898574,4648000.0,-104269239.21872306,885000.0,-755765748.352191,-1669000.0,12411915.778388804,2438000.0,904512.85219492,769000.0,-4719201.113738816,-6339000.0,-643778.4873993713,4670000.0,6014624.257787222,-6339000.0,-3013390.667768396
681,18,1,36550000000.0,34017550760.343594,16943241279.095451,15668755631.890055,15250000000.0,14565303150.294788,577000000.0,551551694.4883915,3467000000.0,3204641770.6282215,4044000000.0,3731231251.6629333,714000000.0,476404087.27875364,627000000.0,683789494.5586928,-50000000.0,-172201670.8092841
1671,1574,4,100449000.0,184673514.56082773,141057000.0,99898442.57249779,-40608000.0,46022065.23344125,-171000.0,4457453.411069084,512000.0,-1750183.8748986225,341000.0,-3152140.2417446505,-48297000.0,-52776303.5068136,24344000.0,27407175.213053305,-24515000.0,-27831798.232281644
500,1524,4,10599934.0,-12303504.186380863,26203416.0,18530142.90021485,-15603482.0,-49211296.49186118,-6219.0,5159723.853399751,193120.0,-2353317.919125779,186901.0,3841663.3384809787,-1076399.0,-757606.3225203924,1070180.0,3546228.6051363647,-1076399.0,-1691806.2433571564
1203,855,3,13322000.0,-1012763221.554415,67881000.0,-253594407.4547727,8277888.77383834,-265048807.87617597,3223000.0,10276745.817798778,1889000.0,4525399.539810635,5112000.0,2142184.671157698,-3552000.0,-2909258.870493956,8664000.0,14297391.915054671,-5441000.0,-6607271.368915189
180,1091,2,635001000.0,782129822.6519632,115305000.0,42567891.80257034,502273000.0,181374832.4295826,21465000.0,36695290.96269359,40457000.0,38830712.85219492,61922000.0,58759408.364834026,-143360000.0,-164887566.50729483,205282000.0,171463753.3171579,-183817000.0,-175393940.6677684
1960,1407,1,2672864000.0,3070291979.7713833,288913000.0,395808438.25945646,2383951000.0,2512043765.7594914,132902000.0,153350979.52157983,168499000.0,195275526.24213198,301401000.0,329494612.60085845,55706000.0,72908655.77319038,77196000.0,74706794.5586928,55706000.0,66500167.09807396
356,219,4,8388335000.0,9033675379.21781,5163154000.0,5755478939.7669935,3225181000.0,3301988348.22626,313343000.0,336930019.0337002,687959000.0,726772119.662744,1001302000.0,1053821391.0190104,116260000.0,130105146.9688554,85661000.0,93161362.10287116,227682000.0,233742351.31137702
1646,1209,4,1563399000.0,1468679044.6415222,1445358000.0,1324790743.7562737,-136248000.0,470296136.8238178,72333000.0,73109211.4522579,116682000.0,112505271.38155621,189015000.0,179201700.00386792,23506000.0,19821780.489241853,11423000.0,13610803.249168154,60910000.0,54425947.230353415
1793,1494,4,320019000.0,58508699.28306341,126984000.0,81613768.72640398,193035000.0,130958115.9842335,177377000.0,219017618.51093307,58492000.0,84181691.6408589,235869000.0,297109006.0759292,25509000.0,38255516.45966664,151868000.0,185424865.657136,25509000.0,36857868.14213344
235,903,0,0.0,-30893107.91389823,0.0,-17445651.366634175,-804876.0,13389027.606783653,0.0,2652248.2625554167,0.0,2144613.285870077,0.0,11438530.941921601,-14550.0,-111751.29198802123,14550.0,5566158.077250984,-14550.0,1076808.8485148163
1668,520,3,267194000.0,-711204058.0676167,175308000.0,-164258480.65105855,91886000.0,-82525736.09245872,5103000.0,13510700.634193957,0.0,2851262.601730013,5103000.0,3718232.805963449,-32762000.0,-25151004.071407612,37865000.0,34040564.94658211,-32762000.0,-26073021.368915178
1456,719,4,2249377000.0,2437164068.5747833,1923326000.0,2108535688.399961,326519000.0,297715371.74450254,-76300000.0,-65847241.70019795,416103000.0,427293519.89249516,339803000.0,347620324.3790584,34941000.0,8060935.715042454,184914000.0,191256137.02885538,-261214000.0,-264957912.5257256
1291,57,1,396890000.0,408175823.93026185,107071000.0,89039324.23974943,289819000.0,246462890.62810922,52569000.0,52586133.922914915,13634000.0,11649663.551971488,66203000.0,51703847.71706542,8375000.0,-7307173.015026476,57828000.0,65827594.558692805,-5259000.0,-21160642.81283448
1376,344,4,7827000.0,-88164332.3386426,4744000.0,-32229222.932579756,3083000.0,-66040672.09633613,1288000.0,6557502.464108435,867000.0,-2837241.632750979,2155000.0,-6131447.407623921,-3880000.0,-6974041.607261669,5168000.0,9300941.905136365,-3880000.0,-8007161.627409611
1702,1482,1,11990000.0,-109539820.06052232,3030000.0,-43981282.01256508,8960000.0,-34789953.632659435,1480000.0,6162143.840473474,3017000.0,-1464675.567572657,4497000.0,-11650031.608775727,-944000.0,-3799031.6834748774,2424000.0,4681894.558692798,-944000.0,-5471622.05390288
1591,331,2,7472874.0,-463013858.702369,3243445.0,-102081630.81251436,4067990.0,-779143359.3245001,3065804.0,13349477.415376121,0.0,260412.85219491998,3065804.0,-4711802.613738816,-21884.0,1362307.7626006296,3087688.0,5357669.858022907,-21884.0,-970502.3177683954
647,1582,1,2182494000.0,2344458232.697294,2467501000.0,2379137841.857727,-484456000.0,-427882952.4730255,389190000.0,381086034.6951009,141172000.0,133495437.5801755,531030000.0,506637976.8741871,-54175000.0,-58050107.55485397,443365000.0,437994244.5586928,-54175000.0,-60104699.33670626
100,1589,2,12166000.0,-427294014.4528377,2892000.0,-88077511.5077228,9274000.0,-764308377.827229,5000.0,12414584.892554095,54000.0,284212.85219491995,59000.0,-5159901.113738816,-3433000.0,-306871.1371288439,3433000.0,6223279.0525657255,-3428000.0,-2833940.667768395
507,336,2,189783000.0,-149112318.46010566,45792000.0,-58270634.642348826,143991000.0,-560999656.8798771,2372000.0,14688584.892554095,0.0,260412.85219491998,2372000.0,-2928801.113738816,-18270000.0,-19592116.507294953,20642000.0,27704229.052565727,-18270000.0,-22287840.667768393
547,1095,3,1072653000.0,-129821034.04275179,455367000.0,47188451.36734986,617286000.0,240384601.64581174,134998000.0,141396700.63419396,27783000.0,29514905.773348454,163452000.0,154972315.39483362,5489000.0,337042.56579689356,129509000.0,136159070.75961313,5489000.0,-1051471.3689151905
457,886,2,665104000.0,177753449.71664453,575531000.0,409077590.58090687,89573000.0,-658916493.6837969,30803000.0,40694690.011569664,19437000.0,16580612.85219492,50240000.0,38599798.88626118,10357000.0,2942383.492705049,22017000.0,22383932.177363303,8786000.0,8154959.332231604
560,670,3,1900367000.0,511134825.91154635,289037000.0,-3631841.46274364,1613343000.0,462386012.9091267,45433000.0,208203745.8177988,413911000.0,489053768.0705875,459344000.0,684500491.3211101,-6757000.0,209516528.58706293,52246000.0,62935171.50769485,-6813000.0,180339295.92484546
1402,905,3,88944000.0,-872265759.8214207,45361000.0,-292210415.40727293,43583000.0,-159486560.31807303,0.0,9970700.634193957,45000.0,2544622.405014473,45000.0,500548.2528028386,-14351000.0,-10143991.562076371,14351000.0,16181907.164361624,-14351000.0,-11881771.368915183
1274,1040,3,5390785000.0,4856913471.08386,4083098000.0,4153359859.5549655,1050686000.0,879232592.0453511,352054000.0,366637700.63419396,284900000.0,321517030.68877894,636954000.0,682095631.7175487,120850000.0,129533149.00517897,187232000.0,197905806.20300448,164822000.0,172400795.92484552
799,197,1,18535000.0,-70379504.78174686,13748000.0,-26256614.271634698,4787000.0,-39790165.56282282,2839000.0,9189201.282419441,7502000.0,2695536.357706208,10341000.0,409998.1570694819,-2229000.0,-4297499.164254408,3071000.0,5519794.558692798,-232000.0,-3230923.9647241645
1436,782,1,13281300000.0,11854685788.703354,5777300000.0,5682496935.431225,7484300000.0,6326660224.209239,1030700000.0,1005252689.9929341,1150100000.0,1116081496.3897686,2180800000.0,2108497611.632667,687000000.0,635182827.1511848,343700000.0,369699494.5586928,687000000.0,637051144.5326556
1518,137,1,108681735.0,4965126.348482609,9192190.0,-46961137.24340999,67531550.37365061,24551598.12254004,2201326.0,4056934.0201955894,255772.0,-3639785.234689738,2457098.0,-9312674.018866915,-8935951.0,-13748693.733543504,11137277.0,13557853.108692797,-8935951.0,-15126866.7435098
211,1313,0,189692000.0,179940987.9322483,90178000.0,88083893.47126368,99514000.0,163619045.34913772,-4411000.0,715529.0919830184,24963000.0,30455158.354979366,20552000.0,36151730.9419216,-10000000.0,-3699289.9096454773,5589000.0,8986718.399515562,-10000000.0,-3434108.5014851848
1542,188,0,230878000.0,164023620.13134524,57278000.0,84212923.94602117,173600000.0,176644606.0928872,26973000.0,29791598.030658174,7041000.0,11143408.969739925,34014000.0,44164295.201667234,-11169000.0,-10818419.607958123,38142000.0,42678890.92725098,-11169000.0,-9538458.501485182
1496,602,1,73773000.0,-64346630.21410465,50819000.0,-17859202.438815832,38847689.64492722,-4329742.784370713,5428000.0,10521281.149139684,22481000.0,18371196.142699827,27909000.0,16775791.608058318,-1778000.0,-5959931.386325892,7206000.0,9819705.903740823,-1778000.0,-4277840.465075781
1891,1386,2,1582767000.0,1259395871.6236572,680421000.0,635740684.7686958,880211000.0,130011291.32334626,56683000.0,67435290.96269359,17637000.0,17079801.75219492,74320000.0,67396418.26483403,-5119000.0,-7515478.45729495,35279000.0,40149430.63446432,21404000.0,18914087.732231602
362,63,0,5641000.0,-21492713.10643992,5200000.0,-22809623.729467988,-3859000.0,19952856.183296718,1192000.0,3507367.1497545186,781000.0,4799244.682951197,1973000.0,13040548.346510885,-97000.0,936505.0580119783,2070000.0,6233190.927250984,-878000.0,1545791.4985148162
605,600,3,3208196000.0,2025782697.455216,2133043000.0,1631483211.54053,1075153000.0,832886221.7224526,625972000.0,660173745.8177987,1066275000.0,1080302640.9910402,1692247000.0,1726012808.376458,91616000.0,95277258.77685927,497965000.0,484311813.98710376,128007000.0,154726245.9248455
384,240,3,13057000.0,-984455425.9652476,4943774.229094189,-340646567.02979606,10949000.0,-206727193.57297134,7944000.0,10164745.817798778,0.0,2587580.009315937,7944000.0,-1048975.8275400144,1997000.0,1304806.596745545,5947000.0,4944497.397990157,1997000.0,244128.63108481374
438,681,2,5973000000.0,5282294408.066901,4408000000.0,3946976263.4152865,1554000000.0,867904427.9395117,244000000.0,263745196.82945004,1526000000.0,1492160412.852195,1770000000.0,1735104598.8862612,147000000.0,53403333.49270505,127000000.0,120150535.4115488,117000000.0,130748228.48594429
1761,1233,0,589088000.0,709265864.303132,253950000.0,339067491.62414753,335138000.0,397338930.36248595,19294000.0,27382011.36578428,99428000.0,100895228.16184384,118722000.0,128804977.79707795,9057000.0,10983680.39204188,10237000.0,15244740.927250985,9057000.0,13006041.498514818
403,509,4,21286772.0,-21416275.663584232,1383236.0,-28341954.01219827,19903536.0,-14526701.03161766,781782.0,7540360.47170569,421382.0,-2326567.1463947017,1203164.0,-10126054.479230003,-1960898.0,-4127037.3313032873,2742680.0,5411527.783416992,-1960898.0,-4389152.506962157
388,1329,4,3445920.0,-31467.673464775085,1859560.0,24324151.513077557,1616914.0883314284,-14910639.899468258,2970901.0,6676219.1048226245,569508.0,-1768540.319125779,805185.0,8978522.37356665,2437201.0,4823150.846726895,533700.0,3162319.055136365,2437201.0,848786.6322885972
1452,1493,0,328158000.0,375908354.1187642,124250521.82515822,180880599.70792127,270486000.0,358861033.8128982,24944000.0,31955767.940728907,16521000.0,22614488.67983321,41465000.0,55669977.797077954,-7674000.0,-4912619.607958122,24827000.0,27732940.927250985,117000.0,6082791.498514817
1876,217,1,2498305.0,-89515868.9748981,2997402.0,-6791225.598770201,-3454854.0,-75930355.24035454,467340.0,6353269.860792942,346611.0,3170.655021643266,813951.0,-7357063.707034423,-114631.0,729284.073414214,581971.0,2872626.4537408235,-114631.0,-961419.2844074953
757,180,3,1288046000.0,389528311.4356817,649920845.9604261,338371186.2764278,889849000.0,722623171.4057969,105384000.0,106850745.81779878,285360000.0,273882262.60173,390744000.0,369319754.2889627,53190000.0,43848117.91890987,52194000.0,54645435.37367563,53190000.0,43955095.92484551
660,425,3,600057000.0,-512628541.37860465,369915000.0,-51125579.23607421,225443000.0,29736851.752345443,43121000.0,49928745.81779878,106269000.0,90389981.52608122,149390000.0,128831530.74191794,7853000.0,11568783.386149367,30439000.0,29967978.470593147,12682000.0,13470178.631084811
197,250,3,538955000.0,-537480146.2124844,291671000.0,-275688590.3754015,247284000.0,5397530.11542356,-14193000.0,-2256299.365806043,14235000.0,14766325.962153979,42000.0,411887.9271356119,-51845000.0,-53524222.90378468,37652000.0,48130423.007578604,-51845000.0,-55915271.36891517
93,807,1,25334074.0,-20384875.34020567,18917048.0,-18200122.19787121,5501613.0,-19364058.522586823,-536032.0,5356616.390110454,4501393.0,158634.9610060118,3965361.0,-8033122.780521551,-2975120.0,-4984537.882713771,2439088.0,7112927.953740824,-2975120.0,-5782131.503243262
472,555,3,1934400000.0,1076801029.31432,855887268.5537325,565291637.9710717,957200000.0,768177903.199922,84000000.0,130611745.81779878,375600000.0,440875345.49264866,459600000.0,559608571.2902211,30800000.0,73390762.458268,59000000.0,65569840.598301485,25000000.0,64683195.924845494
1345,974,4,102973000.0,321826612.2416482,162948000.0,16532450.923096955,-346214000.0,-267050736.871588,-13037000.0,2098305.1782078445,25768000.0,19267043.183758307,12731000.0,24423225.11684207,-23219000.0,-11024732.276222399,35950000.0,29663045.170938425,-48987000.0,-34842383.7325099
1672,1178,0,2501300000.0,2818889761.176843,1075500000.0,1452949470.8369918,1407900000.0,1410935565.019033,99600000.0,118453445.7222502,151100000.0,173002821.39299804,250700000.0,288991777.79707795,31900000.0,672230.3920418872,67700000.0,124996068.39951555,31900000.0,-4300808.501485177
521,196,2,27910000000.0,32039426139.06548,24392000000.0,27310338200.245914,14058781786.346067,15054477754.1322,1525000000.0,1398836902.8995895,6421000000.0,5246260412.852195,7946000000.0,6559836208.364834,561000000.0,-2860351.435392298,638000000.0,490077184.3344643,887000000.0,489848709.33223194
1143,374,4,105238000.0,123843852.01859283,42240000.0,27244615.747320533,62998000.0,85321757.93318093,8572000.0,15087388.635319863,322000.0,-2542271.0036928216,8894000.0,3470238.329551846,2218000.0,3307174.1062990283,6354000.0,8099506.1452689655,2218000.0,827146.8489261004
502,643,0,2010176000.0,2092997646.7881057,889414829.379791,917492540.3205647,1057656000.0,1108480267.3779798,113627000.0,126315551.83037516,250202000.0,259541540.10086423,363829000.0,385052610.343805,44531000.0,52255080.39204186,69096000.0,75435868.39951555,44531000.0,53677341.49851481
319,277,1,15154000000.0,14825726746.42033,5534200000.0,5619067151.768264,9554000000.0,9222395184.32378,739300000.0,709096027.8462521,999600000.0,994823855.4386265,1738900000.0,1667701476.0264714,318400000.0,260924124.81371045,315200000.0,311879494.5586928,424100000.0,365606916.60482126
471,1421,2,346507000.0,-18142143.53650403,100361000.0,38798399.58148277,246146000.0,-525111485.20508766,14398000.0,25181290.962693587,62502000.0,62155012.85219492,72480000.0,67494008.36483403,4926000.0,6557658.779577436,9472000.0,11714895.652562518,4926000.0,4262759.332231605
1756,928,0,229309000.0,162038092.22832197,190264000.0,245030369.59979236,-44269000.0,146609.79979044572,9225000.0,17573409.42637904,52669000.0,82084000.88873802,61894000.0,99749230.9419216,1401000.0,6164897.0345178945,7511000.0,10307540.927250985,1714000.0,8124041.498514814
848,613,0,101740000.0,154704189.10987848,28463000.0,49902733.28929092,50734000.0,87483813.02789149,29850000.0,31648234.950572625,12745000.0,15820823.784290269,40857000.0,52610768.141047016,2689000.0,4086230.3920418755,27161000.0,29879040.927250985,2689000.0,5209891.498514816
1310,607,1,9582645000.0,7953397561.396377,3280269000.0,1828155375.7289443,6302376000.0,5862465482.092761,376175000.0,321591634.86983204,424915000.0,516755437.35603034,801090000.0,790915597.7683773,272965000.0,116201911.22986555,103421000.0,134670944.5586928,272754000.0,126685436.30359258
202,502,1,609678000.0,591259122.4929152,288631252.1743736,247803039.76338297,366720000.0,306943710.43966055,84451000.0,85462529.79106537,21802000.0,18131969.820119116,106253000.0,89809553.86651738,5683000.0,-289077.1949397959,78768000.0,81556444.5586928,5683000.0,-2150678.201513584
1444,124,4,43441700000.0,41833221559.97673,21559314449.01792,20911672702.48973,21882385550.98208,21035672188.07485,1370000000.0,1306093626.8991039,587400000.0,563397059.7638364,1957400000.0,1867750101.486233,472000000.0,482299010.7844085,1485400000.0,1477716803.8813365,-115400000.0,-206772068.95536178
1578,1121,2,1146353000.0,853783693.9766655,752649000.0,682686480.7102097,393704000.0,-311831795.8614397,95229000.0,104433584.89255409,32092000.0,33851512.85219492,127321000.0,121350298.88626118,-58245000.0,-56001466.50729494,153474000.0,152059503.3171579,-58245000.0,-58547190.66776838
451,840,3,796771.0,-1011607108.414442,1072746.0,-347443430.4364552,-275975.0,-209459347.94181576,205707.0,10285185.817798778,158335.0,2102878.8430950944,364042.0,-1023456.3572519585,-168127.0,4388346.902340209,373834.0,1807851.387783222,-168127.0,2829295.131084813
35,1605,2,9069035000.0,6178977786.210814,2563480000.0,1964066864.1891217,6505555000.0,4084067891.3313437,942419000.0,896454690.0115696,522866000.0,523769012.8521949,1285548000.0,1231056798.8862612,602695000.0,517208583.492705,339724000.0,345877170.3668783,602695000.0,518501878.4859443
237,1328,0,48924605000.0,44339269355.83811,25766652000.0,21301478155.39812,22441501000.0,22692471707.373928,1560160000.0,1547583635.2833822,915531000.0,953052437.878145,2475691000.0,2449417200.687774,558196000.0,457891759.2689057,1001964000.0,1005021590.927251,558196000.0,467010041.4985148
917,299,4,514281000.0,410920494.7895129,309957000.0,360252234.0146662,198004000.0,116155216.22833204,106985000.0,58115262.046913944,149052000.0,92800030.30518052,309744000.0,177122219.75357383,62399000.0,10511572.98514385,44586000.0,38408315.06497022,62399000.0,11195819.80822419
558,1592,4,17876000000.0,15461511046.98816,4077000000.0,2969995760.0693474,13799000000.0,12126072562.145428,-917000000.0,-694310124.5685983,1453000000.0,970313938.7563659,536000000.0,359475893.2652808,-1774000000.0,-1612647694.344719,857000000.0,963868141.9051363,-1774000000.0,-1656538155.7123504
73,1398,0,218354000.0,203542381.8169368,62021000.0,56489828.420012265,156333000.0,234187975.36602658,-143000.0,2254746.930842326,848000.0,7111714.746389951,705000.0,12109848.346510885,-31577000.0,-29741894.941988017,40859000.0,38793840.92725098,-41002000.0,-31517608.501485176
532,116,2,2268100000.0,2211324778.2703056,1627400000.0,1744075462.3155522,640700000.0,-75924910.9194107,78400000.0,108025690.01156966,665200000.0,716310412.8521949,743600000.0,803216208.3648341,19100000.0,34854023.851479486,724500000.0,777404344.0694956,-646100000.0,-685546290.6677684
986,1241,2,49117000.0,-343519286.8126483,7104000.0,-68216618.82824641,42013000.0,-706929460.2350175,1616000.0,14340290.962693585,3273000.0,3901312.85219492,4889000.0,365698.88626118377,-1489000.0,2776971.5126006296,3105000.0,4923579.0525657255,-1489000.0,379859.3322316045
252,13,2,12822000.0,-418958518.2280836,1624000.0,-94943522.16879511,11198000.0,-744588470.37468,0.0,12492290.962693585,0.0,260412.85219491998,0.0,-4363791.6351659745,-1983000.0,1357971.5126006282,1983000.0,4278324.257787222,-1983000.0,-820640.667768396
982,352,1,543788000.0,626424283.6298039,205894547.02387,234701754.54628682,402777000.0,398579709.1955667,1944000.0,5741108.607519616,0.0,-8578903.046800267,1944000.0,-8028449.274286501,-51279000.0,-59777973.034343,53223000.0,72422294.5586928,-51279000.0,-65854395.88456365
1947,1444,4,16965000000.0,17389499576.04669,7506269391.549871,7680672524.753991,7744800000.0,7886916899.063513,1329900000.0,1161866784.9629622,1175700000.0,1144010335.075986,2505600000.0,2283217325.575284,1069200000.0,999592723.081194,32700000.0,33179190.138986014,1297200000.0,1175274452.7314632
1206,430,3,29788000.0,-845263323.9462671,27907000.0,-261461135.64047444,1881000.0,-156678086.0671978,0.0,10148700.634193957,3452000.0,2752203.779167858,3452000.0,-273896.13363061845,-23801000.0,-13464030.893923214,23801000.0,21006314.94658211,-23801000.0,-14720171.368915187
542,123,0,39315010.0,42276270.76902035,15768167.0,47471732.287931606,23791305.0,8896240.296325296,7600979.0,9361336.162007418,41810204.0,32499885.47162772,49411183.0,47356589.40793267,-1588725.0,-1373.3079581237398,9189704.0,10964006.377250984,-1588725.0,1552939.3879120424
15,385,3,184728000.0,-768912870.913435,40367000.0,-278725307.2970005,144361000.0,-75683449.24466181,0.0,9970700.634193957,8094000.0,8866923.011157969,8094000.0,-841471.1266229106,-23114000.0,-23775304.07140761,23114000.0,28354787.967491936,-23114000.0,-24476121.368915178
1754,1014,4,5014090000.0,5124711471.314961,2606263000.0,2848623597.174368,2407827000.0,2234500660.0411315,420690000.0,431420747.5255601,905430000.0,895088309.5579035,1326120000.0,1312320723.0112853,237492000.0,227260872.4044376,183198000.0,185291987.02885538,237492000.0,228522333.96811178
1448,316,2,3543460000.0,2722695768.124441,2602227000.0,2315725503.296843,941233000.0,-189109270.17159796,443568000.0,439383527.71528476,134292000.0,123311012.85219492,414603000.0,388342998.88626117,14363000.0,-33957066.50729492,429205000.0,418617824.42027724,14363000.0,-23431590.66776838
459,80,3,747087000.0,-221905961.12634587,79688000.0,-264808113.87822568,667399000.0,524555935.87037706,34565000.0,44442700.63419396,22203000.0,21698282.13222471,57261000.0,55505630.74191793,-16306000.0,-15733473.562998127,50871000.0,56312559.26437344,-16306000.0,-17434271.368915185
1505,982,1,4578121000.0,6424647215.600065,2310023301.364386,3491276924.583882,2489780000.0,3473152404.009903,2190001000.0,2253791064.924793,-1465670000.0,-1785107447.2410083,724331000.0,768374666.402031,216069000.0,271184789.76299846,1973932000.0,2286157944.558693,216069000.0,256372855.86843336
1613,267,1,11895943000.0,12458969719.296982,3479745000.0,3702002109.4184504,8416198000.0,8564351502.239975,335683000.0,373310409.19667906,296441000.0,313965267.0942,632124000.0,673120189.8307139,90949000.0,66715428.29625924,201199000.0,211233394.5586928,134484000.0,121912541.30415164
1214,941,2,1059300000.0,706398902.639905,513000000.0,543006127.7462683,545000000.0,-288803789.892817,132000000.0,151825690.01156968,172700000.0,180460412.8521949,304700000.0,311456208.364834,34700000.0,44648333.49270503,88200000.0,86907951.42100777,43800000.0,51883709.33223159
454,977,1,11204065000.0,10195179266.552216,4242197120.938668,3722801660.150554,3489373000.0,2794615437.653961,480702000.0,504358891.54645956,457696000.0,478717503.77246076,938398000.0,940311368.5957019,172392000.0,151676065.69977236,308310000.0,343382244.5586928,172392000.0,148415009.83658457
1392,303,0,531121000.0,664977981.808458,248900000.0,370395025.5749987,282221000.0,332340595.4759841,62379000.0,72366808.70912091,135419000.0,147425280.89924636,197798000.0,222185977.79707795,18703000.0,18090730.392041873,43698000.0,56384318.39951556,18681000.0,19093591.498514816
1519,1560,3,961035000.0,-5587797.384464741,1381722000.0,1044159930.6817563,-420687000.0,-610032324.6706226,271111000.0,274215700.63419396,201537000.0,200925767.32835495,472648000.0,469430102.94090205,5387000.0,18955467.91890987,265724000.0,262631548.2950105,5387000.0,16362228.63108481
1060,1032,1,3194462000.0,3077510041.756446,1643299000.0,1478104918.5909722,1512215000.0,1441335339.6910589,817744000.0,818142014.9485123,0.0,-10494175.224411799,817744000.0,807048503.4084494,37900000.0,49285469.48970938,779844000.0,764826044.5586928,37900000.0,41335979.576652125
1100,1277,1,6042273.0,-146802080.01064873,3627261.0,-49930684.658218004,2415012.0,-61923406.49258719,0.0,5156088.764083317,0.0,-2012020.7500791242,0.0,-7054475.689810845,-1829562.0,-5068511.928217232,1829562.0,3806301.8537408235,-1829562.0,-2431457.57643754
203,261,2,76266906.0,-315989707.2261083,57438990.0,-30258129.2484169,40912361.81482647,-723710750.2165557,9146097.0,22601026.41537612,0.0,260412.85219491998,9146097.0,5022989.286261184,-2633902.0,2205254.112871156,11779999.0,13432353.057073569,-2633902.0,-253794.61776839523
1493,405,3,-3532973000.0,557088509.1930313,-2747133000.0,849575968.576041,-773571000.0,78161069.4237647,87737000.0,108754745.81779878,40236000.0,373178280.0093159,103187000.0,475880663.27781427,7123000.0,1833062.4582680478,80614000.0,144967830.3656396,7123000.0,468178.6310848389
543,9,3,846734000.0,-105250616.26324368,635659000.0,-105093406.30846381,69332000.0,-109935392.17554185,204774000.0,357599700.63419396,-13024000.0,-310196186.71880704,191750000.0,-3275792.3506382145,-52860000.0,-122750893.4032548,257634000.0,565237981.1754743,-52860000.0,-124714454.07515469
1966,415,3,1354514000.0,233972720.34129643,675720000.0,259835045.16298413,319291000.0,22429293.129495263,-16558000.0,-3845299.365806043,64132000.0,65319569.45126372,47574000.0,52252553.93298602,22229000.0,22670107.365926832,13428000.0,16852958.10800553,-29986000.0,-25267654.07515449
1802,888,0,270533000.0,173910092.11508968,240046000.0,222940671.9666068,30487000.0,77677864.2425766,26052000.0,32652224.140835386,12454000.0,23671076.501061954,38506000.0,59075995.201667234,-21038000.0,-11107719.60795812,47090000.0,46815240.92725098,-21038000.0,-10316058.501485182
1372,500,3,583783000.0,-440551958.53468084,717382000.0,301808760.04240227,-133599000.0,-324864693.39193857,41865000.0,43838700.63419396,32703000.0,28761945.492648676,74568000.0,58548738.101694286,-32006000.0,-41698769.88253715,48224000.0,46924490.510566,-6359000.0,-12932121.36891519
1325,678,0,534446.0,-36003197.24905318,9794849.0,-16995116.293219514,-9132038.0,12687048.92073445,6264.0,2057817.6929518878,3881.0,2282123.5046270834,10145.0,11240463.946510885,-961868.0,73439.20801197854,972013.0,5237142.927250984,-965749.0,1427047.6985148164
1504,581,2,106308000.0,-238220183.14062858,29369000.0,-45124091.576101184,76939000.0,-634531845.3975353,15630000.0,26589290.962693587,0.0,260412.85219491998,15630000.0,10680408.364834026,-23899000.0,-3625966.507294952,39529000.0,24679153.317157894,-23899000.0,-5953690.667768395
1347,435,3,369031000.0,-585710549.9699371,216722530.1814524,-95052639.27485427,188777000.0,-18306715.27445829,45044000.0,62944745.81779878,42173000.0,51792802.58725475,87217000.0,102008092.45568146,-3804000.0,7321528.587063039,48848000.0,54430558.335963376,-3804000.0,4742128.631084813
1492,360,3,327784000.0,-710911854.6667433,323919000.0,-96348281.5617311,3865000.0,-152152337.2410587,33496000.0,39308700.63419396,8201000.0,9913080.009315938,41697000.0,36584660.852120236,-4913000.0,-11101326.713270785,37287000.0,39129548.05752572,-3791000.0,-5286921.368915187
1107,1471,2,85658000000.0,88144301151.36845,88335000000.0,91757656999.04521,-2772000000.0,-2708504563.6983433,5387000000.0,5030247889.764673,14002000000.0,12904860412.852196,16935000000.0,15608504761.5,1165000000.0,1118845872.1294773,4222000000.0,4015403321.570863,1165000000.0,1098898709.3322313
1336,16,4,898860000.0,1019695406.8840175,527877640.3036609,592676758.5915647,360528000.0,391983403.77980924,68259000.0,88407414.8085244,42065000.0,45937846.913351856,110324000.0,124546140.88555838,-1325000.0,7386287.452852758,69584000.0,73399417.96107103,-1325000.0,7261321.853269244
599,1259,4,50546000.0,13287696.503909826,5959000.0,-46668384.89063424,44587000.0,57778717.13031125,1989000.0,8061175.948814581,1909000.0,-2125119.8456877843,3898000.0,-8011722.132469669,-1895000.0,-3090286.5160834994,3884000.0,6592303.720938427,-1895000.0,-5034746.043437438
117,1466,2,939056000.0,314378962.74603534,419590000.0,282743552.8944455,517473000.0,-385799750.80952215,90527000.0,121995690.01156966,120216000.0,113957812.85219492,210268000.0,217237798.8862612,61012000.0,78690008.77957742,29515000.0,37041732.1773633,61012000.0,76008109.3322316
1825,1105,3,20027115000.0,17684598595.95186,12952737000.0,10225353961.541979,5611108000.0,6446562326.355768,32786000.0,43432700.63419396,283742000.0,265394092.02920252,316528000.0,304659804.4017821,-1347477000.0,-203886404.93276882,1910658000.0,795208073.7484752,-1877872000.0,-763939454.0751545
1507,930,3,124094000.0,-861072861.4965785,18130000.0,-327843237.3161497,105964000.0,-87794985.73563707,830000.0,11628700.634193957,0.0,2851262.601730013,830000.0,1137387.9531366657,-5787000.0,-2812120.2002026504,6617000.0,9329529.960852962,-5787000.0,-3650321.3689151853
321,688,0,68675000.0,117401439.88955212,40331082.646745786,64128150.878560424,53645000.0,96863708.37449062,10938000.0,12840225.012475673,6604000.0,7672925.976852074,17542000.0,29078030.9419216,880000.0,1954149.0361096726,10058000.0,14371598.907990137,880000.0,3262062.684955494
1482,964,4,1833700000.0,1877391085.2631555,811331929.4597701,817168580.6411598,482900000.0,477349154.0641838,110200000.0,124390163.82699886,356000000.0,347770351.3586105,466200000.0,458485741.48626304,45700000.0,56973360.216127016,55600000.0,58254765.65713599,54600000.0,59627274.049082235
508,608,0,62515472.0,21659650.664494723,29595817.732691668,31523154.061235134,21861273.0,75262957.07309273,7032458.0,9954613.034448206,11256239.0,16271215.79095335,18288697.0,30062099.0419216,-1564350.0,-590924.0579581237,8596808.0,12147871.79951556,-1564350.0,829457.6485148163
1411,715,3,33859785.0,-962469745.9455965,6178818.0,-346287804.6698886,27680967.0,-185637236.7951761,-63384.0,10084483.817798778,87873.0,2325987.8146255235,24489.0,355145.3108090885,-2675666.0,1721187.3942736126,2612282.0,4988608.057324786,-2675666.0,238031.8810848114
718,899,4,770792000.0,788014093.9098532,581187000.0,584215298.2333759,188503000.0,170186424.82719612,456709000.0,467754792.7101656,0.0,-1934050.644273581,456709000.0,447094501.0562879,-29756000.0,-27402019.692836136,486465000.0,474448025.2130533,-29756000.0,-27078317.620680913
1865,42,1,4753100000.0,3230144886.331601,2691038000.0,1740500326.8857598,2062062000.0,1533646441.2628555,383135000.0,374183636.1288846,0.0,-5141920.8296791725,383135000.0,365689281.81696737,126771000.0,38839043.54415608,256364000.0,311222755.9037408,126771000.0,31413549.490430303
710,971,2,9330700000.0,6829107587.078503,4987700000.0,3368775509.6657457,4343000000.0,3290151302.4336767,590200000.0,616733983.9414302,367100000.0,387400412.8521949,444000000.0,486644598.88626117,121300000.0,110043333.49270505,468900000.0,492042660.945078,121300000.0,102448228.48594429
285,867,1,1797231000.0,1694580537.492632,1568932000.0,1578385114.166584,228299000.0,27171780.732392818,143030000.0,142818449.7316205,0.0,2497724.2217372824,143030000.0,133484458.96980031,-113543000.0,-127631642.31942125,256573000.0,259891344.5586928,-113543000.0,-132977111.71556278
1609,632,1,90048000.0,40142203.067429304,45436321.63528667,-3369816.752947949,37547000.0,-1906530.7935948372,2482000.0,7638246.151436291,9262000.0,3776912.4016050007,11744000.0,106840.01876092888,1360000.0,-1939294.2064166376,2815000.0,4651505.903740823,-333000.0,-3623061.0667867595
1814,1285,3,190817000.0,-844541094.0174798,91955000.0,-286391878.6177722,118567925.39840196,-96896955.9772658,16838000.0,26487745.81779878,21962000.0,21797966.722211447,38800000.0,37618246.3246629,3292000.0,8064736.748944852,13546000.0,14420463.612120531,3292000.0,6754028.631084813
720,1550,3,24930824.0,-972045822.4669877,6278564.0,-339953350.91152686,18652260.0,-207895073.94109148,7866761.0,15682505.817798778,20382092.0,17773226.20317244,28248853.0,18921724.562002655,1448213.0,5236543.817098015,6418548.0,6641852.764860161,1448213.0,4113313.2310848134
1707,403,0,6071000000.0,5976379620.105177,14261000000.0,14441235833.777294,-8190000000.0,-7926175996.422549,1287000000.0,1288658728.477553,421000000.0,414623892.3287015,1708000000.0,1696420549.8012223,613000000.0,562180221.3093272,1095000000.0,1115640540.927251,192000000.0,154004191.49851483
485,1126,2,5768300000.0,5276814454.972249,3017800000.0,3097990647.991945,2739100000.0,1685963979.4035182,487400000.0,508525690.0115697,888400000.0,874760412.8521949,1375800000.0,1355734598.8862612,276300000.0,277993333.4927049,211100000.0,208662170.36687827,276300000.0,279588709.3322315
1364,820,3,3486179000.0,2686719802.782901,1927467000.0,1510286985.5429816,1501742000.0,1388576695.0573025,315111000.0,339508745.8177988,669472000.0,662904923.011158,949217000.0,953960018.5520931,-24190000.0,133326588.18627839,194277000.0,194618586.33065078,120834000.0,132973095.92484552
1943,1443,0,496042000.0,591147071.5323298,349488000.0,453593172.0538682,146554000.0,214451977.19938618,33924000.0,42043272.807550944,212763000.0,228525614.83104122,246687000.0,272887577.79707795,12448000.0,16355930.39204187,21476000.0,25829990.927250985,12448000.0,17832891.498514812
708,1395,3,1713800000.0,751990023.7499791,864747334.9608463,529302822.74839854,585500000.0,390772022.33270085,141400000.0,133970700.63419396,205900000.0,204631892.02920252,347300000.0,327002053.95740193,100200000.0,86135778.58706304,64600000.0,63982187.60048595,76800000.0,62718195.92484551
1795,402,1,5817000.0,-131414683.28372836,1413000.0,-34388428.11020845,5436000.0,-55346216.66217947,5000.0,4695571.91290841,0.0,-2980247.7516383817,5000.0,-9884308.771816175,-3525000.0,-4316027.788408722,3530000.0,4428294.558692798,-3525000.0,-4257046.226350727
1196,399,4,4180537.0,-55987293.73319554,13379601.0,-12317870.304930508,-9199064.0,-47731452.231392756,1107842.0,7508293.54361824,974711.0,-760123.0098841055,2069845.0,941872.1380810943,-2577294.0,-411156.7483185427,3685136.0,5989252.805136366,-2577294.0,-3664309.3601286113
1785,1101,2,6656000000.0,6535009701.956812,2127000000.0,2161335921.2353415,4529000000.0,3817812246.3719606,386000000.0,414233983.94143015,110000000.0,102760412.85219492,496000000.0,498504598.88626117,-53000000.0,-56360351.435392864,439000000.0,473343184.1276146,-53000000.0,-61051290.66776838
1117,258,0,191593000.0,179472904.762547,250675000.0,246481696.44428313,89973054.63642293,134197480.49436454,28173000.0,24472516.431090027,35245000.0,43243114.77832049,63418000.0,71982068.46308902,-6852000.0,-13212219.607958123,35025000.0,40599440.92725098,-6852000.0,-11592861.612087958
611,576,2,69753000.0,-275552136.1722064,24624000.0,62811373.87823892,45129000.0,-768821799.6365821,4333000.0,14031584.892554095,3937000.0,6690412.85219492,8270000.0,3724208.3648340255,-17948000.0,-20911166.507294953,22281000.0,29322603.317157894,-17948000.0,-23517190.667768396
1037,1217,1,12798100000.0,13401725097.14894,7698700000.0,8633026547.918688,5099400000.0,4809508809.7537365,578600000.0,597461944.80439,1141600000.0,1149439385.749595,1720200000.0,1749137019.8397992,210200000.0,121328868.52945362,368400000.0,363954494.5586928,210200000.0,223737617.34341
1049,72,1,41718000.0,-43128203.58136201,16883000.0,-28921592.943719983,24835000.0,-10067892.821490288,4472000.0,10064479.313992077,-7000.0,893832.3003281401,4465000.0,-4790305.9304973055,467000.0,996919.07967948,4005000.0,6293094.558692798,467000.0,-7837944.675556058
181,703,0,2175066000.0,2089919562.1135511,720018000.0,515653732.358604,1455048000.0,1573377877.4982862,262895000.0,262966517.53906083,0.0,4375061.431440512,262895000.0,268517485.5456363,-74357000.0,-43297069.607958116,337252000.0,303427290.927251,-74357000.0,-43382108.50148518
1530,350,3,432444000.0,-557954163.44431,58115000.0,-292750062.27216196,374329000.0,198758491.92317474,30953000.0,39995700.63419396,9019000.0,12144161.995586518,39972000.0,41258143.95889829,-4508000.0,-2506220.6106438963,35461000.0,37021444.76578157,-4508000.0,-3246121.3689151853
1172,1288,0,1951144000.0,2167697728.517,976648000.0,1062561419.2573347,828149000.0,1012018701.4846342,81471000.0,27618055.83320851,811299000.0,858169119.5763271,892770000.0,878617310.343805,21174000.0,-45907769.60795812,35340000.0,36852690.92725098,46131000.0,-11761708.501485188
1844,591,2,5184000.0,-383260538.4061625,33317000.0,-93996575.24321783,2568262.933576247,-760479657.6338407,28000.0,12748138.345236631,1138000.0,1051012.85219492,1166000.0,-4361101.113738816,-1174000.0,2824321.512600629,1202000.0,3830314.1509438558,-1174000.0,269209.3322316045
937,1025,3,30042800000.0,27627901542.20054,15158963259.867964,14082185776.890581,10331300000.0,9757824002.992352,1541600000.0,1511470700.634194,2284300000.0,2226154135.826849,3825900000.0,3729806373.70629,727800000.0,694136212.5049913,402100000.0,392576531.36501974,1139500000.0,1094108195.9248452
1319,64,4,3143366000.0,3069245391.728717,724791000.0,746094541.2785039,1686216654.8151803,1731262493.7726026,293240000.0,168393386.6802833,0.0,-3758397.4833844574,293240000.0,159647835.95666668,242794000.0,114519898.0138278,50446000.0,51399253.84133393,242794000.0,111732453.27928057
785,477,1,2558318838.0,2448886046.9766264,289865031.0,297156750.6395957,2268453807.0,2123274602.1033056,191440633.0,199646818.2866302,384407857.0,384731661.2680462,575848490.0,566067966.8321326,122416529.0,119674599.93960279,69024104.0,66810167.30869279,122416529.0,115511654.88548833
534,1553,0,355784000.0,473283027.02571535,359982000.0,359470747.8840433,21035000.0,151411758.0994259,21274000.0,23746862.66424116,23247000.0,28260280.141389474,43857000.0,56691630.9419216,-2501000.0,-3016769.6079581236,23775000.0,31998818.39951556,-2501000.0,-2289808.501485184
1073,476,2,107571000000.0,104090177709.93771,49865975585.04998,48265424917.15753,57705024414.95002,55888211807.82227,4680000000.0,4240400584.8925543,16059000000.0,14536841330.13221,20739000000.0,18777536208.364834,2233000000.0,1908905247.4163496,234000000.0,249619044.54651225,4446000000.0,1995848709.332234
871,1269,4,357016000.0,423687015.0953777,134021000.0,159236097.79035872,222995000.0,231875523.86469197,10859000.0,13934896.618307635,60424000.0,52442898.87931143,71283000.0,53817730.7239257,4410000.0,891085.1800609156,6449000.0,9481325.213053307,4410000.0,-1147569.7740969053
145,789,4,10492900000.0,10860119616.943419,4642648635.342979,4829122749.440163,7724300000.0,7295716078.665756,1077000000.0,1233831857.3200452,2546000000.0,2691307509.557904,3623000000.0,3914751542.5109296,389500000.0,512957896.028384,626900000.0,650508421.2429235,450100000.0,566564573.7037431
1137,1457,1,221167000.0,230866031.089777,272405000.0,173458679.82413167,-51238000.0,-57784947.2712643,26384000.0,28001344.482722998,0.0,-6955477.728673089,26384000.0,17768536.36903521,3123000.0,-8276330.467503664,23261000.0,32144744.558692798,3123000.0,-6755119.925936683
1853,892,1,644700000.0,656149023.4143312,668700000.0,771631796.4858521,-24000000.0,-101886987.74413659,11300000.0,35081374.34704129,30400000.0,55993804.659092344,40500000.0,36735111.2257987,-2900000.0,8867456.342564998,9300000.0,10084494.558692798,2000000.0,11577427.558535079
1607,1187,1,5733000000.0,5469381591.793111,4386600000.0,4166112449.8649497,1332700000.0,1136135217.5703428,508800000.0,512635119.0994155,1740100000.0,1725142486.9032927,2248900000.0,2224097120.31973,201100000.0,189169660.47559735,328200000.0,329562255.9037408,180600000.0,164391275.21058467
497,794,4,3187469000.0,3063530885.4039326,1581882073.387936,1540097298.5389688,1402929000.0,1304978449.9416726,12023000.0,158551.13020314835,118303000.0,121175809.55790359,130326000.0,112843775.53560124,121116000.0,91063309.97017829,236940000.0,241379165.657136,-224917000.0,-240027411.1161312
1789,378,0,160962000.0,169185335.706141,136871000.0,201216427.22511834,14091000.0,41814195.90603258,33234000.0,36104376.20955147,28516000.0,35571183.06414321,61750000.0,78707230.9419216,-4105000.0,-10176569.607958123,29699000.0,40828238.39951556,3535000.0,2120106.4985148134
1733,1536,2,1070082000.0,643914428.2835262,790095000.0,738813129.60582,279987000.0,-539579831.3254278,59499000.0,71447290.96269359,92514000.0,86973612.85219492,152013000.0,141755308.364834,-6147000.0,-4118316.507294951,65646000.0,68497345.65256251,-6147000.0,-5999240.667768395
1735,1438,0,55335000.0,70078191.80033484,11648000.0,18884728.214186862,43687000.0,61409381.378997445,13874000.0,15457892.679515626,0.0,3695793.6647798503,13874000.0,23527148.346510887,364000.0,274630.3920418796,13510000.0,16941190.927250985,364000.0,1658541.4985148164
1273,234,4,8855100000.0,7259979837.690436,4468096700.788768,3701224822.26201,3543300000.0,3121283208.5541887,468100000.0,432383242.64687896,2041800000.0,1967155473.7403076,2509900000.0,2382557777.3443604,256500000.0,199917030.4209841,211600000.0,190511725.21305332,256500000.0,209204286.9572337
226,900,3,1045317000.0,96873819.2972641,491551000.0,152212361.31987178,553766000.0,351553212.9295472,49476000.0,56891700.63419396,27012000.0,29879212.622882158,76488000.0,76498005.76475666,5569000.0,5849334.458146152,43907000.0,47367626.011634685,5569000.0,4385195.924845511
856,950,3,3335011000.0,2110832556.4289498,1532336000.0,1176924430.8089602,1376443773.6613572,1086539815.534556,158805000.0,152048745.8177988,458734000.0,494796787.472354,617539000.0,638640668.1877365,82276000.0,61298377.99029213,26748000.0,31146468.073583335,132057000.0,110921145.92484552
610,1027,1,50788000000.0,49517629353.72127,23543456582.29001,22848126923.719475,11845000000.0,11793319829.088444,1286000000.0,1340002085.080816,484000000.0,478464592.17094743,1770000000.0,1761142654.266813,994000000.0,982795303.2279334,146000000.0,164137255.90374082,1140000000.0,1074521496.9927785
434,784,4,9209798000.0,9487994153.860466,3242862000.0,3582821685.8603497,3654836000.0,3236608204.066265,758604000.0,631841744.9204507,-63000.0,-1351265.827764295,758541000.0,622981447.5670861,306700000.0,203340999.5082114,451904000.0,416728125.2130533,306700000.0,196402775.30879375
1765,676,2,3861516000.0,3975937497.4986153,3060094000.0,2735529316.240445,801422000.0,566364551.6022499,246503000.0,377440902.89958954,543454000.0,496820312.8521949,789957000.0,832432698.8862612,-286586000.0,-164375816.50729495,130761000.0,147248723.8324997,115742000.0,194791759.33223155
667,1311,2,3117800000.0,3455282120.37801,2444800000.0,2544299474.362619,673000000.0,418229443.8065605,86700000.0,140992290.96269357,411500000.0,541180412.8521949,498200000.0,663684598.8862612,-419900000.0,29762708.779577415,63400000.0,73123671.93634957,23300000.0,60018228.48594427
1194,1323,0,84073.0,-35134473.46482879,2814055.0,-1235312.5936418474,-2729982.0,-24936578.353576392,0.0,1298836.201636673,0.0,1227039.8612915794,0.0,13422509.856491022,-647078.0,271520.95801197947,647078.0,4837944.777250984,-647078.0,1998032.087912043
626,969,4,250689000.0,268068636.01670814,83024000.0,60753557.47739613,167665000.0,177551128.27928877,0.0,5868795.75591971,33193000.0,28143872.205548853,33193000.0,19943399.801738355,-43672000.0,-43532194.641465686,43672000.0,42842075.21305331,-43672000.0,-44261976.87080668
1654,675,3,2267553000.0,1290061860.858747,1375272000.0,1070189134.0301703,519294000.0,370904628.42770076,30179000.0,35752745.81779878,36686000.0,45415389.90629376,66865000.0,82534326.12852518,-15417000.0,2330517.91890991,38864000.0,37110555.26054756,-8685000.0,2045695.9248455446
288,444,4,2221575000.0,2186629483.624809,1034139000.0,1056249697.2895691,1187436000.0,1131258254.931519,131964000.0,141083086.08662555,106311000.0,108439995.27816303,188755000.0,184126467.27558118,3712000.0,-5742470.632407464,128252000.0,132914187.02885537,3712000.0,-209869.26510113804
1665,633,0,555271000.0,678042292.2015964,273881000.0,391701743.51552564,281390000.0,330157638.55894995,77610000.0,74913395.01888666,73228000.0,82125931.18868,150838000.0,158992695.20166725,6400000.0,-46024169.60795812,144438000.0,204458768.39951557,-66828000.0,-125339608.50148518
652,1061,2,1810200000.0,1360251974.1943023,1334200000.0,1234835445.2633958,472000000.0,-346698778.50319314,111400000.0,-284307709.0373064,439000000.0,827790412.8521949,550400000.0,565624598.8862612,53300000.0,58238478.010346666,43800000.0,45978083.241075054,67600000.0,-213871534.5702074
1078,508,0,339972000.0,153811497.05282775,145992000.0,120537702.29464167,193980000.0,159709620.6993063,800000.0,8130549.337564258,85000.0,7732350.009389605,885000.0,17756753.15603687,-35502000.0,-41275844.94198802,45899000.0,63763918.39951556,-45099000.0,-49900958.501485184
778,4,2,992330000.0,483705192.9356873,401273000.0,266907123.42213702,544681000.0,-259790413.7432148,417282000.0,426187902.89958954,0.0,260412.85219491998,417282000.0,401110398.88626117,5536000.0,10488433.49270504,411746000.0,399001464.896207,5536000.0,8210309.3322316
29,1129,4,600271000.0,617393050.1605215,137438000.0,180763381.80362993,462833000.0,438867412.51336336,73869000.0,81530840.62901929,24421000.0,20465378.283671588,98290000.0,88754228.14260599,-8089000.0,-6152891.819291908,81958000.0,82489153.84133394,-8089000.0,-7127868.719932276
854,1361,2,47193000.0,-320860698.73338485,31000000.0,-35713309.8549965,16193000.0,-731251930.4002194,4954000.0,16810290.962693587,3898000.0,4160612.85219492,8852000.0,3170898.886261184,-615000.0,2270021.5126006296,5569000.0,7991429.0525657255,-615000.0,-148090.6677683955
1423,1432,1,150549000.0,285984670.33709383,163792000.0,158103366.77231324,16674000.0,17771480.83107782,28323000.0,15053282.84861533,6429000.0,3665997.597100146,34752000.0,10677555.092164312,-13758000.0,-57677788.74887494,21733000.0,27378594.558692798,6590000.0,-20997443.708979517
1406,626,2,62996000.0,-330046344.24550605,12638000.0,-67931341.01992142,50358000.0,-709323964.8029714,9919000.0,21685290.962693587,5920000.0,6353612.85219492,13543000.0,8327098.886261184,1979000.0,5734871.512600629,7940000.0,9428832.177363303,1979000.0,3347059.332231604
1624,39,4,56415000000.0,58869726624.38,26707757359.48695,27915890234.36762,20622000000.0,20775718891.348946,4258000000.0,4233157667.9247155,2744000000.0,2767141773.0066237,7002000000.0,7006416384.208467,471000000.0,521000932.485794,1302000000.0,1264927390.7711544,2956000000.0,2977308451.7183647
926,747,1,572995000.0,603113572.4134407,271264937.13018215,126970049.39558199,210105000.0,166274380.9316163,-46109000.0,237426047.26917833,111142000.0,94998059.66529945,65033000.0,303353167.39935076,53448000.0,46148486.77301623,184993000.0,179409705.90374082,-231102000.0,-977720.3422845211
1324,523,0,11156646.0,-50071834.28453578,14063458.0,-7588271.501831979,-2906812.0,16011996.964027785,-483256.0,2042147.6790772676,692752.0,2299696.8739319667,209496.0,11291729.246510886,-2378023.0,-2793046.9919880214,1407493.0,5546730.277250985,-1890749.0,589375.3985148163
809,1220,3,746651000.0,-141449210.91486073,563281000.0,184049356.52354193,350347808.70326334,158116826.38947034,20268000.0,26490745.81779878,132273000.0,194255559.9492386,152541000.0,212025189.72392172,1482000.0,2042271.6921465937,18377000.0,22111521.784864046,1891000.0,1256578.6310848156
492,1190,3,203605000.0,-796898222.4511304,164863000.0,-164472490.3338182,38742000.0,-149913322.41394353,38308000.0,49664700.63419396,13284000.0,14772062.601730013,51592000.0,53855189.72392171,8585000.0,8902550.076133039,22801000.0,26416828.209187385,15507000.0,17600028.631084815
383,92,1,35610551.0,38473819.73668718,44852933.0,12722386.85455978,-9242382.0,-19284809.71509504,3037874.0,8427834.116828961,5691278.0,4652255.040814592,8729152.0,3765735.653531947,-7028283.0,-10068911.758271284,15757435.0,18464015.80374082,-12719561.0,-17891661.95043961
1250,1564,4,4596600000.0,5277912354.657986,2319347415.031524,2624177421.7583275,3466600000.0,3564517534.164323,2555100000.0,1714110443.6831253,3033000000.0,2113685490.022932,5588100000.0,3915576567.5111413,1174900000.0,725664438.8495353,1380200000.0,960336725.2130533,1174900000.0,740275976.191842
229,23,1,3802385000.0,4069910822.254781,2636965000.0,2746873522.7606273,1165420000.0,1123998669.7584877,157645000.0,143729392.7720366,488142000.0,453207288.08286184,645787000.0,592717331.0193334,66824000.0,40954395.01707225,83253000.0,83866805.90374082,74392000.0,48003926.306605674
1531,1500,3,12852000.0,-969246269.632768,5815000.0,-333732119.58904946,7037000.0,-205952886.80835307,1838000.0,12417745.817798778,1427000.0,4612479.403172441,400000.0,4802945.282514784,-1116000.0,2594655.524748761,2954000.0,5379846.675714426,-1116000.0,1492428.6310848128
1035,1501,2,11747000000.0,12375254490.648853,7158000000.0,7259474400.313859,4503000000.0,4186457200.927964,770000000.0,780325690.0115696,1424000000.0,1459183441.9896626,2194000000.0,2218936208.364834,154000000.0,219899023.85147867,2040000000.0,2230873001.426946,-1270000000.0,-1232951290.6677687
1774,999,4,7236206.0,-1279505.0881619453,4913744.0,27457353.909898758,2190428.0,-31882000.911827065,634746.0,5034040.929077353,2326079.0,-646776.3703857772,2960825.0,-6096910.48031771,-234151.0,812625.3741675521,886442.0,3537649.155136365,-251696.0,-1963428.304380287
868,173,0,6411000000.0,6817354059.514048,3370100000.0,4054857649.007215,3176144611.7201624,3335749984.3422,371800000.0,405733295.9834402,637000000.0,695252756.9984628,1008800000.0,1092437601.0098162,180100000.0,200773576.7328305,166200000.0,171580540.92725098,205600000.0,229984988.387912
1391,87,1,345836000.0,292353733.1485081,48837000.0,17512744.42044854,296999000.0,239292560.77486944,3870000.0,-2135760.213045528,113328000.0,85049600.1738033,116752000.0,80300467.33167852,297000.0,-5500562.425931578,3573000.0,5065144.558692798,297000.0,-12597444.759019816
1734,908,0,20108000.0,23252859.48527658,9068000.0,13662446.780772492,11040000.0,8845419.798979346,3847000.0,4691237.262348479,661000.0,3983780.873166959,4508000.0,14940095.201667236,-4126000.0,-4266844.941988019,7973000.0,12120790.927250983,-4126000.0,-2793558.501485183
1416,557,1,1564856000.0,1574231635.1542284,1122858000.0,1057976574.970182,416354000.0,383876188.0190866,276207000.0,277478028.8531363,-11227000.0,-9206176.159783412,264980000.0,250343826.0216262,5657000.0,2135608.017799925,270550000.0,263404444.5586928,5657000.0,-2825132.091380351
352,965,3,1125373000.0,561942787.1817163,521681703.6382896,362189015.50623184,29987000.0,-231928198.48731068,142411000.0,136151700.63419396,-42080000.0,-43201546.733282275,100331000.0,94898371.2902211,17283000.0,13563778.587063096,125128000.0,128479881.34333374,17283000.0,11233295.924845548
135,107,1,630871000.0,633592331.7600267,398464000.0,333886796.8982909,232407000.0,173676014.65380073,80823000.0,66850475.75507061,413091000.0,281595375.46391153,493914000.0,327066999.6556796,-14453000.0,-2440944.9596528225,95276000.0,63212744.5586928,-14453000.0,-3143962.3536620634
1338,943,0,123668000.0,93504038.98136464,40963000.0,75129922.23593798,50285000.0,94359012.03964426,29188000.0,36429322.1816127,11108000.0,18086867.714951254,40296000.0,58343648.34651089,-25553000.0,-10500719.60795813,35508000.0,34507290.92725098,-6320000.0,5966891.498514812
1076,247,1,34865437.0,-76342125.57419229,19085704.0,8516720.669291437,15779733.0,-24875397.602335926,0.0,6013333.844857667,1198.0,-4514784.943366107,1198.0,3705616.1298418697,-6520186.0,-8175107.741473164,6520186.0,8165666.558692798,-6520186.0,-10418777.9602134
1426,223,0,1275550000.0,1223210490.5753984,1504271000.0,1393043099.264056,-228721000.0,-67003688.589235276,-35238000.0,-32875190.755831704,59168000.0,53842630.33476545,23930000.0,34871870.56062615,6621000.0,14683060.090354525,102745000.0,95371968.39951555,-137983000.0,-97527158.50148515
2023,1260,3,151712000.0,-895866659.1946688,195428000.0,-234372912.0355879,28605000.0,-203124186.09041786,11588000.0,14923745.817798778,43977000.0,33543627.35019108,55565000.0,37075469.49876322,-8864000.0,-6545170.20020265,20452000.0,17515781.154039804,-8864000.0,-7794071.368915185
1219,351,2,1812825000.0,1560814888.5722492,1134969000.0,1108455760.7601185,677856000.0,-14142452.361664414,53184000.0,73462290.96269359,120142000.0,127572812.85219492,173326000.0,184588508.364834,31929000.0,32023108.779577434,16945000.0,23814852.692705113,36239000.0,38125259.3322316
201,868,0,-1450776000.0,673658207.9692817,-894261000.0,416963501.2659114,-556515000.0,321562906.26751095,162740000.0,170539315.79317328,213058000.0,325070149.6535738,375798000.0,573977690.5333525,-31210000.0,-43345419.60795818,193950000.0,337525268.3995156,-31210000.0,-37556361.612087995
580,455,3,526507000.0,-503575334.3532537,370554000.0,22537047.60704142,155953000.0,-64621550.9540983,66328000.0,76140745.81779878,107226000.0,115393047.2682776,173554000.0,179180637.62753102,-7923000.0,-776765.5418538521,69543000.0,72858884.08055125,-3215000.0,964378.631084811
268,550,3,3089123000.0,1629258156.5247293,1300561000.0,818210596.1175054,1788562000.0,1311796734.597968,286131000.0,319412745.8177988,850247000.0,840177592.0292026,1136378000.0,1150967376.4450643,205227000.0,213895026.0265606,1010678000.0,995871655.2367917,-724547000.0,-674716904.0751545
484,1474,4,2026392000.0,1729872339.59181,773709000.0,454081935.14947027,1259138837.126244,1336376162.631133,36270000.0,48331730.21678963,906000.0,1257191.9343057587,37176000.0,50245817.050664686,-286393000.0,-221194418.82306525,341823000.0,337574487.0288554,-305553000.0,-256631938.75382474
1169,319,4,59798486.0,25610920.744036674,24561228.0,-11490926.360540092,24680354.49630476,-17966208.919752467,-143441.0,4664475.9415537985,231837.0,-3260051.326135259,88396.0,-6051492.092962397,-6239976.0,-5690022.5257562,6096535.0,8737627.770938426,-6239976.0,-9701849.243552433
595,1472,1,269960000.0,239723952.81235862,370356000.0,395327437.04386914,-100396000.0,-134931727.4989984,29296000.0,33884536.78753835,911000.0,-6668571.869939841,30207000.0,19427602.63463066,-31260000.0,-33559817.405526295,67269000.0,69288544.5586928,-37973000.0,-45786079.11824295
1664,644,4,1411497000.0,1491022147.518129,713457000.0,803457234.0558637,667698000.0,636576312.9723493,123110000.0,127046188.73507495,21917000.0,21059455.999962937,145027000.0,134246921.5601295,16171000.0,11315682.027188186,124278000.0,123422575.2130533,-1168000.0,-5822117.861647681
1737,775,3,1068388000.0,40361764.96249473,793168000.0,306755719.7010567,275220000.0,94283778.40527895,1125000.0,40505700.63419396,126961000.0,82405359.94923858,114574000.0,95863037.62753102,-123332000.0,-76520805.70299289,124457000.0,112364308.51753663,-123332000.0,-77483504.07515448
1105,1008,0,736494000.0,730038272.1498383,390655000.0,423450159.65948606,345839000.0,379466858.23650014,107458000.0,104722060.73384516,77264000.0,82235998.32692194,184722000.0,189400485.5456363,-21496000.0,-32147969.60795812,128954000.0,135292490.92725098,-21496000.0,-28819508.501485184
366,1418,0,1026034000.0,1159453360.8832898,544592518.5648394,604127890.6191,829659000.0,828869696.3127475,179923000.0,191203021.89210057,-1664000.0,5265267.874752202,178259000.0,194549827.74839428,43073000.0,47576210.09035452,136850000.0,143389568.39951557,43073000.0,48845991.49851481
847,803,0,2995900000.0,3185558595.2041674,1720300000.0,1908777577.3330085,1275600000.0,1294690651.5331883,234800000.0,225838994.72441143,244100000.0,246582874.55779064,478900000.0,476598669.93523586,25200000.0,41022230.39204189,209600000.0,204489568.39951557,25200000.0,38858988.38791205
1604,1535,3,700529000.0,-245130708.03057575,363632000.0,34276586.57811439,335762000.0,172000512.9851091,46249000.0,53526700.63419396,72678000.0,69377842.54165266,118927000.0,111902900.05398612,-13197000.0,-21233407.434203096,59446000.0,71411393.59039627,-13197000.0,-23311021.368915185
579,1274,4,5913288000.0,6788930508.364696,5639252000.0,6316267198.048567,274036000.0,639627637.1341299,470311000.0,488026240.753865,1040995000.0,968006072.2853063,1511306000.0,1453300597.76615,65962000.0,65595673.37527283,404349000.0,416560387.0288554,65962000.0,65727517.784452096
874,1085,3,232365000.0,-792940619.669155,164743000.0,-189389699.20565438,67622000.0,-127881343.19137347,43176000.0,38871700.63419396,202053000.0,144416480.00931594,245229000.0,170921477.7212942,9035000.0,9650236.748944853,31930000.0,24077572.736105334,11246000.0,9900378.631084815
193,58,0,24556000.0,-28179180.126074642,5997000.0,24202541.811489254,18559000.0,15345353.704195976,-561000.0,2182566.6093830084,1648000.0,3824637.723890174,1087000.0,12757539.012521954,-8770000.0,-4155294.9419880235,3225000.0,6478540.927250984,-3786000.0,286688.3879120415
680,575,3,7852974.0,-977327351.2167048,8726749.0,-329563901.21155226,-873775.0,-213767838.33191347,1562860.0,11243113.817798778,0.0,2393779.403172441,1562860.0,1189705.0355478097,-1603437.0,1557325.196215306,3166297.0,4363057.141915502,-1603437.0,1012945.7310848129
702,290,3,52606000.0,-944458616.8583212,31088000.0,-307653453.5930592,21518000.0,-197133259.03327203,2202000.0,11144745.817798778,21569000.0,19233598.93366714,23771000.0,18873890.13534157,-1737000.0,1504306.5967455432,2889000.0,5088799.638352361,-687000.0,828278.6310848123
499,1102,1,641605000.0,592334856.423703,98505000.0,35419093.08728725,543100000.0,498824260.2102301,35752000.0,48014123.43572591,3063000.0,-587967.9910615403,38815000.0,37402544.41033209,-5995000.0,-3298431.2956866296,24767000.0,31041994.558692794,10985000.0,8858368.730372965
277,132,1,428119000.0,619011649.9609828,200385000.0,283328201.9516913,227734000.0,290503194.34924126,32734000.0,41380971.28045093,3693000.0,-3075385.6891593765,36427000.0,34167700.53065635,-31432000.0,-41167314.31904039,67859000.0,86832694.5586928,-35125000.0,-50514635.33801536
1540,286,2,1748597000.0,1358667763.799149,773677579.6790999,666981550.9602083,871968000.0,51218148.739984274,88936000.0,101288983.94143018,314131000.0,313351612.8521949,403067000.0,396319598.88626117,36520000.0,40043358.779577434,38806000.0,42289835.411548786,50130000.0,51803159.33223159
40,143,0,-12646800000.0,-11860944693.111715,-10176700000.0,-9100142862.60065,-2456100000.0,-1181986932.935786,244400000.0,270965662.52269435,496400000.0,472520626.2223747,740800000.0,748963310.343805,16300000.0,-104662769.60795806,228100000.0,362840540.927251,16300000.0,-108085808.50148515
109,1566,2,1646711000.0,1413925572.409407,1388441000.0,1322701852.6637073,258270000.0,-329726857.2749231,48094000.0,58493290.96269359,144654000.0,143218112.8521949,147710000.0,141982708.364834,-42502000.0,-53648216.50729494,79586000.0,96372553.3171579,-31492000.0,-42939890.6677684
111,128,0,632540000.0,697748692.8190341,270366000.0,307581342.06747603,362174000.0,501145916.70404637,197077000.0,162379954.79153144,14622000.0,16252107.681170778,211699000.0,173554677.79707795,-57776000.0,-11797802.965482093,97890000.0,97792890.92725098,99187000.0,56708091.498514816
662,375,3,156269000.0,-808847133.2682806,70363000.0,-245984878.61777222,85906000.0,-112403728.6336186,19503000.0,30133745.81779878,30881000.0,35728081.52608121,50384000.0,54704030.74191793,3657000.0,8280936.74894485,15846000.0,16810152.38980239,3657000.0,7435228.631084812
1749,621,2,12875300000.0,13296601177.82252,6095371591.431398,6466273807.319943,1810000000.0,702993610.3739159,1227700000.0,1193992290.9626937,4400600000.0,4498630412.852195,5628300000.0,5680676208.364834,478400000.0,404838333.4927049,749300000.0,770189033.8420775,478400000.0,408223709.3322315
340,1018,0,441781000.0,491508382.2529484,86587000.0,168118771.70929927,355194000.0,358434547.40548676,97393000.0,101116887.22728382,44971000.0,48508476.79805767,142364000.0,150544168.14104703,9954000.0,7038180.392041878,87439000.0,91877340.92725098,9954000.0,8712041.498514816
811,86,2,1903960000.0,1451499613.533638,1118147333.3250542,961034461.5973887,464992000.0,-457027340.60396975,314173000.0,315294915.7783888,381360000.0,364458712.8521949,695533000.0,665929808.3648341,49703000.0,48751483.492705055,262823000.0,258524069.70237458,51350000.0,48819059.3322316
1016,70,3,413017000.0,-782707268.0254917,156380700.0672279,-257459693.74779117,290614000.0,-64221985.722023875,164000.0,9999700.634193957,0.0,2851262.601730013,164000.0,3277288.7988574225,-47612000.0,-44867005.70299288,47776000.0,51553062.40734687,-47612000.0,-46712621.368915185
1696,1024,4,6459000000.0,6752427622.447772,3814000000.0,4029001119.4917192,2645000000.0,2682126893.024331,417000000.0,442747365.5189436,1137000000.0,1166895490.022932,1554000000.0,1597632489.3453667,109000000.0,145490231.12157705,308000000.0,244169765.657136,109000000.0,186541122.3379518
200,118,0,6683800000.0,6678625944.701979,2530688381.1304083,2593030962.5903215,4153111618.869592,4119589225.376951,363300000.0,384464192.73910254,268000000.0,292728300.0482722,631300000.0,672928000.6877741,83300000.0,77995597.0345179,257700000.0,275495540.927251,105600000.0,106479191.49851482
1994,627,1,165094000.0,129586503.38954926,70482000.0,-26950536.49113828,94612000.0,57363346.12204051,17629000.0,21688154.474642802,13074000.0,6340370.775733765,30703000.0,22621558.435643665,1152000.0,-3303988.671090624,16477000.0,18874094.558692798,1152000.0,-4274205.285613772
735,207,1,8604673.0,-39244935.01214862,2338502.0,-28267963.710636914,6266171.0,-23071060.140506506,1119391.0,5097185.534508265,1576117.0,-3312959.753028607,2695508.0,-10863633.442288764,23726.0,-45977.25382397419,1095665.0,3005417.3086927985,23726.0,-1638582.0768073048
1160,1586,0,30395557000.0,28558715397.169434,16133181687.752192,15173473437.560946,6297705000.0,4462239178.854299,3044686000.0,2965532825.2835994,6751495000.0,6384394959.762743,9796181000.0,9363750870.368801,692314000.0,800042641.6110144,2352372000.0,2206805568.3995156,692314000.0,781728101.0339283
2018,200,3,764077821.0,-287795444.9075247,149164973.0,-173417946.4569342,540969385.0,329171847.98597115,20737462.0,30378470.634193957,3810639.0,5836192.551263716,24548101.0,25666739.941917934,-1942729.0,2134889.149797346,26490830.0,27751522.8799973,-5753368.0,-2784452.7689151866
597,335,3,19932000000.0,19117594052.45765,15924000000.0,16206319709.607813,3938000000.0,3403285212.509749,677000000.0,660111745.8177987,2894000000.0,2962244953.645908,3571000000.0,3608030893.525963,325000000.0,337635329.04422784,132000000.0,164167956.840612,545000000.0,493518195.9248454
1089,311,2,114455000.0,-287664160.1420498,66800000.0,1664952.2325484157,47655000.0,-724604485.7404888,-324000.0,12533290.962693585,692000.0,1067912.85219492,368000.0,-3575791.6351659745,-4444000.0,518733.49270504573,6127000.0,7715929.0525657255,-6451000.0,-4136040.667768395
1635,384,4,123009000000.0,107544737679.10086,61047097858.95223,53716389174.31685,24132000000.0,11421807891.340239,3661000000.0,3145554127.1372347,846000000.0,681917942.2741921,4507000000.0,3292801233.659396,401000000.0,853385360.0583705,5487000000.0,4810829487.57367,-1826000000.0,-1467577643.0710096
394,1561,2,1472222000.0,846399252.5379462,444895000.0,277654107.70501506,1027327000.0,140324094.3590727,423804000.0,447574690.0115697,0.0,260412.85219491998,423804000.0,419830098.88626117,44683000.0,52398458.77957742,379121000.0,375923874.7299565,44683000.0,50736759.33223159
176,827,1,1707972000.0,1657998161.8949504,826699000.0,768244486.1745894,881273000.0,815562650.524612,161237000.0,178911170.00614378,18721000.0,8154366.590927858,179958000.0,180564467.88386118,-38330000.0,13209824.548312366,218288000.0,178223494.5586928,-57051000.0,-7772969.271033135
958,1401,2,140348000.0,-244000767.65433025,22627000.0,-49209528.650012314,117721000.0,-611531181.1454494,18849000.0,30045983.941430178,19797000.0,17783812.85219492,38646000.0,30649908.364834026,5179000.0,12067121.512600638,24028000.0,28024114.150943857,-5179000.0,-5626090.667768396
651,759,4,68862000000.0,70922073564.01343,37281000000.0,38271684015.11326,30258000000.0,31255041063.382164,682000000.0,1082503434.4660535,1405000000.0,1103751729.2577045,2087000000.0,1975241569.1022744,938000000.0,1043466469.5365529,2969000000.0,2751623681.9174514,-2287000000.0,-1655934745.8733342
648,821,2,484306000.0,77363410.69096947,160149000.0,82558122.60855722,324110000.0,-444367232.1717949,35935000.0,51204290.96269359,49919000.0,52415112.85219492,85854000.0,86363708.36483403,8224000.0,15485033.492705043,26558000.0,28480782.177363303,9377000.0,13522759.332231602
1124,1533,0,263629355.0,275830806.2495123,139827658.8984726,141868894.973045,106790041.0,194791435.78149694,4718481.0,7448825.304258831,-3354938.0,2254246.5814697198,1363543.0,12414243.301000288,2345966.0,3577147.456324627,2372515.0,6834662.527250985,2345966.0,4339048.998514816
1983,1255,3,22654400000.0,22664501542.20054,10023579681.929111,10121751546.360897,12050300000.0,11854305060.426422,409600000.0,581211745.8177987,3138700000.0,2935474585.664129,3548300000.0,3594511996.157241,145800000.0,457523604.04267275,119900000.0,132071807.09935744,289700000.0,505958195.92484564
1330,697,1,55695000.0,97175652.03619218,80300000.0,73739696.45717049,-24605000.0,-8929759.72245121,-33328000.0,-224320.32275940944,45694000.0,6859867.151590513,12366000.0,-1663999.4014790691,-48025000.0,-23924049.132269286,14697000.0,16859794.558692798,-48025000.0,-23777285.471832342
445,492,1,33248145.0,38745096.81061196,21743057.0,22768755.29031515,11505088.0,-75774865.5967659,1461398.0,7953888.266387774,569502.0,11155742.630531162,2030900.0,87019110.59767817,-12979193.0,-2209680.50171516,15010093.0,4464650.603740823,-13548695.0,-3555714.534990625
908,1499,4,19900000000.0,15636598400.077255,10348000000.0,8620015175.9402,9552000000.0,7720362145.93072,2649000000.0,2525190586.988322,0.0,-1351565.827764295,2649000000.0,2637139025.3484073,467000000.0,622010747.667271,2182000000.0,2011599562.4877503,467000000.0,591097871.257215
1585,1050,3,2485319000.0,1245786273.9451766,1254039550.5762374,764849610.3723744,1849463000.0,1530013012.0319781,775144000.0,704733745.8177987,0.0,2652089.906293757,775144000.0,704330417.0986772,128435000.0,119918783.62455672,646709000.0,580078044.6387112,128435000.0,120211395.9248455
643,1128,0,959084000.0,930900996.9236416,491986000.0,470276945.83061475,395838334.6316486,423498212.9380177,56609000.0,61346908.52705327,47928000.0,57761571.38461372,104537000.0,119670085.8676783,-22287000.0,-19258769.607958123,141301000.0,146045490.92725098,-84692000.0,-82022211.61208797
1240,14,4,1657157000.0,2028118938.7118537,2335507000.0,2758046048.0777755,-678350000.0,-677268414.243344,-96698000.0,237513514.97481626,98929000.0,93244777.97890319,2231000.0,280967407.4129827,-125632000.0,-46065739.12139533,312618000.0,447095815.657136,-409316000.0,-212924421.04051113
64,275,3,1590600000.0,484237418.2613063,748600000.0,337697236.4187218,842000000.0,638808250.3430697,59700000.0,85770700.63419396,141700000.0,152208286.85884964,201400000.0,227513818.57218024,13800000.0,32593534.608893543,37700000.0,39215974.71271604,22000000.0,39769045.92484551
1027,1230,3,919607000.0,-144842641.31414652,266509000.0,-117385927.10507,653098000.0,445329687.7052194,68886000.0,75691700.63419396,19532000.0,20075598.93366714,84131000.0,80152586.75363365,-18050000.0,-16060846.766049929,86936000.0,86037180.74994682,-18050000.0,-16920121.368915185
1034,198,0,121754701.0,401912879.6596628,28424394.0,80394653.87743816,93330307.0,339868952.12694806,1406469.0,6034313.738473431,-1378985.0,2488594.6635962045,27484.0,11881666.612521954,-14928443.0,-210852542.24198794,16334912.0,245272634.27725095,-14928443.0,-236867359.8120879
802,1578,1,12973000000.0,13170719461.344265,6013807636.489885,6009075294.11111,6537000000.0,2964684815.9545984,82000000.0,81404117.7290601,545000000.0,549123236.9535781,627000000.0,791811875.4981554,7000000.0,238815021.5835729,46000000.0,43337255.90374082,36000000.0,137308970.1264184
981,1120,3,613608000.0,-495181165.7297101,391072000.0,25862381.878753424,222536000.0,-25970443.348387897,1437000.0,7437745.817798778,10955000.0,11229492.02920253,12392000.0,8946603.899984922,-84729000.0,-57785148.00580836,40703000.0,40693370.39516773,-39266000.0,-38977921.36891517
1046,343,0,102303000.0,83171155.11336872,104192000.0,117938788.43004419,-1889000.0,35436872.47109282,12811000.0,12552784.743744105,42439000.0,49144749.08852178,55250000.0,65919777.797077954,700000.0,-1829969.607958124,12111000.0,18356218.39951556,700000.0,-554608.5014851838
581,848,0,1023085000.0,1086915129.8413758,937155000.0,989875554.0366683,85930000.0,190361188.82491687,87759000.0,100093696.26622662,257840000.0,232679110.15983874,345599000.0,339902353.15603685,-36941000.0,-36920752.965482086,111965000.0,118317790.92725098,-24206000.0,-18346958.501485173
1033,894,4,822101000.0,438831617.7415931,260505000.0,256999479.92590934,561596000.0,174774558.13644198,113425000.0,88086272.91047141,-8261000.0,-7186207.435031908,105164000.0,67431530.79063353,25956000.0,-17122287.470561378,87469000.0,91471387.02885537,25956000.0,-14374684.732692353
1908,1021,2,972779000.0,980292921.6836696,674585000.0,1060311352.3005407,298194000.0,-503631455.43892646,81122000.0,89970290.96269359,33069000.0,33587012.85219492,114191000.0,106288408.36483403,-12742000.0,-11456216.507294955,93864000.0,96484335.4115488,-12742000.0,-13764740.667768396
1486,183,0,505122000.0,587074719.1976318,329765000.0,410933862.8280395,175357000.0,261254707.6604611,66862000.0,71928820.43121602,-15726000.0,-10821271.708902892,51136000.0,63608968.95615664,-8784000.0,8220280.392041881,75646000.0,63733090.92725098,-8784000.0,9802641.49851482
640,736,2,420505000.0,-86790297.00266123,230508000.0,123135650.16301179,189997000.0,-592225851.3595135,53603000.0,63583902.899589516,71511000.0,70347812.85219492,125114000.0,115769908.36483403,16734000.0,18595833.492705043,36869000.0,37451330.75094065,16734000.0,16758009.332231604
1988,338,0,216274000000.0,180356551040.9101,73401000000.0,55614615014.28501,142873000000.0,126920009110.58806,27936000000.0,25824030364.03859,6210000000.0,5667858289.488427,34146000000.0,31477404853.355824,13748000000.0,8667500455.131609,20398000000.0,22470160187.343628,7538000000.0,2928305716.178654
469,991,2,122531000000.0,111161263699.53412,74517000000.0,71388670600.18686,57494689417.43809,21244778833.64701,11370000000.0,9973995246.725508,10501000000.0,10636560412.852196,21871000000.0,20553704598.88626,5767000000.0,4260418342.108803,5604000000.0,5620648417.353823,5766000000.0,4244181661.303923
606,673,0,5723214000.0,5084204645.75444,2776207000.0,2330041812.7530236,2947007000.0,2801193496.84784,448941000.0,494731523.0176728,516900000.0,540077633.2943699,865197000.0,922854785.7027639,78214000.0,95685680.39204182,370727000.0,377723840.927251,78214000.0,98792341.49851479
1877,27,2,689227000.0,-101282572.76007366,562767000.0,20502642.782304764,126460000.0,-586031776.6916403,40662000.0,49066690.011569664,11086000.0,8719412.85219492,47740000.0,35588698.88626118,-28335000.0,2719683.4927050443,68997000.0,36840179.05256572,-28335000.0,533359.3322316036
1148,532,1,600857000.0,370621971.92768,331349000.0,201344419.93257457,269508000.0,127753731.97518486,50595000.0,48006021.695268884,6532000.0,4980863.801632708,57127000.0,39504354.34468122,-62120000.0,-51572767.01697762,83188000.0,75030911.00869279,-32593000.0,-45065120.99031364
1653,1310,3,56794000.0,-927165528.9598173,12682000.0,-327770950.6836374,44112000.0,-180483125.84466207,25087000.0,26993745.81779878,14791000.0,12892240.418743894,39878000.0,28634611.4438059,-4627000.0,1115006.59674554,44505000.0,34327089.62337645,-19418000.0,-9691971.36891519
1205,1096,2,3747000.0,-440029390.532897,4407000.0,-98114536.1211173,-660000.0,-761723003.4117441,-1515000.0,10221290.962693585,1515000.0,2497712.85219492,0.0,-5195201.113738816,-2598000.0,882321.5126006287,1083000.0,2876188.200484558,-2598000.0,-1592390.667768396
1612,76,2,3505835000.0,2885181654.129936,1860807256.214476,1744572963.2051911,1470074000.0,295506784.46055853,601953000.0,746087314.8272649,626097000.0,779635612.8521949,1228050000.0,1488753398.8862612,88554000.0,89399183.49270505,475916000.0,563001372.8508059,126037000.0,134994409.33223158
1894,1257,1,203011000.0,157168803.81750035,255300000.0,212953997.45375443,-52289000.0,-86756355.86455368,8409000.0,15630964.191387178,25579000.0,21412505.342561524,33988000.0,31355894.119444203,-8212000.0,-13753083.705206353,15533000.0,19684305.903740823,-7124000.0,-12096274.324998556
458,865,3,3126495000.0,2221406056.307574,2137404000.0,1851845963.3169775,989091000.0,901543355.7226256,70679000.0,97511745.81779878,930828000.0,890071482.1322247,1001507000.0,980660022.237225,21039000.0,36013345.8954806,49640000.0,61399246.469665356,21039000.0,35086578.63108481
782,1593,3,36175654.0,-954519875.545384,19187381.496044576,-324235719.89028805,18868678.0,-193704057.24927694,22295962.0,24394610.81779878,2274626.0,5467352.695586517,24570588.0,17659734.778496284,-1191082.0,614640.7747487612,23487044.0,18808547.66547905,-1191082.0,-515851.0189151871
21,1011,2,3642433000.0,2774534302.676638,1611617055.0351417,1364506365.5674582,2307595000.0,1266806479.52362,392263000.0,401673844.4153761,1442178000.0,1449650712.852195,1834441000.0,1843966398.8862612,185633000.0,184464208.7795775,1648808000.0,1652361723.5541537,-1256545000.0,-1220605490.6677685
323,232,1,102171000.0,95877250.31074286,80142000.0,54446569.09187573,22029000.0,-4114832.667547941,11994000.0,18558321.348718036,1280000.0,-401070.157663879,12084000.0,3975753.474365797,-8453000.0,-10627873.981834088,20447000.0,23746044.558692798,-8453000.0,-12793316.763941396
1847,774,4,11562769000.0,9057083195.151745,8634392000.0,6461629786.960294,2928377000.0,2681105714.582138,696915000.0,842290282.9419677,4617768000.0,4269548271.381105,5314683000.0,5025013104.247265,87484000.0,142366756.46277797,6096071000.0,5593471053.249168,-5399156000.0,-4842386026.904869
1304,960,3,1061958000.0,-92043353.67026305,603583000.0,37984968.17568731,275904000.0,91401329.03339303,75380000.0,66331700.63419396,85007000.0,93775699.53981063,160387000.0,148657749.78840008,19279000.0,-2787207.4342031144,56101000.0,66238413.255194984,19279000.0,-2510721.3689151956
1031,669,4,1709464000.0,1739351843.201097,792444897.6724385,791943690.6364974,917019102.3275616,912428525.5086231,-50089000.0,-37213099.28793821,206500000.0,180869885.33024076,156411000.0,150685086.7225083,62554000.0,58568416.42673647,32611000.0,28849487.02885537,-82700000.0,-52233100.95848774
1109,313,0,1182200000.0,1473018531.7361584,559672263.5892134,735838297.4406315,993300000.0,1189838321.9980278,77500000.0,80200750.19689694,102700000.0,113765980.14411984,175100000.0,185291777.79707795,21600000.0,11907230.392041877,55900000.0,60610540.92725098,21600000.0,16034301.03392837
1483,305,3,15318000000.0,14508395139.592007,8995872209.433592,8770266054.958181,2835000000.0,2142882294.6081262,2220000000.0,2160111745.8177986,7363000000.0,7410375906.475297,9583000000.0,9541284696.018055,348000000.0,390171729.6862127,1879000000.0,1876353277.6971865,341000000.0,367018195.92484546
739,408,0,2898416000.0,339821341.00467294,2080781000.0,59334843.66247791,476998000.0,99684967.21328926,19746000.0,17271466.408851337,-19746000.0,-8790829.280573376,0.0,11771777.79707795,-16089000.0,-9365294.941988017,35835000.0,29965718.39951556,-16089000.0,-8781308.501485182
1565,386,2,37777000.0,-329274207.4572098,8088000.0,-69784167.97622389,29689000.0,-698114582.1701167,1942000.0,15051690.011569668,1878000.0,2592412.85219492,3820000.0,449608.3648340255,-3377000.0,-411216.5072949603,5319000.0,10640629.052565726,-3377000.0,-2620340.6677683997
1547,329,4,350115000.0,213040933.96764994,124447000.0,46089618.62345913,144501356.0121529,112507035.70420483,23341000.0,33620232.73102095,74465000.0,93204491.6408589,97806000.0,110108270.10739927,1273000.0,-5273091.867349049,21144000.0,31233775.2130533,2197000.0,-2446486.858742765
1772,203,0,60756000.0,101122509.39664882,14120000.0,59661467.239186645,46636000.0,94223134.72824652,39398000.0,49330484.790918164,0.0,2401995.4868705496,39398000.0,56822495.201667234,1277000.0,2073030.3920418762,38121000.0,48341340.92725098,1277000.0,3553691.498514816
396,883,0,2329417000.0,2455532788.493289,1103945000.0,1196320669.7302802,1225472000.0,427133054.5507121,201803000.0,210825318.48984984,84310000.0,99044940.69663167,286113000.0,301526077.79707795,4458000.0,5994647.034517847,134794000.0,128339090.92725098,67009000.0,76171691.4985148
370,1540,3,322707000.0,-667852767.1992176,203952000.0,-110801736.83651412,133189378.04611006,-49750303.96789783,59563000.0,73413745.81779878,32549000.0,37083598.93366714,92112000.0,97487952.06837277,2829000.0,10841827.925507499,56734000.0,58517070.036443874,2829000.0,9940478.631084813
1387,213,0,16986396.0,-32539086.016477615,28398941.0,6000809.066784039,7976898.609990532,18545021.983661782,-2992.0,9917458.267824316,2987192.0,2601190.997952197,2984200.0,15227687.146510886,-2823081.0,-4468505.141988024,2820089.0,14444258.327250984,-2823081.0,-3779811.701485186
1633,1397,1,5507733.0,-69323897.81192684,3754986.0,837678.2636060715,1752747.0,-38239120.03436556,77969.0,4753241.744168992,690.0,3388275.6548728026,78659.0,-10947621.943313014,-1288944.0,-2553745.0048351516,1288944.0,3420684.1086927983,-1210975.0,-4341090.538824907
1459,1488,0,2951779000.0,2950849146.9353127,1733504809.66769,1734454947.686118,-705417000.0,-664776993.9336377,103159000.0,105277546.32210962,95357000.0,97567061.30101112,198516000.0,216496085.70276392,63542000.0,72583610.09035446,39617000.0,44180068.39951556,63542000.0,75423891.4985148
447,948,0,1389340000.0,1493369133.4331214,870172000.0,1023751494.1890496,518687000.0,509492975.6555449,122910000.0,156796041.47523922,509918000.0,544626737.3350711,632828000.0,695244777.7970779,77637000.0,93451347.03451788,35836000.0,40073690.92725098,87074000.0,108577441.4985148
1342,1529,4,670100000.0,608478143.1638007,96919000.0,79303407.00256008,573181000.0,525862600.52308095,45369000.0,52222613.59549703,10723000.0,9542991.93430576,56092000.0,51606227.35346362,-44376000.0,-40580929.36015611,100468000.0,99593906.14526896,-55099000.0,-54027013.77766786
1101,802,1,796235000.0,-21767196.616430998,203741000.0,-15335483.105191708,463390000.0,19342744.846048117,475000.0,6969722.3557650605,0.0,1954694.4431752404,475000.0,-3739019.209088928,-25797000.0,-15222455.899936572,26272000.0,18855655.903740823,-25797000.0,-16971762.868561354
1559,864,4,243654000.0,198685686.79579902,108112000.0,116807001.28225476,135542000.0,58013824.0195505,37230000.0,39257780.273312606,3845000.0,2102765.408537066,4798000.0,2381588.177935346,-21869000.0,-21560818.683515243,59099000.0,59048841.90513636,-21869000.0,-25061043.81338823
1859,1238,0,63057347.0,134848519.44592196,37031977.76980746,56110961.14843257,50373559.0,98634852.99394819,5114390.0,8597551.205646224,9540399.0,16269333.156666985,14654789.0,27924838.0419216,3126608.0,4745182.242041875,1987782.0,6362453.177250984,3126608.0,6082342.748514815
625,871,2,2120798000.0,1639559915.961391,1472395000.0,1218999798.1650465,648403000.0,-91119443.88692522,67913000.0,73678196.82945003,30767000.0,30448312.85219492,98680000.0,85084298.88626118,-9629000.0,-15567016.507294951,77542000.0,82829180.75094065,-9629000.0,-18207240.667768393
1728,482,1,706517000.0,682071745.0953238,905805000.0,912615720.2414987,-199288000.0,-248478020.56727242,73709000.0,80927480.2415872,16853000.0,18996662.78142653,90562000.0,88488785.10132481,38915000.0,35605611.24949648,34794000.0,40220044.5586928,38915000.0,31244426.965544257
1404,565,3,76126346.0,-978096336.576942,61120101.0,-295968691.87517136,15006245.0,-239473507.57197443,2282652.0,13038046.817798778,31006950.0,20881898.93366714,33289602.0,21907304.218086537,-2890968.0,4066692.78830298,5173620.0,4823479.3840395715,-2890968.0,2899551.3310848125
1515,604,4,156303000.0,130628255.29331613,83901000.0,74276914.58285016,72402000.0,39159752.422174215,17689000.0,17254441.0326214,41469000.0,32903147.721306384,59158000.0,35716943.986028105,-2517000.0,-15952228.632758044,20206000.0,29371037.02885537,-2517000.0,-18906165.85095428
1800,67,1,3271200000.0,4104815382.160822,1447362713.447565,1784521840.420139,-21400000.0,467359415.3951906,31300000.0,59319911.50864732,847700000.0,920242007.7031926,879000000.0,972548566.1880362,-16400000.0,-254585857.96825895,66600000.0,61389494.5586928,-35300000.0,-27248168.286703628
4,992,1,7361000.0,-130881021.08450723,2671000.0,-1265973.235738337,4573903.262590003,-57048956.60496686,349000.0,5243844.456036075,109000.0,-2239348.995657739,458000.0,-9673108.771816175,-670000.0,-2939741.8881325563,1019000.0,3234594.5586927985,-670000.0,-1679333.6836484203
1400,1108,0,-4860602000.0,2601156516.0752892,-990657000.0,589667532.3979205,-3869945000.0,2020774093.0712998,193881000.0,203866861.81332317,378009000.0,480910553.27802926,571890000.0,731712785.7027639,36078000.0,36288547.034517914,124685000.0,184178090.927251,69196000.0,73808941.49851486
617,961,2,5475000000.0,5588430966.210764,4861300000.0,5244230752.956257,613700000.0,-180028138.1820799,130600000.0,190692290.96269357,1421300000.0,1389290412.852195,1551900000.0,1562786208.364834,23900000.0,56753333.49270505,81800000.0,93950535.4115488,48800000.0,85458709.33223161
570,257,1,9643000.0,-109010818.48720884,6164000.0,-28446758.76426083,3479000.0,-37133222.905150175,1843000.0,6454820.479612366,2246000.0,-1342317.332134897,4089000.0,-5195455.213659007,-437000.0,-2176498.584659284,2240000.0,4715194.558692798,-397000.0,-3615190.8702788344
2015,880,3,12012800000.0,1954495006.8979914,6608200000.0,1278413840.7048872,4911800000.0,2278360191.248954,457000000.0,528911745.8177988,316800000.0,265343992.02920252,773800000.0,755612468.3661964,145800000.0,127336438.33702578,203500000.0,185184638.8431596,253500000.0,283607295.92484546
576,1076,2,6644800000.0,6678003003.303905,3248100000.0,3575452636.2273397,2786600000.0,1978062637.1145625,345800000.0,352692290.9626936,33000000.0,177980412.8521949,378800000.0,514526208.364834,36000000.0,55348333.49270503,342800000.0,466285535.4115488,3000000.0,-134491290.66776836
1397,722,1,136174000.0,192715193.80142355,62163000.0,78964816.80793905,72304000.0,38448896.77902652,10072000.0,15601442.790882785,-3712000.0,-9445499.36619049,6360000.0,-2950943.6213517208,-12604000.0,-14902978.770568889,22676000.0,23297244.558692798,-12604000.0,-12993546.093385518
1134,1495,3,160043000.0,-775997733.0714085,101422000.0,-249456751.73707604,58621000.0,-113309562.62418853,15202000.0,19075700.634193957,-14386000.0,-820538.0044134827,816000.0,6058500.46540598,-14398000.0,-17731868.403254457,29600000.0,33189364.419619188,-14398000.0,-19267536.368915185
188,487,1,9282000.0,-78977647.09280705,3493000.0,-37288224.61371243,5789000.0,-38487485.02320385,355000.0,5177676.457821469,552000.0,-3971510.2171445247,907000.0,-12247301.175559232,-972000.0,-2481854.3711520145,1327000.0,3608844.5586927985,-972000.0,-3212595.7902519964
488,150,3,16124000000.0,11023568679.769224,13383000000.0,10037922892.219389,2741000000.0,1773740258.6406116,5251000000.0,3266111745.8177986,4961000000.0,3268992447.7212086,9233000000.0,5915741188.357845,1583000000.0,752824137.352689,3668000000.0,2401753325.2643766,1583000000.0,806368195.9248455
1211,1554,4,1601068000.0,1708395194.7379498,1081707000.0,1150111197.6327727,519361000.0,580835344.7239513,248876000.0,268714479.0301565,-34521000.0,-33620442.91569282,214355000.0,231568092.78683603,19006000.0,33893170.379895255,229870000.0,226231915.657136,19006000.0,34857916.387929134
1580,1079,4,779622000.0,717766664.4508531,153452000.0,260287335.29025084,626170000.0,564749368.696166,134561000.0,140005268.52356747,57608000.0,54434235.075985864,192169000.0,181226010.20591128,56917000.0,54160523.43802477,77644000.0,80527375.2130533,56917000.0,50901505.24038942
1533,499,4,4162272000.0,4014969053.387681,862254000.0,1080480642.020299,3299439000.0,3152137377.646207,357871000.0,372487414.6130561,794265000.0,809170609.5579035,1152136000.0,1169621593.2614968,114028000.0,133291939.54110354,194829000.0,198890065.06497023,163042000.0,162496805.0105883
818,1555,3,13900400000.0,10962227602.31394,12204100000.0,9961515991.936308,7319729781.089915,6352287227.346785,78200000.0,75611745.81779878,235100000.0,245064858.27539027,313300000.0,306342014.8223972,174900000.0,155626890.422846,116600000.0,104767778.92566854,-38400000.0,-38536104.075154476
50,579,4,594022000.0,526523650.15747166,132343000.0,65947505.21194005,461679000.0,501651735.15751666,121956000.0,122420866.54006533,1645000.0,-975127.0841402961,123601000.0,117150691.45796551,31177000.0,26019088.26119246,45262000.0,45151660.21305331,76694000.0,66004807.45230899
590,21,3,1341960000.0,356542968.5097774,666970000.0,332771487.2240436,674990000.0,500047375.4277744,55930000.0,64641745.81779878,179410000.0,179608386.85884964,235340000.0,232671201.9781529,23760000.0,21609278.587063037,32290000.0,36535802.04539207,23640000.0,21075695.92484551
377,1125,3,52901000.0,-952120429.8367496,24522965.98920461,-324061962.14227885,33404000.0,-194701520.60106313,-1183000.0,10424745.817798778,24144000.0,21108482.13222471,22961000.0,17504489.914124522,-5692000.0,283190.4679505094,28653000.0,25335761.739788197,-29836000.0,-21245521.368915178
1953,549,4,877565000.0,629786546.3179572,1336553000.0,1114700776.1841512,-475192000.0,-256858898.97508138,522812000.0,522719148.7592112,-345617000.0,-341354144.90106845,177195000.0,189378517.4584547,31868000.0,33602058.05532271,490944000.0,484650675.2130533,31868000.0,31583318.929474346
1018,1347,1,26568400000.0,27204146008.1828,13080400000.0,13565761383.647177,13246000000.0,13187300627.352589,1346200000.0,1233954415.254376,1952200000.0,2051055522.0513763,3298400000.0,3241352822.8744435,592200000.0,393688520.85131586,746800000.0,719757255.9037409,599400000.0,411975126.4029622
709,1365,3,2933971000.0,1441773844.7934942,2618511000.0,1489398933.735409,315460000.0,387834397.3979105,65062000.0,68586745.81779878,2191000.0,5022380.009315937,67253000.0,65853122.237225056,-143265000.0,-91147892.0211365,69951000.0,45715867.02375372,-4889000.0,14378595.924845513
1121,1252,1,27828200000.0,26098334819.413208,13810622382.415062,12881918210.038942,7212400000.0,7318527585.870515,821300000.0,825810788.9038252,181300000.0,251221555.6591501,1002600000.0,1065167260.1940811,233000000.0,255178710.31712106,794400000.0,950637255.9037409,26900000.0,-151262647.48517975
1026,769,4,2788943000.0,3110709158.8394403,2662320000.0,2767166983.0620537,126623000.0,1102033713.6490684,299166000.0,305225391.8500297,0.0,-3256853.5638319324,299166000.0,296251606.8038525,-281667000.0,-106004610.94081448,580833000.0,433937075.2130533,-281667000.0,-122057001.35570371
1015,823,0,2489159000.0,2365512515.1706324,1954765000.0,1926773561.5987918,488897000.0,393623842.04188156,294443000.0,235673125.8340673,370069000.0,344170017.16044986,636496000.0,564882977.7970779,64600000.0,28930247.03451789,229652000.0,234045718.39951557,64791000.0,22021191.498514798
1575,241,2,11961066.0,-427172468.78150654,1068497.0,-103656077.77822912,10892569.0,-759082349.0678862,611174.0,13541849.415376121,0.0,260412.85219491998,611174.0,-4568071.613738816,-1146685.0,3565778.5626006285,1757859.0,3134611.2127872217,-1146685.0,918376.4022316039
826,242,1,93941000000.0,78430236610.88596,39446000000.0,34539620343.74149,53466000000.0,43983439908.84562,4178000000.0,4508395774.345204,15656000000.0,19749257800.041443,18582000000.0,24523143295.50113,1764000000.0,2493909144.0734835,2414000000.0,2055689494.5586927,1764000000.0,2531974478.339195
463,1402,1,32097000000.0,30738794042.40776,20419000000.0,20519318868.206173,10658000000.0,9118728716.927063,2071000000.0,2161029173.696518,6360000000.0,6356806350.502241,8431000000.0,8524332225.179604,950000000.0,1035411071.3630904,831000000.0,844289494.5586928,1240000000.0,1339778856.7638574
1660,25,4,6578196.0,8637935.681895971,4441488.0,19708791.880996883,2465776.0,-37624465.60374932,2008368.0,6850787.439548118,923641.0,-1020344.5098841055,2932009.0,4736071.690138295,-1328968.0,-3129284.3841300835,3337336.0,5974003.005136365,-1328968.0,-3050135.6149943694
700,526,2,1658042000.0,883879266.8986845,1223260000.0,806260757.180784,434782000.0,-347632531.07077265,207698000.0,220769690.01156968,674127000.0,656705612.8521949,881825000.0,854628198.8862612,25549000.0,25969833.492705047,179614000.0,173383514.89620697,28084000.0,28782609.332231604
402,371,2,9094896.0,-414187864.9772668,13593163.0,-88454069.34119344,-4498267.0,-786657016.0137655,-928960.0,10816687.764672771,1115703.0,2618394.1521949205,186743.0,-3368136.9351659743,-5136642.0,-1542311.887399369,4207682.0,6562755.834267853,-5136642.0,-4362232.794151373
591,184,4,16788482.0,25674479.794673443,821758.0,-20413999.838428378,15966723.0,2734398.3130776957,906228.0,4947993.374768266,333325.0,-3474131.4501263355,1239553.0,5110756.635569345,-1096396.0,1426964.6920838873,2002625.0,3427364.600136365,-1096397.0,-2781656.529391203
412,923,0,1678241000.0,1832510275.5715523,730813000.0,805628581.6179984,947428000.0,1078100071.037535,62311000.0,62965985.59147937,89643000.0,96081898.3386235,127553000.0,133228377.79707795,-24195000.0,-30612319.607958123,86506000.0,93823340.92725098,-24195000.0,-28747458.501485184
26,1111,2,1363308942.0,937303508.2809994,629855415.0,581330806.6537997,733453527.0,-180915660.89125562,93681798.0,91582556.94143018,0.0,365529.15219492,93681798.0,66218314.58626118,39573525.0,36964223.77957744,54108273.0,43581399.05707356,39573525.0,30869767.83223159
205,666,2,15264467000.0,14353886193.893436,7226441209.924589,7002940917.060294,3059451000.0,1805197592.3834727,592816000.0,584331690.0115696,378076000.0,374265212.8521949,970892000.0,937461198.8862612,444977000.0,406265583.4927049,147839000.0,160345270.36687827,444977000.0,407706459.3322315
699,1149,4,65987000.0,52394955.19866705,35279000.0,18548590.69165325,30708000.0,10750014.276273727,5319000.0,10453220.64855389,28050000.0,24357898.879311424,33369000.0,21900138.768381283,1124000.0,-1286915.9143228026,4195000.0,7097141.905136365,1124000.0,-3193773.612910538
550,437,1,31945000000.0,35212047952.81175,26424000000.0,29701982731.580544,5506000000.0,5567088336.317355,1191000000.0,924316809.5267159,2895000000.0,2379798748.6621156,4086000000.0,3311692908.552006,834000000.0,738943416.5344219,357000000.0,312407288.2530149,834000000.0,670253954.6756877
140,1473,0,2655001000.0,2591716677.1288524,1989549000.0,1892442870.0494537,665452000.0,828371910.9883612,67554000.0,-38204604.164690025,403267000.0,554998400.1771591,470821000.0,489506085.7027639,-3426000.0,-74760902.96548203,30096000.0,35386068.39951556,37458000.0,-68070908.5014853
2004,877,1,9403000.0,-81186698.2391274,5511000.0,-37724073.89590198,3892000.0,-48320595.03926706,-48000.0,5033495.017083176,1387000.0,-2122059.5984605867,1339000.0,-5918302.81469935,-903000.0,-4214824.55399768,855000.0,3460294.5586927985,-903000.0,-4651196.9325531805
28,31,3,551232000.0,-524780862.2604892,628224000.0,65477172.61811185,-138322000.0,-356833306.11058915,23716000.0,30880700.634193957,12709000.0,16042769.451263716,36425000.0,38288702.69527489,7478000.0,27093479.38935609,48579000.0,45210607.89590941,-24863000.0,-19097871.368915185
844,288,0,435750000.0,449870954.5371376,62826000.0,92053925.42844409,372924000.0,431010775.73340166,28152000.0,31886484.32980565,49267000.0,53907669.441655084,77419000.0,89495677.79707795,143000.0,255530.3920418754,28009000.0,33158690.927250985,143000.0,2335091.4985148157
967,1117,1,367699000.0,409513106.20509434,382822000.0,242594327.73342687,-15123000.0,-1429153.1652407497,310000.0,132289583.08302179,0.0,1080286.3057638616,310000.0,107202457.50853541,-47413000.0,9191656.920217333,47723000.0,76483644.5586928,-47413000.0,18823163.54907537
433,917,1,3810682000.0,3645319850.1514635,2050315000.0,1886282344.169851,1303319000.0,1257323464.4444451,110314000.0,110327264.66926356,71850000.0,58675601.988744065,148990000.0,136499418.64150518,11661000.0,4533800.994922172,98653000.0,95826305.90374082,11661000.0,2762426.664496633
228,131,2,2333529000.0,2000742464.644637,1032484368.2283514,958070164.7400868,1202771000.0,424920666.7513437,71236000.0,78797584.89255409,490990000.0,522551512.8521949,562226000.0,588700598.8862612,19517000.0,25076208.779577438,46091000.0,54313385.411548786,25145000.0,22049159.33223161
1855,1604,3,20737275.0,-1043998771.5794882,10788720.0,-341823282.79156804,10368036.0,-324679988.66718507,562564.0,2343069.490098916,77061.0,-72683033.38016918,87201.0,-139004809.09297618,-4142505.0,-107633889.0606833,4705069.0,-106801029.48620662,-4142505.0,2291795.1206043437
776,654,4,386844000.0,494947878.8033397,412960000.0,499286942.71788764,-26116000.0,21340257.96562385,16927000.0,30218057.444859356,91131000.0,95209156.49660839,108058000.0,113994849.33463337,-813000.0,5975172.229913121,13060000.0,17365075.213053305,3867000.0,6482241.0356003875
839,662,1,6911775000.0,7448383909.271374,5109042000.0,5122380745.944351,1802733000.0,1974496210.3968847,225256000.0,627876110.6556244,195092000.0,199257457.4399338,420348000.0,433753611.2497469,132530000.0,207055103.88366014,92726000.0,88217844.5586928,132530000.0,234572832.97972405
793,1426,2,2883631000.0,2215647457.8041325,1772390000.0,1638904413.4085317,1110345000.0,-306647544.26868033,319055000.0,402207314.8272649,1257690000.0,1319625512.852195,1576745000.0,1696999508.364834,38222000.0,98453033.49270502,280833000.0,285819429.44785917,38222000.0,99067209.33223158
820,1376,2,133032000.0,-278101063.5573268,232711000.0,190612825.12187886,-16246000.0,-768957774.3385108,12296000.0,26166584.892554097,62277000.0,71800112.85219492,74573000.0,80832708.36483403,-14749000.0,-10013066.507294951,89322000.0,103458203.3171579,-77026000.0,-87581240.66776837
2016,162,1,296638000.0,234427417.99546266,208509000.0,160144576.05357033,88129000.0,27601006.95688057,7319000.0,10774164.363115117,0.0,-10646715.433841849,7319000.0,-3955954.414507067,-46633000.0,-36325686.59342778,53952000.0,51866694.5586928,-46633000.0,-45621149.94468793
1438,2,4,38809000.0,-6874360.696146965,43090000.0,15379087.827845395,-4281000.0,-6683070.409862277,7318000.0,11327701.360584779,25818000.0,21590291.371988785,33136000.0,23109412.442130785,-933000.0,-4469770.0121937245,8251000.0,11613220.533416992,-933000.0,-5749043.785798486
866,365,1,2376172000.0,1939409234.122712,1870972000.0,1483482130.3101943,486613000.0,152899589.9538464,-5214000.0,62627974.463317744,182832000.0,144184862.16587177,304976000.0,206684639.77595496,-103708000.0,-64409838.9515982,98494000.0,112112094.5586928,-103708000.0,-64068824.21036623
689,978,0,3719784000.0,3283506661.9550667,3332984000.0,2849664921.7214317,286813000.0,340866736.6877668,2618169000.0,2470473534.9513593,-531777000.0,-495475230.74986094,2086392000.0,1971460070.5606263,44074000.0,34358080.392041884,2574095000.0,2405130290.927251,44074000.0,38777741.49851482
919,362,1,1537935000.0,1822480626.8476849,1281456000.0,1375066627.2729936,256479000.0,337322473.26418096,229699000.0,228059374.00744554,0.0,-5471822.148377368,229699000.0,218771275.18512926,-26947000.0,-121862017.86249924,256646000.0,368068505.9037408,-26947000.0,-140582994.0878454
1827,972,1,1182488000.0,1156166004.1664784,303489000.0,295505881.2220949,759221000.0,683726217.4417934,56265000.0,67824838.38985641,333008000.0,334590018.6298543,251870000.0,253900247.07203597,16750000.0,20214996.828861967,39515000.0,37335194.5586928,16750000.0,18119246.27252215
