epiphany24262/financial-performance-prediction/results/oof/m6_nested_oof.csv
Id,group_id,outer_fold,actual_Q0_TOTAL_ASSETS,pred_Q0_TOTAL_ASSETS,postprocessed_pred_Q0_TOTAL_ASSETS,actual_Q0_TOTAL_LIABILITIES,pred_Q0_TOTAL_LIABILITIES,postprocessed_pred_Q0_TOTAL_LIABILITIES,actual_Q0_TOTAL_STOCKHOLDERS_EQUITY,pred_Q0_TOTAL_STOCKHOLDERS_EQUITY,postprocessed_pred_Q0_TOTAL_STOCKHOLDERS_EQUITY,actual_Q0_GROSS_PROFIT,pred_Q0_GROSS_PROFIT,postprocessed_pred_Q0_GROSS_PROFIT,actual_Q0_COST_OF_REVENUES,pred_Q0_COST_OF_REVENUES,postprocessed_pred_Q0_COST_OF_REVENUES,actual_Q0_REVENUES,pred_Q0_REVENUES,postprocessed_pred_Q0_REVENUES,actual_Q0_OPERATING_INCOME,pred_Q0_OPERATING_INCOME,postprocessed_pred_Q0_OPERATING_INCOME,actual_Q0_OPERATING_EXPENSES,pred_Q0_OPERATING_EXPENSES,postprocessed_pred_Q0_OPERATING_EXPENSES,actual_Q0_EBITDA,pred_Q0_EBITDA,postprocessed_pred_Q0_EBITDA
196,314,4,1192950000.0,1361267369.337386,1361267369.337386,1055816000.0,1028233113.0031283,1028233113.0031283,137134000.0,539078434.1309543,539078434.1309543,25598000.0,27712000.0,27712000.0,61899000.0,55658405.103598416,55658405.103598416,42992000.0,50358009.83219076,50358009.83219076,15222000.0,21713279.540079273,21713279.540079273,10383000.0,16369434.8981596,16369434.8981596,15215000.0,19919449.999999996,19919449.999999996
1568,1318,0,1219954000.0,1412052821.2603986,1412052821.2603986,835046000.0,1032256301.099285,1032256301.099285,384908000.0,325478904.26197976,325478904.26197976,111786000.0,103038427.87271583,103038427.87271583,217796000.0,207014991.38150734,207014991.38150734,329582000.0,307642053.110857,307642053.110857,28908000.0,7527581.297621345,7527581.297621345,85522000.0,91581023.93881671,91581023.93881671,26264000.0,16252388.387386836,16252388.387386836
1218,1523,0,-135820000000.0,58220566846.22142,58220566846.22142,-37972000000.0,11803199348.488888,11803199348.488888,-97848000000.0,46060622879.419624,46060622879.419624,-435000000.0,804830531.2866385,804830531.2866385,4445000000.0,9026144155.683832,9026144155.683832,4010000000.0,11623817408.921448,11623817408.921448,-1472000000.0,-178095270.1780637,-178095270.1780637,219000000.0,245382179.6943187,245382179.6943187,-654000000.0,1283856902.0953639,1283856902.0953639
23,1421,2,83298000.0,525986809.71876943,525986809.71876943,16040000.0,-23765851.405616082,-23765851.405616082,-31633000.0,445765919.85122466,445765919.85122466,494000.0,9190912.384218816,9190912.384218816,3339000.0,-3757834.400172392,-3757834.400172392,3833000.0,18920775.98292372,18920775.98292372,-12348000.0,-11735960.298223233,-11735960.298223233,12842000.0,22302093.027101144,22302093.027101144,-12348000.0,-15695626.736300908,-15695626.736300908
783,1306,2,148546000.0,649615283.5812849,649615283.5812849,56555000.0,94254807.83866614,94254807.83866614,91991000.0,673834411.8200842,673834411.8200842,1761000.0,140661302.95507595,140661302.95507595,-2375000.0,-120677665.08429712,-120677665.08429712,-614000.0,16078812.735276813,16078812.735276813,-10098000.0,75933647.16326031,75933647.16326031,11859000.0,22771518.578030474,22771518.578030474,-10098000.0,88996027.5149238,88996027.5149238
1251,1292,1,7304300000.0,6371693406.7829,6371693406.7829,2451900000.0,2615901052.3482685,2615901052.3482685,4830200000.0,2154996565.9923935,2154996565.9923935,578200000.0,613423985.2219391,613423985.2219391,581100000.0,592382056.6108981,592382056.6108981,1159300000.0,1217478788.3476455,1217478788.3476455,245200000.0,268814529.6346885,268814529.6346885,333000000.0,329385241.8942298,329385241.8942298,245200000.0,271744999.99999994,271744999.99999994
1224,1572,2,1976905000.0,1872277778.3855796,1872277778.3855796,699909000.0,622512493.3615273,622512493.3615273,1276996000.0,997236242.4604403,997236242.4604403,53993000.0,89345892.11926201,89345892.11926201,315825000.0,314421884.91150784,314421884.91150784,369818000.0,416369219.30411315,416369219.30411315,-1572000.0,16152928.459074717,16152928.459074717,371390000.0,376984056.7947267,376984056.7947267,-317397000.0,-299452923.75338995,-299452923.75338995
1410,638,0,2097274000.0,2269356581.598914,2269356581.598914,1132234000.0,1330181313.0321083,1330181313.0321083,965931000.0,934177701.3544207,934177701.3544207,70481000.0,163506734.43069643,163506734.43069643,291052000.0,263548156.10755873,263548156.10755873,361533000.0,413926340.23260623,413926340.23260623,58709000.0,105923200.54771031,105923200.54771031,11772000.0,18803879.8664009,18803879.8664009,58709000.0,120857317.57203826,120857317.57203826
529,10,4,31183000.0,274357665.46527004,274357665.46527004,15926000.0,-55868140.586608276,-55868140.586608276,15257000.0,283005444.5244359,283005444.5244359,2456000.0,2254000.0,2254000.0,2151000.0,-3949921.611302875,-3949921.611302875,4607000.0,10698802.740133023,10698802.740133023,-2931000.0,-4759621.123429127,-4759621.123429127,5387000.0,13363074.155346606,13363074.155346606,-2931000.0,-4277099.999999999,-4277099.999999999
730,598,0,978523000.0,1262081741.6522045,1262081741.6522045,851196000.0,928147021.110732,928147021.110732,-94184000.0,144797844.2188219,144797844.2188219,24321000.0,16861139.227527477,16861139.227527477,137937000.0,173536694.17463556,173536694.17463556,162258000.0,154209629.56488866,154209629.56488866,-764000.0,-25588048.77272261,-25588048.77272261,25085000.0,39658363.59899477,39658363.59899477,-764000.0,-27033451.634948414,-27033451.634948414
1590,740,3,27253000.0,216822286.8843866,216822286.8843866,14465193.072010836,-92862582.51189877,-92862582.51189877,12787806.927989164,470097589.2770897,470097589.2770897,-17000.0,5882081.345787915,5882081.345787915,17493000.0,32168816.226106826,32168816.226106826,17476000.0,34745866.767391466,34745866.767391466,1196000.0,5268169.1970089935,5268169.1970089935,138000.0,7478453.557089251,7478453.557089251,-155000.0,751925.2107551815,751925.2107551815
367,140,3,798398000.0,975633387.6180427,975633387.6180427,795372000.0,687755669.0062537,687755669.0062537,3026000.0,720935699.618519,720935699.618519,37121000.0,45300354.94859707,45300354.94859707,256160000.0,377132555.1579282,377132555.1579282,293281000.0,420950403.0204143,420950403.0204143,10257000.0,6972981.102514865,6972981.102514865,26864000.0,41611665.61859588,41611665.61859588,10257000.0,3769324.664536562,3769324.664536562
636,741,2,1059052000.0,1614987034.2229536,1614987034.2229536,883921000.0,819886487.9732698,819886487.9732698,175131000.0,781215859.709874,781215859.709874,91945000.0,116380138.01072781,116380138.01072781,202788000.0,225339112.66533187,225339112.66533187,235132000.0,290464702.6312724,290464702.6312724,-287000.0,4733710.5254018195,4733710.5254018195,84957000.0,106578946.88204549,106578946.88204549,6988000.0,5266481.094552616,5266481.094552616
1270,1352,1,11069000000.0,9495563024.370598,9495563024.370598,5919000000.0,6173299127.296479,6173299127.296479,5105000000.0,2528063629.1552916,2528063629.1552916,727000000.0,762476589.1325213,762476589.1325213,1752000000.0,1823779750.9340315,1823779750.9340315,2479000000.0,2592660101.241475,2592660101.241475,462000000.0,505162245.8472179,505162245.8472179,265000000.0,237041436.5202847,237041436.5202847,462000000.0,500100000.0,500100000.0
102,263,0,12331000.0,300002516.62097627,300002516.62097627,10875000.0,39882127.67649071,39882127.67649071,1456000.0,-53770481.67790231,-53770481.67790231,1472000.0,3099767.27717354,3099767.27717354,1968000.0,20260428.929393027,20260428.929393027,3440000.0,80797897.25445446,80797897.25445446,-4166000.0,-842703.8612577831,-842703.8612577831,5638000.0,13778510.989007957,13778510.989007957,-4166000.0,-894718.4194793445,-894718.4194793445
1658,1092,1,180372000.0,587953165.7311124,587953165.7311124,121221000.0,98777682.99999325,98777682.99999325,30642000.0,598047872.5663328,598047872.5663328,18014000.0,25592055.888537515,25592055.888537515,31653000.0,22939144.28912516,22939144.28912516,49667000.0,60522329.52287468,60522329.52287468,-11599000.0,1941595.7224514107,1941595.7224514107,29613000.0,23512330.59780258,23512330.59780258,-11599000.0,1957000.0000000014,1957000.0000000014
6,33,0,2319806000.0,2704841288.167714,2704841288.167714,1534495000.0,1916357401.9287825,1916357401.9287825,785311000.0,816909793.8662498,816909793.8662498,376397000.0,304989886.15268236,304989886.15268236,415254000.0,358137635.0718436,358137635.0718436,791651000.0,656786524.9879352,656786524.9879352,93430000.0,51832233.13732232,51832233.13732232,288680000.0,268699007.79716057,268699007.79716057,87717000.0,43016371.35829383,43016371.35829383
1147,1055,3,19295025.0,242844313.14188024,242844313.14188024,28370931.0,-62411799.07643527,-62411799.07643527,-13369686.0,446007996.22058684,446007996.22058684,2067435.0,8484863.691025365,8484863.691025365,4847499.0,12788943.439840563,12788943.439840563,6914934.0,19982864.59681134,19982864.59681134,-1108124.0,-881531.5563985053,-881531.5563985053,3175559.0,10838641.086705502,10838641.086705502,-1108124.0,-475755.75227036746,-475755.75227036746
114,1011,2,3549408000.0,3264804336.8287873,3264804336.8287873,2109262000.0,1939455990.7260954,1939455990.7260954,1440146000.0,1303842361.5274937,1303842361.5274937,264579000.0,245834890.30676478,245834890.30676478,494402000.0,485515646.3400772,485515646.3400772,758981000.0,746799172.03585,746799172.03585,58594000.0,87901129.39921123,87901129.39921123,205985000.0,203745120.9187141,203745120.9187141,58594000.0,69076097.0821582,69076097.0821582
139,1334,4,331401784.0,575471951.9532496,575471951.9532496,56254670.0,-33826897.81902525,-33826897.81902525,275147114.0,441914398.32678425,441914398.32678425,17982150.0,24974054.0,24974054.0,0.0,-5964587.405791268,-5964587.405791268,17982150.0,30022304.400441587,30022304.400441587,-40215832.0,-31068813.212339237,-31068813.212339237,58197982.0,58511864.46556492,58511864.46556492,-40215832.0,-34477879.14999999,-34477879.14999999
411,814,4,5533000.0,210337866.3532317,210337866.3532317,4648000.0,-71828160.44832204,-71828160.44832204,885000.0,253399574.89906013,253399574.89906013,-1669000.0,-201000.0,-201000.0,2438000.0,-4092587.842240653,-4092587.842240653,769000.0,5358336.88633878,5358336.88633878,-6339000.0,-5565368.753952222,-5565368.753952222,4670000.0,12262850.277178515,12262850.277178515,-6339000.0,-4862100.0,-4862100.0
681,761,2,36550000000.0,29192633978.141228,29192633978.141228,16943241279.095451,15383115256.995771,15383115256.995771,15250000000.0,6326567422.124546,6326567422.124546,577000000.0,550719339.4472896,550719339.4472896,3467000000.0,3196667348.5769696,3196667348.5769696,4044000000.0,3822154768.783238,3822154768.783238,714000000.0,468047114.6086395,468047114.6086395,627000000.0,693826668.0151379,693826668.0151379,-50000000.0,-165394447.93544284,-165394447.93544284
1671,696,2,100449000.0,755687828.7395483,755687828.7395483,141057000.0,101844188.57974485,101844188.57974485,-40608000.0,530425165.64614147,530425165.64614147,-171000.0,11184047.658192165,11184047.658192165,512000.0,-6377084.998058507,-6377084.998058507,341000.0,19654748.95459993,19654748.95459993,-48297000.0,-45454571.73345354,-45454571.73345354,24344000.0,30199169.969740827,30199169.969740827,-24515000.0,-25441263.4268958,-25441263.4268958
500,1236,2,10599934.0,476373960.7198663,476373960.7198663,26203416.0,-9871189.966828033,-9871189.966828033,-15603482.0,371862693.55500764,371862693.55500764,-6219.0,9609919.073487025,9609919.073487025,193120.0,-5351595.161435238,-5351595.161435238,186901.0,14308275.031576373,14308275.031576373,-1076399.0,2431318.916003851,2431318.916003851,1070180.0,9234056.046798028,9234056.046798028,-1076399.0,-1008766.8292908816,-1008766.8292908816
1203,449,4,13322000.0,237891681.56685784,237891681.56685784,67881000.0,9671591.0752277,9671591.0752277,8277888.77383834,279617348.22736335,279617348.22736335,3223000.0,165000.0,165000.0,1889000.0,-4901221.159115757,-4901221.159115757,5112000.0,10719923.544693714,10719923.544693714,-3552000.0,-7476086.8959822245,-7476086.8959822245,8664000.0,17816081.238479223,17816081.238479223,-5441000.0,-9466650.000000002,-9466650.000000002
180,11,3,635001000.0,1360142346.2332442,1360142346.2332442,115305000.0,67393309.91282612,67393309.91282612,502273000.0,765575602.5243855,765575602.5243855,21465000.0,30318689.901677873,30318689.901677873,40457000.0,48749157.680677354,48749157.680677354,61922000.0,76216743.53258236,76216743.53258236,-143360000.0,-92039869.85529132,-92039869.85529132,205282000.0,160618982.46372184,160618982.46372184,-183817000.0,-132832073.04341248,-132832073.04341248
1960,1026,2,2672864000.0,2814363051.812343,2814363051.812343,288913000.0,458077484.9183651,458077484.9183651,2383951000.0,1250895724.282641,1250895724.282641,132902000.0,159495539.12386543,159495539.12386543,168499000.0,192205609.3079596,192205609.3079596,301401000.0,362488348.5872163,362488348.5872163,55706000.0,73501237.68114176,73501237.68114176,77196000.0,79897970.7189033,79897970.7189033,55706000.0,71876187.43288241,71876187.43288241
356,863,0,8388335000.0,8870485825.090307,8870485825.090307,5163154000.0,5746681208.119629,5746681208.119629,3225181000.0,3127536823.381364,3127536823.381364,313343000.0,334743664.88922995,334743664.88922995,687959000.0,711594317.1647455,711594317.1647455,1001302000.0,1047009921.1882995,1047009921.1882995,116260000.0,146278114.49846512,146278114.49846512,85661000.0,97565011.73520072,97565011.73520072,227682000.0,237803727.66978943,237803727.66978943
1646,1578,1,1563399000.0,1571891486.8037014,1571891486.8037014,1445358000.0,1217853262.8377018,1217853262.8377018,-136248000.0,870937128.4619174,870937128.4619174,72333000.0,75645252.74479441,75645252.74479441,116682000.0,110362119.20754564,110362119.20754564,189015000.0,203810634.3489319,203810634.3489319,23506000.0,19371598.976790242,19371598.976790242,11423000.0,20268448.60128586,20268448.60128586,60910000.0,55483250.0,55483250.0
1793,1064,4,320019000.0,668370436.8510419,668370436.8510419,126984000.0,97186591.3608098,97186591.3608098,193035000.0,627927415.3003348,627927415.3003348,177377000.0,210715000.0,210715000.0,58492000.0,85957160.84920241,85957160.84920241,235869000.0,304059610.6405882,304059610.6405882,25509000.0,42682279.401688516,42682279.401688516,151868000.0,186910090.25479922,186910090.25479922,25509000.0,41399249.99999999,41399249.99999999
235,94,4,0.0,176933155.61137304,176933155.61137304,0.0,-88880876.85038026,-88880876.85038026,-804876.0,208453202.19341028,208453202.19341028,0.0,0.0,0.0,0.0,-3709261.924003539,-3709261.924003539,0.0,8010751.489930246,8010751.489930246,-14550.0,-1813624.1158799198,-1813624.1158799198,14550.0,6368034.335601995,6368034.335601995,-14550.0,-1327382.65,-1327382.65
1668,245,3,267194000.0,584433554.6429954,584433554.6429954,175308000.0,136255382.74203062,136255382.74203062,91886000.0,581977339.4215664,581977339.4215664,5103000.0,9523795.092553405,9523795.092553405,0.0,7910009.505629432,7910009.505629432,5103000.0,15902303.262995332,15902303.262995332,-32762000.0,-26990624.801415615,-26990624.801415615,37865000.0,39204598.71382131,39204598.71382131,-32762000.0,-28855440.76009861,-28855440.76009861
1456,1010,3,2249377000.0,2426803849.245156,2426803849.245156,1923326000.0,2176158129.6458178,2176158129.6458178,326519000.0,1064866670.8092976,1064866670.8092976,-76300000.0,-66672708.53248458,-66672708.53248458,416103000.0,431204564.2199487,431204564.2199487,339803000.0,365569603.67464536,365569603.67464536,34941000.0,17010094.880717028,17010094.880717028,184914000.0,192269955.65690744,192269955.65690744,-261214000.0,-257426015.42394713,-257426015.42394713
1291,1021,2,396890000.0,887632418.2189229,887632418.2189229,107071000.0,118977209.41128515,118977209.41128515,289819000.0,620867475.3841879,620867475.3841879,52569000.0,56217194.33716194,56217194.33716194,13634000.0,9082903.29215283,9082903.29215283,66203000.0,76641804.96185508,76641804.96185508,8375000.0,-3176055.776594853,-3176055.776594853,57828000.0,71757669.45355812,71757669.45355812,-5259000.0,-19592128.335721076,-19592128.335721076
1376,1176,2,7827000.0,569427315.722814,569427315.722814,4744000.0,354075.9006064087,354075.9006064087,3083000.0,465012387.0483598,465012387.0483598,1288000.0,10236628.980269216,10236628.980269216,867000.0,-2866717.052148875,-2866717.052148875,2155000.0,19745925.864796873,19745925.864796873,-3880000.0,-2173311.9835791984,-2173311.9835791984,5168000.0,13670001.374253664,13670001.374253664,-3880000.0,-5383758.477696508,-5383758.477696508
1702,1493,0,11990000.0,65694389.77646719,65694389.77646719,3030000.0,33046947.464342467,33046947.464342467,8960000.0,44752197.61808081,44752197.61808081,1480000.0,4614723.534286138,4614723.534286138,3017000.0,-385434.1242852337,-385434.1242852337,4497000.0,-608739.7257793583,-608739.7257793583,-944000.0,5068.3735980745405,5068.3735980745405,2424000.0,7790348.150523565,7790348.150523565,-944000.0,-724569.5049571346,-724569.5049571346
1591,1286,2,7472874.0,440425117.49633926,440425117.49633926,3243445.0,-7328515.37584573,-7328515.37584573,4067990.0,386742961.730621,386742961.730621,3065804.0,9806587.237833649,9806587.237833649,0.0,2701404.8286974677,2701404.8286974677,3065804.0,17109922.44279763,17109922.44279763,-21884.0,-364638.9854713823,-364638.9854713823,3087688.0,12267362.682859587,12267362.682859587,-21884.0,-3832693.2573809763,-3832693.2573809763
647,1028,0,2182494000.0,2442645784.658859,2442645784.658859,2467501000.0,2462352701.939521,2462352701.939521,-484456000.0,-253013866.06391323,-253013866.06391323,389190000.0,375528378.3296535,375528378.3296535,141172000.0,134259073.4646037,134259073.4646037,531030000.0,502249403.088121,502249403.088121,-54175000.0,-66362756.87934216,-66362756.87934216,443365000.0,439124980.8863166,439124980.8863166,-54175000.0,-65894313.51236719,-65894313.51236719
100,1407,1,12166000.0,358517981.3516402,358517981.3516402,2892000.0,-60002701.13146895,-60002701.13146895,9274000.0,412602129.41491103,412602129.41491103,5000.0,8546536.796217091,8546536.796217091,54000.0,-1020471.9627635321,-1020471.9627635321,59000.0,10052473.268162189,10052473.268162189,-3433000.0,-5450595.545869797,-5450595.545869797,3433000.0,12303365.375737648,12303365.375737648,-3428000.0,-4682649.999999999,-4682649.999999999
507,447,1,189783000.0,573276695.6345284,573276695.6345284,45792000.0,-12707238.116067577,-12707238.116067577,143991000.0,522559140.29049504,522559140.29049504,2372000.0,10904547.27451043,10904547.27451043,0.0,-2098052.043975828,-2098052.043975828,2372000.0,18943013.74054363,18943013.74054363,-18270000.0,-23670791.538355622,-23670791.538355622,20642000.0,33252689.240516398,33252689.240516398,-18270000.0,-24136549.999999996,-24136549.999999996
547,960,3,1072653000.0,1114415799.867649,1114415799.867649,455367000.0,349658293.01724803,349658293.01724803,617286000.0,714143270.4797641,714143270.4797641,134998000.0,135984541.07129964,135984541.07129964,27783000.0,35302492.43940619,35302492.43940619,163452000.0,171605586.81126463,171605586.81126463,5489000.0,-1082852.99703527,-1082852.99703527,129509000.0,139411606.0015554,139411606.0015554,5489000.0,-2272592.917970293,-2272592.917970293
457,632,1,665104000.0,956285739.8969108,956285739.8969108,575531000.0,460472944.425724,460472944.425724,89573000.0,748371765.1282442,748371765.1282442,30803000.0,37644955.26091342,37644955.26091342,19437000.0,11123556.507724777,11123556.507724777,50240000.0,63396951.95978691,63396951.95978691,10357000.0,8969.451046764385,8969.451046764385,22017000.0,34417332.421544895,34417332.421544895,8786000.0,6306250.0,6306250.0
560,618,0,1900367000.0,1625346657.4586945,1625346657.4586945,289037000.0,427125241.8907635,427125241.8907635,1613343000.0,873398253.0588872,873398253.0588872,45433000.0,205417578.15342903,205417578.15342903,413911000.0,464353621.94812554,464353621.94812554,459344000.0,675845949.0077342,675845949.0077342,-6757000.0,209516632.23593813,209516632.23593813,52246000.0,66674146.31885993,66674146.31885993,-6813000.0,181312392.72865093,181312392.72865093
1402,1560,4,88944000.0,335398856.67390823,335398856.67390823,45361000.0,-29185917.191709183,-29185917.191709183,43583000.0,327713833.3964689,327713833.3964689,0.0,0.0,0.0,45000.0,-6324356.632120521,-6324356.632120521,45000.0,7899060.434100738,7899060.434100738,-14351000.0,-14505558.483290203,-14505558.483290203,14351000.0,19919015.469432976,19919015.469432976,-14351000.0,-14741149.999999996,-14741149.999999996
1274,683,0,5390785000.0,5941714744.798213,5941714744.798213,4083098000.0,4600969871.460546,4600969871.460546,1050686000.0,1035545872.4163524,1035545872.4163524,352054000.0,366682154.6167033,366682154.6167033,284900000.0,305337237.7209191,305337237.7209191,636954000.0,678871796.9822396,678871796.9822396,120850000.0,130477300.78075005,130477300.78075005,187232000.0,199924019.58164346,199924019.58164346,164822000.0,170316886.89626598,170316886.89626598
799,1475,3,18535000.0,275682649.8247553,275682649.8247553,13748000.0,-87270676.86326176,-87270676.86326176,4787000.0,490224138.9916492,490224138.9916492,2839000.0,8946834.830674,8946834.830674,7502000.0,16337144.282808632,16337144.282808632,10341000.0,24295479.16710674,24295479.16710674,-2229000.0,84133.88602820178,84133.88602820178,3071000.0,10614886.970364735,10614886.970364735,-232000.0,-170089.4076898503,-170089.4076898503
1436,366,2,13281300000.0,9341191774.82083,9341191774.82083,5777300000.0,5453593286.903426,5453593286.903426,7484300000.0,3943595246.019824,3943595246.019824,1030700000.0,1009727034.9697725,1009727034.9697725,1150100000.0,1113554599.5715413,1113554599.5715413,2180800000.0,2125897028.5527894,2125897028.5527894,687000000.0,615086509.0487337,615086509.0487337,343700000.0,375075637.800763,375075637.800763,687000000.0,641676968.2493105,641676968.2493105
1518,564,4,108681735.0,380097631.20257115,380097631.20257115,9192190.0,-91144164.09055486,-91144164.09055486,67531550.37365061,321218291.00524265,321218291.00524265,2201326.0,-261289.0,-261289.0,255772.0,-5705642.319372683,-5705642.319372683,2457098.0,5209127.235618683,5209127.235618683,-8935951.0,-11052734.024911962,-11052734.024911962,11137277.0,17855299.20264846,17855299.20264846,-8935951.0,-11414929.45,-11414929.45
211,1245,3,189692000.0,446492497.1942154,446492497.1942154,90178000.0,12547941.116698563,12547941.116698563,99514000.0,595834402.6131316,595834402.6131316,-4411000.0,3398361.537594863,3398361.537594863,24963000.0,34728636.57410083,34728636.57410083,20552000.0,38391889.98044849,38391889.98044849,-10000000.0,-3902041.0652273684,-3902041.0652273684,5589000.0,12170543.23281734,12170543.23281734,-10000000.0,-6033518.577959086,-6033518.577959086
1542,539,4,230878000.0,457251961.57556385,457251961.57556385,57278000.0,5320041.489382185,5320041.489382185,173600000.0,390921934.3815356,390921934.3815356,26973000.0,26987000.0,26987000.0,7041000.0,-1313200.2386681847,-1313200.2386681847,34014000.0,40353499.80457123,40353499.80457123,-11169000.0,-13043521.117697548,-13043521.117697548,38142000.0,45455493.92037923,45455493.92037923,-11169000.0,-11942649.999999998,-11942649.999999998
1496,129,4,73773000.0,336187728.71511436,336187728.71511436,50819000.0,-50894703.13929136,-50894703.13929136,38847689.64492722,335196123.9816181,335196123.9816181,5428000.0,5937000.0,5937000.0,22481000.0,9194896.285116667,9194896.285116667,27909000.0,33460372.220115,33460372.220115,-1778000.0,-3205757.818085797,-3205757.818085797,7206000.0,14089734.41584152,14089734.41584152,-1778000.0,-2042549.9999999993,-2042549.9999999993
1891,794,4,1582767000.0,1661849662.9282417,1661849662.9282417,680421000.0,664749183.5376669,664749183.5376669,880211000.0,746535587.006287,746535587.006287,56683000.0,54943000.0,54943000.0,17637000.0,10284896.171387896,10284896.171387896,74320000.0,79781634.0696784,79781634.0696784,-5119000.0,-13366437.724489937,-13366437.724489937,35279000.0,45456715.093566835,45456715.093566835,21404000.0,17065378.4,17065378.4
362,1155,3,5641000.0,212344666.68759874,212344666.68759874,5200000.0,-97164991.68747532,-97164991.68747532,-3859000.0,380604671.76291764,380604671.76291764,1192000.0,6473857.853153162,6473857.853153162,781000.0,8582977.936949106,8582977.936949106,1973000.0,13746479.789999172,13746479.789999172,-97000.0,118738.58592890296,118738.58592890296,2070000.0,9353036.462558847,9353036.462558847,-878000.0,-1450796.3879361362,-1450796.3879361362
605,905,3,3208196000.0,3000263465.529126,3000263465.529126,2133043000.0,1918422509.5106065,1918422509.5106065,1075153000.0,1498808662.978018,1498808662.978018,625972000.0,657140881.1224054,657140881.1224054,1066275000.0,1092161486.6677363,1092161486.6677363,1692247000.0,1748350732.4758377,1748350732.4758377,91616000.0,104847627.13164108,104847627.13164108,497965000.0,485371603.6348091,485371603.6348091,128007000.0,163760990.2129346,163760990.2129346
384,713,0,13057000.0,7752237.748146981,7752237.748146981,4943774.229094189,14172410.61962089,14172410.61962089,10949000.0,43675242.892427295,43675242.892427295,7944000.0,3364720.603574273,3364720.603574273,0.0,-3378604.5740578393,-3378604.5740578393,7944000.0,-2562322.8499960173,-2562322.8499960173,1997000.0,-1452329.872500523,-1452329.872500523,5947000.0,9110069.719863528,9110069.719863528,1997000.0,-2154168.8358847713,-2154168.8358847713
438,1575,4,5973000000.0,5218304643.747451,5218304643.747451,4408000000.0,3836309131.380178,3836309131.380178,1554000000.0,1930708954.0779097,1930708954.0779097,244000000.0,251000000.0,251000000.0,1526000000.0,1488853662.2493298,1488853662.2493298,1770000000.0,1768656717.1632898,1768656717.1632898,147000000.0,50724803.336693086,50724803.336693086,127000000.0,126546703.43779583,126546703.43779583,117000000.0,129850000.0,129850000.0
1761,738,0,589088000.0,720959257.3829215,720959257.3829215,253950000.0,363820456.8275144,363820456.8275144,335138000.0,353561835.54832613,353561835.54832613,19294000.0,27087660.263928972,27087660.263928972,99428000.0,89732428.83752558,89732428.83752558,118722000.0,115058951.23337518,115058951.23337518,9057000.0,11428028.942013852,11428028.942013852,10237000.0,17736381.86178721,17736381.86178721,9057000.0,11449033.674816819,11449033.674816819
403,525,3,21286772.0,206349634.0472284,206349634.0472284,1383236.0,-81318836.67375886,-81318836.67375886,19903536.0,446190547.5182324,446190547.5182324,781782.0,5982987.636387512,5982987.636387512,421382.0,8322465.403620557,8322465.403620557,1203164.0,13816847.318768213,13816847.318768213,-1960898.0,-546720.6061064871,-546720.6061064871,2742680.0,9779869.355035657,9779869.355035657,-1960898.0,-1762562.1167224166,-1762562.1167224166
388,1349,4,3445920.0,347002761.3830097,347002761.3830097,1859560.0,-50663162.144091584,-50663162.144091584,1616914.0883314284,144522448.5006038,144522448.5006038,2970901.0,1095092.0,1095092.0,569508.0,-1719119.7601070916,-1719119.7601070916,805185.0,9940143.920707028,9940143.920707028,2437201.0,-10760647.76443195,-10760647.76443195,533700.0,6964300.601153813,6964300.601153813,2437201.0,531952.1499999999,531952.1499999999
1452,124,4,328158000.0,611326139.1382796,611326139.1382796,124250521.82515822,79618305.29923439,79618305.29923439,270486000.0,467069225.366396,467069225.366396,24944000.0,28972000.0,28972000.0,16521000.0,10458446.512899842,10458446.512899842,41465000.0,51092262.53876012,51092262.53876012,-7674000.0,-6287087.997867992,-6287087.997867992,24827000.0,30142446.425520193,30142446.425520193,117000.0,3678600.000000001,3678600.000000001
1876,412,1,2498305.0,314972213.3485676,314972213.3485676,2997402.0,-46474071.15063146,-46474071.15063146,-3454854.0,428490513.8292211,428490513.8292211,467340.0,6553396.536547356,6553396.536547356,346611.0,2730575.2153458865,2730575.2153458865,813951.0,13135214.279967155,13135214.279967155,-114631.0,2826465.5221289936,2826465.5221289936,581971.0,6825589.3302048715,6825589.3302048715,-114631.0,-561072.7,-561072.7
757,651,2,1288046000.0,1567514215.8739893,1567514215.8739893,649920845.9604261,701460625.3812692,701460625.3812692,889849000.0,956393071.587445,956393071.587445,105384000.0,107371775.3101743,107371775.3101743,285360000.0,267467463.1334982,267467463.1334982,390744000.0,386676964.2419905,386676964.2419905,53190000.0,41548994.2349848,41548994.2349848,52194000.0,59555172.047359824,59555172.047359824,53190000.0,40053046.76344976,40053046.76344976
660,226,2,600057000.0,943551623.3888496,943551623.3888496,369915000.0,325955226.9650712,325955226.9650712,225443000.0,619601744.2559525,619601744.2559525,43121000.0,50902887.13067609,50902887.13067609,106269000.0,83577974.67838326,83577974.67838326,149390000.0,148362493.91614214,148362493.91614214,7853000.0,9973959.062071357,9973959.062071357,30439000.0,34981881.51417351,34981881.51417351,12682000.0,9787389.683122553,9787389.683122553
197,709,4,538955000.0,623300707.7537127,623300707.7537127,291671000.0,-50540814.741951354,-50540814.741951354,247284000.0,395814103.22562516,395814103.22562516,-14193000.0,-12227000.0,-12227000.0,14235000.0,7191148.726872999,7191148.726872999,42000.0,5850438.324405547,5850438.324405547,-51845000.0,-55598534.7105701,-55598534.7105701,37652000.0,54286231.4897706,54286231.4897706,-51845000.0,-58774649.999999985,-58774649.999999985
93,962,1,25334074.0,351857948.3565469,351857948.3565469,18917048.0,-54150811.79308522,-54150811.79308522,5501613.0,460279619.7892318,460279619.7892318,-536032.0,8161466.533735275,8161466.533735275,4501393.0,2188587.0668639187,2188587.0668639187,3965361.0,18144304.340780936,18144304.340780936,-2975120.0,-5486733.749259559,-5486733.749259559,2439088.0,12241777.16659772,12241777.16659772,-2975120.0,-5102806.05,-5102806.05
472,1463,0,1934400000.0,2166478595.850718,2166478595.850718,855887268.5537325,993618843.435107,993618843.435107,957200000.0,915460897.0086745,915460897.0086745,84000000.0,126052284.13940173,126052284.13940173,375600000.0,412711240.95990795,412711240.95990795,459600000.0,546016332.2860053,546016332.2860053,30800000.0,69846216.19930504,69846216.19930504,59000000.0,69508275.47241141,69508275.47241141,25000000.0,63784534.43385932,63784534.43385932
1345,573,0,102973000.0,404621871.1471061,404621871.1471061,162948000.0,73036564.01753053,73036564.01753053,-346214000.0,-79629619.22294217,-79629619.22294217,-13037000.0,-1284396.1861277297,-1284396.1861277297,25768000.0,21007055.002413675,21007055.002413675,12731000.0,19477838.9506548,19477838.9506548,-23219000.0,-11016557.165329928,-11016557.165329928,35950000.0,33207498.698137693,33207498.698137693,-48987000.0,-30798416.895697154,-30798416.895697154
1672,351,2,2501300000.0,2694819090.442674,2694819090.442674,1075500000.0,1393275096.9206057,1393275096.9206057,1407900000.0,1051397041.92393,1051397041.92393,99600000.0,125174630.66208562,125174630.66208562,151100000.0,158484212.8335456,158484212.8335456,250700000.0,297351755.05423623,297351755.05423623,31900000.0,3869275.4598884825,3869275.4598884825,67700000.0,128587911.74440977,128587911.74440977,31900000.0,-8851035.024881706,-8851035.024881706
521,298,0,27910000000.0,32365142383.332645,32365142383.332645,24392000000.0,27317227032.71287,27317227032.71287,14058781786.346067,15991978536.038454,15991978536.038454,1525000000.0,1402435999.5068192,1402435999.5068192,6421000000.0,6058579073.7541065,6058579073.7541065,7946000000.0,6966144360.898191,6966144360.898191,561000000.0,-44145130.770782575,-44145130.770782575,638000000.0,598282935.0098388,598282935.0098388,887000000.0,431080692.61844754,431080692.61844754
1143,519,4,105238000.0,378323592.4976025,378323592.4976025,42240000.0,-40335692.08326217,-40335692.08326217,62998000.0,341773558.9891224,341773558.9891224,8572000.0,8290000.0,8290000.0,322000.0,-2981296.3715140466,-2981296.3715140466,8894000.0,14240344.017979538,14240344.017979538,2218000.0,3664434.94075258,3664434.94075258,6354000.0,12647312.089284882,12647312.089284882,2218000.0,2921550.0,2921550.0
502,1365,3,2010176000.0,2110507343.9498906,2110507343.9498906,889414829.379791,834209359.2099278,834209359.2099278,1057656000.0,1155117835.7409034,1155117835.7409034,113627000.0,129513389.94107151,129513389.94107151,250202000.0,259660038.48859626,259660038.48859626,363829000.0,387801372.70515126,387801372.70515126,44531000.0,56922075.112827845,56922075.112827845,69096000.0,78080980.75278273,78080980.75278273,44531000.0,53941755.37847962,53941755.37847962
319,621,2,15154000000.0,11470969733.094425,11470969733.094425,5534200000.0,5475439411.038464,5475439411.038464,9554000000.0,4608274972.4509735,4608274972.4509735,739300000.0,709686088.1340833,709686088.1340833,999600000.0,986932382.8800372,986932382.8800372,1738900000.0,1712733804.3967996,1712733804.3967996,318400000.0,251097468.09618464,251097468.09618464,315200000.0,317302022.6031512,317302022.6031512,424100000.0,369422872.44536346,369422872.44536346
471,516,2,346507000.0,939527135.9575005,939527135.9575005,100361000.0,118050404.3038427,118050404.3038427,246146000.0,552567765.6244534,552567765.6244534,14398000.0,23097307.367630295,23097307.367630295,62502000.0,57384948.93845314,57384948.93845314,72480000.0,87950188.49986677,87950188.49986677,4926000.0,4246811.626205079,4246811.626205079,9472000.0,17930346.426604956,17930346.426604956,4926000.0,1336127.737118817,1336127.737118817
1756,421,2,229309000.0,730956621.2157576,730956621.2157576,190264000.0,182298695.97422302,182298695.97422302,-44269000.0,512814497.010442,512814497.010442,9225000.0,22572709.057883732,22572709.057883732,52669000.0,72351250.7086351,72351250.7086351,61894000.0,106873950.14883079,106873950.14883079,1401000.0,7619311.841491194,7619311.841491194,7511000.0,12584146.553642163,12584146.553642163,1714000.0,4421794.758430654,4421794.758430654
848,415,3,101740000.0,343168324.6482673,343168324.6482673,28463000.0,-53489274.25872284,-53489274.25872284,50734000.0,462869090.83140755,462869090.83140755,29850000.0,32097013.67697426,32097013.67697426,12745000.0,20065938.820555184,20065938.820555184,40857000.0,52692064.01082838,52692064.01082838,2689000.0,3831902.1968019814,3831902.1968019814,27161000.0,32791208.114291176,32791208.114291176,2689000.0,3946403.4411624875,3946403.4411624875
1310,660,3,9582645000.0,6667855122.527005,6667855122.527005,3280269000.0,1831824061.1848407,1831824061.1848407,6302376000.0,2296850482.063179,2296850482.063179,376175000.0,318297833.42625976,318297833.42625976,424915000.0,519860338.24222285,519860338.24222285,801090000.0,829926716.9035671,829926716.9035671,272965000.0,172130624.9875939,172130624.9875939,103421000.0,144941813.8873432,144941813.8873432,272754000.0,170548177.16557235,170548177.16557235
202,496,2,609678000.0,1032359140.4334058,1032359140.4334058,288631252.1743736,295764782.68557614,295764782.68557614,366720000.0,639702347.3584329,639702347.3584329,84451000.0,89782712.29552558,89782712.29552558,21802000.0,20844993.608653378,20844993.608653378,106253000.0,121639331.70100532,121639331.70100532,5683000.0,4303796.549525398,4303796.549525398,78768000.0,87517357.98706038,87517357.98706038,5683000.0,1510981.8787736744,1510981.8787736744
1444,1250,3,43441700000.0,37651432223.04697,37651432223.04697,21559314449.01792,20513595203.168034,20513595203.168034,21882385550.98208,7900936600.343119,7900936600.343119,1370000000.0,1305000366.4538708,1305000366.4538708,587400000.0,551275401.6482537,551275401.6482537,1957400000.0,1846442996.8646278,1846442996.8646278,472000000.0,433145797.5051643,433145797.5051643,1485400000.0,1423392526.4117136,1423392526.4117136,-115400000.0,-107050905.47709689,-107050905.47709689
1578,687,1,1146353000.0,1390783122.307581,1390783122.307581,752649000.0,704205108.5960326,704205108.5960326,393704000.0,718250155.4548357,718250155.4548357,95229000.0,100915824.53895864,100915824.53895864,32092000.0,31028914.76862064,31028914.76862064,127321000.0,147868238.34008646,147868238.34008646,-58245000.0,-58647576.74728594,-58647576.74728594,153474000.0,158786521.6355886,158786521.6355886,-58245000.0,-60395899.999999985,-60395899.999999985
451,1036,2,796771.0,458702623.2631533,458702623.2631533,1072746.0,-33343194.320891023,-33343194.320891023,-275975.0,417305785.64711994,417305785.64711994,205707.0,9250607.847102348,9250607.847102348,158335.0,-1389964.138193523,-1389964.138193523,364042.0,18208254.108582936,18208254.108582936,-168127.0,3064631.4913691375,3064631.4913691375,373834.0,9280231.370176848,9280231.370176848,-168127.0,-146496.25337773003,-146496.25337773003
35,1172,1,9069035000.0,5775092179.137071,5775092179.137071,2563480000.0,1961353794.9313228,1961353794.9313228,6505555000.0,2131216354.6901822,2131216354.6901822,942419000.0,895870130.7222085,895870130.7222085,522866000.0,538070125.5158006,538070125.5158006,1285548000.0,1286708424.7573843,1286708424.7573843,602695000.0,513856023.719168,513856023.719168,339724000.0,351247337.7709123,351247337.7709123,602695000.0,517603650.0,517603650.0
237,194,4,48924605000.0,40479622240.562126,40479622240.562126,25766652000.0,21222991597.39757,21222991597.39757,22441501000.0,14611123814.21941,14611123814.21941,1560160000.0,1510517000.0,1510517000.0,915531000.0,936841829.4124532,936841829.4124532,2475691000.0,2511186873.6450324,2511186873.6450324,558196000.0,459221829.7557734,459221829.7557734,1001964000.0,995815981.7925445,995815981.7925445,558196000.0,464605849.99999994,464605849.99999994
917,1116,2,514281000.0,1012009318.8040217,1012009318.8040217,309957000.0,393307241.0646811,393307241.0646811,198004000.0,772465401.4474117,772465401.4474117,106985000.0,60884816.90772359,60884816.90772359,149052000.0,91693135.16470876,91693135.16470876,309744000.0,189529406.98942953,189529406.98942953,62399000.0,16665906.021630902,16665906.021630902,44586000.0,42457399.565125585,42457399.565125585,62399000.0,14163559.240883842,14163559.240883842
558,251,2,17876000000.0,16031689306.477825,16031689306.477825,4077000000.0,2868810085.4036593,2868810085.4036593,13799000000.0,5146137590.86741,5146137590.86741,-917000000.0,-686879499.1633888,-686879499.1633888,1453000000.0,962741758.0749125,962741758.0749125,536000000.0,397148617.7661101,397148617.7661101,-1774000000.0,-1511910160.4563823,-1511910160.4563823,857000000.0,990419358.6239994,990419358.6239994,-1774000000.0,-1654563387.1141047,-1654563387.1141047
73,532,1,218354000.0,628665888.4189262,628665888.4189262,62021000.0,7646432.563798852,7646432.563798852,156333000.0,572315897.674589,572315897.674589,-143000.0,8672188.056772463,8672188.056772463,848000.0,770396.9233713541,770396.9233713541,705000.0,19311484.817576613,19311484.817576613,-31577000.0,-30696025.035825226,-30696025.035825226,40859000.0,43836537.89962617,43836537.89962617,-41002000.0,-33921799.99999999,-33921799.99999999
532,205,3,2268100000.0,2519926832.302025,2519926832.302025,1627400000.0,1753577081.5472965,1753577081.5472965,640700000.0,1152687915.8364127,1152687915.8364127,78400000.0,102365599.2316399,102365599.2316399,665200000.0,724292509.5253817,724292509.5253817,743600000.0,827549902.3099256,827549902.3099256,19100000.0,38857070.10879345,38857070.10879345,724500000.0,771611217.2830259,771611217.2830259,-646100000.0,-682601457.1763687,-682601457.1763687
986,275,3,49117000.0,305431220.06890965,305431220.06890965,7104000.0,-80649051.150801,-80649051.150801,42013000.0,480994626.4968351,480994626.4968351,1616000.0,6319371.356507516,6319371.356507516,3273000.0,11090772.763693796,11090772.763693796,4889000.0,17901202.265353158,17901202.265353158,-1489000.0,-255679.644898667,-255679.644898667,3105000.0,10802747.422263581,10802747.422263581,-1489000.0,-1641509.8515034216,-1641509.8515034216
252,1030,3,12822000.0,199565097.3239766,199565097.3239766,1624000.0,-100319678.85341257,-100319678.85341257,11198000.0,420873442.7154262,420873442.7154262,0.0,5013829.953339619,5013829.953339619,0.0,7678517.2143372325,7678517.2143372325,0.0,12396602.021125924,12396602.021125924,-1983000.0,388821.25073943613,388821.25073943613,1983000.0,8848183.550009465,8848183.550009465,-1983000.0,-2081520.2121402589,-2081520.2121402589
982,1392,1,543788000.0,977479538.6111428,977479538.6111428,205894547.02387,207325679.93898132,207325679.93898132,402777000.0,615725487.9724269,615725487.9724269,1944000.0,8690342.739337357,8690342.739337357,0.0,-4370295.002354933,-4370295.002354933,1944000.0,18806463.88565436,18806463.88565436,-51279000.0,-54233582.83222384,-54233582.83222384,53223000.0,77451058.230429,77451058.230429,-51279000.0,-58660350.00000001,-58660350.00000001
1947,616,2,16965000000.0,13809123752.27353,13809123752.27353,7506269391.549871,7376466745.236799,7376466745.236799,7744800000.0,5863630030.115215,5863630030.115215,1329900000.0,1163963290.2341044,1163963290.2341044,1175700000.0,1147492050.0479026,1147492050.0479026,2505600000.0,2332394666.054942,2332394666.054942,1069200000.0,970540976.6704607,970540976.6704607,32700000.0,41744239.64447264,41744239.64447264,1297200000.0,1181641862.92567,1181641862.92567
1206,918,0,29788000.0,200063922.75501597,200063922.75501597,27907000.0,122845688.4421064,122845688.4421064,1881000.0,94695722.51051892,94695722.51051892,0.0,3226141.180829243,3226141.180829243,3452000.0,-3506294.2442868394,-3506294.2442868394,3452000.0,-1733066.8379344903,-1733066.8379344903,-23801000.0,-16977290.177582167,-16977290.177582167,23801000.0,24733840.341886364,24733840.341886364,-23801000.0,-17472175.13879053,-17472175.13879053
542,1191,2,39315010.0,541405961.9287943,541405961.9287943,15768167.0,-37478216.13722737,-37478216.13722737,23791305.0,450155104.9745292,450155104.9745292,7600979.0,14918853.513657238,14918853.513657238,41810204.0,22379807.38744541,22379807.38744541,49411183.0,53343508.93338701,53343508.93338701,-1588725.0,1699228.583387243,1699228.583387243,9189704.0,12132204.080027925,12132204.080027925,-1588725.0,-2047013.561024744,-2047013.561024744
15,899,4,184728000.0,372002812.496639,372002812.496639,40367000.0,-50199387.4158684,-50199387.4158684,144361000.0,327363385.6817764,327363385.6817764,0.0,0.0,0.0,8094000.0,-1031044.8329156525,-1031044.8329156525,8094000.0,5991469.3958849795,5991469.3958849795,-23114000.0,-30603727.245568234,-30603727.245568234,23114000.0,31589709.36535869,31589709.36535869,-23114000.0,-27335499.999999993,-27335499.999999993
1754,856,2,5014090000.0,4249772261.3752747,4249772261.3752747,2606263000.0,2721262931.797572,2721262931.797572,2407827000.0,1627636679.5790486,1627636679.5790486,420690000.0,433966625.997442,433966625.997442,905430000.0,896352833.5921222,896352833.5921222,1326120000.0,1340305118.5574148,1340305118.5574148,237492000.0,219439549.61810842,219439549.61810842,183198000.0,189262808.3693742,189262808.3693742,237492000.0,228624112.50849533,228624112.50849533
1448,1495,3,3543460000.0,3030351610.9550643,3030351610.9550643,2602227000.0,2308211316.917548,2308211316.917548,941233000.0,1073612994.8595262,1073612994.8595262,443568000.0,432720563.7328655,432720563.7328655,134292000.0,135008992.92766285,135008992.92766285,414603000.0,415743872.7426867,415743872.7426867,14363000.0,-2678233.499652557,-2678233.499652557,429205000.0,426746416.7471228,426746416.7471228,14363000.0,-3597502.5078001055,-3597502.5078001055
459,1563,1,747087000.0,1083146932.6316257,1083146932.6316257,79688000.0,67465443.81238005,67465443.81238005,667399000.0,608227630.5504458,608227630.5504458,34565000.0,43155080.36881082,43155080.36881082,22203000.0,16045158.648271583,16045158.648271583,57261000.0,72907774.35926355,72907774.35926355,-16306000.0,-19731856.742480405,-19731856.742480405,50871000.0,66601184.622206606,66601184.622206606,-16306000.0,-20293649.999999996,-20293649.999999996
1505,8,3,4578121000.0,5758033391.675317,5758033391.675317,2310023301.364386,3437316363.7031283,3437316363.7031283,2489780000.0,1953494129.3958006,1953494129.3958006,2190001000.0,2247156519.664254,2247156519.664254,-1465670000.0,-1478840239.852321,-1478840239.852321,724331000.0,750431973.560647,750431973.560647,216069000.0,253806610.0298294,253806610.0298294,1973932000.0,2161536294.0288663,2161536294.0288663,216069000.0,245979646.27252555,245979646.27252555
1613,399,4,11895943000.0,10164911585.53348,10164911585.53348,3479745000.0,3573456066.789082,3573456066.789082,8416198000.0,4833112080.739169,4833112080.739169,335683000.0,362483000.0,362483000.0,296441000.0,313985242.06640524,313985242.06640524,632124000.0,702232096.4519529,702232096.4519529,90949000.0,83033669.4071048,83033669.4071048,201199000.0,215930969.24156526,215930969.24156526,134484000.0,152394050.0,152394050.0
1214,1410,3,1059300000.0,1442112344.899919,1442112344.899919,513000000.0,617790077.1197419,617790077.1197419,545000000.0,1092118967.4656842,1092118967.4656842,132000000.0,146983602.25176737,146983602.25176737,172700000.0,189696104.07382154,189696104.07382154,304700000.0,335924017.32416606,335924017.32416606,34700000.0,46534746.59547447,46534746.59547447,88200000.0,92469735.79273511,92469735.79273511,43800000.0,52835256.4385978,52835256.4385978
454,235,3,11204065000.0,9428624939.107113,9428624939.107113,4242197120.938668,3970745529.264688,3970745529.264688,3489373000.0,1867515112.1703207,1867515112.1703207,480702000.0,505233881.7319844,505233881.7319844,457696000.0,467635428.21994853,467635428.21994853,938398000.0,963426112.8629777,963426112.8629777,172392000.0,162095620.6526606,162095620.6526606,308310000.0,346093252.4083847,346093252.4083847,172392000.0,157062093.84020993,157062093.84020993
1392,34,4,531121000.0,816995260.4822717,816995260.4822717,248900000.0,258810080.74624807,258810080.74624807,282221000.0,531045089.68365085,531045089.68365085,62379000.0,68410000.0,68410000.0,135419000.0,138359561.56948283,138359561.56948283,197798000.0,213099162.4417412,213099162.4417412,18703000.0,17010401.898038387,17010401.898038387,43698000.0,58270318.22251257,58270318.22251257,18681000.0,16689400.0,16689400.0
1519,1545,4,961035000.0,1201812285.082893,1201812285.082893,1381722000.0,1292311247.7950697,1292311247.7950697,-420687000.0,489650074.3087203,489650074.3087203,271111000.0,264245000.0,264245000.0,201537000.0,230574126.360966,230574126.360966,472648000.0,468398504.0615,468398504.0615,5387000.0,15916897.905042665,15916897.905042665,265724000.0,262724745.71729717,262724745.71729717,5387000.0,13502849.999999996,13502849.999999996
1060,432,1,3194462000.0,3030924442.870139,3030924442.870139,1643299000.0,1416398807.3067489,1416398807.3067489,1512215000.0,1109038269.2736487,1109038269.2736487,817744000.0,820865744.1279671,820865744.1279671,0.0,-193271.23712381162,-193271.23712381162,817744000.0,836137990.6121265,836137990.6121265,37900000.0,49399281.77987839,49399281.77987839,779844000.0,763659192.6098828,763659192.6098828,37900000.0,49579350.0,49579350.0
1100,895,3,6042273.0,201660439.5860263,201660439.5860263,3627261.0,-74190835.80642109,-74190835.80642109,2415012.0,383215204.9938512,383215204.9938512,0.0,5351545.19579794,5351545.19579794,0.0,9319416.320201926,9319416.320201926,0.0,11939830.346044004,11939830.346044004,-1829562.0,426243.77310702903,426243.77310702903,1829562.0,8038438.124231493,8038438.124231493,-1829562.0,-1154026.2125430307,-1154026.2125430307
203,426,2,76266906.0,596926752.8811858,596926752.8811858,57438990.0,33940713.44207848,33940713.44207848,40912361.81482647,525986767.90716904,525986767.90716904,9146097.0,18794772.66905694,18794772.66905694,0.0,-5731430.349754098,-5731430.349754098,9146097.0,29326633.16538528,29326633.16538528,-2633902.0,1241142.3129537895,1241142.3129537895,11779999.0,20188049.18157978,20188049.18157978,-2633902.0,-3350260.380898079,-3350260.380898079
1493,1399,4,-3532973000.0,1362949836.1029897,1362949836.1029897,-2747133000.0,990880924.7244653,990880924.7244653,-773571000.0,621623624.5249403,621623624.5249403,87737000.0,98643000.0,98643000.0,40236000.0,360747170.23070306,360747170.23070306,103187000.0,335132643.2442446,335132643.2442446,7123000.0,-2947913.560342283,-2947913.560342283,80614000.0,149411607.92818922,149411607.92818922,7123000.0,-2391199.999999974,-2391199.999999974
543,815,3,846734000.0,1065982865.4631891,1065982865.4631891,635659000.0,193553610.31280035,193553610.31280035,69332000.0,740145625.2253586,740145625.2253586,204774000.0,355286806.5468402,355286806.5468402,-13024000.0,-327083717.51615524,-327083717.51615524,191750000.0,13838783.352410095,13838783.352410095,-52860000.0,-50148927.433233015,-50148927.433233015,257634000.0,517934716.7105612,517934716.7105612,-52860000.0,-51026533.81315729,-51026533.81315729
1966,624,4,1354514000.0,1334176158.1432176,1334176158.1432176,675720000.0,601160347.9318095,601160347.9318095,319291000.0,528087023.3691499,528087023.3691499,-16558000.0,-13816000.0,-13816000.0,64132000.0,57421080.40582322,57421080.40582322,47574000.0,61230329.79027431,61230329.79027431,22229000.0,18588506.50039025,18588506.50039025,13428000.0,25526308.865235664,25526308.865235664,-29986000.0,-27985850.0,-27985850.0
1802,437,1,270533000.0,632597039.5926778,632597039.5926778,240046000.0,174474544.68312714,174474544.68312714,30487000.0,539986097.5099976,539986097.5099976,26052000.0,39019523.49449797,39019523.49449797,12454000.0,16173349.838913057,16173349.838913057,38506000.0,65998011.96555716,65998011.96555716,-21038000.0,-12015396.675545229,-12015396.675545229,47090000.0,50885496.24775885,50885496.24775885,-21038000.0,-12720249.999999998,-12720249.999999998
1372,1341,2,583783000.0,1012793496.9468889,1012793496.9468889,717382000.0,661497795.3244426,661497795.3244426,-133599000.0,691326292.0081471,691326292.0081471,41865000.0,43993491.384526394,43993491.384526394,32703000.0,20470237.883101545,20470237.883101545,74568000.0,82979259.23501751,82979259.23501751,-32006000.0,-38669308.492747806,-38669308.492747806,48224000.0,52083600.85264936,52083600.85264936,-6359000.0,-16904858.05843236,-16904858.05843236
1325,1439,4,534446.0,190728652.17397904,190728652.17397904,9794849.0,-81160049.90391597,-81160049.90391597,-9132038.0,209035306.7353183,209035306.7353183,6264.0,9259.0,9259.0,3881.0,-2696239.161057967,-2696239.161057967,10145.0,9243397.283853909,9243397.283853909,-961868.0,-1696347.2353952255,-1696347.2353952255,972013.0,7092731.623755675,7092731.623755675,-965749.0,-977143.7999999998,-977143.7999999998
1504,1241,2,106308000.0,641428421.3614551,641428421.3614551,29369000.0,43424028.40225309,43424028.40225309,76939000.0,506730344.6006611,506730344.6006611,15630000.0,23644293.89264978,23644293.89264978,0.0,-4909485.880247342,-4909485.880247342,15630000.0,30914126.377484914,30914126.377484914,-23899000.0,-4241335.931603876,-4241335.931603876,39529000.0,29523453.548723407,29523453.548723407,-23899000.0,-8831029.76795516,-8831029.76795516
1347,1518,0,369031000.0,442404415.58082086,442404415.58082086,216722530.1814524,283057983.32681155,283057983.32681155,188777000.0,221801686.25422403,221801686.25422403,45044000.0,57309626.04418977,57309626.04418977,42173000.0,47790099.05328072,47790099.05328072,87217000.0,101745088.66122532,101745088.66122532,-3804000.0,5327910.497938275,5327910.497938275,48848000.0,58788953.03277736,58788953.03277736,-3804000.0,3230200.522656223,3230200.522656223
1492,872,1,327784000.0,750982653.539583,750982653.539583,323919000.0,221804043.31442142,221804043.31442142,3865000.0,608177443.3592634,608177443.3592634,33496000.0,38325367.48524679,38325367.48524679,8201000.0,4142158.7633348005,4142158.7633348005,41697000.0,55376864.43429883,55376864.43429883,-4913000.0,-14286390.017717332,-14286390.017717332,37287000.0,45975625.915349826,45975625.915349826,-3791000.0,-8146300.0,-8146300.0
1107,1504,4,85658000000.0,62177953211.051575,62177953211.051575,88335000000.0,90916942401.49666,90916942401.49666,-2772000000.0,2760424533.391483,2760424533.391483,5387000000.0,5018000000.0,5018000000.0,14002000000.0,12894312495.020662,12894312495.020662,16935000000.0,14997687469.053616,14997687469.053616,1165000000.0,1472683438.866041,1472683438.866041,4222000000.0,3961350439.3494406,3961350439.3494406,1165000000.0,1097049999.9999998,1097049999.9999998
1336,431,2,898860000.0,1234016881.1306074,1234016881.1306074,527877640.3036609,542433634.8892025,542433634.8892025,360528000.0,627319678.8531399,627319678.8531399,68259000.0,93372442.89288135,93372442.89288135,42065000.0,47542254.30421645,47542254.30421645,110324000.0,150397796.02138373,150397796.02138373,-1325000.0,10851826.017238569,10851826.017238569,69584000.0,78143831.61484507,78143831.61484507,-1325000.0,8074377.811777936,8074377.811777936
599,1357,1,50546000.0,403132166.46806836,403132166.46806836,5959000.0,-54733715.29903394,-54733715.29903394,44587000.0,511275889.282032,511275889.282032,1989000.0,10176524.207197,10176524.207197,1909000.0,489718.6631845897,489718.6631845897,3898000.0,19390215.06862022,19390215.06862022,-1895000.0,-2171960.4169336474,-2171960.4169336474,3884000.0,11096755.398028886,11096755.398028886,-1895000.0,-1234399.9999999986,-1234399.9999999986
117,630,3,939056000.0,904666966.6295536,904666966.6295536,419590000.0,346109956.67377293,346109956.67377293,517473000.0,926205846.3742751,926205846.3742751,90527000.0,117106264.2001503,117106264.2001503,120216000.0,122860580.0109292,122860580.0109292,210268000.0,239533926.19848073,239533926.19848073,61012000.0,78910128.40276924,78910128.40276924,29515000.0,43054359.37291973,43054359.37291973,61012000.0,76925412.16795622,76925412.16795622
1825,1520,3,20027115000.0,16565260852.784431,16565260852.784431,12952737000.0,10682954490.85399,10682954490.85399,5611108000.0,3704951115.9820695,3704951115.9820695,32786000.0,41283100.51265187,41283100.51265187,283742000.0,275681475.0059232,275681475.0059232,316528000.0,316889393.11154914,316889393.11154914,-1347477000.0,-202059664.16979885,-202059664.16979885,1910658000.0,791410292.6830881,791410292.6830881,-1877872000.0,-761759655.202703,-761759655.202703
1507,300,3,124094000.0,401561289.1295824,401561289.1295824,18130000.0,-67774126.46375823,-67774126.46375823,105964000.0,534849469.0005177,534849469.0005177,830000.0,6862509.943576759,6862509.943576759,0.0,7628635.889269634,7628635.889269634,830000.0,14568958.51000116,14568958.51000116,-5787000.0,-3717299.956147864,-3717299.956147864,6617000.0,14852648.480116315,14852648.480116315,-5787000.0,-5749326.501651181,-5749326.501651181
321,587,1,68675000.0,460975520.7682298,460975520.7682298,40331082.646745786,-9074942.816442572,-9074942.816442572,53645000.0,542461869.0979003,542461869.0979003,10938000.0,19716235.7744181,19716235.7744181,6604000.0,3799057.241778475,3799057.241778475,17542000.0,31736455.924804315,31736455.924804315,880000.0,-4874045.605470168,-4874045.605470168,10058000.0,17895970.731859624,17895970.731859624,880000.0,857871.186440678,857871.186440678
1482,433,0,1833700000.0,1989318100.5132444,1989318100.5132444,811331929.4597701,910896320.596107,910896320.596107,482900000.0,471921261.2557041,471921261.2557041,110200000.0,120804949.58001912,120804949.58001912,356000000.0,370253326.2056139,370253326.2056139,466200000.0,479740698.9438062,479740698.9438062,45700000.0,62288354.79088196,62288354.79088196,55600000.0,62750845.671926595,62750845.671926595,54600000.0,64659569.15040164,64659569.15040164
508,1187,1,62515472.0,413498672.1149855,413498672.1149855,29595817.732691668,-52122723.63461964,-52122723.63461964,21861273.0,517976779.5705763,517976779.5705763,7032458.0,14852727.432588793,14852727.432588793,11256239.0,9265143.711675499,9265143.711675499,18288697.0,32060932.263736576,32060932.263736576,-1564350.0,-942616.1545271922,-942616.1545271922,8596808.0,16524447.70534015,16524447.70534015,-1564350.0,-1574733.8499999999,-1574733.8499999999
1411,610,3,33859785.0,235869719.99531755,235869719.99531755,6178818.0,-96140292.80624813,-96140292.80624813,27680967.0,461262230.2507472,461262230.2507472,-63384.0,4536128.138252375,4536128.138252375,87873.0,7628323.352823054,7628323.352823054,24489.0,12554282.845338725,12554282.845338725,-2675666.0,-69242.20613765065,-69242.20613765065,2612282.0,10043635.503365062,10043635.503365062,-2675666.0,-2719130.8748917207,-2719130.8748917207
718,1603,3,770792000.0,1126522038.5808282,1126522038.5808282,581187000.0,525731058.39723164,525731058.39723164,188503000.0,842457301.626365,842457301.626365,456709000.0,468968993.98337233,468968993.98337233,0.0,8242952.695575598,8242952.695575598,456709000.0,475113245.89915454,475113245.89915454,-29756000.0,-20930837.054797813,-20930837.054797813,486465000.0,476029644.3399036,476029644.3399036,-29756000.0,-22562258.712028246,-22562258.712028246
1865,1457,1,4753100000.0,3039258660.4522066,3039258660.4522066,2691038000.0,1747430240.011644,1747430240.011644,2062062000.0,1355767192.7203848,1355767192.7203848,383135000.0,376527144.40510297,376527144.40510297,0.0,303941.2344143642,303941.2344143642,383135000.0,398146827.456399,398146827.456399,126771000.0,38254113.62324044,38254113.62324044,256364000.0,317560934.8180536,317560934.8180536,126771000.0,41717200.00000002,41717200.00000002
710,1426,2,9330700000.0,6227773038.141789,6227773038.141789,4987700000.0,3269640430.0200233,3269640430.0200233,4343000000.0,2611166818.981286,2611166818.981286,590200000.0,617238111.381035,617238111.381035,367100000.0,387405987.8179276,387405987.8179276,444000000.0,515221728.21737707,515221728.21737707,121300000.0,104339204.83130774,104339204.83130774,468900000.0,504221130.7300778,504221130.7300778,121300000.0,97647381.58680303,97647381.58680303
285,985,3,1797231000.0,1714271323.0897021,1714271323.0897021,1568932000.0,1551301093.7994916,1551301093.7994916,228299000.0,821033232.5337895,821033232.5337895,143030000.0,144630361.38536525,144630361.38536525,0.0,9827223.521925503,9827223.521925503,143030000.0,149344764.65217713,149344764.65217713,-113543000.0,-118773161.18566826,-118773161.18566826,256573000.0,261052350.4604439,261052350.4604439,-113543000.0,-120472674.92253184,-120472674.92253184
1609,179,4,90048000.0,381486080.5404348,381486080.5404348,45436321.63528667,-31545467.511676006,-31545467.511676006,37547000.0,348318478.62342745,348318478.62342745,2482000.0,2074000.0,2074000.0,9262000.0,1603854.036226363,1603854.036226363,11744000.0,19046168.962187856,19046168.962187856,1360000.0,-1090721.6036360846,-1090721.6036360846,2815000.0,9627253.417205948,9627253.417205948,-333000.0,-382799.99999999907,-382799.99999999907
1814,1095,3,190817000.0,468068852.0795685,468068852.0795685,91955000.0,6330143.92687428,6330143.92687428,118567925.39840196,587133394.1072918,587133394.1072918,16838000.0,23017864.226691745,23017864.226691745,21962000.0,27484866.874744114,27484866.874744114,38800000.0,51596869.388139844,51596869.388139844,3292000.0,4935581.432012508,4935581.432012508,13546000.0,20167988.476121314,20167988.476121314,3292000.0,4237194.837297745,4237194.837297745
720,50,3,24930824.0,261941820.80428824,261941820.80428824,6278564.0,-83799956.57614338,-83799956.57614338,18652260.0,544192425.1241717,544192425.1241717,7866761.0,11034101.25853005,11034101.25853005,20382092.0,21730243.50562943,21730243.50562943,28248853.0,31583046.418720186,31583046.418720186,1448213.0,2439742.75312066,2439742.75312066,6418548.0,11903227.851239294,11903227.851239294,1448213.0,1239059.5341219306,1239059.5341219306
1707,149,4,6071000000.0,6703319005.071228,6703319005.071228,14261000000.0,14292114553.19118,14292114553.19118,-8190000000.0,-1126970759.5439787,-1126970759.5439787,1287000000.0,1272000000.0,1272000000.0,421000000.0,413073387.5865561,413073387.5865561,1708000000.0,2032974082.7632275,2032974082.7632275,613000000.0,559662644.4993794,559662644.4993794,1095000000.0,1103193304.242161,1103193304.242161,192000000.0,151600000.0,151600000.0
485,1443,0,5768300000.0,5502406691.812265,5502406691.812265,3017800000.0,3120431425.1855674,3120431425.1855674,2739100000.0,2422642853.488567,2422642853.488567,487400000.0,490868510.8046658,490868510.8046658,888400000.0,881224791.1506863,881224791.1506863,1375800000.0,1350507800.1823068,1350507800.1823068,276300000.0,267592386.26762328,267592386.26762328,211100000.0,212110166.43535987,212110166.43535987,276300000.0,269980396.21101904,269980396.21101904
1364,1252,1,3486179000.0,3780552485.3462734,3780552485.3462734,1927467000.0,1843086360.347276,1843086360.347276,1501742000.0,1400378890.1603193,1400378890.1603193,315111000.0,339013087.42720735,339013087.42720735,669472000.0,660197604.6839522,660197604.6839522,949217000.0,968502091.0936308,968502091.0936308,-24190000.0,129300272.17013545,129300272.17013545,194277000.0,200518168.12003642,200518168.12003642,120834000.0,130254900.0,130254900.0
1943,1464,4,496042000.0,815020640.9329855,815020640.9329855,349488000.0,356482048.9953927,356482048.9953927,146554000.0,504267119.89662284,504267119.89662284,33924000.0,38401000.0,38401000.0,212763000.0,220055770.2624999,220055770.2624999,246687000.0,270726087.56396306,270726087.56396306,12448000.0,15195317.212066395,15195317.212066395,21476000.0,28289839.417837538,28289839.417837538,12448000.0,15428699.999999996,15428699.999999996
708,512,1,1713800000.0,1889249357.286322,1889249357.286322,864747334.9608463,914675504.2679753,914675504.2679753,585500000.0,1077356257.6313188,1077356257.6313188,141400000.0,133803466.23472972,133803466.23472972,205900000.0,201217511.98653504,201217511.98653504,347300000.0,346082571.4084196,346082571.4084196,100200000.0,80178815.4538346,80178815.4538346,64600000.0,72116854.72091964,72116854.72091964,76800000.0,60000000.0,60000000.0
1795,256,2,5817000.0,477968322.12881577,477968322.12881577,1413000.0,-4458512.795733489,-4458512.795733489,5436000.0,397839170.1077262,397839170.1077262,5000.0,8656212.240282647,8656212.240282647,0.0,-3462963.354982665,-3462963.354982665,5000.0,17297805.10365042,17297805.10365042,-3525000.0,195414.9822800483,195414.9822800483,3530000.0,8547164.381991703,8547164.381991703,-3525000.0,-3579967.932539571,-3579967.932539571
1196,860,3,4180537.0,259394975.66734573,259394975.66734573,13379601.0,-66371620.54450399,-66371620.54450399,-9199064.0,445877776.5585166,445877776.5585166,1107842.0,7053650.949758401,7053650.949758401,974711.0,10361481.184346812,10361481.184346812,2069845.0,15156153.798916236,15156153.798916236,-2577294.0,-308010.39319607615,-308010.39319607615,3685136.0,11096409.56293296,11096409.56293296,-2577294.0,-3232992.2648709044,-3232992.2648709044
1785,368,0,6656000000.0,6843721545.691157,6843721545.691157,2127000000.0,2233099495.5627055,2233099495.5627055,4529000000.0,4612605078.473019,4612605078.473019,386000000.0,408123437.0098592,408123437.0098592,110000000.0,98224940.18746325,98224940.18746325,496000000.0,500871847.3790824,500871847.3790824,-53000000.0,-58304308.73295324,-58304308.73295324,439000000.0,458724873.53192514,458724873.53192514,-53000000.0,-62980662.90061037,-62980662.90061037
1117,1482,1,191593000.0,600621411.0900126,600621411.0900126,250675000.0,170640906.86164194,170640906.86164194,89973054.63642293,591738346.9928002,591738346.9928002,28173000.0,30012352.424445223,30012352.424445223,35245000.0,35093710.01969007,35093710.01969007,63418000.0,76800122.3590281,76800122.3590281,-6852000.0,-12740980.323200239,-12740980.323200239,35025000.0,47726148.16760347,47726148.16760347,-6852000.0,-14242850.0,-14242850.0
611,528,0,69753000.0,137588377.32229102,137588377.32229102,24624000.0,190576063.99693325,190576063.99693325,45129000.0,18126863.187187485,18126863.187187485,4333000.0,4705456.950606504,4705456.950606504,3937000.0,5881832.62987132,5881832.62987132,8270000.0,3726342.5687609315,3726342.5687609315,-17948000.0,-23382360.007165663,-23382360.007165663,22281000.0,33249083.072240703,33249083.072240703,-17948000.0,-24951447.32657771,-24951447.32657771
1037,1096,2,12798100000.0,10834667876.661512,10834667876.661512,7698700000.0,8366391452.249118,8366391452.249118,5099400000.0,4118667951.0051937,4118667951.0051937,578600000.0,602105273.7760367,602105273.7760367,1141600000.0,1160214467.1937838,1160214467.1937838,1720200000.0,1770014426.0444484,1770014426.0444484,210200000.0,121241087.88123107,121241087.88123107,368400000.0,369526027.0254558,369526027.0254558,210200000.0,231997139.30164972,231997139.30164972
1049,1368,0,41718000.0,116535291.6599168,116535291.6599168,16883000.0,64854312.713677764,64854312.713677764,24835000.0,61167897.00402863,61167897.00402863,4472000.0,7570423.534286138,7570423.534286138,-7000.0,1487562.2730332855,1487562.2730332855,4465000.0,6854148.638011726,6854148.638011726,467000.0,910109.3239790124,910109.3239790124,4005000.0,10123996.977658104,10123996.977658104,467000.0,2004094.3342421246,2004094.3342421246
181,192,1,2175066000.0,2216785200.270375,2216785200.270375,720018000.0,504061028.3557751,504061028.3557751,1455048000.0,880332893.4083042,880332893.4083042,262895000.0,268922126.58173335,268922126.58173335,0.0,-2474714.252625593,-2474714.252625593,262895000.0,280539224.1700248,280539224.1700248,-74357000.0,-42722016.42849084,-42722016.42849084,337252000.0,310061722.7909721,310061722.7909721,-74357000.0,-45786299.99999999,-45786299.99999999
1530,1427,1,432444000.0,787137244.6909068,787137244.6909068,58115000.0,34373878.92030848,34373878.92030848,374329000.0,585182300.7281667,585182300.7281667,30953000.0,39089945.98991346,39089945.98991346,9019000.0,8196185.250603467,8196185.250603467,39972000.0,59053460.48431241,59053460.48431241,-4508000.0,-6496518.079383416,-6496518.079383416,35461000.0,45139757.00928204,45139757.00928204,-4508000.0,-6105499.999999998,-6105499.999999998
1172,703,0,1951144000.0,2243492487.1325693,2243492487.1325693,976648000.0,1090708399.1607938,1090708399.1607938,828149000.0,968759498.9590224,968759498.9590224,81471000.0,23653460.48075757,23653460.48075757,811299000.0,880201063.7241523,880201063.7241523,892770000.0,882136659.5369161,882136659.5369161,21174000.0,-48435492.28049688,-48435492.28049688,35340000.0,39200577.18198055,39200577.18198055,46131000.0,-16190474.333676767,-16190474.333676767
1844,177,1,5184000.0,307566558.16430986,307566558.16430986,33317000.0,-15618386.526413955,-15618386.526413955,2568262.933576247,454934209.53708386,454934209.53708386,28000.0,7573403.695831895,7573403.695831895,1138000.0,1617293.5356734125,1617293.5356734125,1166000.0,12667093.142085627,12667093.142085627,-1174000.0,-3217021.6239607227,-3217021.6239607227,1202000.0,11935665.554542363,11935665.554542363,-1174000.0,-1579499.9999999995,-1579499.9999999995
937,1211,2,30042800000.0,24219515347.25612,24219515347.25612,15158963259.867964,14287052266.310188,14287052266.310188,10331300000.0,6115771758.057498,6115771758.057498,1541600000.0,1515047336.1232393,1515047336.1232393,2284300000.0,2228066822.1910377,2228066822.1910377,3825900000.0,3762351979.76566,3762351979.76566,727800000.0,669360850.4215664,669360850.4215664,402100000.0,400135696.35718125,400135696.35718125,1139500000.0,1088529137.5658207,1088529137.5658207
1319,819,4,3143366000.0,2841145347.267394,2841145347.267394,724791000.0,675960896.075317,675960896.075317,1686216654.8151803,1166036154.857367,1166036154.857367,293240000.0,160787000.0,160787000.0,0.0,-4479986.9729930395,-4479986.9729930395,293240000.0,171618107.96014237,171618107.96014237,242794000.0,117199651.98242036,117199651.98242036,50446000.0,55974433.186672606,55974433.186672606,242794000.0,116692200.0,116692200.0
785,508,0,2558318838.0,2477462603.8636923,2477462603.8636923,289865031.0,385490751.2050718,385490751.2050718,2268453807.0,2106873998.6080952,2106873998.6080952,191440633.0,192204229.90745476,192204229.90745476,384407857.0,367156891.38980144,367156891.38980144,575848490.0,556030809.9315585,556030809.9315585,122416529.0,119128707.22916171,119128707.22916171,69024104.0,71251279.19715974,71251279.19715974,122416529.0,121015044.07673086,121015044.07673086
534,742,1,355784000.0,900031929.386133,900031929.386133,359982000.0,303947626.1008786,303947626.1008786,21035000.0,705239380.3929124,705239380.3929124,21274000.0,28381539.84592147,28381539.84592147,23247000.0,20838960.822779708,20838960.822779708,43857000.0,59645009.57700454,59645009.57700454,-2501000.0,-3228848.374688221,-3228848.374688221,23775000.0,35685550.62291634,35685550.62291634,-2501000.0,-4694000.0,-4694000.0
1073,970,3,107571000000.0,94039850999.75783,94039850999.75783,49865975585.04998,48332778571.818855,48332778571.818855,57705024414.95002,26973309822.76424,26973309822.76424,4680000000.0,4252865523.8642955,4252865523.8642955,16059000000.0,14088296847.652466,14088296847.652466,20739000000.0,18269642640.4474,18269642640.4474,2233000000.0,1854162499.7046494,1854162499.7046494,234000000.0,286409878.3990878,286409878.3990878,4446000000.0,4007796036.1228976,4007796036.1228976
871,1115,3,357016000.0,611867237.3698428,611867237.3698428,134021000.0,82187566.90255582,82187566.90255582,222995000.0,606196398.8646277,606196398.8646277,10859000.0,16200821.17886721,16200821.17886721,60424000.0,66722339.92554162,66722339.92554162,71283000.0,81450986.27304564,81450986.27304564,4410000.0,6245245.917478717,6245245.917478717,6449000.0,14210889.335365482,14210889.335365482,4410000.0,4990972.243463397,4990972.243463397
145,1561,3,10492900000.0,9344382253.485271,9344382253.485271,4642648635.342979,4627067778.840835,4627067778.840835,7724300000.0,2989349860.6587586,2989349860.6587586,1077000000.0,1230607741.8109565,1230607741.8109565,2546000000.0,2668319392.531381,2668319392.531381,3623000000.0,3898215928.3863544,3898215928.3863544,389500000.0,517363531.8833909,517363531.8833909,626900000.0,649050773.2100366,649050773.2100366,450100000.0,574428042.1091057,574428042.1091057
1137,1231,2,221167000.0,753714893.1158668,753714893.1158668,272405000.0,186798952.15450686,186798952.15450686,-51238000.0,589607756.61221,589607756.61221,26384000.0,34833177.05650599,34833177.05650599,0.0,-4369422.250812229,-4369422.250812229,26384000.0,43621838.19050896,43621838.19050896,3123000.0,-2326726.515723968,-2326726.515723968,23261000.0,38408864.480949186,38408864.480949186,3123000.0,-6497437.010678629,-6497437.010678629
1853,1087,1,644700000.0,1077368202.6316235,1077368202.6316235,668700000.0,701413750.8637553,701413750.8637553,-24000000.0,766751325.2957699,766751325.2957699,11300000.0,36840914.82629652,36840914.82629652,30400000.0,55988653.18346527,55988653.18346527,40500000.0,66854786.74858629,66854786.74858629,-2900000.0,11616356.67072674,11616356.67072674,9300000.0,18996959.303080864,18996959.303080864,2000000.0,17749999.999999993,17749999.999999993
1607,435,3,5733000000.0,4826824547.054778,4826824547.054778,4386600000.0,4113729131.970024,4113729131.970024,1332700000.0,1734460769.1777148,1734460769.1777148,508800000.0,513104593.51730597,513104593.51730597,1740100000.0,1721482944.04001,1721482944.04001,2248900000.0,2230626748.0868387,2230626748.0868387,201100000.0,201621837.73023668,201621837.73023668,328200000.0,331409647.1333843,331409647.1333843,180600000.0,178517581.19145977,178517581.19145977
497,361,2,3187469000.0,2869485092.118122,2869485092.118122,1581882073.387936,1419266346.117727,1419266346.117727,1402929000.0,859371781.2140963,859371781.2140963,12023000.0,5240295.1960700955,5240295.1960700955,118303000.0,120080925.29304299,120080925.29304299,130326000.0,134672231.81822184,134672231.81822184,121116000.0,98015528.34838319,98015528.34838319,236940000.0,246652836.3931869,246652836.3931869,-224917000.0,-238800201.00343198,-238800201.00343198
1789,988,0,160962000.0,228088202.6865539,228088202.6865539,136871000.0,213046923.72504318,213046923.72504318,14091000.0,56026891.209359944,56026891.209359944,33234000.0,37738586.51199943,37738586.51199943,28516000.0,30997117.293931596,30997117.293931596,61750000.0,67675112.00214006,67675112.00214006,-4105000.0,-11836465.1973535,-11836465.1973535,29699000.0,41118536.08894088,41118536.08894088,3535000.0,159460.90290280594,159460.90290280594
1733,155,3,1070082000.0,1110826210.103238,1110826210.103238,790095000.0,744179303.7192309,744179303.7192309,279987000.0,803739564.1179364,803739564.1179364,59499000.0,65852821.89448929,65852821.89448929,92514000.0,94512051.82180448,94512051.82180448,152013000.0,158846329.42013618,158846329.42013618,-6147000.0,-5660942.304524124,-5660942.304524124,65646000.0,73016109.33139662,73016109.33139662,-6147000.0,-9114688.792581514,-9114688.792581514
1735,42,1,55335000.0,496559832.3096298,496559832.3096298,11648000.0,-24200811.22950219,-24200811.22950219,43687000.0,568289128.3928136,568289128.3928136,13874000.0,21322558.454536192,21322558.454536192,0.0,648358.3876796551,648358.3876796551,13874000.0,27290120.8335022,27290120.8335022,364000.0,-1527977.6802280913,-1527977.6802280913,13510000.0,21330694.11383589,21330694.11383589,364000.0,-745649.9999999998,-745649.9999999998
1273,370,3,8855100000.0,6329288334.73993,6329288334.73993,4468096700.788768,3504048187.5716863,3504048187.5716863,3543300000.0,1808228228.3514953,1808228228.3514953,468100000.0,431657289.7380375,431657289.7380375,2041800000.0,2004720560.6701388,2004720560.6701388,2509900000.0,2427888075.807579,2427888075.807579,256500000.0,239956027.92618084,239956027.92618084,211600000.0,193880329.9994345,193880329.9994345,256500000.0,237827409.27826068,237827409.27826068
226,1510,3,1045317000.0,1153380389.814968,1153380389.814968,491551000.0,404386960.2893287,404386960.2893287,553766000.0,599919575.3815789,599919575.3815789,49476000.0,52960654.56665648,52960654.56665648,27012000.0,38049992.47973032,38049992.47973032,76488000.0,89018312.14554656,89018312.14554656,5569000.0,4368888.502686145,4368888.502686145,43907000.0,51626602.86102632,51626602.86102632,5569000.0,2463915.0075537236,2463915.0075537236
856,682,1,3335011000.0,3046185648.8708224,3046185648.8708224,1532336000.0,1602257898.93913,1602257898.93913,1376443773.6613572,1385372651.9726114,1385372651.9726114,158805000.0,150214556.3324756,150214556.3324756,458734000.0,499914852.24952376,499914852.24952376,617539000.0,634416223.820069,634416223.820069,82276000.0,58243050.16330625,58243050.16330625,26748000.0,40233397.52137352,40233397.52137352,132057000.0,108202950.0,108202950.0
610,1489,4,50788000000.0,43624860222.32867,43624860222.32867,23543456582.29001,22561069005.95039,22561069005.95039,11845000000.0,7379829514.483078,7379829514.483078,1286000000.0,1327000000.0,1327000000.0,484000000.0,474204684.97770834,474204684.97770834,1770000000.0,1802493873.410837,1802493873.410837,994000000.0,992683742.8821077,992683742.8821077,146000000.0,175548645.37221068,175548645.37221068,1140000000.0,1104149999.9999998,1104149999.9999998
434,1542,2,9209798000.0,6925369295.504897,6925369295.504897,3242862000.0,3186532066.1085024,3186532066.1085024,3654836000.0,1991044071.3754497,1991044071.3754497,758604000.0,636172590.2814832,636172590.2814832,-63000.0,1674780.3417284896,1674780.3417284896,758541000.0,647308545.0422462,647308545.0422462,306700000.0,199080260.81375688,199080260.81375688,451904000.0,423441243.02538836,423441243.02538836,306700000.0,197415525.54740435,197415525.54740435
1765,981,2,3861516000.0,3919926786.8307467,3919926786.8307467,3060094000.0,2756459313.8216286,2756459313.8216286,801422000.0,1265593065.9977462,1265593065.9977462,246503000.0,376094622.3913257,376094622.3913257,543454000.0,491135010.2761917,491135010.2761917,789957000.0,900088032.8183861,900088032.8183861,-286586000.0,-151074164.8946061,-151074164.8946061,130761000.0,150531471.29877582,150531471.29877582,115742000.0,190179790.28053233,190179790.28053233
667,231,2,3117800000.0,3442708994.113967,3442708994.113967,2444800000.0,2552864406.402816,2552864406.402816,673000000.0,1040674800.9158992,1040674800.9158992,86700000.0,139284349.13436538,139284349.13436538,411500000.0,535036393.4329631,535036393.4329631,498200000.0,688680840.4867284,688680840.4867284,-419900000.0,28270228.788348116,28270228.788348116,63400000.0,77101020.94136783,77101020.94136783,23300000.0,57536024.43071506,57536024.43071506
1194,1588,3,84073.0,145750274.9117414,145750274.9117414,2814055.0,-89125753.89916605,-89125753.89916605,-2729982.0,374097055.89773405,374097055.89773405,0.0,5505734.506372726,5505734.506372726,0.0,8457177.474519748,8457177.474519748,0.0,12629593.693707757,12629593.693707757,-647078.0,1651550.7989524496,1651550.7989524496,647078.0,6711612.482845423,6711612.482845423,-647078.0,409263.8480234854,409263.8480234854
626,281,2,250689000.0,888607219.7299346,888607219.7299346,83024000.0,73143680.48172085,73143680.48172085,167665000.0,536149051.8356862,536149051.8356862,0.0,9848133.648497606,9848133.648497606,33193000.0,26824728.617651183,26824728.617651183,33193000.0,52068885.518183485,52068885.518183485,-43672000.0,-34223730.629197456,-34223730.629197456,43672000.0,46846084.694965646,46846084.694965646,-43672000.0,-40227934.90212633,-40227934.90212633
1654,95,3,2267553000.0,2272441204.092194,2272441204.092194,1375272000.0,1425584970.3569589,1425584970.3569589,519294000.0,1000991609.3188678,1000991609.3188678,30179000.0,31837483.982366215,31837483.982366215,36686000.0,53340694.52408437,53340694.52408437,66865000.0,84765919.31627773,84765919.31627773,-15417000.0,-6525604.234425043,-6525604.234425043,38864000.0,43157723.897200316,43157723.897200316,-8685000.0,-7823124.09745712,-7823124.09745712
288,1008,0,2221575000.0,2319266171.9929614,2319266171.9929614,1034139000.0,1137353803.1197398,1137353803.1197398,1187436000.0,1172256792.109997,1172256792.109997,131964000.0,140354877.83654544,140354877.83654544,106311000.0,113883019.89877401,113883019.89877401,188755000.0,201527198.88597208,201527198.88597208,3712000.0,2891507.367801536,2891507.367801536,128252000.0,141038573.6082765,141038573.6082765,3712000.0,4129079.231050824,4129079.231050824
1665,605,3,555271000.0,881729225.3020695,881729225.3020695,273881000.0,291988758.2559247,291988758.2559247,281390000.0,778097878.785011,778097878.785011,77610000.0,78994499.38200095,78994499.38200095,73228000.0,86347820.65203953,86347820.65203953,150838000.0,161115255.03375787,161115255.03375787,6400000.0,-62003562.870224774,-62003562.870224774,144438000.0,210202909.67614532,210202909.67614532,-66828000.0,-139059606.10522512,-139059606.10522512
652,935,3,1810200000.0,1576459122.9872909,1576459122.9872909,1334200000.0,1215877645.2114177,1215877645.2114177,472000000.0,838166112.2351215,838166112.2351215,111400000.0,-289007685.8347047,-289007685.8347047,439000000.0,884998324.1093397,884998324.1093397,550400000.0,592948401.379178,592948401.379178,53300000.0,59200287.322768286,59200287.322768286,43800000.0,55485504.73275127,55485504.73275127,67600000.0,-336653557.50886697,-336653557.50886697
1078,46,2,339972000.0,717650556.0236925,717650556.0236925,145992000.0,72855103.78646554,72855103.78646554,193980000.0,688698499.0081204,688698499.0081204,800000.0,15488548.04159574,15488548.04159574,85000.0,-3938194.989980245,-3938194.989980245,885000.0,26119934.827032384,26119934.827032384,-35502000.0,-36723751.62311061,-36723751.62311061,45899000.0,66483995.48383771,66483995.48383771,-45099000.0,-53503139.41982505,-53503139.41982505
778,1331,2,992330000.0,1201692687.757525,1201692687.757525,401273000.0,349083940.57796746,349083940.57796746,544681000.0,1002833570.4130663,1002833570.4130663,417282000.0,424100458.9071971,424100458.9071971,0.0,-897366.6390658966,-897366.6390658966,417282000.0,432252572.11159456,432252572.11159456,5536000.0,10182513.406213839,10182513.406213839,411746000.0,403265702.60322994,403265702.60322994,5536000.0,4599594.651142566,4599594.651142566
29,1129,4,600271000.0,859850881.5106664,859850881.5106664,137438000.0,87351737.74344204,87351737.74344204,462833000.0,538139200.2284731,538139200.2284731,73869000.0,77077000.0,77077000.0,24421000.0,17488923.122804273,17488923.122804273,98290000.0,110560163.98480397,110560163.98480397,-8089000.0,-6138287.110433907,-6138287.110433907,81958000.0,85086512.42307127,85086512.42307127,-8089000.0,-4718650.0,-4718650.0
854,464,4,47193000.0,310089607.3685818,310089607.3685818,31000000.0,-37791912.56112451,-37791912.56112451,16193000.0,310203668.73275596,310203668.73275596,4954000.0,4318000.0,4318000.0,3898000.0,-2648328.7466789624,-2648328.7466789624,8852000.0,14746798.899566337,14746798.899566337,-615000.0,-3000209.009740846,-3000209.009740846,5569000.0,12508571.1605096,12508571.1605096,-615000.0,-1996799.9999999995,-1996799.9999999995
1423,1344,4,150549000.0,565666828.7889203,565666828.7889203,163792000.0,153525655.03859162,153525655.03859162,16674000.0,383681555.239259,383681555.239259,28323000.0,9619000.0,9619000.0,6429000.0,4367159.279590247,4367159.279590247,34752000.0,25129631.449683666,25129631.449683666,-13758000.0,-52848304.67824703,-52848304.67824703,21733000.0,31995811.47341196,31995811.47341196,6590000.0,-15801750.000000002,-15801750.000000002
1406,183,0,62996000.0,111991873.39619935,111991873.39619935,12638000.0,58024920.523504116,58024920.523504116,50358000.0,85770407.59916252,85770407.59916252,9919000.0,13092262.959086161,13092262.959086161,5920000.0,1389048.8775877357,1389048.8775877357,13543000.0,10142250.589262756,10142250.589262756,1979000.0,2628804.2108981432,2628804.2108981432,7940000.0,13653703.500532597,13653703.500532597,1979000.0,2615023.526385218,2615023.526385218
1624,411,2,56415000000.0,52089075721.5728,52089075721.5728,26707757359.48695,27165962631.23901,27165962631.23901,20622000000.0,10341004567.520786,10341004567.520786,4258000000.0,4251657953.581382,4251657953.581382,2744000000.0,2764250084.4877653,2764250084.4877653,7002000000.0,6878110160.979634,6878110160.979634,471000000.0,535506911.03315365,535506911.03315365,1302000000.0,1278647765.2746105,1278647765.2746105,2956000000.0,2968857361.154064,2968857361.154064
926,211,2,572995000.0,1124740577.737608,1124740577.737608,271264937.13018215,268940583.2325485,268940583.2325485,210105000.0,812113784.4224455,812113784.4224455,-46109000.0,242784703.88927054,242784703.88927054,111142000.0,93143370.14077626,93143370.14077626,65033000.0,360636409.10353136,360636409.10353136,53448000.0,51084774.15986346,51084774.15986346,184993000.0,187281121.3705173,187281121.3705173,-231102000.0,4972674.557389577,4972674.557389577
1324,186,2,11156646.0,485460315.842978,485460315.842978,14063458.0,-15752821.732352935,-15752821.732352935,-2906812.0,372504724.8426413,372504724.8426413,-483256.0,8780453.286355585,8780453.286355585,692752.0,-6042085.165684883,-6042085.165684883,209496.0,16935297.768518995,16935297.768518995,-2378023.0,-1119566.9001606202,-1119566.9001606202,1407493.0,10199216.71875109,10199216.71875109,-1890749.0,-2413580.1861046664,-2413580.1861046664
809,491,2,746651000.0,1220274835.9808888,1220274835.9808888,563281000.0,529824102.85545874,529824102.85545874,350347808.70326334,688856241.9377681,688856241.9377681,20268000.0,27602292.700971983,27602292.700971983,132273000.0,187798354.0377095,187798354.0377095,152541000.0,231419218.42321858,231419218.42321858,1482000.0,1685975.069885731,1685975.069885731,18377000.0,27030251.153205026,27030251.153205026,1891000.0,-2479759.0142538548,-2479759.0142538548
492,346,2,203605000.0,743948129.6558152,743948129.6558152,164863000.0,173084902.717342,173084902.717342,38742000.0,535877594.04186064,535877594.04186064,38308000.0,50363297.71802439,50363297.71802439,13284000.0,6335347.748221294,6335347.748221294,51592000.0,72773681.06354627,72773681.06354627,8585000.0,8974850.200246219,8974850.200246219,22801000.0,31298588.145576082,31298588.145576082,15507000.0,13921919.305308642,13921919.305308642
383,831,2,35610551.0,485743569.7156905,485743569.7156905,44852933.0,7020544.383568138,7020544.383568138,-9242382.0,415958535.26071674,415958535.26071674,3037874.0,12922541.320191856,12922541.320191856,5691278.0,6676240.139224732,6676240.139224732,8729152.0,26770628.299532782,26770628.299532782,-7028283.0,-4416939.524606105,-4416939.524606105,15757435.0,25218741.053352255,25218741.053352255,-12719561.0,-15071558.1178632,-15071558.1178632
1250,12,2,4596600000.0,5053137306.315512,5053137306.315512,2319347415.031524,2441884599.727021,2441884599.727021,3466600000.0,2334710368.892015,2334710368.892015,2555100000.0,1720426521.8788195,1720426521.8788195,3033000000.0,2122070907.4654303,2122070907.4654303,5588100000.0,3791336474.8871293,3791336474.8871293,1174900000.0,683471782.5281342,683471782.5281342,1380200000.0,964133236.2285715,964133236.2285715,1174900000.0,743398677.1821253,743398677.1821253
229,649,4,3802385000.0,3816848923.6202097,3816848923.6202097,2636965000.0,2698659896.0861278,2698659896.0861278,1165420000.0,1223327049.6781774,1223327049.6781774,157645000.0,136563000.0,136563000.0,488142000.0,459260454.6314127,459260454.6314127,645787000.0,620084895.9202183,620084895.9202183,66824000.0,42109120.61596071,42109120.61596071,83253000.0,92056626.25517415,92056626.25517415,74392000.0,51957499.99999999,51957499.99999999
1531,264,4,12852000.0,256314033.7596928,256314033.7596928,5815000.0,-69462554.24858227,-69462554.24858227,7037000.0,279893996.8491122,279893996.8491122,1838000.0,2306000.0,2306000.0,1427000.0,-3405729.0004316624,-3405729.0004316624,400000.0,10827464.03592585,10827464.03592585,-1116000.0,-1828969.9575239778,-1828969.9575239778,2954000.0,8750493.945223087,8750493.945223087,-1116000.0,-1366950.0,-1366950.0
1035,1424,4,11747000000.0,10572523772.45774,10572523772.45774,7158000000.0,7030616459.606295,7030616459.606295,4503000000.0,3792274415.331359,3792274415.331359,770000000.0,768000000.0,768000000.0,1424000000.0,1458690296.1501899,1458690296.1501899,2194000000.0,2218088171.994839,2218088171.994839,154000000.0,215280768.3256063,215280768.3256063,2040000000.0,2192366167.5760603,2192366167.5760603,-1270000000.0,-1234800000.0000002,-1234800000.0000002
1774,1335,3,7236206.0,208499632.64948753,208499632.64948753,4913744.0,-100629455.31789696,-100629455.31789696,2190428.0,377128630.3674022,377128630.3674022,634746.0,5539148.25786812,5539148.25786812,2326079.0,9688662.634249419,9688662.634249419,2960825.0,15158675.21843108,15158675.21843108,-234151.0,-77492.68154043239,-77492.68154043239,886442.0,7647299.030633904,7647299.030633904,-251696.0,510907.5192746343,510907.5192746343
868,1093,0,6411000000.0,6671372750.259482,6671372750.259482,3370100000.0,3981147731.6847215,3981147731.6847215,3176144611.7201624,3267344135.366094,3267344135.366094,371800000.0,400001125.4448639,400001125.4448639,637000000.0,685155155.2032939,685155155.2032939,1008800000.0,1073736518.128507,1073736518.128507,180100000.0,193894477.7529345,193894477.7529345,166200000.0,175979343.27730396,175979343.27730396,205600000.0,221377699.92540687,221377699.92540687
1391,1232,1,345836000.0,682897333.8005017,682897333.8005017,48837000.0,45454590.058477744,45454590.058477744,296999000.0,626971791.7085509,626971791.7085509,3870000.0,-232276.694090724,-232276.694090724,113328000.0,88590934.13616163,88590934.13616163,116752000.0,104078712.83758067,104078712.83758067,297000.0,-3865273.9727768493,-3865273.9727768493,3573000.0,12176180.375665832,12176180.375665832,297000.0,-5993150.0,-5993150.0
1734,577,1,20108000.0,334902046.11715615,334902046.11715615,9068000.0,-72876966.50145681,-72876966.50145681,11040000.0,406301381.0209844,406301381.0209844,3847000.0,10246775.183273299,10246775.183273299,661000.0,-442559.12934895046,-442559.12934895046,4508000.0,14913082.972374877,14913082.972374877,-4126000.0,-5314650.709646374,-5314650.709646374,7973000.0,13711926.163154757,13711926.163154757,-4126000.0,-5197749.999999999,-5197749.999999999
1416,1268,0,1564856000.0,1655980412.0540013,1655980412.0540013,1122858000.0,1188267722.3230593,1188267722.3230593,416354000.0,452073349.565061,452073349.565061,276207000.0,271684160.69581115,271684160.69581115,-11227000.0,-15203800.94824906,-15203800.94824906,264980000.0,250443403.5495429,250443403.5495429,5657000.0,3288321.3497010465,3288321.3497010465,270550000.0,267039085.847255,267039085.847255,5657000.0,394856.5045094555,394856.5045094555
352,288,0,1125373000.0,1650356142.0563664,1650356142.0563664,521681703.6382896,788410586.5189445,788410586.5189445,29987000.0,-11024149.35319328,-11024149.35319328,142411000.0,144676483.02107728,144676483.02107728,-42080000.0,-82470303.77311209,-82470303.77311209,100331000.0,99092732.42842092,99092732.42842092,17283000.0,24614527.962865457,24614527.962865457,125128000.0,131825959.76503475,131825959.76503475,17283000.0,22655216.490183424,22655216.490183424
135,561,2,630871000.0,1091159879.0362983,1091159879.0362983,398464000.0,375020252.40259314,375020252.40259314,232407000.0,683508203.7553998,683508203.7553998,80823000.0,70838737.11703846,70838737.11703846,413091000.0,272121054.8256847,272121054.8256847,493914000.0,351617611.53798956,351617611.53798956,-14453000.0,2623382.810637319,2623382.810637319,95276000.0,67900230.8080995,67900230.8080995,-14453000.0,-2644041.2178938063,-2644041.2178938063
1338,659,4,123668000.0,423626997.50579816,423626997.50579816,40963000.0,-12388676.982795965,-12388676.982795965,50285000.0,354279734.7686023,354279734.7686023,29188000.0,34099000.0,34099000.0,11108000.0,7310550.861399861,7310550.861399861,40296000.0,55315449.78189176,55315449.78189176,-25553000.0,-12876004.73793669,-12876004.73793669,35508000.0,37211488.73659061,37211488.73659061,-6320000.0,3562699.999999996,3562699.999999996
1076,444,4,34865437.0,244503178.8558128,244503178.8558128,19085704.0,-73063471.10120359,-73063471.10120359,15779733.0,289035554.0328368,289035554.0328368,0.0,0.0,0.0,1198.0,-4665801.376242559,-4665801.376242559,1198.0,20165095.43661744,20165095.43661744,-6520186.0,-5826876.999727664,-5826876.999727664,6520186.0,11780254.051057428,11780254.051057428,-6520186.0,-5949032.8,-5949032.8
1426,1104,4,1275550000.0,1218211976.0960975,1218211976.0960975,1504271000.0,1245154140.2719517,1245154140.2719517,-228721000.0,408542677.7312502,408542677.7312502,-35238000.0,-36751000.0,-36751000.0,59168000.0,40223512.3002158,40223512.3002158,23930000.0,34945307.41540403,34945307.41540403,6621000.0,11539689.299190454,11539689.299190454,102745000.0,98031267.63662569,98031267.63662569,-137983000.0,-99931349.99999997,-99931349.99999997
2023,1321,2,151712000.0,618199874.5191804,618199874.5191804,195428000.0,122249298.35217604,122249298.35217604,28605000.0,517431030.7285352,517431030.7285352,11588000.0,14304139.645096295,14304139.645096295,43977000.0,29542718.71660203,29542718.71660203,55565000.0,55279162.595800646,55279162.595800646,-8864000.0,-6586239.0725820875,-6586239.0725820875,20452000.0,21806693.192092076,21806693.192092076,-8864000.0,-11975762.563702688,-11975762.563702688
1219,102,1,1812825000.0,2169356835.7813644,2169356835.7813644,1134969000.0,1192610310.8710108,1192610310.8710108,677856000.0,984289531.365658,984289531.365658,53184000.0,70203543.13720873,70203543.13720873,120142000.0,122817452.0084573,122817452.0084573,173326000.0,208119576.72578096,208119576.72578096,31929000.0,26431345.17756619,26431345.17756619,16945000.0,31925844.733127296,31925844.733127296,36239000.0,36276550.0,36276550.0
201,633,0,-1450776000.0,675659107.7547718,675659107.7547718,-894261000.0,369033235.0395264,369033235.0395264,-556515000.0,345831206.3093439,345831206.3093439,162740000.0,245393695.50625932,245393695.50625932,213058000.0,599665193.0255859,599665193.0255859,375798000.0,894163264.2414472,894163264.2414472,-31210000.0,-59549698.48243794,-59549698.48243794,193950000.0,304548884.1241467,304548884.1241467,-31210000.0,-57429503.02812809,-57429503.02812809
580,782,1,526507000.0,830160132.0710337,830160132.0710337,370554000.0,326543067.51532626,326543067.51532626,155953000.0,804394672.8843465,804394672.8843465,66328000.0,75606887.9330322,75606887.9330322,107226000.0,110020552.40551949,110020552.40551949,173554000.0,198946432.32981557,198946432.32981557,-7923000.0,-3341583.891622866,-3341583.891622866,69543000.0,80019251.2126882,80019251.2126882,-3215000.0,-1895000.0000000019,-1895000.0000000019
268,1214,4,3089123000.0,2546675890.7041864,2546675890.7041864,1300561000.0,1126818392.0596712,1126818392.0596712,1788562000.0,1408535182.9111977,1408535182.9111977,286131000.0,309301000.0,309301000.0,850247000.0,834331350.1869738,834331350.1869738,1136378000.0,1155267878.4427848,1155267878.4427848,205227000.0,206498660.18973538,206498660.18973538,1010678000.0,984679995.3090725,984679995.3090725,-724547000.0,-677435100.0,-677435100.0
484,1597,4,2026392000.0,1964199055.9066367,1964199055.9066367,773709000.0,419021839.9269624,419021839.9269624,1259138837.126244,1018639441.1474916,1018639441.1474916,36270000.0,43249000.0,43249000.0,906000.0,-2534133.365187208,-2534133.365187208,37176000.0,56255251.706864655,56255251.706864655,-286393000.0,-216639110.31688464,-216639110.31688464,341823000.0,339237477.88143414,339237477.88143414,-305553000.0,-252079800.00000012,-252079800.00000012
1169,141,2,59798486.0,494167933.2796647,494167933.2796647,24561228.0,-6232110.735955954,-6232110.735955954,24680354.49630476,430137711.98136437,430137711.98136437,-143441.0,8325139.599392422,8325139.599392422,231837.0,-3644437.4750925447,-3644437.4750925447,88396.0,16367153.063707273,16367153.063707273,-6239976.0,-3415175.3973380444,-3415175.3973380444,6096535.0,12530732.351327628,12530732.351327628,-6239976.0,-6823481.41451893,-6823481.41451893
595,745,3,269960000.0,496796171.7390322,496796171.7390322,370356000.0,306892551.5202016,306892551.5202016,-100396000.0,507856122.9645944,507856122.9645944,29296000.0,33601133.04401315,33601133.04401315,911000.0,8800855.938235078,8800855.938235078,30207000.0,41180977.232695155,41180977.232695155,-31260000.0,-28280034.81710196,-28280034.81710196,67269000.0,74090096.14876668,74090096.14876668,-37973000.0,-41160443.012509525,-41160443.012509525
1664,134,4,1411497000.0,1518068497.1241422,1518068497.1241422,713457000.0,661346075.2154623,661346075.2154623,667698000.0,732425078.7944945,732425078.7944945,123110000.0,118856000.0,118856000.0,21917000.0,20353226.976466414,20353226.976466414,145027000.0,148750840.59164235,148750840.59164235,16171000.0,14766905.99749567,14766905.99749567,124278000.0,127360804.70662917,127360804.70662917,-1168000.0,-3308849.9999999977,-3308849.9999999977
1737,1476,2,1068388000.0,1344901787.610408,1344901787.610408,793168000.0,621862193.1595094,621862193.1595094,275220000.0,757577247.5412879,757577247.5412879,1125000.0,42216688.94825797,42216688.94825797,126961000.0,76570694.57343952,76570694.57343952,114574000.0,118711199.70118646,118711199.70118646,-123332000.0,-71174642.48781951,-71174642.48781951,124457000.0,122015571.57088056,122015571.57088056,-123332000.0,-81687402.41550693,-81687402.41550693
1105,754,4,736494000.0,825708958.1894495,825708958.1894495,390655000.0,320103406.68551415,320103406.68551415,345839000.0,523608863.8347726,523608863.8347726,107458000.0,102302000.0,102302000.0,77264000.0,69651747.9082097,69651747.9082097,184722000.0,186334343.4027377,186334343.4027377,-21496000.0,-35369431.929237865,-35369431.929237865,128954000.0,137519757.90359396,137519757.90359396,-21496000.0,-31223700.0,-31223700.0
366,1105,3,1026034000.0,1216755889.4066095,1216755889.4066095,544592518.5648394,495734259.9054914,495734259.9054914,829659000.0,1064531676.6262068,1064531676.6262068,179923000.0,193593368.45534027,193593368.45534027,-1664000.0,5452104.07382154,5452104.07382154,178259000.0,199006565.31104186,199006565.31104186,43073000.0,51618899.674551904,51618899.674551904,136850000.0,144702526.0647394,144702526.0647394,43073000.0,50492291.170803994,50492291.170803994
847,1594,2,2995900000.0,2862108953.756377,2862108953.756377,1720300000.0,1788715058.747781,1788715058.747781,1275600000.0,983992189.0717418,983992189.0717418,234800000.0,232527124.9958302,232527124.9958302,244100000.0,239133269.3294208,239133269.3294208,478900000.0,475865992.14931506,475865992.14931506,25200000.0,41722189.63925051,41722189.63925051,209600000.0,206917533.31257343,206917533.31257343,25200000.0,34932072.55787877,34932072.55787877
1604,937,1,700529000.0,1040824109.5399308,1040824109.5399308,363632000.0,367639693.64685214,367639693.64685214,335762000.0,620007169.5242822,620007169.5242822,46249000.0,51922882.20147029,51922882.20147029,72678000.0,62250659.61893101,62250659.61893101,118927000.0,129294944.18624982,129294944.18624982,-13197000.0,-25201531.768474814,-25201531.768474814,59446000.0,83329285.48416288,83329285.48416288,-13197000.0,-26170400.0,-26170400.0
579,168,0,5913288000.0,7198401332.537098,7198401332.537098,5639252000.0,6534037301.558458,6534037301.558458,274036000.0,636952961.3653207,636952961.3653207,470311000.0,497087389.7452862,497087389.7452862,1040995000.0,1012513069.8668528,1012513069.8668528,1511306000.0,1503704174.8837805,1503704174.8837805,65962000.0,77467705.77304055,77467705.77304055,404349000.0,415376132.2195301,415376132.2195301,65962000.0,78588081.29396541,78588081.29396541
874,482,1,232365000.0,732931910.9863442,732931910.9863442,164743000.0,138532939.47646454,138532939.47646454,67622000.0,754844882.4016814,754844882.4016814,43176000.0,37754412.237134784,37754412.237134784,202053000.0,142427416.80407614,142427416.80407614,245229000.0,186849010.48715973,186849010.48715973,9035000.0,5872823.959786523,5872823.959786523,31930000.0,32877495.5691837,32877495.5691837,11246000.0,7041000.000000002,7041000.000000002
193,38,0,24556000.0,37598801.72692609,37598801.72692609,5997000.0,22658744.682792827,22658744.682792827,18559000.0,47499367.05928719,47499367.05928719,-561000.0,2392021.7600252945,2392021.7600252945,1648000.0,-350310.8740967747,-350310.8740967747,1087000.0,1818944.6959900628,1818944.6959900628,-8770000.0,-4649737.155425379,-4649737.155425379,3225000.0,8019728.613751834,8019728.613751834,-3786000.0,-1506386.8947267872,-1506386.8947267872
680,820,3,7852974.0,228718244.50674608,228718244.50674608,8726749.0,-59923577.22648394,-59923577.22648394,-873775.0,410112752.07231104,410112752.07231104,1562860.0,6425014.284875822,6425014.284875822,0.0,7163750.032690445,7163750.032690445,1562860.0,12603351.532640845,12603351.532640845,-1603437.0,-840319.7430711985,-840319.7430711985,3166297.0,10209238.20113388,10209238.20113388,-1603437.0,-1273292.2352353442,-1273292.2352353442
702,1325,3,52606000.0,282787548.0922548,282787548.0922548,31088000.0,-35323361.90009636,-35323361.90009636,21518000.0,472712426.897811,472712426.897811,2202000.0,6677976.908938411,6677976.908938411,21569000.0,24821954.007315874,24821954.007315874,23771000.0,31609844.921362363,31609844.921362363,-1737000.0,-595869.2779345191,-595869.2779345191,2889000.0,10716071.316954505,10716071.316954505,-687000.0,-2060955.0203960538,-2060955.0203960538
499,967,1,641605000.0,955440136.5022111,955440136.5022111,98505000.0,73650451.38098751,73650451.38098751,543100000.0,715782905.8374622,715782905.8374622,35752000.0,51626108.769350484,51626108.769350484,3063000.0,3448584.9639623687,3448584.9639623687,38815000.0,65489854.899489716,65489854.899489716,-5995000.0,-1457458.5176473456,-1457458.5176473456,24767000.0,36582783.289328866,36582783.289328866,10985000.0,16026600.000000002,16026600.000000002
277,961,2,428119000.0,1108931209.2292092,1108931209.2292092,200385000.0,311628823.99380183,311628823.99380183,227734000.0,692073803.1613679,692073803.1613679,32734000.0,46800229.03271123,46800229.03271123,3693000.0,697199.5434893379,697199.5434893379,36427000.0,59880261.7038607,59880261.7038607,-31432000.0,-31412085.51293588,-31412085.51293588,67859000.0,92263416.9734974,92263416.9734974,-35125000.0,-42114901.901923954,-42114901.901923954
1540,700,3,1748597000.0,1873923722.6677372,1873923722.6677372,773677579.6790999,734988195.9758189,734988195.9758189,871968000.0,1095679600.5692377,1095679600.5692377,88936000.0,96877103.40739217,96877103.40739217,314131000.0,317022924.7835305,317022924.7835305,403067000.0,413546089.6691717,413546089.6691717,36520000.0,39236190.24872463,39236190.24872463,38806000.0,46865737.303766035,46865737.303766035,50130000.0,52041363.39038193,52041363.39038193
40,1512,1,-12646800000.0,-7010770759.3171,-7010770759.3171,-10176700000.0,-9017396712.363497,-9017396712.363497,-2456100000.0,1339163747.0062687,1339163747.0062687,244400000.0,252349880.93238106,252349880.93238106,496400000.0,446910590.3455965,446910590.3455965,740800000.0,649842281.8970553,649842281.8970553,16300000.0,-104716404.19662614,-104716404.19662614,228100000.0,363638395.4500079,363638395.4500079,16300000.0,-110489999.99999997,-110489999.99999997
109,958,0,1646711000.0,1911084579.8872857,1911084579.8872857,1388441000.0,1446429014.3564422,1446429014.3564422,258270000.0,458610042.06243086,458610042.06243086,48094000.0,52305849.11194593,52305849.11194593,144654000.0,168684286.32288885,168684286.32288885,147710000.0,164354788.52312174,164354788.52312174,-42502000.0,-58199635.978342466,-58199635.978342466,79586000.0,100916144.88676536,100916144.88676536,-31492000.0,-46319887.92819356,-46319887.92819356
