epiphany24262/financial-performance-prediction/results/oof/m6_oof_blend.csv
Id,group_id,fold,actual_Q0_TOTAL_ASSETS,pred_Q0_TOTAL_ASSETS,actual_Q0_TOTAL_LIABILITIES,pred_Q0_TOTAL_LIABILITIES,actual_Q0_TOTAL_STOCKHOLDERS_EQUITY,pred_Q0_TOTAL_STOCKHOLDERS_EQUITY,actual_Q0_GROSS_PROFIT,pred_Q0_GROSS_PROFIT,actual_Q0_COST_OF_REVENUES,pred_Q0_COST_OF_REVENUES,actual_Q0_REVENUES,pred_Q0_REVENUES,actual_Q0_OPERATING_INCOME,pred_Q0_OPERATING_INCOME,actual_Q0_OPERATING_EXPENSES,pred_Q0_OPERATING_EXPENSES,actual_Q0_EBITDA,pred_Q0_EBITDA
196,617,1,1192950000.0,1417590730.1249454,1055816000.0,1058189447.7823008,137134000.0,864936468.6932304,25598000.0,39189039.32160742,61899000.0,56637319.784483805,42992000.0,34059341.6769366,15222000.0,28052715.59229356,10383000.0,14415466.946692823,15215000.0,23912874.09909904
1568,1171,2,1219954000.0,756689074.4765289,835046000.0,542930751.5095333,384908000.0,898973373.5129197,111786000.0,103760055.5324396,217796000.0,205353119.88558745,329582000.0,297787179.4632591,28908000.0,5125544.864145899,85522000.0,88510626.80720423,26264000.0,7458115.478739137
1218,1371,0,-135820000000.0,20761819299.12107,-37972000000.0,2473054670.4576244,-97848000000.0,-3671072793.7587833,-435000000.0,-660201794.6516435,4445000000.0,5633477111.652871,4010000000.0,6343458862.358039,-1472000000.0,-1306025805.6539855,219000000.0,357152297.7909256,-654000000.0,-293087957.8811384
23,1487,3,83298000.0,437359652.7989589,16040000.0,-36735281.7532357,-31633000.0,212270853.20556927,494000.0,6708849.402288269,3339000.0,4687808.991291662,3833000.0,2582472.393844576,-12348000.0,-16379849.59940657,12842000.0,16923729.65863203,-12348000.0,-17015300.326093417
783,1578,2,148546000.0,-119552029.8605138,56555000.0,-326936355.60618794,91991000.0,348981609.5303472,1761000.0,136107207.73179108,-2375000.0,-115451280.11441256,-614000.0,-2046037.9064878211,-10098000.0,77556299.69220641,11859000.0,20382355.05932804,-10098000.0,85765488.30226807
1251,366,2,7304300000.0,5011330387.211859,2451900000.0,2085541491.0738883,4830200000.0,2783448944.239502,578200000.0,614549861.052976,581100000.0,587439956.7236247,1159300000.0,1179333879.4632592,245200000.0,264423718.4272196,333000000.0,323183642.09973294,245200000.0,264714951.2054652
1224,512,1,1976905000.0,2214731065.5770493,699909000.0,684261274.5770848,1276996000.0,901858051.920512,53993000.0,89446039.32160743,315825000.0,309204602.3786013,369818000.0,381803741.67693657,-1572000.0,20404415.59229355,371390000.0,364225416.68143594,-317397000.0,-293199890.47611845
1410,663,0,2097274000.0,2566810740.018919,1132234000.0,1405018122.6562736,965931000.0,1065860116.0836136,70481000.0,175867205.3483565,291052000.0,305642229.54827183,361533000.0,454304843.3067845,58709000.0,120942976.34784764,11772000.0,18401693.574456595,58709000.0,135628072.55506635
529,886,2,31183000.0,-337612141.96091354,15926000.0,-405520159.66726506,15257000.0,195070329.33609867,2456000.0,2726364.128813984,2151000.0,4804519.88558744,4607000.0,1479479.4632591493,-2931000.0,-5006833.286708148,5387000.0,9922037.193912912,-2931000.0,-8418444.962789362
730,534,4,978523000.0,1617416579.4961698,851196000.0,792066952.3257692,-94184000.0,765157627.986906,24321000.0,28381569.747779604,137937000.0,138586085.56219795,162258000.0,152824632.8101005,-764000.0,-19462043.42206573,25085000.0,38500750.90018405,-764000.0,-22717601.790623337
1590,1012,1,27253000.0,391128947.3621094,14465193.072010836,-16034852.92553432,12787806.927989164,480710699.6082788,-17000.0,11358661.44410827,17493000.0,17213045.980756372,17476000.0,19509752.322524607,1196000.0,8179415.592293557,138000.0,3511035.9253531867,-155000.0,6819274.099099055
367,1492,3,798398000.0,1106279038.3780656,795372000.0,726740424.2376254,3026000.0,620866474.8131738,37121000.0,48160844.55958566,256160000.0,359521543.23247325,293281000.0,394846542.5063322,10257000.0,-8690495.671500362,26864000.0,36602818.96304067,10257000.0,-4880295.704429623
636,599,4,1059052000.0,1684716119.8966217,883921000.0,741797405.6041667,175131000.0,810311101.5394628,91945000.0,112094405.63788223,202788000.0,221710305.8425096,235132000.0,269247132.8101005,-287000.0,-627207.3345901817,84957000.0,100838180.81375672,6988000.0,-182001.96881475855
1270,1531,4,11069000000.0,9794099379.48014,5919000000.0,6121691919.257698,5105000000.0,3117530108.937468,727000000.0,759079430.5603371,1752000000.0,1806837574.4509315,2479000000.0,2556949132.8101006,462000000.0,503249519.54957926,265000000.0,228913645.04778004,462000000.0,493573888.14119536
102,977,1,12331000.0,452441621.49419034,10875000.0,27574027.9493472,1456000.0,214061353.62543845,1472000.0,11383661.44410827,1968000.0,18784910.88019504,3440000.0,84201150.3225246,-4166000.0,5617586.042293558,5638000.0,4519856.827134529,-4166000.0,2721971.249099038
1658,615,3,180372000.0,713368301.4957689,121221000.0,105120091.61671054,30642000.0,608705372.7488644,18014000.0,26172070.60424737,31653000.0,33313772.01003738,49667000.0,48875966.1386403,-11599000.0,1873533.4568806256,29613000.0,17140849.524551403,-11599000.0,-98477.01805058004
6,460,3,2319806000.0,3089546400.9149895,1534495000.0,1768429051.754872,785311000.0,1449140058.884024,376397000.0,307667361.90404403,415254000.0,323582843.23247325,791651000.0,622019703.9025832,93430000.0,44893355.41816776,288680000.0,262562727.27670047,87717000.0,34836648.06944108
1147,1021,2,19295025.0,-412201023.2956768,28370931.0,-400040432.9659205,-13369686.0,118292816.01832496,2067435.0,3689644.794857776,4847499.0,7766665.68558744,6914934.0,4907334.1632591495,-1108124.0,-662360.2286252938,3175559.0,8054188.133802855,-1108124.0,-2455190.455295547
114,283,0,3549408000.0,3174868947.712025,2109262000.0,2088341184.0224276,1440146000.0,1268096644.523909,264579000.0,242602205.3483565,494402000.0,497644619.9724265,758981000.0,728290774.3217998,58594000.0,95411294.43484844,205985000.0,192533023.8615337,58594000.0,76208213.8246392
139,282,1,331401784.0,824698163.9883268,56254670.0,79154782.69257098,275147114.0,539842442.956272,17982150.0,36357715.44410827,0.0,-6124378.04972687,17982150.0,14094319.122524608,-40215832.0,-23918493.20770643,58197982.0,54332244.939611845,-40215832.0,-30484455.050900955
411,1343,0,5533000.0,322956480.14276654,4648000.0,-32359946.09907997,885000.0,569481020.3803113,-1669000.0,7260959.426123281,2438000.0,8139704.061756018,769000.0,3508195.4216846675,-6339000.0,1119193.1038808797,4670000.0,7446239.39838875,-6339000.0,251645.17392269892
681,669,4,36550000000.0,31433838135.863,16943241279.095451,15694161707.76752,15250000000.0,7974663614.119972,577000000.0,547917504.886137,3467000000.0,3187557764.9399776,4044000000.0,3719449132.8101,714000000.0,481226700.88562727,627000000.0,677724503.7485834,-50000000.0,-153697814.35202244
1671,916,2,100449000.0,-247114492.37869155,141057000.0,-305197629.1474864,-40608000.0,265781138.48796463,-171000.0,4642537.853577662,512000.0,2460619.88558744,341000.0,-2197937.906487821,-48297000.0,-50639597.03493954,24344000.0,27905438.591059458,-24515000.0,-26877066.32261244
500,695,3,10599934.0,367797539.6677308,26203416.0,-52090570.27149224,-15603482.0,167936639.98427296,-6219.0,5483460.551783925,193120.0,2616949.8912916617,186901.0,50948.29384457604,-1076399.0,-3853333.4324676017,1070180.0,2699386.422955139,-1076399.0,-2287163.446529338
1203,1352,1,13322000.0,396969537.73560643,67881000.0,71495213.49778587,8277888.77383834,386675771.2709359,3223000.0,11548661.44410827,1889000.0,-4655883.231107736,5112000.0,-6631347.677475392,-3552000.0,-171934.40770644508,8664000.0,16040021.893656846,-5441000.0,-5682840.47611847
180,258,0,635001000.0,1473868304.0107508,115305000.0,169912142.3152671,502273000.0,777405100.6610534,21465000.0,31664959.42612328,40457000.0,49864036.89385705,61922000.0,68352105.89281738,-143360000.0,-162082083.43066806,205282000.0,170254247.9835364,-183817000.0,-172128904.8260773
1960,1146,2,2672864000.0,1981143630.3605242,288913000.0,-40568143.87684357,2383951000.0,1168944881.0537603,132902000.0,156405363.46619946,168499000.0,195346319.88558745,301401000.0,337788379.4632591,55706000.0,70177434.8377152,77196000.0,76908627.65308498,55706000.0,68000660.39897932
356,1603,3,8388335000.0,7893228367.386333,5163154000.0,5769407672.647462,3225181000.0,2161196108.9053574,313343000.0,345965532.7145452,687959000.0,730591272.0100374,1001302000.0,1057705803.9025831,116260000.0,134246163.802332,85661000.0,95538086.06794944,227682000.0,235854269.57760224
1646,823,0,1563399000.0,1632287522.193139,1445358000.0,1345463714.019276,-136248000.0,804451668.5407882,72333000.0,74807205.3483565,116682000.0,124596093.49351569,189015000.0,189364675.98896748,23506000.0,25419351.83612573,11423000.0,16210520.680215843,60910000.0,61095963.82463923
1793,854,4,320019000.0,795668817.9860572,126984000.0,63779372.40978426,193035000.0,834903726.7764534,177377000.0,216193829.1410868,58492000.0,78588309.3816924,235869000.0,302958132.8101005,25509000.0,42528970.13880129,151868000.0,183793443.27838996,25509000.0,35195390.64500811
235,268,0,0.0,355825709.28964573,0.0,-2165441.6503395364,-804876.0,489421275.7965617,0.0,7798205.3483564975,0.0,7502554.733254215,0.0,4271656.011651587,-14550.0,5080072.020674788,14550.0,3466021.406970661,-14550.0,4285331.174639229
1668,1096,2,267194000.0,-100954539.25040507,175308000.0,-243837143.8768436,91886000.0,407251393.2493048,5103000.0,9549477.63265714,0.0,2436119.88558744,5103000.0,1044662.0935121789,-32762000.0,-31518230.582605623,37865000.0,35466138.08654711,-32762000.0,-33930263.00251068
1456,668,0,2249377000.0,3130515283.2474623,1923326000.0,2242988764.686525,326519000.0,1056505343.7909018,-76300000.0,-64987794.6516435,416103000.0,441405931.88056,339803000.0,359408808.867432,34941000.0,19282993.10388086,184914000.0,190247721.91810834,-261214000.0,-256374754.8260773
1291,1438,2,396890000.0,-101469.53533697128,107071000.0,-303983159.66726506,289819000.0,346873962.5570389,52569000.0,51511911.73774871,13634000.0,14944019.88558744,66203000.0,55139562.093512185,8375000.0,-9508609.361202871,57828000.0,67765408.60115139,-5259000.0,-23603478.3834676
1376,1540,0,7827000.0,393251315.825311,4744000.0,1085268.0532423332,3083000.0,451473200.2155688,1288000.0,8655959.42612328,867000.0,9074091.4829192,2155000.0,5059157.992389118,-3880000.0,2171566.569331828,5168000.0,9644773.891736427,-3880000.0,491995.1739226989
1702,45,3,11990000.0,401744734.8198765,3030000.0,-81224483.62611586,8960000.0,191229786.2594632,1480000.0,7303040.526430868,3017000.0,4721180.213727551,4497000.0,454372.39384457597,-944000.0,-4145173.314441755,2424000.0,4115358.7185658785,-944000.0,-3746396.19419989
1591,554,4,7472874.0,140672386.61799222,3243445.0,-102063529.1754685,4067990.0,132584794.01902412,3065804.0,4241048.531499991,0.0,4957762.423351134,3065804.0,-2167268.689899485,-21884.0,-3280394.376833483,3087688.0,5855094.224978611,-21884.0,-5607602.24466585
647,262,1,2182494000.0,2352010345.1676598,2467501000.0,2324755748.8336844,-484456000.0,865918247.268229,389190000.0,386271661.44410825,141172000.0,128694689.63301247,531030000.0,501735041.67693657,-54175000.0,-47509884.40770645,443365000.0,429537025.6823587,-54175000.0,-49363775.90090097
100,1452,3,12166000.0,397342641.49877924,2892000.0,-38029124.777950585,9274000.0,148451397.70762002,5000.0,5565616.12185462,54000.0,1471180.2137275506,59000.0,184398.86097825196,-3433000.0,-6051666.77727961,3433000.0,6310047.950507027,-3428000.0,-5215913.730487432
507,1344,4,189783000.0,474621003.99087435,45792000.0,-57483890.705273926,143991000.0,348304861.4815996,2372000.0,6183522.816378398,0.0,-2053506.8067857048,2372000.0,-384267.1898994853,-18270000.0,-24777886.158195257,20642000.0,29332090.63308759,-18270000.0,-27888823.423770063
547,140,3,1072653000.0,1308211386.615997,455367000.0,396148310.2040447,617286000.0,422754365.1448437,134998000.0,141442226.7233259,27783000.0,29656008.99129166,163452000.0,155102372.39384454,5489000.0,-3679054.5198906767,129509000.0,132772833.23203105,5489000.0,-6087815.271594502
457,31,2,665104000.0,204574161.73200035,575531000.0,51552735.71911174,89573000.0,552209581.2581977,30803000.0,34184494.43559882,19437000.0,18756319.88558744,50240000.0,40709079.463259146,10357000.0,-4850779.664223179,22017000.0,24864041.5457898,8786000.0,-1155366.9136635847
560,1384,1,1900367000.0,2001181058.6792102,289037000.0,230179701.29696283,1613343000.0,915768901.001916,45433000.0,209475661.44410828,413911000.0,479090946.8540815,459344000.0,676165752.3225245,-6757000.0,212289965.59229344,52246000.0,64450043.342137486,-6813000.0,181404909.52388147
1402,659,4,88944000.0,324846693.4106136,45361000.0,-47452386.9057371,43583000.0,316100054.52645826,0.0,3180860.388852076,45000.0,-2009411.0943731293,45000.0,-2605867.189899485,-14351000.0,-14779232.79510455,14351000.0,17808951.183415294,-14351000.0,-17682375.629575826
1274,1288,0,5390785000.0,5461822015.356241,4083098000.0,4640315046.109456,1050686000.0,1428684908.081315,352054000.0,364465205.3483565,284900000.0,334679443.3184805,636954000.0,688895372.6898742,120850000.0,131164592.41202132,187232000.0,197911762.00024363,164822000.0,175568932.04675713
799,432,1,18535000.0,339747326.53328884,13748000.0,-14799415.058691502,4787000.0,385982769.22972345,2839000.0,14655661.44410827,7502000.0,2561030.5964426715,10341000.0,3991152.322524607,-2229000.0,4635565.59229356,3071000.0,6220621.8106169645,-232000.0,4156224.099099039
1436,1049,4,13281300000.0,9947967549.3749,5777300000.0,5500629142.9297695,7484300000.0,3135286650.653032,1030700000.0,1000431618.3880754,1150100000.0,1098636925.24593,2180800000.0,2101569132.8101006,687000000.0,633157311.9062574,343700000.0,364742744.4523985,687000000.0,639105878.489714
1518,865,3,108681735.0,462746782.97006714,9192190.0,-40180351.54483652,67531550.37365061,316985162.24741304,2201326.0,6443636.05753424,255772.0,1937359.313727551,2457098.0,583843.393844576,-8935951.0,-13520369.53738906,11137277.0,13138019.01759441,-8935951.0,-14300464.882312214
211,165,3,189692000.0,664683250.1437365,90178000.0,953554.8638347985,99514000.0,525940551.7187841,-4411000.0,5170159.890392942,24963000.0,28183643.23247327,20552000.0,24932210.157787543,-10000000.0,-5163961.015810894,5589000.0,6628383.119754759,-10000000.0,-8299629.560255463
1542,1155,3,230878000.0,674472220.4861196,57278000.0,34464853.5012961,173600000.0,550963453.0719616,26973000.0,33704013.73116818,7041000.0,8490408.99129166,34014000.0,32766598.86097825,-11169000.0,-13918654.964498032,38142000.0,40071743.15121603,-11169000.0,-14426680.429010978
1496,989,4,73773000.0,424655791.5913553,50819000.0,-64864349.88750428,38847689.64492722,474334593.08301246,5428000.0,9774586.70366777,22481000.0,21270100.46098014,27909000.0,21757932.81010051,-1778000.0,-2370211.1338771163,7206000.0,10950396.297275802,-1778000.0,-4456361.728414689
1891,1233,0,1582767000.0,1751937024.6894639,680421000.0,796242776.303506,880211000.0,845469505.7390447,56683000.0,62741205.3483565,17637000.0,24492835.750715,74320000.0,77346615.82313254,-5119000.0,-5576618.846119116,35279000.0,42438149.65174162,21404000.0,22179123.573922697
362,708,0,5641000.0,374372020.70410323,5200000.0,-3992868.093113549,-3859000.0,628582891.773622,1192000.0,8589959.42612328,781000.0,7371784.975641566,1973000.0,6405717.624611557,-97000.0,5976893.10388088,2070000.0,5429619.236698259,-878000.0,4255345.173922699
605,1393,2,3208196000.0,2142873883.5208023,2133043000.0,1578683460.2697058,1075153000.0,1454285853.890371,625972000.0,663675038.3574401,1066275000.0,1078045656.7236247,1692247000.0,1716441079.4632592,91616000.0,90085649.39661364,497965000.0,476479833.77075195,128007000.0,145099774.09510642
384,1490,0,13057000.0,310128334.25078124,4943774.229094189,-18938639.929379977,10949000.0,545539720.0695043,7944000.0,7514959.426123281,0.0,8359344.995916463,7944000.0,2807810.3002507556,1997000.0,3279243.1038808813,5947000.0,5312418.627263314,1997000.0,2498495.1739227
438,158,0,5973000000.0,5257605740.447945,4408000000.0,3958445604.9837055,1554000000.0,1748172129.0348396,244000000.0,258798205.3483565,1526000000.0,1504831282.9346688,1770000000.0,1751267327.7838466,147000000.0,55820817.36662666,127000000.0,120041288.83358482,117000000.0,135462713.82463923
1761,674,4,589088000.0,903459828.4172087,253950000.0,190908780.6756261,335138000.0,672359795.5310527,19294000.0,26677219.768649608,99428000.0,86264062.05510344,118722000.0,114382332.81010051,9057000.0,9392829.399660002,10237000.0,15095653.814891018,9057000.0,5778720.934208131
403,899,4,21286772.0,272810061.1615775,1383236.0,-100095717.050919,19903536.0,268357698.70904437,781782.0,4632241.2342897765,421382.0,280886.7674364196,1203164.0,-963897.2898994852,-1960898.0,-2102708.585048629,2742680.0,6433637.669987694,-1960898.0,-4802229.996982054
388,1242,1,3445920.0,375831568.1620502,1859560.0,-49825582.838526905,1616914.0883314284,222350107.75122717,2970901.0,12478753.44410827,569508.0,-6309583.675769623,805185.0,-4478737.034061575,2437201.0,7273849.642293557,533700.0,3347032.546730187,2437201.0,4502910.910258478
1452,1509,1,328158000.0,783183825.1453655,124250521.82515822,115394420.72861274,270486000.0,614724152.6179942,24944000.0,40355661.44410827,16521000.0,8687011.78880141,41465000.0,34417552.32252461,-7674000.0,824365.5922935596,24827000.0,27058234.445949852,117000.0,7672024.099099038
1876,471,2,2498305.0,-472539710.5831348,2997402.0,-419069752.9659205,-3454854.0,57472124.62017894,467340.0,1892395.1718246376,346611.0,2648918.38558744,813951.0,-2656106.1367408508,-114631.0,3196276.50988317,581971.0,5105348.015796616,-114631.0,289919.9804420008
757,46,2,1288046000.0,889323312.7166841,649920845.9604261,246625194.2648165,889849000.0,919761359.5007588,105384000.0,105509363.23290236,285360000.0,273467119.88558745,390744000.0,364465579.4632591,53190000.0,37394209.85794963,52194000.0,56017533.440922305,53190000.0,34715884.92889259
660,415,3,600057000.0,1114332847.9430757,369915000.0,259365054.942603,225443000.0,603939898.6377015,43121000.0,48137969.69340938,106269000.0,90266972.01003738,149390000.0,126759866.13864028,7853000.0,7611747.3605981665,30439000.0,29702028.093639035,12682000.0,10742845.701242762
197,225,3,538955000.0,710749215.5291042,291671000.0,52114290.11060333,247284000.0,319537688.6944479,-14193000.0,-3394825.12978312,14235000.0,13044480.21372755,42000.0,1000536.6249212202,-51845000.0,-56322142.59509458,37652000.0,47406123.75150503,-51845000.0,-67959998.41813499
93,1545,0,25334074.0,407808357.81805104,18917048.0,20167859.472273648,5501613.0,625677637.0732903,-536032.0,7495589.426123281,4501393.0,12988862.650776893,3965361.0,8065222.9839046085,-2975120.0,1224465.95388088,2439088.0,8428824.044842592,-2975120.0,10939.123922699133
472,277,1,1934400000.0,2492877315.892498,855887268.5537325,972053426.618825,957200000.0,1091809562.618718,84000000.0,131977039.32160744,375600000.0,432399966.4505181,459600000.0,549269352.3225245,30800000.0,76124215.59229356,59000000.0,66758118.73905643,25000000.0,65748809.523881525
1345,219,4,102973000.0,569927167.3385615,162948000.0,-70762812.99782556,-346214000.0,426181917.8168168,-13037000.0,-1415277.4020671742,25768000.0,19963063.12374521,12731000.0,15366432.810100514,-23219000.0,-13523954.493331429,35950000.0,30848866.163023137,-48987000.0,-37144664.60984918
1672,153,0,2501300000.0,2935136692.705469,1075500000.0,1507220712.4928396,1407900000.0,1254075963.8223605,99600000.0,122598205.3483565,151100000.0,176925402.19970146,250700000.0,285647668.90738475,31900000.0,6019765.343799522,67700000.0,123312260.61007899,31900000.0,-1364393.4491766645
521,1602,2,27910000000.0,29229275600.944847,24392000000.0,26701643436.935917,14058781786.346067,9197001568.47773,1525000000.0,1316298558.3339236,6421000000.0,5247609956.723625,7946000000.0,6561113879.463259,561000000.0,-71243.15099652484,638000000.0,488423781.06920725,887000000.0,464148081.21575737
1143,1298,0,105238000.0,607955879.9966884,42240000.0,88584419.00274122,62998000.0,705869489.3425808,8572000.0,16088205.348356497,322000.0,10358001.982620152,8894000.0,16282749.917383645,2218000.0,9214845.126708023,6354000.0,9296394.906164758,2218000.0,8067336.44349559
502,342,1,2010176000.0,2375135029.626257,889414829.379791,896764630.587529,1057656000.0,1032970464.8338048,113627000.0,133560661.44410828,250202000.0,243809231.83417973,363829000.0,363508652.32252455,44531000.0,57992065.59229355,69096000.0,74521475.2617275,44531000.0,55056959.523881525
319,1498,2,15154000000.0,10994552779.297367,5534200000.0,5006414848.9855175,9554000000.0,4227557608.1842017,739300000.0,714817166.7320077,999600000.0,985749956.7236248,1738900000.0,1666333879.4632592,318400000.0,255624566.58823448,315200000.0,308388597.5871832,424100000.0,366350708.4200836
471,26,3,346507000.0,907481488.4076793,100361000.0,52554322.67342013,246146000.0,537390313.4355918,14398000.0,21184600.025034443,62502000.0,64135172.01003738,72480000.0,71513366.13864028,4926000.0,-1163398.7253223949,9472000.0,11412428.562925667,4926000.0,2330309.961356676
1756,240,3,229309000.0,585449728.3377132,190264000.0,126374226.8657738,-44269000.0,534859056.9112638,9225000.0,22092473.359905805,52669000.0,78436372.01003738,61894000.0,88207072.39384457,1401000.0,4530213.176026057,7511000.0,7800579.142817469,1714000.0,4008480.2198577514
848,969,4,101740000.0,441156382.51999164,28463000.0,-72326273.22081953,50734000.0,356171360.21947324,29850000.0,30936860.430604592,12745000.0,12621604.13116923,40857000.0,36593432.81010051,2689000.0,2727827.444509812,27161000.0,29186980.117947374,2689000.0,29599.73273529997
1310,1304,4,9582645000.0,6580575976.247282,3280269000.0,1733786643.0479012,6302376000.0,2312204815.8980484,376175000.0,316034325.0641228,424915000.0,507705931.1086033,801090000.0,789848132.8101004,272965000.0,117193094.359999,103421000.0,136536764.73614708,272754000.0,127243809.7957737
202,832,1,609678000.0,1095231668.0733533,288631252.1743736,281180509.6091391,366720000.0,691015245.4153392,84451000.0,90373661.44410828,21802000.0,15880565.889464542,106253000.0,93608141.6769366,5683000.0,8165365.592293549,78768000.0,82078448.41585228,5683000.0,6104574.099099033
1444,1237,1,43441700000.0,36516603509.95256,21559314449.01792,20917754435.323,21882385550.98208,9804072610.182446,1370000000.0,1308477039.3216074,587400000.0,554467845.1048709,1957400000.0,1840979581.1659384,472000000.0,492039215.5922934,1485400000.0,1458074351.7367613,-115400000.0,-198271575.90090093
1578,477,1,1146353000.0,1745689752.6551757,752649000.0,752740494.5195792,393704000.0,831327856.378984,95229000.0,103510039.32160744,32092000.0,27022028.751349397,127321000.0,117065052.3225246,-58245000.0,-53360584.40770643,153474000.0,151501473.3936583,-58245000.0,-56402475.90090095
451,976,2,796771.0,-562861211.7033378,1072746.0,-422981971.9659205,-275975.0,87616518.03624773,205707.0,1339942.0256459557,158335.0,2592439.38558744,364042.0,-2754704.03674085,-168127.0,1178261.638170311,373834.0,4198484.55513972,-168127.0,1743581.450002227
35,1533,2,9069035000.0,4674095660.499754,2563480000.0,1379527621.465752,6505555000.0,2768697277.837732,942419000.0,899657939.1173468,522866000.0,525118556.7236248,1285548000.0,1233166079.4632592,602695000.0,510954821.1729392,339724000.0,342700136.64413434,602695000.0,511746212.91556025
237,773,0,48924605000.0,41530892771.589554,25766652000.0,21344285087.88298,22441501000.0,17289369688.897415,1560160000.0,1518315205.3483565,915531000.0,963745201.1098964,2475691000.0,2444243529.9245653,558196000.0,461682295.126708,1001964000.0,986080411.2111608,558196000.0,469216137.2752997
917,1251,2,514281000.0,102584674.78750253,309957000.0,-56483248.49046672,198004000.0,691291403.3409996,106985000.0,58490401.56543925,149052000.0,97409919.88558744,309744000.0,179453379.46325916,62399000.0,10728248.878352378,44586000.0,40793442.74165254,62399000.0,7903921.664921679
558,1396,4,17876000000.0,17639457535.737274,4077000000.0,2735650034.321691,13799000000.0,4055012844.146316,-917000000.0,-688376927.1668675,1453000000.0,965830010.6239384,536000000.0,325049132.8101005,-1774000000.0,-1630406342.9235682,857000000.0,947360165.8125803,-1774000000.0,-1647522011.5741863
73,1571,4,218354000.0,542118787.9985859,62021000.0,-39616603.26913148,156333000.0,420541642.3662858,-143000.0,4176600.480474775,848000.0,-1298813.6764519513,705000.0,-1754367.189899485,-31577000.0,-31813621.714058463,40859000.0,37595057.839440286,-41002000.0,-38005999.33876646
532,183,0,2268100000.0,2942225945.948186,1627400000.0,1882537672.4320395,640700000.0,1178984379.9668374,78400000.0,103161959.42612328,665200000.0,727741532.4823537,743600000.0,814699295.022497,19100000.0,36147193.10388088,724500000.0,760254630.6269056,-646100000.0,-681975595.3343865
986,1457,3,49117000.0,437369428.06639266,7104000.0,-91747789.08371806,42013000.0,348181059.3153837,1616000.0,7301987.991066435,3273000.0,5088280.213727551,4889000.0,5457472.393844577,-1489000.0,-4528274.022471785,3105000.0,4984476.662817734,-1489000.0,-3364842.3666584096
252,209,4,12822000.0,226131007.25199398,1624000.0,-110663857.58564596,11198000.0,242411671.7304027,0.0,3546014.7095962157,0.0,-1303201.866302953,0.0,-2650867.189899485,-1983000.0,-3597510.332553017,1983000.0,5519290.326005386,-1983000.0,-5686707.591161537
982,954,4,543788000.0,975182486.422367,205894547.02387,198796854.3271065,402777000.0,592617450.3964266,1944000.0,4412030.468963316,0.0,-8070250.283888578,1944000.0,-313067.1898994852,-51279000.0,-56296393.37068671,53223000.0,73191059.75982778,-51279000.0,-63842216.0310599
1947,1003,0,16965000000.0,14271819860.683628,7506269391.549871,7733891088.503422,7744800000.0,3746296792.6348095,1329900000.0,1160798205.3483565,1175700000.0,1157305552.493004,2505600000.0,2292268302.4788065,1069200000.0,1015219199.8132982,32700000.0,37945099.46043933,1297200000.0,1188015672.5550663
1206,1336,2,29788000.0,-271110543.19658303,27907000.0,-336299143.8768436,1881000.0,301016213.39888537,0.0,1874826.9436137716,3452000.0,2436119.88558744,3452000.0,-2117537.906487821,-23801000.0,-17991796.621104367,23801000.0,22759568.310984544,-23801000.0,-23097081.79308632
542,750,3,39315010.0,491823939.49485546,15768167.0,-27866144.70361495,23791305.0,280097889.5151373,7600979.0,13095321.696035542,41810204.0,31026081.03247327,49411183.0,35200140.19384457,-1588725.0,-3152985.4653672576,9189704.0,8200811.328848899,-1588725.0,-2717848.444170793
15,585,3,184728000.0,509854056.1548945,40367000.0,-3680438.36253804,144361000.0,371041793.2352511,0.0,7214805.610752083,8094000.0,7616380.213727551,8094000.0,6065372.393844576,-23114000.0,-27091424.427846108,23114000.0,27535845.756651472,-23114000.0,-30586198.270489
1754,771,2,5014090000.0,3313078801.84044,2606263000.0,2249098856.1231565,2407827000.0,1779040662.642209,420690000.0,432983755.83565617,905430000.0,898876919.8855875,1326120000.0,1312549479.4632592,237492000.0,220944426.52145272,183198000.0,184559055.32676357,237492000.0,224108663.225298
1448,1284,4,3543460000.0,2899573586.2508116,2602227000.0,2295494950.3697896,941233000.0,999342510.7700108,443568000.0,436373240.2928554,134292000.0,118211837.77083664,414603000.0,390887532.8101005,14363000.0,-39001526.119094335,429205000.0,409241103.6885904,14363000.0,-29571958.388748907
459,1460,0,747087000.0,1126603971.9013708,79688000.0,122139325.28259736,667399000.0,677231220.2383827,34565000.0,41933959.42612328,22203000.0,28455501.875645246,57261000.0,59002761.83529521,-16306000.0,-13464467.90016725,50871000.0,57674946.26045933,-16306000.0,-15179904.8260773
1505,88,0,4578121000.0,6028384878.645945,2310023301.364386,3408381137.134252,2489780000.0,1897266019.276112,2190001000.0,2247213959.426123,-1465670000.0,-1845756451.2045228,724331000.0,748243099.1703491,216069000.0,275378493.1038809,1973932000.0,2240616398.7834415,216069000.0,272196964.36073697
1613,408,0,11895943000.0,10524554657.81731,3479745000.0,3793315924.671431,8416198000.0,4452193011.56599,335683000.0,370281205.3483565,296441000.0,335318855.15447634,632124000.0,691139194.0473671,90949000.0,89420767.36662665,201199000.0,213390950.32739526,134484000.0,158006763.82463923
1214,313,0,1059300000.0,1516089685.1738615,513000000.0,753234330.712392,545000000.0,951050565.1300611,132000000.0,147298205.3483565,172700000.0,191803106.4341549,304700000.0,324800863.04039586,34700000.0,46753245.126708016,88200000.0,87786984.59737577,43800000.0,55420852.44773859
454,30,4,11204065000.0,9359555759.818882,4242197120.938668,3984647310.449819,3489373000.0,2849923279.2433624,480702000.0,503624177.2619795,457696000.0,453625047.2673334,938398000.0,943214032.8101003,172392000.0,141795413.5740829,308310000.0,340875687.4525219,172392000.0,140941488.65354803
1392,1216,2,531121000.0,62814757.52079213,248900000.0,-118392248.49046671,282221000.0,608039958.467808,62379000.0,74616504.18315765,135419000.0,144116519.88558745,197798000.0,207328079.46325913,18703000.0,13245915.501678392,43698000.0,55284965.13825464,18681000.0,9576350.805246385
1519,152,1,961035000.0,1356982450.3157487,1381722000.0,1357297415.121075,-420687000.0,850322500.6451486,271111000.0,275722039.3216074,201537000.0,192273217.96410933,472648000.0,458110041.67693657,5387000.0,21767765.592293557,265724000.0,258927633.9643989,5387000.0,17286659.52388153
1060,972,1,3194462000.0,3118398555.938677,1643299000.0,1572094455.920005,1512215000.0,1360785812.7597058,817744000.0,822573039.3216075,0.0,-7379107.204170917,817744000.0,803266352.3225245,37900000.0,56992365.59229356,779844000.0,749716456.1461685,37900000.0,53363159.52388153
1100,1359,4,6042273.0,176212171.2344277,3627261.0,-101226607.953374,2415012.0,193455038.8963348,0.0,3582656.680753113,0.0,-859899.6287617497,0.0,-2650867.189899485,-1829562.0,-2274430.989888612,1829562.0,4369424.749346056,-1829562.0,-4268074.829320531
203,1317,1,76266906.0,414884511.4407261,57438990.0,28028749.16227126,40912361.81482647,460416750.6613956,9146097.0,21093843.44410827,0.0,-7004965.373752572,9146097.0,1361732.0769365984,-2633902.0,4699590.84229356,11779999.0,16108783.96790369,-2633902.0,1890920.149099038
1493,39,4,-3532973000.0,596599222.5534283,-2747133000.0,952317584.0338151,-773571000.0,903025887.7885616,87737000.0,104116186.56335962,40236000.0,357014104.583441,103187000.0,472382832.8101005,7123000.0,-3386055.956401378,80614000.0,144457202.03488716,7123000.0,-8845090.52735814
543,1231,2,846734000.0,415198525.93387353,635659000.0,-198368811.1735506,69332000.0,546583938.0315902,204774000.0,350120095.495284,-13024000.0,-310429980.11441255,191750000.0,-1336937.906487821,-52860000.0,-121605748.67268026,257634000.0,551487163.7523425,-52860000.0,-131505530.40019554
1966,423,0,1354514000.0,1537068678.5132627,675720000.0,715665402.6140777,319291000.0,801767724.3486693,-16558000.0,-6394083.654372425,64132000.0,73571425.9923045,47574000.0,54610187.724867344,22229000.0,24894684.82966164,13428000.0,19202561.736218777,-29986000.0,-22599997.5522614
1802,943,0,270533000.0,662408476.5668676,240046000.0,228392497.866504,30487000.0,739047630.475277,26052000.0,37722959.42612328,12454000.0,24116822.895830557,38506000.0,52217903.16685906,-21038000.0,-5579515.877340104,47090000.0,46304267.09471181,-21038000.0,-7574463.556504408
1372,102,1,583783000.0,1020139250.3788257,717382000.0,648747183.457257,-133599000.0,761831170.2597984,41865000.0,45251661.44410827,32703000.0,18597461.277077354,74568000.0,48530141.6769366,-32006000.0,-38344584.40770644,48224000.0,49697471.55525121,-6359000.0,-11798075.900900966
1325,468,0,534446.0,337265587.7444141,9794849.0,3166917.0773124173,-9132038.0,582468724.9170108,6264.0,7471218.426123281,3881.0,7706261.086323051,10145.0,2975412.459205525,-961868.0,5113827.25388088,972013.0,4016908.185386274,-965749.0,4442260.86561349
1504,1328,0,106308000.0,545465592.0376328,29369000.0,63192637.62830083,76939000.0,594386853.9434054,15630000.0,21558959.42612328,0.0,8354165.649699036,15630000.0,18445854.905471675,-23899000.0,-1687106.8961191175,39529000.0,26374774.805135205,-23899000.0,-2688654.826077299
1347,666,2,369031000.0,14477226.578677773,216722530.1814524,-186092616.34984225,188777000.0,500199094.4034612,45044000.0,56838401.88750444,42173000.0,51077519.88558744,87217000.0,99182179.46325915,-3804000.0,-1637711.4756368103,48848000.0,55622212.4597449,-3804000.0,-5021218.671970135
1492,1528,2,327784000.0,-23079704.818400502,323919000.0,-174602143.87684357,3865000.0,432020330.8671441,33496000.0,35550738.72820546,8201000.0,9761619.88558744,41697000.0,33536162.093512177,-4913000.0,-18331786.86053048,37287000.0,41139223.72764953,-3791000.0,-14875083.853939803
1107,494,4,85658000000.0,61430255167.77264,88335000000.0,90867577091.95377,-2772000000.0,5258298555.164927,5387000000.0,4709675654.919773,14002000000.0,12869349677.18024,16935000000.0,15613087606.950184,1165000000.0,1108255113.832331,4222000000.0,3986112549.6768093,1165000000.0,1086934083.9519022
1336,1408,2,898860000.0,341036790.9721586,527877640.3036609,104586518.61475158,360528000.0,480138718.492332,68259000.0,88464330.90465601,42065000.0,49254719.88558744,110324000.0,124964379.46325915,-1325000.0,4604625.035299633,69584000.0,73079801.68866864,-1325000.0,4868302.784176195
599,339,4,50546000.0,344509785.25375396,5959000.0,-90436107.84774584,44587000.0,401686200.0873059,1989000.0,5910510.352296004,1909000.0,-246405.97919742577,3898000.0,2324432.8101005144,-1895000.0,-1886181.1253122317,3884000.0,7266208.143620359,-1895000.0,-4785197.904998411
117,2,2,939056000.0,320861860.44413316,419590000.0,-51505159.66726506,517473000.0,630887782.0634937,90527000.0,116024596.553985,120216000.0,116133519.88558744,210268000.0,219347079.46325913,61012000.0,70597551.43364276,29515000.0,39276223.36487543,61012000.0,67488974.85679662
1825,558,0,20027115000.0,16111970824.183838,12952737000.0,10642648108.005768,5611108000.0,3501217367.1706543,32786000.0,40923959.42612328,283742000.0,274394654.4543108,316528000.0,305635769.184569,-1347477000.0,-201636204.87329197,1910658000.0,778887970.6221321,-1877872000.0,-762353022.2163911
1507,1259,4,124094000.0,418479157.0239769,18130000.0,-98489879.02757633,105964000.0,357426923.8542906,830000.0,6126630.755627325,0.0,-2641226.3181349784,830000.0,-1113567.189899485,-5787000.0,-7675278.833914509,6617000.0,11576636.409574829,-5787000.0,-10387625.70729452
321,77,1,68675000.0,408715164.6433852,40331082.646745786,35694533.14312063,53645000.0,474318919.5736207,10938000.0,22304661.44410827,6604000.0,-819543.3334812,17542000.0,8158852.322524607,880000.0,7691134.236361355,10058000.0,14074655.788508551,880000.0,4851295.285539716
1482,1163,0,1833700000.0,2037193063.370263,811331929.4597701,944771996.6384398,482900000.0,959006800.8551276,110200000.0,124898205.3483565,356000000.0,362759792.4954783,466200000.0,475898119.0832553,45700000.0,68528628.37067477,55600000.0,59699231.83603604,54600000.0,70323373.31633002
508,974,4,62515472.0,428415679.05769175,29595817.732691668,-81233725.10468782,21861273.0,414097185.52429307,7032458.0,10813605.604867432,11256239.0,8512737.354582261,18288697.0,15972700.910100516,-1564350.0,-2190751.671352607,8596808.0,11557309.068702003,-1564350.0,-4800927.524014887
1411,1190,3,33859785.0,374173665.1865387,6178818.0,-54001440.69818205,27680967.0,238926177.75306055,-63384.0,4472087.013432132,87873.0,1615218.7137275506,24489.0,350375.760978252,-2675666.0,-6375279.582196666,2612282.0,4943352.798589477,-2675666.0,-3610763.32730944
718,594,4,770792000.0,1209777656.1374302,581187000.0,501740408.5042151,188503000.0,714100776.7332333,456709000.0,466334287.4637435,0.0,-8243516.819061024,456709000.0,449525032.8101005,-29756000.0,-27495653.29368406,486465000.0,462245373.36192,-29756000.0,-29550389.19434173
1865,766,2,4753100000.0,1758656583.2147517,2691038000.0,1250604963.0813937,2062062000.0,1274903437.0230618,383135000.0,379158281.8312929,0.0,1609956.723624759,383135000.0,365115679.4632591,126771000.0,32729651.984512284,256364000.0,306442561.12070674,126771000.0,34385245.29812829
710,491,2,9330700000.0,5511512433.237861,4987700000.0,2809849377.8074822,4343000000.0,2628717092.2611885,590200000.0,617940960.671894,367100000.0,389576119.88558745,444000000.0,488753879.46325916,121300000.0,99726863.8026222,468900000.0,482204674.6802448,121300000.0,94144189.53425965
285,371,2,1797231000.0,1066712255.2486972,1568932000.0,1112454856.1231563,228299000.0,651280422.4042913,143030000.0,145643248.40410957,0.0,2436119.88558744,143030000.0,132552462.09351218,-113543000.0,-128028497.96624592,256573000.0,256167655.07760802,-113543000.0,-129012397.92916554
1609,1195,3,90048000.0,553400777.1144283,45436321.63528667,-76670596.58273718,37547000.0,338055641.7418262,2482000.0,9444365.90832696,9262000.0,11006308.99129166,11744000.0,10920698.860978253,1360000.0,-2611529.983005208,2815000.0,4232661.02833113,-333000.0,-1779500.0185422923
1814,1009,4,190817000.0,582394229.0856897,91955000.0,-27359046.33735615,118567925.39840196,512251215.007372,16838000.0,20382561.718562614,21962000.0,14354557.21513445,38800000.0,33607432.81010051,3292000.0,2983862.802356318,13546000.0,16339298.358332798,3292000.0,-364264.3086848585
720,503,0,24930824.0,396109452.7486937,6278564.0,11414033.452297896,18652260.0,649832952.617945,7866761.0,13368965.348356497,20382092.0,25571764.089146707,28248853.0,27395866.476309814,1448213.0,7263972.747847645,6418548.0,8373462.044870027,1448213.0,6834607.155066338
1707,905,3,6071000000.0,5832718409.462518,14261000000.0,14532257174.20366,-8190000000.0,1504322909.199103,1287000000.0,1320946119.2686143,421000000.0,415940572.01003736,1708000000.0,1681955566.1386404,613000000.0,559891882.4922553,1095000000.0,1104966352.1434631,192000000.0,162895829.55788726
485,1039,4,5768300000.0,5112943863.663451,3017800000.0,3037055055.2602205,2739100000.0,1819887136.9826243,487400000.0,501717970.7052711,888400000.0,864236286.8656257,1375800000.0,1358279132.8101006,276300000.0,272406207.93149084,211100000.0,207554859.80053487,276300000.0,272390152.3341128
1364,576,2,3486179000.0,2865882635.754262,1927467000.0,1404868925.1512876,1501742000.0,1549654362.6737602,315111000.0,341435527.30201924,669472000.0,662643119.8855875,949217000.0,948112679.4632591,-24190000.0,124745645.8362848,194277000.0,193993432.25290433,120834000.0,123701122.72385156
1943,705,3,496042000.0,1059027305.0979815,349488000.0,320472828.35271794,146554000.0,597639368.3676038,33924000.0,45849468.0244786,212763000.0,226111272.0100374,246687000.0,260771366.13864028,12448000.0,13396837.67177447,21476000.0,23401574.67721462,12448000.0,13629787.403783506
708,7,3,1713800000.0,2127729911.0847614,864747334.9608463,847866090.6417147,585500000.0,1248090068.3289645,141400000.0,135476595.83228925,205900000.0,204250572.0100374,347300000.0,325137142.50633216,100200000.0,80917184.49902955,64600000.0,64265364.061767705,76800000.0,59313092.71098158
1795,1481,4,5817000.0,200558373.18628424,1413000.0,-105894089.27450436,5436000.0,205177288.6331489,5000.0,3888676.209544485,0.0,1772745.236045057,5000.0,-2587767.189899485,-3525000.0,-2890935.9443814806,3530000.0,5727617.454759169,-3525000.0,-4889405.755257888
1196,275,3,4180537.0,407319439.9932184,13379601.0,-56976665.845213056,-9199064.0,328630998.1938021,1107842.0,8452012.546905182,974711.0,2519172.8137275507,2069845.0,2447568.193844576,-2577294.0,-2418064.8596493746,3685136.0,5116958.615490481,-2577294.0,-3301253.3580594426
1785,608,0,6656000000.0,6150549262.076401,2127000000.0,2224419138.93643,4529000000.0,2242642824.832814,386000000.0,409461959.42612326,110000000.0,56614071.65603859,496000000.0,487869030.0252343,-53000000.0,-54280617.90016723,439000000.0,457801717.4373711,-53000000.0,-57786254.8260773
1117,1429,1,191593000.0,658448800.7905188,250675000.0,179277534.3904916,89973054.63642293,638927888.0947267,28173000.0,33141039.32160742,35245000.0,30797829.89954225,63418000.0,50115352.32252461,-6852000.0,-7475234.40770644,35025000.0,40098724.7416727,-6852000.0,-10249425.900900962
611,864,4,69753000.0,419054224.67503095,24624000.0,41052850.75947338,45129000.0,314299112.6377048,4333000.0,8345293.097934835,3937000.0,1408191.3690823242,8270000.0,5437132.810100514,-17948000.0,-26081488.00249017,22281000.0,31436896.959546052,-17948000.0,-29692042.3600851
1037,807,1,12798100000.0,12035547632.215872,7698700000.0,8640549116.850998,5099400000.0,2846034997.579976,578600000.0,601477039.3216075,1141600000.0,1152489878.2227154,1720200000.0,1745679352.3225245,210200000.0,128574215.59229356,368400000.0,358744931.5905184,210200000.0,238253809.5238815
1049,56,2,41718000.0,-331045923.94971895,16883000.0,-407326248.4904667,24835000.0,222405786.7052324,4472000.0,7745973.971353891,-7000.0,3612019.88558744,4465000.0,2576879.4632591493,467000.0,-1641348.5642370442,4005000.0,8359168.092963931,467000.0,-4410999.254724567
181,1519,1,2175066000.0,2212634113.711981,720018000.0,563231932.5225223,1455048000.0,829009389.9531617,262895000.0,271055039.3216074,0.0,-6766715.759653771,262895000.0,246519541.6769366,-74357000.0,-37560084.40770643,337252000.0,296293085.8233075,-74357000.0,-41792875.90090095
1530,1357,1,432444000.0,866184160.166666,58115000.0,93270587.40394318,374329000.0,531856482.9832324,30953000.0,41408661.44410827,9019000.0,2917628.7513493933,39972000.0,30241441.676936597,-4508000.0,388215.5922935605,35461000.0,38418516.994504884,-4508000.0,-2321690.4761184654
1172,1002,1,1951144000.0,2258550307.734721,976648000.0,1010723869.7296816,828149000.0,935471221.2275236,81471000.0,33924661.44410827,811299000.0,840409111.7888014,892770000.0,857073352.3225245,21174000.0,-40170784.40770644,35340000.0,36898678.84969179,46131000.0,-10172475.900900966
1844,1200,3,5184000.0,406128444.96799123,33317000.0,-3974340.604772568,2568262.933576247,148734079.1939757,28000.0,7908657.889709013,1138000.0,3178008.9912916617,1166000.0,730672.393844576,-1174000.0,288528.17896498507,1202000.0,3410710.1609703954,-1174000.0,-948131.4032866316
937,215,3,30042800000.0,26700703524.79531,15158963259.867964,14627284189.021229,10331300000.0,5964592037.840526,1541600000.0,1519825874.720997,2284300000.0,2223440572.0100374,3825900000.0,3712867142.506332,727800000.0,696658033.6884325,402100000.0,390388539.1785316,1139500000.0,1094869335.4830637
1319,657,1,3143366000.0,3070217867.8855963,724791000.0,667301580.2072225,1686216654.8151803,1003032793.2047124,293240000.0,172170661.44410828,0.0,-7201671.899399082,293240000.0,157389352.3225246,242794000.0,124509015.59229356,50446000.0,51743733.155203655,242794000.0,120476009.52388154
785,291,2,2558318838.0,1586199015.2208595,289865031.0,-145301744.87684357,2268453807.0,1217560801.942204,191440633.0,200567523.84600988,384407857.0,388430513.18558747,575848490.0,571403110.3632592,122416529.0,118215786.56953892,69024104.0,68982382.55956517,122416529.0,116568659.65786593
534,1172,1,355784000.0,922749656.7880462,359982000.0,321853212.1960562,21035000.0,698224654.8538308,21274000.0,32505661.44410827,23247000.0,16264530.09549398,43857000.0,35772452.32252461,-2501000.0,2720215.5922935577,23775000.0,32022560.14364907,-2501000.0,-700575.9009009623
1073,476,2,107571000000.0,92365351875.7122,49865975585.04998,48641775067.21044,57705024414.95002,42548306062.24955,4680000000.0,4245368706.635576,16059000000.0,14536009956.723623,20739000000.0,18778813879.463257,2233000000.0,1861252679.895092,234000000.0,274567554.90954494,4446000000.0,1932364321.6254027
871,35,3,357016000.0,848931819.1420636,134021000.0,69897306.72635007,222995000.0,577350609.2577713,10859000.0,17109280.376835585,60424000.0,59812672.01003738,71283000.0,66388666.1386403,4410000.0,-660365.4282398107,6449000.0,8457939.65066173,4410000.0,777741.1267841076
145,1121,2,10492900000.0,7734934319.81781,4642648635.342979,4125349436.894574,7724300000.0,4396304628.084242,1077000000.0,1238669223.0842028,2546000000.0,2694269956.7236247,3623000000.0,3913903879.4632587,389500000.0,509903350.519572,626900000.0,639471989.1786759,450100000.0,568425220.3011327
1137,1052,1,221167000.0,605969592.4955904,272405000.0,167730066.98262197,-51238000.0,685066085.5864953,26384000.0,36107661.44410827,0.0,-7169706.662530884,26384000.0,15086441.676936598,3123000.0,1840265.5922935505,23261000.0,34216222.883086435,3123000.0,-1298420.900900965
1853,994,4,644700000.0,1149341054.8665762,668700000.0,668385773.0206585,-24000000.0,692920310.2087686,11300000.0,35151865.11691088,30400000.0,49799771.894021735,40500000.0,41409132.81010051,-2900000.0,10599721.36539002,9300000.0,13086207.59046514,2000000.0,13420227.397178408
1607,915,3,5733000000.0,5422268942.2404785,4386600000.0,4161035938.902514,1332700000.0,1820850179.6719227,508800000.0,520645824.5399351,1740100000.0,1720820572.0100374,2248900000.0,2228655566.1386404,201100000.0,190771795.18468744,328200000.0,327628822.41248953,180600000.0,173532865.114324
497,445,3,3187469000.0,2746675239.6813226,1581882073.387936,1379461302.3577824,1402929000.0,1302458375.6397612,12023000.0,4052808.414171577,118303000.0,124768872.01003738,130326000.0,116438542.50633222,121116000.0,98768775.31270726,236940000.0,238470043.3388547,-224917000.0,-239496399.0629036
1789,1072,1,160962000.0,538537964.6345028,136871000.0,138384594.3265375,14091000.0,495938903.79605377,33234000.0,45691661.44410827,28516000.0,24837209.58106996,61750000.0,57788052.32252461,-4105000.0,-3935158.235471361,29699000.0,39989259.58146306,3535000.0,3709339.0990990354
1733,641,2,1070082000.0,361911822.6296773,790095000.0,390663751.5095333,279987000.0,577935088.1874235,59499000.0,64919266.104865015,92514000.0,89149319.88558744,152013000.0,143032979.46325916,-6147000.0,-12995874.2681955,65646000.0,69065660.02626935,-6147000.0,-14913530.194153951
1735,406,2,55335000.0,-232649273.55461514,11648000.0,-406108159.66726506,43687000.0,224063167.52992412,13874000.0,15948211.189882562,0.0,2573619.88558744,13874000.0,9227679.46325915,364000.0,-1340507.7056666657,13510000.0,16498339.82524561,364000.0,-4669437.701233196
1273,683,0,8855100000.0,6194675740.785848,4468096700.788768,3655055184.766101,3543300000.0,1835296271.0475447,468100000.0,432298205.3483565,2041800000.0,1979765533.320368,2509900000.0,2388982556.385005,256500000.0,209605251.8361257,211600000.0,188593604.8801931,256500000.0,218517713.8246392
226,326,2,1045317000.0,313762350.6096928,491551000.0,61496538.973136365,553766000.0,507854443.5242428,49476000.0,52160514.14005583,27012000.0,30862219.88558744,76488000.0,71962779.46325916,5569000.0,-2251620.6402642727,43907000.0,48531729.04947381,5569000.0,-1893334.8481059896
856,206,2,3335011000.0,2048650373.5433025,1532336000.0,1082789370.8525136,1376443773.6613572,783781818.4058359,158805000.0,148363412.29406723,458734000.0,494563319.88558745,617539000.0,632364279.4632591,82276000.0,54536854.328410245,26748000.0,34830389.25324425,132057000.0,103179205.20212293
610,1330,3,50788000000.0,43422273139.63132,23543456582.29001,22942929862.31465,11845000000.0,6850882520.532722,1286000000.0,1341886850.967116,484000000.0,479255673.1484394,1770000000.0,1741799780.270275,994000000.0,986113157.2306186,146000000.0,167894816.19606844,1140000000.0,1107024481.3182142
434,768,0,9209798000.0,7370980774.197933,3242862000.0,3343604192.276343,3654836000.0,1764686323.6062634,758604000.0,631196205.3483565,-63000.0,16838917.579289153,758541000.0,628408476.5729349,306700000.0,210396695.12670803,451904000.0,409208903.33859056,306700000.0,203963877.7836089
1765,75,3,3861516000.0,4083692949.1366057,3060094000.0,2755129084.072634,801422000.0,1322453226.1237478,246503000.0,376207637.0012401,543454000.0,498947308.9912917,789957000.0,837405242.5063322,-286586000.0,-163193908.47904035,130761000.0,148270616.528013,115742000.0,191658004.3403473
667,732,1,3117800000.0,3490116882.4014688,2444800000.0,2696249438.032361,673000000.0,1358157972.2769582,86700000.0,139883661.44410828,411500000.0,533977949.9447691,498200000.0,659399352.3225245,-419900000.0,31944215.59229354,63400000.0,74233162.7926363,23300000.0,63113424.09909903
1194,1500,0,84073.0,274514529.07791895,2814055.0,-1226982.2040084824,-2729982.0,490154640.0339501,0.0,7421916.345627575,0.0,6632709.928042535,0.0,2728369.633029206,-647078.0,6217972.17228545,647078.0,3418110.5914656557,-647078.0,4701854.878165709
626,829,4,250689000.0,686348898.4212133,83024000.0,-19157934.403800905,167665000.0,477515207.4807,0.0,4342672.016372349,33193000.0,24901598.9618064,33193000.0,27769232.810100514,-43672000.0,-40476380.507016174,43672000.0,42981846.271220796,-43672000.0,-43804308.56830939
1654,1124,4,2267553000.0,2595550385.5780797,1375272000.0,1397989437.5453582,519294000.0,969222780.3669126,30179000.0,33097235.25149683,36686000.0,32506537.672177605,66865000.0,78498032.81010051,-15417000.0,-3623716.305395132,38864000.0,39833063.44032192,-8685000.0,-6951395.8832313735
288,1576,4,2221575000.0,2321933392.3620396,1034139000.0,1009770776.8946146,1187436000.0,900784425.0693188,131964000.0,138416949.19325396,106311000.0,96154737.96827024,188755000.0,191598032.8101005,3712000.0,-835292.8779061495,128252000.0,131704856.22057177,3712000.0,-2999004.4791305023
1665,1524,1,555271000.0,1051736581.5891328,273881000.0,346628460.6336279,281390000.0,769470533.0139927,77610000.0,83693039.32160743,73228000.0,68621832.85399982,150838000.0,137965452.3225246,6400000.0,-40287184.40770644,144438000.0,199409282.78514478,-66828000.0,-123959990.47611846
652,243,0,1810200000.0,2181897267.242978,1334200000.0,1471830812.358857,472000000.0,1002174774.8067824,111400000.0,-289001794.6516435,439000000.0,839961101.3622117,550400000.0,577668962.216598,53300000.0,59869397.60144402,43800000.0,48463988.19496302,67600000.0,-209257751.3992947
1078,991,2,339972000.0,-52113539.82906532,145992000.0,-350190143.8768436,193980000.0,403262300.056936,800000.0,10382036.350218909,85000.0,2969019.88558744,885000.0,2795962.093512179,-35502000.0,-46113861.78273639,45899000.0,62798115.96213972,-45099000.0,-59371586.281372204
778,188,0,992330000.0,1228320194.4145446,401273000.0,453207714.55799294,544681000.0,859152998.191238,417282000.0,420812959.42612326,0.0,9438570.999893969,417282000.0,411690655.95768505,5536000.0,12993354.52363032,411746000.0,390333355.73174894,5536000.0,12025380.169403654
29,1409,1,600271000.0,1092422473.81817,137438000.0,153020450.0734222,462833000.0,703375636.7151062,73869000.0,88554039.32160743,24421000.0,16751711.78880141,98290000.0,89670152.3225246,-8089000.0,1911765.5922935568,81958000.0,81535991.23196568,-8089000.0,-725225.9009009623
854,119,4,47193000.0,415097170.09585536,31000000.0,-63029772.197491705,16193000.0,355119640.45070374,4954000.0,8009555.8823239235,3898000.0,93936.12638787924,8852000.0,5715432.810100514,-615000.0,-2529781.1253122333,5569000.0,9709354.202355033,-615000.0,-5063754.368723908
1423,1555,0,150549000.0,655697477.2244952,163792000.0,271015470.3033268,16674000.0,568346886.8747032,28323000.0,17080959.42612328,6429000.0,16151627.51151134,34752000.0,22246638.062387828,-13758000.0,-45907567.90016724,21733000.0,29050280.817923933,6590000.0,-10688004.826077305
1406,885,3,62996000.0,571529654.5647428,12638000.0,-35534179.00188434,50358000.0,392391743.4647696,9919000.0,15962538.635961412,5920000.0,7393743.232473269,13543000.0,13671398.860978251,1979000.0,273609.221884707,7940000.0,9446639.344232682,1979000.0,592887.6192183383
1624,871,2,56415000000.0,54548891559.35855,26707757359.48695,26916142985.66692,20622000000.0,14081192826.265251,4258000000.0,4235619419.939916,2744000000.0,2762409956.7236247,7002000000.0,6967713879.463259,471000000.0,526562219.8266823,1302000000.0,1249838995.2273734,2956000000.0,2954524794.80274
926,1136,2,572995000.0,329611003.4084631,271264937.13018215,-178344202.80431315,210105000.0,639346859.2546139,-46109000.0,233143026.60534683,111142000.0,100083319.88558744,65033000.0,307418662.0935122,53448000.0,46983893.43421251,184993000.0,178238220.28069624,-231102000.0,-5784673.286285623
1324,1025,3,11156646.0,349435432.22855335,14063458.0,-37752399.49948865,-2906812.0,117801513.53410389,-483256.0,5305430.503114389,692752.0,3028032.9912916617,209496.0,227279.76097825196,-2378023.0,-6235797.92771271,1407493.0,3052849.142262877,-1890749.0,-1243758.1882866523
809,948,0,746651000.0,1115550535.5223386,563281000.0,582723499.8413699,350347808.70326334,702772721.7699707,20268000.0,24177205.348356497,132273000.0,201204581.8095352,152541000.0,216375207.34230393,1482000.0,5383011.233048033,18377000.0,24322707.731412828,1891000.0,4833567.042238089
492,1059,4,203605000.0,673779575.7873912,164863000.0,103538952.28159142,38742000.0,566248325.2354813,38308000.0,45260893.82764034,13284000.0,3818858.814334091,51592000.0,49173732.81010052,8585000.0,3533505.159034701,22801000.0,28394622.621252142,15507000.0,10627866.475678656
383,753,0,35610551.0,432308205.7002869,44852933.0,17382190.273756236,-9242382.0,637435635.705168,3037874.0,10935905.539439889,5691278.0,12494670.185472377,8729152.0,12826846.91370268,-7028283.0,-1213215.0703383544,15757435.0,20015165.45311226,-12719561.0,-8220585.864813615
1250,1092,1,4596600000.0,5597686858.545885,2319347415.031524,2530820655.1865067,3466600000.0,2161985734.3513107,2555100000.0,1718977039.3216074,3033000000.0,2108115599.9053335,5588100000.0,3887623341.676937,1174900000.0,714176902.1131853,1380200000.0,942444739.4143785,1174900000.0,749278809.5238817
229,1285,3,3802385000.0,3845842499.747761,2636965000.0,2748550135.3253074,1165420000.0,1362814873.9221904,157645000.0,151645990.1598972,488142000.0,463368872.01003736,645787000.0,596571466.1386403,66824000.0,40416235.14815678,83253000.0,85352041.49063061,74392000.0,50852710.66657013
1531,436,2,12852000.0,-388365748.63783085,5815000.0,-413877524.5338633,7037000.0,149801213.06667888,1838000.0,2383744.715356961,1427000.0,4654819.88558744,400000.0,1434579.4632591493,-1116000.0,-465894.88019870967,2954000.0,6813495.240969308,-1116000.0,-3804914.3985395865
1035,379,4,11747000000.0,11091827579.331116,7158000000.0,7182513570.283292,4503000000.0,3255573290.625297,770000000.0,771280238.7833233,1424000000.0,1459045377.7581336,2194000000.0,2220649132.8101006,154000000.0,213018950.7752271,2040000000.0,2181906278.1145735,-1270000000.0,-1243511172.638287
1774,384,4,7236206.0,224189452.11016732,4913744.0,-93157186.83703762,2190428.0,225635554.4937681,634746.0,4476748.830768115,2326079.0,4429292.422702008,2960825.0,169847.8101005148,-234151.0,-714291.3273039099,886442.0,3398218.036967472,-251696.0,-3080645.9517971086
868,900,3,6411000000.0,5888601127.680513,3370100000.0,3972092642.913638,3176144611.7201624,1684624837.238327,371800000.0,415879536.1215071,637000000.0,687640572.0100374,1008800000.0,1079537142.5063322,180100000.0,202892094.63026065,166200000.0,169507616.7376596,205600000.0,226562796.79954973
1391,726,2,345836000.0,-31494062.93670225,48837000.0,-360377248.4904667,296999000.0,410910339.8546391,3870000.0,-3596929.9550228408,113328000.0,95445419.88558744,116752000.0,85501879.46325916,297000.0,-4532618.878426356,3573000.0,7850487.273141765,297000.0,-11599803.408891622
1734,41,2,20108000.0,-463059399.5238872,9068000.0,-415292143.8768436,11040000.0,142964987.75624478,3847000.0,2725107.8385471683,661000.0,2988419.88558744,4508000.0,307379.46325914946,-4126000.0,-4642084.839931181,7973000.0,11288325.06639346,-4126000.0,-9466043.61124263
1416,186,2,1564856000.0,980208097.812949,1122858000.0,650935856.1231564,416354000.0,785239063.9124286,276207000.0,280248472.97702384,-11227000.0,-7390680.11441256,264980000.0,254492979.46325913,5657000.0,-1529609.1374475518,270550000.0,258999941.13187537,5657000.0,-3395741.2160100527
352,642,1,1125373000.0,1643326915.6956563,521681703.6382896,710360609.4366059,29987000.0,921680734.5382968,142411000.0,137564661.44410828,-42080000.0,-54186913.37504257,100331000.0,85183141.6769366,17283000.0,16337215.592293616,125128000.0,127524536.03294633,17283000.0,12298909.52388157
135,273,0,630871000.0,1169058375.885356,398464000.0,444067558.3596912,232407000.0,810497617.250466,80823000.0,68003205.3483565,413091000.0,285809572.7216437,493914000.0,343226355.3739552,-14453000.0,4652667.366626646,95276000.0,65348214.59822513,-14453000.0,3934163.824639223
1338,391,2,123668000.0,-210242193.0567758,40963000.0,-366877143.8768436,50285000.0,290625407.71612954,29188000.0,37324644.06818648,11108000.0,16685619.88558744,40296000.0,44044179.463259146,-25553000.0,-11184435.50700638,35508000.0,34242362.86243527,-6320000.0,-408567.6878838334
1076,1378,2,34865437.0,-404449617.76355124,19085704.0,-411393201.5338633,15779733.0,106979175.87587868,0.0,1643672.2352078538,1198.0,3876119.88558744,1198.0,9513879.46325915,-6520186.0,-6251559.135132302,6520186.0,9143626.116483025,-6520186.0,-9204548.78265685
1426,1389,1,1275550000.0,1422187321.4913764,1504271000.0,1360636600.2065227,-228721000.0,764249127.5333863,-35238000.0,-25367338.55589173,59168000.0,38695535.55094452,23930000.0,13278552.322524607,6621000.0,19867065.59229356,102745000.0,94164873.66647123,-137983000.0,-95937925.90090092
2023,758,0,151712000.0,582094508.8025355,195428000.0,141910517.337692,28605000.0,663610667.5890304,11588000.0,12233916.345627576,43977000.0,38479893.6991587,55565000.0,39894728.61093257,-8864000.0,-3499741.704887403,20452000.0,19255188.858117618,-8864000.0,-5507663.556504408
1219,1466,4,1812825000.0,2317000523.4979095,1134969000.0,1119486915.648739,677856000.0,811801509.6998277,53184000.0,67737866.75572734,120142000.0,116599754.81537,173326000.0,186301432.8101005,31929000.0,25438083.69460483,16945000.0,26155508.452674434,36239000.0,30347257.234119043
201,814,4,-1450776000.0,111592317.7002298,-894261000.0,188966256.9101357,-556515000.0,626634955.1989938,162740000.0,173735310.44243932,213058000.0,310465466.8391842,375798000.0,560052932.8101006,-31210000.0,-45645170.89768685,193950000.0,328151067.6776284,-31210000.0,-45815347.87480892
580,988,0,526507000.0,979252031.0010226,370554000.0,431921665.9441207,155953000.0,851490182.8047016,66328000.0,73827205.3483565,107226000.0,120513722.36168803,173554000.0,186421134.3182825,-7923000.0,2172451.8361257324,69543000.0,74025030.35740535,-3215000.0,3477647.8203962184
268,1306,2,3089123000.0,1802309941.8312383,1300561000.0,695140856.1231564,1788562000.0,1344755394.4316735,286131000.0,321678678.2831748,850247000.0,839991819.8855875,1136378000.0,1144683062.093512,205227000.0,203522695.9467612,1010678000.0,976359605.3975714,-724547000.0,-684457245.0300934
484,784,4,2026392000.0,1889879445.0262861,773709000.0,384015715.71541387,1259138837.126244,768199238.5963187,36270000.0,48044752.42415509,906000.0,-1826840.5010758156,37176000.0,40571732.81010051,-286393000.0,-216910120.37573615,341823000.0,330090745.62150145,-305553000.0,-256978038.24105963
1169,1024,4,59798486.0,293303763.9835777,24561228.0,-92960986.18579131,24680354.49630476,243461562.4801123,-143441.0,3295709.1904858206,231837.0,2884836.9520580512,88396.0,-2487958.989899485,-6239976.0,-6274256.597573138,6096535.0,9196871.444719706,-6239976.0,-9092633.36111916
595,957,1,269960000.0,655181632.24463,370356000.0,351620114.08770835,-100396000.0,554668772.7310218,29296000.0,38649661.44410827,911000.0,-5431416.204890595,30207000.0,19958241.676936597,-31260000.0,-23173584.407706443,67269000.0,69824008.54330942,-37973000.0,-36112125.90090096
1664,236,2,1411497000.0,729140302.7381663,713457000.0,270388856.1231564,667698000.0,717384417.7750504,123110000.0,128097931.88604578,21917000.0,23698219.88558744,145027000.0,136615279.46325916,16171000.0,9760510.232641697,124278000.0,123106382.05248849,-1168000.0,-10588286.34790751
1737,91,2,1068388000.0,422531243.7765084,793168000.0,231761856.12315643,275220000.0,534915355.80635977,1125000.0,38473219.81323388,126961000.0,82701119.88558744,114574000.0,94279862.09351218,-123332000.0,-81373401.32431807,124457000.0,112272448.77757041,-123332000.0,-83344915.09588154
1105,1395,0,736494000.0,1082224258.7735443,390655000.0,431350564.8979949,345839000.0,681823833.1008728,107458000.0,109723916.34562758,77264000.0,84377156.71779424,184722000.0,182161373.28175315,-21496000.0,-25806934.33079225,128954000.0,132545083.30207129,-21496000.0,-25591961.100169238
366,1224,4,1026034000.0,1266253806.225021,544592518.5648394,448311101.8631696,829659000.0,901139725.1510128,179923000.0,190023745.0067418,-1664000.0,-10788505.618620267,178259000.0,180060832.8101005,43073000.0,44529299.0976128,136850000.0,140796657.4869622,43073000.0,42126667.376815446
847,851,2,2995900000.0,2017455136.4566524,1720300000.0,1381220856.1231563,1275600000.0,1141921005.973459,234800000.0,231627326.52855355,244100000.0,239806119.88558745,478900000.0,461613879.46325916,25200000.0,36357240.25482555,209600000.0,199780239.44026935,25200000.0,30042487.88955637
1604,1022,1,700529000.0,1174098563.7640333,363632000.0,389311111.99288857,335762000.0,548560847.65463,46249000.0,54939661.44410827,72678000.0,59959286.6335346,118927000.0,101407641.6769366,-13197000.0,-18549584.407706443,59446000.0,71608861.08493517,-13197000.0,-22176975.900900964
579,1157,1,5913288000.0,6426328983.473015,5639252000.0,6418288660.236578,274036000.0,1924533969.0559664,470311000.0,494120661.44410825,1040995000.0,964490480.676774,1511306000.0,1452675452.3225245,65962000.0,76778965.5922936,404349000.0,410498556.32011604,65962000.0,74977059.52388157
874,1087,1,232365000.0,705761900.4011625,164743000.0,145231864.76475787,67622000.0,691413486.740429,43176000.0,40378039.32160742,202053000.0,134923909.42303735,245229000.0,162781541.6769366,9035000.0,12433165.59229356,31930000.0,25994412.007223774,11246000.0,11034424.09909904
193,444,4,24556000.0,257346990.7782234,5997000.0,-100441822.43996024,18559000.0,281391129.8297466,-561000.0,3933507.0492238086,1648000.0,8577708.213383466,1087000.0,-1720967.189899485,-8770000.0,-5391770.91135018,3225000.0,5603507.02369987,-3786000.0,-4592776.489198537
680,1346,2,7852974.0,-464757600.0737734,8726749.0,-416123704.3089008,-873775.0,60524545.646580935,1562860.0,636539.8324915711,0.0,2436119.88558744,1562860.0,-1984679.3367408502,-1603437.0,-1071040.2268109391,3166297.0,5999298.594215071,-1603437.0,-3788842.325087599
702,1153,0,52606000.0,385792196.380222,31088000.0,20981327.812187266,21518000.0,575972652.6304274,2202000.0,8831205.348356497,21569000.0,24991591.294027064,23771000.0,21250720.906659584,-1737000.0,3464126.347847644,2889000.0,6792591.195355056,-687000.0,3855232.046757128
499,780,3,641605000.0,1144673832.6429744,98505000.0,18798900.463676333,543100000.0,594679626.3718302,35752000.0,51305669.80345254,3063000.0,5081643.232473269,38815000.0,47960403.902583264,-5995000.0,-4936313.783839849,24767000.0,31258242.67545318,10985000.0,12202198.468784103
277,1226,2,428119000.0,224779008.12579602,200385000.0,-82466143.87684357,227734000.0,460809251.53354657,32734000.0,41643744.340886906,3693000.0,6476619.88558744,36427000.0,39551962.093512185,-31432000.0,-40712846.97365955,67859000.0,88162389.25096767,-35125000.0,-48082244.653833926
1540,1308,0,1748597000.0,1887378346.354677,773677579.6790999,877807870.6756948,871968000.0,1010766855.3075528,88936000.0,96853205.3483565,314131000.0,325456273.8921439,403067000.0,410900923.7373165,36520000.0,41508226.34784764,38806000.0,43651471.54455046,50130000.0,55535122.55506633
40,795,3,-12646800000.0,-6213260462.035148,-10176700000.0,-9253206797.124462,-2456100000.0,1423301310.2698076,244400000.0,275853127.24124074,496400000.0,477100543.23247325,740800000.0,736999780.2702751,16300000.0,-102527873.63695297,228100000.0,357883798.9024127,16300000.0,-113045234.38828062
109,1178,0,1646711000.0,2050204271.1196284,1388441000.0,1438872462.3935902,258270000.0,969556061.6479996,48094000.0,53799205.3483565,144654000.0,153879450.86028865,147710000.0,152149332.92995852,-42502000.0,-51382167.90016724,79586000.0,97634422.143091,-31492000.0,-39369195.33438651
111,942,1,632540000.0,1291851052.4910605,270366000.0,208443128.31709093,362174000.0,915600060.6426276,197077000.0,169159661.44410828,14622000.0,-146195.9551816713,211699000.0,152926241.6769366,-57776000.0,-6019184.407706435,97890000.0,95843537.10907134,99187000.0,58297324.09909904
662,1223,0,156269000.0,610450555.9731452,70363000.0,137845098.95590794,85906000.0,721878501.8526331,19503000.0,27820205.348356497,30881000.0,43818351.00286108,50384000.0,62019674.31716477,3657000.0,10347226.347847642,15846000.0,18590226.672019165,3657000.0,10156522.555066336
1749,1075,3,12875300000.0,11395500523.392673,6095371591.431398,6668269825.590493,1810000000.0,2821642775.539505,1227700000.0,1197780987.1063206,4400600000.0,4500610572.010037,5628300000.0,5684695566.138639,478400000.0,400384959.3908046,749300000.0,762824993.5353183,478400000.0,403447144.65566814
340,1604,4,441781000.0,774804676.1190257,86587000.0,13992027.986757696,355194000.0,686282704.4619272,97393000.0,99578103.0582449,44971000.0,37777102.45755936,142364000.0,134526832.8101005,9954000.0,5171776.802373403,87439000.0,89725762.8374854,9954000.0,2531641.02149362
811,76,2,1903960000.0,1447242157.8290713,1118147333.3250542,791081151.1961472,464992000.0,1081674986.473081,314173000.0,312155538.0709889,381360000.0,365808256.7236248,695533000.0,667207479.4632591,49703000.0,44388051.40838064,262823000.0,254584026.86069784,51350000.0,41630268.59622432
1016,285,3,413017000.0,594986874.7074798,156380700.0672279,96638320.4877904,290614000.0,363850605.3705702,164000.0,7255519.664541947,0.0,1447380.2137275506,164000.0,274810.15778754425,-47612000.0,-50193481.11773286,47776000.0,50695192.362846784,-47612000.0,-52331169.94064924
1696,1098,0,6459000000.0,5736318999.232969,3814000000.0,4040980601.269605,2645000000.0,1675297116.5088916,417000000.0,443798205.3483565,1137000000.0,1181787403.3422663,1554000000.0,1614186433.4559724,109000000.0,155427576.34784764,308000000.0,241760198.6065039,109000000.0,197218373.31633
200,606,2,6683800000.0,4439483937.191527,2530688381.1304083,2004599587.3469412,4153111618.869592,1689843585.7969797,363300000.0,392667611.1767267,268000000.0,284496119.88558745,631300000.0,656183879.4632591,83300000.0,70471686.74143067,257700000.0,269639626.5802082,105600000.0,96755081.93055606
1994,1434,1,165094000.0,583870096.9286709,70482000.0,56151571.1196512,94612000.0,532825240.00940704,17629000.0,28248661.44410827,13074000.0,5098092.4604893625,30703000.0,19682252.322524607,1152000.0,6185315.592293559,16477000.0,20407699.23841717,1152000.0,3576324.099099038
735,820,3,8604673.0,413430892.7623681,2338502.0,-84681549.55763125,6266171.0,176416525.77941298,1119391.0,6793903.640049785,1576117.0,3627915.8912916617,2695508.0,2151870.393844576,23726.0,-1479430.3747193273,1095665.0,2462564.456704844,23726.0,-1186789.3427850478
1160,541,2,30395557000.0,24449145991.607964,16133181687.752192,14572215977.00785,6297705000.0,4907757383.431389,3044686000.0,2984373293.4231715,6751495000.0,6387981156.723625,9796181000.0,9348033979.463257,692314000.0,803040417.1807005,2352372000.0,2172578188.7095847,692314000.0,774761920.4363217
2018,1005,3,764077821.0,1092482761.7805662,149164973.0,143153049.78048682,540969385.0,507276571.0827139,20737462.0,29358045.055667028,3810639.0,6018695.110037381,24548101.0,23716651.70633223,-1942729.0,-2598509.9585111686,26490830.0,27900930.615771167,-5753368.0,-7389793.652513272
597,411,2,19932000000.0,17342021034.546337,15924000000.0,16100373637.256174,3938000000.0,3469954329.32666,677000000.0,664760729.341057,2894000000.0,2953509956.7236247,3571000000.0,3601413879.4632587,325000000.0,331790310.7690597,132000000.0,166419919.67022213,545000000.0,486007242.7238572
1089,561,2,114455000.0,-267300292.48653102,66800000.0,-344034159.66726506,47655000.0,312074889.65644586,-324000.0,1445951.5764377974,692000.0,3243619.88558744,368000.0,-2298120.5367408507,-4444000.0,-5192912.294588877,6127000.0,10708987.722609688,-6451000.0,-9344915.354682352
1635,1106,2,123009000000.0,58532492545.53627,61047097858.95223,55981914772.82927,24132000000.0,7375900911.824096,3661000000.0,3215714209.391945,846000000.0,685236119.8855875,4507000000.0,3833177062.0935116,401000000.0,525756479.1107841,5487000000.0,4733621175.269552,-1826000000.0,-1671713695.1305382
394,712,1,1472222000.0,1973844361.6363497,444895000.0,461666291.7419293,1027327000.0,1092496805.0854611,423804000.0,446726039.3216074,0.0,-6408822.134937656,423804000.0,416168841.67693657,44683000.0,54579965.59229355,379121000.0,368799631.62171066,44683000.0,52671859.523881525
176,611,2,1707972000.0,829112405.6397903,826699000.0,356076856.1231564,881273000.0,725830700.2707367,161237000.0,181461104.7426664,18721000.0,18880719.88558744,179958000.0,186354979.46325916,-38330000.0,9541992.80154186,218288000.0,176925867.0439782,-57051000.0,-8695987.749704707
958,800,3,140348000.0,693217370.6941162,22627000.0,-17164445.53452599,117721000.0,479644534.3130379,18849000.0,23650730.49757793,19797000.0,19910808.99129166,38646000.0,34910072.393844575,5179000.0,3825012.812145045,24028000.0,27490823.025488306,-5179000.0,-9965318.7391308
651,322,1,68862000000.0,64963856416.72541,37281000000.0,38298476234.75456,30258000000.0,23874467094.764687,682000000.0,1085383661.4441082,1405000000.0,1139926576.9008937,2087000000.0,2033902597.7619188,938000000.0,1072844215.5922931,2969000000.0,2712409942.9472947,-2287000000.0,-1636566190.476119
648,1558,2,484306000.0,21734346.53236544,160149000.0,-255442248.4904667,324110000.0,573475919.2899547,35935000.0,45879252.72279772,49919000.0,54590819.88558744,85854000.0,87641379.46325916,8224000.0,7968434.449340578,26558000.0,30577514.565673083,9377000.0,5527464.065859109
1124,702,1,263629355.0,659065310.2528934,139827658.8984726,121991644.282387,106790041.0,624642216.3452868,4718481.0,15853732.44410827,-3354938.0,-10898447.144624228,1363543.0,-8176226.4774753945,2345966.0,8766578.292293558,2372515.0,7222946.445860527,2345966.0,5928281.599099038
1983,198,0,22654400000.0,20188175099.621426,10023579681.929111,10565776014.14852,12050300000.0,6546091131.695075,409600000.0,578898205.3483565,3138700000.0,2941521590.733202,3548300000.0,3599631307.8614945,145800000.0,458402576.34784776,119900000.0,134792613.97555044,289700000.0,509670451.2335715
1330,788,0,55695000.0,423532948.07943714,80300000.0,129931950.8546656,-24605000.0,573121897.3408904,-33328000.0,2444959.426123281,45694000.0,19995784.106402986,12366000.0,12207995.236091599,-48025000.0,-14109417.900167253,14697000.0,18112088.10904423,-48025000.0,-14979754.8260773
445,759,4,33248145.0,331418554.24151057,21743057.0,-117023531.3252067,11505088.0,238981940.5207088,1461398.0,3557264.088406892,569502.0,23066144.848830573,2030900.0,91030930.81010051,-12979193.0,-2752311.4943261766,15010093.0,5993068.16327688,-13548695.0,-5416786.581755549
908,1168,0,19900000000.0,12776998074.427517,10348000000.0,8072881317.896632,9552000000.0,4972989210.6677,2649000000.0,2524798205.3483567,0.0,17082511.828819707,2649000000.0,2635422385.325779,467000000.0,616108245.126708,2182000000.0,1971872141.5205367,467000000.0,599998746.9704232
1585,827,1,2485319000.0,2765654071.634537,1254039550.5762374,1203701665.9580472,1849463000.0,1247598956.23672,775144000.0,706005661.4441082,0.0,-7102971.410200355,775144000.0,688635252.3225245,128435000.0,122176215.59229356,646709000.0,571477429.2337003,128435000.0,121277009.52388154
643,716,2,959084000.0,453515445.2322511,491986000.0,-21443143.87684357,395838334.6316486,580261698.6826859,56609000.0,65393526.079724215,47928000.0,52267719.88558744,104537000.0,104886262.09351218,-22287000.0,-25322424.85801673,141301000.0,142936233.60729152,-84692000.0,-90710462.53264824
1240,286,2,1657157000.0,1745426167.5762823,2335507000.0,2411401644.393812,-678350000.0,827327157.4263847,-96698000.0,235334464.23246643,98929000.0,96094719.88558744,2231000.0,316169679.4632591,-125632000.0,-48768893.87588816,312618000.0,438809937.12858075,-409316000.0,-216333738.81305084
64,793,0,1590600000.0,1711746169.6063013,748600000.0,803562313.1747668,842000000.0,950909029.4203162,59700000.0,83598205.3483565,141700000.0,162756693.96385992,201400000.0,233260791.01203367,13800000.0,34630778.37067479,37700000.0,41530165.23521552,22000000.0,42663563.82463923
1027,1557,3,919607000.0,1287115643.250211,266509000.0,190654961.1273299,653098000.0,572887136.4961721,68886000.0,72910716.37923789,19532000.0,20363108.99129166,84131000.0,78191672.39384457,-18050000.0,-21269504.54850862,86936000.0,84870788.24204178,-18050000.0,-23322127.285816014
1034,492,1,121754701.0,583939231.1378974,28424394.0,64592611.0299387,93330307.0,395847378.2572992,1406469.0,12641207.44410827,-1378985.0,-8515371.563102806,27484.0,-8802630.723063402,-14928443.0,-205110131.7077064,16334912.0,238800584.13793206,-14928443.0,-235523924.1009009
802,1188,0,12973000000.0,10608579407.547417,6013807636.489885,6292788955.523167,6537000000.0,2934020270.0392146,82000000.0,77798205.3483565,545000000.0,470865149.49609166,627000000.0,688544780.6242743,7000000.0,238543628.3706756,46000000.0,49951369.98763716,36000000.0,171856833.0114538
981,450,3,613608000.0,846416448.7297921,391072000.0,304131316.634336,222536000.0,454672945.1788272,1437000.0,7346097.512412306,10955000.0,10995008.99129166,12392000.0,6186303.902583267,-84729000.0,-64353892.69313327,40703000.0,41268952.97465749,-39266000.0,-45423233.36968544
1046,264,4,102303000.0,456758143.6089795,104192000.0,856130.6968402267,-1889000.0,409342222.1984948,12811000.0,14199661.718818417,42439000.0,36856346.00026728,55250000.0,51497132.81010051,700000.0,-3874993.0911615314,12111000.0,18225141.599112537,700000.0,-7516892.580236318
581,781,2,1023085000.0,706347732.5702368,937155000.0,576496978.8718154,85930000.0,865966007.6011722,87759000.0,105275890.60040568,257840000.0,230812356.7236248,345599000.0,324478379.4632591,-36941000.0,-38246883.77839547,111965000.0,116594569.28388005,-24206000.0,-26967414.07659481
1033,587,1,822101000.0,952302275.0087055,260505000.0,254482230.63872477,561596000.0,694642769.4395772,113425000.0,94536661.44410828,-8261000.0,-13078549.521582205,105164000.0,61515441.6769366,25956000.0,-10607784.407706458,87469000.0,90791832.39980702,25956000.0,-9588175.900900971
1908,52,1,972779000.0,1760281582.391283,674585000.0,1114772456.3674984,298194000.0,776305383.3558573,81122000.0,88861661.44410828,33069000.0,26121965.889464542,114191000.0,101795541.6769366,-12742000.0,-8815334.407706443,93864000.0,95741468.3260232,-12742000.0,-11829640.476118468
1486,1525,0,505122000.0,1001486676.6176478,329765000.0,485387932.617079,175357000.0,720581151.055329,66862000.0,76143959.42612328,-15726000.0,-6497890.940445701,51136000.0,60137618.96913654,-8784000.0,13255243.103880884,75646000.0,63771150.774928905,-8784000.0,12512195.173922705
640,1126,2,420505000.0,-67080817.171438456,230508000.0,-203850524.53386325,189997000.0,395886585.9084637,53603000.0,55317292.428076185,71511000.0,72523519.88558744,125114000.0,117047579.46325915,16734000.0,11794036.872170417,36869000.0,38985593.78399832,16734000.0,11509635.577171562
1988,1423,2,216274000000.0,157049355682.39792,73401000000.0,54452004674.09431,142873000000.0,54820796752.92355,27936000000.0,26810035411.69012,6210000000.0,5924421961.506941,34146000000.0,31568356588.764698,13748000000.0,9616280441.15454,20398000000.0,22146377790.286293,7538000000.0,3619479478.159278
469,523,0,122531000000.0,94488395930.6066,74517000000.0,72499848836.3379,57494689417.43809,11239232126.184828,11370000000.0,9947798205.348356,10501000000.0,10591830515.664955,21871000000.0,20423270576.682755,5767000000.0,4228427576.347847,5604000000.0,5551402977.419904,5766000000.0,4221769265.890765
606,610,3,5723214000.0,3989572414.924445,2776207000.0,1821870064.0721111,2947007000.0,1289309582.2301297,448941000.0,502568229.0986989,516900000.0,532470843.23247325,865197000.0,909880966.1386403,78214000.0,96657423.55190197,370727000.0,372023845.03399694,78214000.0,95172864.8737363
1877,222,1,689227000.0,912759463.9874486,562767000.0,199398766.38294232,126460000.0,716075273.9308084,40662000.0,48124661.44410827,11086000.0,1989792.2643861407,47740000.0,31927441.676936597,-28335000.0,5360565.592293557,68997000.0,39371124.64563245,-28335000.0,2678074.099099037
1148,835,3,600857000.0,730142513.9775648,331349000.0,191329060.84219775,269508000.0,480874974.1609448,50595000.0,49426531.56817485,6532000.0,6718892.091291661,57127000.0,43318889.35778754,-62120000.0,-47786528.45448548,83188000.0,74061680.07336254,-32593000.0,-42544101.392421804
1653,1071,2,56794000.0,-227433535.54146707,12682000.0,-408254143.8768436,44112000.0,277194468.71724415,25087000.0,20481963.21500717,14791000.0,12894119.88558744,39878000.0,24995379.463259146,-4627000.0,-3735786.952663616,44505000.0,35488444.78398236,-19418000.0,-15627904.727282392
1205,1215,3,3747000.0,328230065.7975453,4407000.0,-53623796.59355676,-660000.0,89208824.08630931,-1515000.0,4937829.856852291,1515000.0,3684680.213727551,0.0,149098.86097825196,-2598000.0,-4768447.893158033,1083000.0,2964674.373731451,-2598000.0,-4521422.265393531
1612,469,4,3505835000.0,3265140347.038065,1860807256.214476,1689515991.13488,1470074000.0,1296142588.958436,601953000.0,744772533.8581305,626097000.0,766268410.3694801,1228050000.0,1491297932.8101006,88554000.0,84335143.35425453,475916000.0,551612122.7035265,126037000.0,128689151.42808148
1894,1176,2,203011000.0,-163541561.349954,255300000.0,-197570143.8768436,-52289000.0,270457106.7664306,8409000.0,12622943.196391089,25579000.0,31872519.88558744,33988000.0,35592079.463259146,-8212000.0,-13467230.772437587,15533000.0,21912822.153550323,-7124000.0,-11630347.823461028
458,389,4,3126495000.0,3139615353.2406445,2137404000.0,2141684704.945796,989091000.0,1194132940.990209,70679000.0,92327009.18806943,930828000.0,877632322.3691312,1001507000.0,973231532.8101003,21039000.0,30797118.536988065,49640000.0,62215707.81774537,21039000.0,27381952.947156608
782,84,4,36175654.0,394062465.1364715,19187381.496044576,-64931091.15722722,18868678.0,322287012.88420606,22295962.0,17607465.679129925,2274626.0,601705.7112150146,24570588.0,14042616.210100513,-1191082.0,-4120455.781988417,23487044.0,19831115.20279395,-1191082.0,-6611628.164708374
21,1515,0,3642433000.0,3675179205.606845,1611617055.0351417,1646565224.4846256,2307595000.0,1465979881.2312522,392263000.0,396244959.42612326,1442178000.0,1465932078.2886877,1834441000.0,1858618670.843838,185633000.0,186976368.59215903,1648808000.0,1617409306.8113384,-1256545000.0,-1217308413.5565045
323,413,0,102171000.0,525898695.3252605,80142000.0,100594077.73208857,22029000.0,625064803.1936076,11994000.0,20827613.539439887,1280000.0,8655013.200820077,12084000.0,16921256.66445414,-8453000.0,-2523417.193165496,20447000.0,25358333.092848536,-8453000.0,-3533904.8260772973
1847,390,3,11562769000.0,7106920176.127651,8634392000.0,6097384151.012202,2928377000.0,2238738913.5248427,696915000.0,851344325.7276487,4617768000.0,4271676072.010037,5314683000.0,5080127842.506332,87484000.0,136555046.0203688,6096071000.0,5576288612.128728,-5399156000.0,-4847854864.018997
1304,355,3,1061958000.0,1307569985.4020867,603583000.0,334587676.7147053,275904000.0,485340093.75741726,75380000.0,64539738.0444601,85007000.0,93869408.99129166,160387000.0,146372172.39384454,19279000.0,-7411183.670260525,56101000.0,65527391.16137826,19279000.0,-6404380.0180671895
1031,797,1,1709464000.0,1894904824.036468,792444897.6724385,798670954.9480522,917019102.3275616,856385098.1947949,-50089000.0,-34693338.55589173,206500000.0,176863410.30932915,156411000.0,139615552.3225246,62554000.0,67690965.59229356,32611000.0,30472938.00976492,-82700000.0,-45254025.90090095
1109,1480,0,1182200000.0,1727877115.9143634,559672263.5892134,752204705.7585574,993300000.0,968209211.2733376,77500000.0,81498205.3483565,102700000.0,119197058.77905522,175100000.0,182703882.2483159,21600000.0,17178659.168054543,55900000.0,60753972.81210649,21600000.0,17753745.1739227
1483,58,0,15318000000.0,13471689795.028751,8995872209.433592,9276863382.801744,2835000000.0,2062089391.26422,2220000000.0,2157798205.3483567,7363000000.0,7396542768.674404,9583000000.0,9575336899.443258,348000000.0,391980094.4348483,1879000000.0,1843480767.3141468,341000000.0,370218373.31633
739,93,0,2898416000.0,742435062.0419621,2080781000.0,102478830.13552324,476998000.0,749840654.8976967,19746000.0,22556205.348356497,-19746000.0,-8789138.766975012,0.0,4619786.311352607,-16089000.0,-4173471.629325208,35835000.0,29478071.499586586,-16089000.0,-5572786.17536077
1565,82,1,37777000.0,428494198.1551992,8088000.0,-16815408.131332338,29689000.0,434967940.8908125,1942000.0,14109661.44410827,1878000.0,-5120773.973424542,3820000.0,-4667247.677475393,-3377000.0,2229665.592293552,5319000.0,12084830.699351374,-3377000.0,-475625.900900966
1547,294,4,350115000.0,700668909.9397873,124447000.0,30494757.584304392,144501356.0121529,637135487.7025948,23341000.0,34188096.27137164,74465000.0,88334442.65875885,97806000.0,122273432.81010051,1273000.0,-806287.5581367606,21144000.0,32659073.216884598,2197000.0,-3116216.6590489354
1772,1076,2,60756000.0,-335219335.4272002,14120000.0,-399872524.5338633,46636000.0,346114802.9113258,39398000.0,47802593.20053606,0.0,2436119.88558744,39398000.0,42189779.463259146,1277000.0,-339544.0753269971,38121000.0,47090028.2894071,1277000.0,-4209083.097129567
396,895,3,2329417000.0,2309901938.976328,1103945000.0,990971206.7544768,1225472000.0,1110375427.7476912,201803000.0,216891404.19581187,84310000.0,90225772.01003738,286113000.0,289409866.1386403,4458000.0,3809940.997911602,134794000.0,125245699.93794054,67009000.0,72752830.1113632
370,1149,4,322707000.0,719552255.1479324,203952000.0,157366704.80391496,133189378.04611006,637782433.493017,59563000.0,66656150.03943625,32549000.0,26117167.10863986,92112000.0,95765832.81010051,2829000.0,5618405.159034702,56734000.0,59454888.24779747,2829000.0,2307612.59775308
1387,1142,1,16986396.0,330199322.0947827,28398941.0,14558931.92907101,7976898.609990532,284418485.9248531,-2992.0,15229047.44410827,2987192.0,-7310408.97732209,2984200.0,-5466308.877475392,-2823081.0,1778331.5645286357,2820089.0,13059049.893770164,-2823081.0,-2190579.1009009643
1633,1471,4,5507733.0,130316658.79278246,3754986.0,-93548649.68216568,1752747.0,172758291.73074996,77969.0,2648135.93957196,690.0,1214267.704303461,78659.0,-2617717.789899485,-1288944.0,-1873015.6867010545,1288944.0,4128401.6311070295,-1210975.0,-4519638.653428701
1459,1018,0,2951779000.0,2631469525.7341743,1733504809.66769,1829426222.343789,-705417000.0,855114757.6572255,103159000.0,108842205.3483565,95357000.0,107030567.3814127,198516000.0,211179205.01606968,63542000.0,77050976.34784758,39617000.0,45703478.77775058,63542000.0,78906032.04675712
447,743,0,1389340000.0,1694332235.8317876,870172000.0,1085323342.0362394,518687000.0,971626977.018082,122910000.0,158825205.3483565,509918000.0,550628744.5927039,632828000.0,692357130.8589325,77637000.0,98513326.34784764,35836000.0,41465655.40982102,87074000.0,112059582.04675712
1342,1015,3,670100000.0,1028104892.9178958,96919000.0,62288833.14670974,573181000.0,419963264.85788286,45369000.0,53447534.4912218,10723000.0,12769808.99129166,56092000.0,56744398.86097825,-44376000.0,-44359576.31565306,100468000.0,96995252.66910781,-55099000.0,-55769217.49516504
1101,50,3,796235000.0,428449242.92868423,203741000.0,25663310.53373015,463390000.0,397659203.12791646,475000.0,9755848.667162463,0.0,2387408.9912916617,475000.0,653036.6249212202,-25797000.0,-11514217.56219636,26272000.0,18953868.81786017,-25797000.0,-18776886.300554007
1559,1356,2,243654000.0,-207730972.1505339,108112000.0,-324645629.1474864,135542000.0,303812963.12857807,37230000.0,39115530.7929948,3845000.0,5993919.88558744,4798000.0,2463962.093512179,-21869000.0,-20886460.249197926,59099000.0,59758566.91734184,-21869000.0,-23778783.060470995
1859,1506,4,63057347.0,399069662.44641733,37031977.76980746,-78213828.33104944,50373559.0,437972802.9743769,5114390.0,9439828.06468517,9540399.0,5360805.764930785,14654789.0,13835439.910100516,3126608.0,3185163.081366151,1987782.0,5849684.511219187,3126608.0,203975.13440959717
625,3,4,2120798000.0,1854593251.8955927,1472395000.0,1162688424.0958977,648403000.0,702301598.3417048,67913000.0,64459557.002928704,30767000.0,35561521.72976713,98680000.0,87628832.81010051,-9629000.0,-21054331.79820117,77542000.0,82345261.10374387,-9629000.0,-23793374.151274897
1728,295,3,706517000.0,1150865205.1792443,905805000.0,917894637.2755952,-199288000.0,647309336.3319654,73709000.0,85066530.84098944,16853000.0,18363843.23247327,90562000.0,93000372.39384457,38915000.0,36025044.51213233,34794000.0,41125157.70015113,38915000.0,35563910.58048272
1404,1537,3,76126346.0,466779219.41610473,61120101.0,-59307791.51497519,15006245.0,364296392.84893394,2282652.0,9272402.225331692,31006950.0,21022572.01003738,33289602.0,21438170.893844575,-2890968.0,-2195861.9473603577,5173620.0,4364822.418289703,-2890968.0,-797188.3805871843
1515,304,4,156303000.0,585146277.6597118,83901000.0,-2003348.265041888,72402000.0,524765134.3345736,17689000.0,16616860.994167978,41469000.0,34217344.88419299,59158000.0,45663332.81010051,-2517000.0,-13905597.221352609,20206000.0,29659859.37122479,-2517000.0,-19128759.518625543
1800,573,0,3271200000.0,4108965610.5998583,1447362713.447565,1931439755.5496173,-21400000.0,1114110834.372798,31300000.0,61398205.3483565,847700000.0,948798345.2412484,879000000.0,990447490.0873032,-16400000.0,-240985766.09524825,66600000.0,63796043.79294891,-35300000.0,-7704327.444933679
4,842,1,7361000.0,311690721.30553776,2671000.0,-26853949.81424308,4573903.262590003,206645913.5399497,349000.0,11599661.44410827,109000.0,-7551245.918042142,458000.0,-9206347.677475393,-670000.0,5777965.592293558,1019000.0,3160567.75859184,-670000.0,2981774.099099038
1400,1203,0,-4860602000.0,2238922943.9246216,-990657000.0,628514743.3547117,-3869945000.0,1206793932.8593535,193881000.0,205047205.3483565,378009000.0,484212244.5587722,571890000.0,729278912.5398304,36078000.0,41350526.347847655,124685000.0,181759342.6914193,69196000.0,77835201.23357144
617,1499,1,5475000000.0,5458567733.300965,4861300000.0,5296849376.774258,613700000.0,1615644915.574277,130600000.0,189677039.3216074,1421300000.0,1382706014.016686,1551900000.0,1557669352.3225245,23900000.0,59394215.59229356,81800000.0,93912140.52553116,48800000.0,87393809.52388154
570,614,4,9643000.0,295954443.9451098,6164000.0,-101640817.27914377,3479000.0,219263798.8123325,1843000.0,5347123.811721541,2246000.0,1069510.7613500152,4089000.0,1293632.8101005147,-437000.0,-446010.6951642686,2240000.0,6287590.933383936,-397000.0,-3369273.078948541
2015,792,1,12012800000.0,4255539603.59592,6608200000.0,2159309205.461647,4911800000.0,2062300623.065988,457000000.0,530277039.3216074,316800000.0,256759398.56118912,773800000.0,740678952.3225245,145800000.0,129486915.59229356,203500000.0,185766645.0910751,253500000.0,284672909.5238815
576,1054,4,6644800000.0,5795522186.840499,3248100000.0,3513424353.9643407,2786600000.0,1672937230.9181387,345800000.0,349292347.3483101,33000000.0,166846794.64400992,378800000.0,516239132.8101005,36000000.0,49820596.91086083,342800000.0,457646186.44990903,3000000.0,-142944732.78033447
1397,155,3,136174000.0,593020421.278893,62163000.0,97493393.8953228,72304000.0,295029204.3950578,10072000.0,18572227.119232263,-3712000.0,-2275491.0087083383,6360000.0,7388098.860978251,-12604000.0,-16164156.955916408,22676000.0,23006005.70667927,-12604000.0,-13105527.877903763
1134,1493,2,160043000.0,-225930579.15131545,101422000.0,-338999248.4904667,58621000.0,286781023.25472987,15202000.0,13067288.007426012,-14386000.0,-1041880.11441256,816000.0,3094762.093512179,-14398000.0,-22349491.09349186,29600000.0,34302305.95624557,-14398000.0,-25679215.345265407
188,368,0,9282000.0,341697973.29010886,3493000.0,-5113254.515163012,5789000.0,581110430.7710655,355000.0,8175959.426123281,552000.0,9221080.43355498,907000.0,4869376.411137436,-972000.0,5520243.10388088,1327000.0,4625526.556601534,-972000.0,4504295.173922699
488,324,4,16124000000.0,11756977302.243853,13383000000.0,10455849307.180395,2741000000.0,2558321935.963701,5251000000.0,3563524893.068394,4961000000.0,3262969140.075807,9233000000.0,5912145966.675755,1583000000.0,747536921.1967754,3668000000.0,2352416981.957067,1583000000.0,796496475.0345067
1211,484,4,1601068000.0,1867157688.57881,1081707000.0,1003564273.892813,519361000.0,891050831.276787,248876000.0,265734038.0221364,-34521000.0,-39657105.24971987,214355000.0,221964532.8101005,19006000.0,37964648.83795108,229870000.0,222791828.95959064,19006000.0,33942384.186042495
1580,868,0,779622000.0,1156889655.637446,153452000.0,440471204.3591428,626170000.0,819888242.7287884,134561000.0,140359205.3483565,57608000.0,66476920.49868024,192169000.0,196066765.73782793,56917000.0,60630845.126708016,77644000.0,80501245.58811864,56917000.0,58911986.44349559
1533,863,0,4162272000.0,3695059757.175953,862254000.0,1154273633.252748,3299439000.0,1553823926.6259055,357871000.0,369289205.3483565,794265000.0,826220564.0252253,1152136000.0,1188410743.474811,114028000.0,146389928.37067482,194829000.0,197400290.25611347,163042000.0,170882013.82463923
818,1420,0,13900400000.0,10945758125.622635,12204100000.0,10454522758.04402,7319729781.089915,3219071024.0115724,78200000.0,73298205.3483565,235100000.0,251998113.7685306,313300000.0,310039031.6164432,174900000.0,157463028.37067473,116600000.0,108412445.67473158,-38400000.0,-35575992.687912986
50,744,4,594022000.0,782151074.019623,132343000.0,-46738940.24027568,461679000.0,659759021.6691773,121956000.0,122105730.84461926,1645000.0,-761838.481076071,123601000.0,113465432.81010051,31177000.0,25918610.68923188,45262000.0,45868791.51837908,76694000.0,66759857.94088174
590,341,2,1341960000.0,592827816.473401,666970000.0,244180751.5095333,674990000.0,860765857.4846272,55930000.0,61387068.14337042,179410000.0,180250119.88558745,235340000.0,228637879.46325913,23760000.0,12868439.185666136,32290000.0,38324576.999825194,23640000.0,10929262.639606416
377,123,0,52901000.0,409914207.6342636,24522965.98920461,6290308.397551388,33404000.0,626132591.5686686,-1183000.0,7774959.426123281,24144000.0,24060995.50268433,22961000.0,22460688.84658887,-5692000.0,2217643.1038808785,28653000.0,26329994.41591697,-29836000.0,-18685495.334386505
1953,1327,1,877565000.0,1541883719.2703586,1336553000.0,1161350706.421434,-475192000.0,1006031882.9131944,522812000.0,525913661.44410825,-345617000.0,-347447549.4028961,177195000.0,165326352.3225246,31868000.0,41654665.592293546,490944000.0,476042903.4257034,31868000.0,38355859.52388152
1018,1089,4,26568400000.0,24116294929.00332,13080400000.0,13499741554.697716,13246000000.0,6791027481.3637085,1346200000.0,1228931941.5317247,1952200000.0,2033677359.99184,3298400000.0,3230809132.8101,592200000.0,396382503.4535389,746800000.0,705684626.504934,599400000.0,419056633.25771713
709,872,1,2933971000.0,2474457034.848568,2618511000.0,1915173181.0290537,315460000.0,1166594365.080232,65062000.0,69858661.44410828,2191000.0,-4696682.368559519,67253000.0,51594852.32252461,-143265000.0,-87836984.4077064,69951000.0,49602378.33174484,-4889000.0,15653824.09909904
1121,749,4,27828200000.0,22294600555.097683,13810622382.415062,12846530394.947311,7212400000.0,5608944881.948984,821300000.0,825374699.7872365,181300000.0,253428432.3556876,1002600000.0,1063649132.8101003,233000000.0,257172201.7150848,794400000.0,933923518.5900162,26900000.0,-147879860.3083315
1026,1450,0,2788943000.0,3259815821.4029274,2662320000.0,2845976797.132138,126623000.0,1141161818.0577965,299166000.0,305974959.42612326,0.0,10451049.557954762,299166000.0,306437546.8925823,-281667000.0,-98933167.90016726,580833000.0,425112849.33273536,-281667000.0,-112547404.8260773
1015,653,0,2489159000.0,2574057836.0018673,1954765000.0,1942764233.5632343,488897000.0,1235121869.1695745,294443000.0,239783205.3483565,370069000.0,349909913.69721705,636496000.0,560721655.1802564,64600000.0,34172895.126708016,229652000.0,230104137.0296055,64791000.0,24762786.44349557
1575,1512,3,11961066.0,381613268.0885952,1068497.0,-21330371.250316024,10892569.0,102004648.32871996,611174.0,6103391.251315797,0.0,2387408.9912916617,611174.0,523701.89384457597,-1146685.0,-2065444.8288000927,1757859.0,3754895.323956695,-1146685.0,-3315686.5901122824
826,654,4,93941000000.0,68692392066.54991,39446000000.0,33925222950.90533,53466000000.0,33351804316.414986,4178000000.0,4522518844.145292,15656000000.0,19969629022.80977,18582000000.0,24578067256.955296,1764000000.0,2528149519.549579,2414000000.0,2062168881.1183043,1764000000.0,2494507488.9439707
463,360,3,32097000000.0,28665448714.934273,20419000000.0,20826057874.25079,10658000000.0,5315485376.448729,2071000000.0,2166662485.600967,6360000000.0,6412340572.010037,8431000000.0,8507599780.270274,950000000.0,992020445.0149076,831000000.0,838633093.5863175,1240000000.0,1253552218.570232
1660,879,4,6578196.0,218148588.41276595,4441488.0,-111122916.51578122,2465776.0,262587848.75008035,2008368.0,6022833.590841042,923641.0,1555073.4730508276,2932009.0,29255.910100514884,-1328968.0,-1812465.936053528,3337336.0,6805784.540904136,-1328968.0,-4047316.821291077
700,48,0,1658042000.0,1600813363.7227006,1223260000.0,1024110823.0242932,434782000.0,900397126.2332045,207698000.0,216242205.3483565,674127000.0,668550694.6237282,881825000.0,868445413.9426421,25549000.0,28060128.37067479,179614000.0,171040275.39464614,28084000.0,32852273.31633002
402,417,1,9094896.0,383456304.21702135,13593163.0,-9600850.23857373,-4498267.0,312169250.4476316,-928960.0,9952459.44410827,1115703.0,-5719679.107751882,186743.0,-8484992.977475394,-5136642.0,922682.19229356,4207682.0,9276704.798902463,-5136642.0,-2217518.027283939
591,843,0,16788482.0,360967703.216673,821758.0,-1692263.9159480631,15966723.0,537305523.8251047,906228.0,8106101.345627575,333325.0,10079670.355256245,1239553.0,5091985.166866658,-1096396.0,5981995.529661645,2002625.0,3500727.7484997297,-1096397.0,4972134.56349559
412,358,0,1678241000.0,1747927353.2618575,730813000.0,813542476.0983894,947428000.0,832745652.3153292,62311000.0,67689205.3483565,89643000.0,95821960.02904733,127553000.0,126182604.09510611,-24195000.0,-25250167.900167253,86506000.0,92267856.66849782,-24195000.0,-26037904.8260773
26,1117,1,1363308942.0,1573770797.635435,629855415.0,665836482.3040991,733453527.0,976681243.4322138,93681798.0,90732234.44410828,0.0,-5807964.791021974,93681798.0,61933068.02252461,39573525.0,39145730.59229356,54108273.0,46687681.05975773,39573525.0,32804868.02388152
205,711,2,15264467000.0,11049730182.272713,7226441209.924589,6444133904.170134,3059451000.0,2822703961.361217,592816000.0,587369987.9917202,378076000.0,375614756.7236248,970892000.0,939570479.4632591,444977000.0,398463404.47218174,147839000.0,161519302.85667914,444977000.0,399391126.6605609
699,95,3,65987000.0,550922468.4302304,35279000.0,-37031320.0221014,30708000.0,438751666.62592375,5319000.0,13508818.078387247,28050000.0,30787643.23247327,33369000.0,35195398.860978246,1124000.0,-1530806.287276035,4195000.0,6176579.988899054,1124000.0,-920600.541621994
550,826,2,31945000000.0,31538599746.17341,26424000000.0,29151979644.39381,5506000000.0,5208700274.251205,1191000000.0,927318546.8302612,2895000000.0,2455436119.885587,4086000000.0,3382077062.0935116,834000000.0,738991979.0939208,357000000.0,311354810.82294357,834000000.0,685811250.2127019
140,1355,3,2655001000.0,2777684095.866391,1989549000.0,1770113600.0953393,665452000.0,1028846182.5552802,67554000.0,-26340312.802858245,403267000.0,548738408.9912916,470821000.0,476854903.90258324,-3426000.0,-79605990.4544734,30096000.0,36002150.920387514,37458000.0,-73705506.18178836
2004,516,2,9403000.0,-472252540.2671888,5511000.0,-415134706.9659205,3892000.0,40922489.93617177,-48000.0,295618.8982182015,1387000.0,3417219.88558744,1339000.0,-1960220.5367408507,-903000.0,-726752.0743973695,855000.0,4741574.935408473,-903000.0,-3416899.796337248
28,171,2,551232000.0,78712299.98062992,628224000.0,-26195461.026863635,-138322000.0,341095047.28990555,23716000.0,26295085.165250905,12709000.0,16420819.88558744,36425000.0,31997362.093512177,7478000.0,20388705.68875957,48579000.0,47579211.24244201,-24863000.0,-25799833.720996942
844,1212,1,435750000.0,841491050.3106958,62826000.0,62878288.82462132,372924000.0,585809294.4695166,28152000.0,39688661.44410827,49267000.0,42326796.33485295,77419000.0,68867241.6769366,143000.0,5992515.592293557,28009000.0,32686101.609284066,143000.0,3924324.099099037
967,354,4,367699000.0,629696539.2149935,382822000.0,176422750.0949729,-15123000.0,519876601.1775351,310000.0,132017628.47033653,0.0,-6582162.932612417,310000.0,111519232.81010051,-47413000.0,12663130.203006033,47723000.0,76780968.47333264,-47413000.0,21958922.275835916
433,1410,0,3810682000.0,3382467932.3907638,2050315000.0,1983519413.7887225,1303319000.0,1114030803.2789364,110314000.0,112289916.34562758,71850000.0,82062456.21942644,148990000.0,154928776.90153208,11661000.0,13180982.8068345,98653000.0,96988326.76893473,11661000.0,13252895.1739227
228,230,3,2333529000.0,2564829715.654275,1032484368.2283514,990288085.3730228,1202771000.0,1192031694.7315557,71236000.0,80324502.0104686,490990000.0,523591643.23247325,562226000.0,593995780.2702751,19517000.0,20573087.489852205,46091000.0,54207434.001482286,25145000.0,15777669.77497899
1855,54,4,20737275.0,145533260.98717383,10788720.0,-94434176.69074278,10368036.0,309469049.89587736,562564.0,-136649797.39258143,77061.0,-80170384.9896423,87201.0,83626132.81010051,-4142505.0,-46822417.3309527,4705069.0,50660197.62103046,-4142505.0,-27523795.68677118
776,528,0,386844000.0,849051217.6967242,412960000.0,541630446.1884103,-26116000.0,808400360.3391503,16927000.0,31744205.348356497,91131000.0,109088121.17825568,108058000.0,129874034.18848182,-813000.0,15469928.370674793,13060000.0,19051555.492064133,3867000.0,15861573.31633002
839,181,2,6911775000.0,4810177371.367941,5109042000.0,4612540856.123157,1802733000.0,1757697486.195289,225256000.0,232029164.7492836,195092000.0,206032119.88558745,420348000.0,421007279.46325916,132530000.0,127788793.44343495,92726000.0,91106052.06909984,132530000.0,128183715.4326828
793,218,0,2883631000.0,2658668988.9121847,1772390000.0,1751898759.168285,1110345000.0,1112770579.6746716,319055000.0,397559205.3483565,1257690000.0,1328049609.6919038,1576745000.0,1707192895.4780202,38222000.0,100377276.3478476,280833000.0,280730956.94629407,38222000.0,102799172.55506627
820,1469,1,133032000.0,695411557.6408898,232711000.0,266999349.07022443,-16246000.0,549699928.4378647,12296000.0,25149661.44410827,62277000.0,65059018.3232968,74573000.0,75715852.3225246,-14749000.0,-7372184.407706439,89322000.0,103744948.44796382,-77026000.0,-85436525.90090095
2016,929,4,296638000.0,591529185.6611723,208509000.0,124962328.1906007,88129000.0,451790847.8006027,7319000.0,8691362.03216779,0.0,-3623037.466371987,7319000.0,2666832.8101005144,-46633000.0,-34119709.48304825,53952000.0,53150105.834181264,-46633000.0,-41974892.18958767
1438,619,4,38809000.0,403146733.1618042,43090000.0,-80175736.25289124,-4281000.0,378472726.8723488,7318000.0,11357428.293040842,25818000.0,19849448.462228928,33136000.0,30378632.810100514,-933000.0,-3248631.9548543347,8251000.0,12498634.854153546,-933000.0,-5717637.0933856685
866,1366,1,2376172000.0,1909477846.767799,1870972000.0,1658889909.17666,486613000.0,794425196.6945556,-5214000.0,67827039.32160743,182832000.0,138955857.96223038,304976000.0,205154437.83941495,-103708000.0,-49874834.40770644,98494000.0,112788205.23430331,-103708000.0,-51753125.90090096
689,729,4,3719784000.0,3516505112.1511507,3332984000.0,2741099400.811037,286813000.0,1316808440.871126,2618169000.0,2468697153.1597667,-531777000.0,-511878653.85279936,2086392000.0,1956696532.8101006,44074000.0,31328533.69460484,2574095000.0,2355152600.706662,44074000.0,28199659.99448207
919,998,0,1537935000.0,2148678125.5589705,1281456000.0,1507279136.3404684,256479000.0,828524804.1259812,229699000.0,229550959.4261233,0.0,12098208.082187628,229699000.0,228925317.8773912,-26947000.0,-113138367.9001673,256646000.0,362157617.8901805,-26947000.0,-128033704.8260773
1827,1491,4,1182488000.0,1350583699.418447,303489000.0,267598428.02983457,759221000.0,846451710.4138261,56265000.0,64848892.864119776,333008000.0,330693899.19721526,251870000.0,257610732.8101005,16750000.0,21166797.99998004,39515000.0,38866591.13135546,16750000.0,19210647.14407261
1182,1607,2,8225559.0,-410567532.36296064,12447189.0,-416946183.4589208,-4221630.0,81830636.94326186,17564.0,-417131.4029573705,106922.0,2626652.48558744,124486.0,-2854927.8367408505,-8095209.0,-4141362.7727254415,8112773.0,8354182.849932052,-8095209.0,-5532277.805601278
