epiphany24262/financial-performance-prediction/results/oof/m7_accounting_postprocess.csv
Id,group_id,fold,actual_Q0_TOTAL_ASSETS,pred_Q0_TOTAL_ASSETS,actual_Q0_TOTAL_LIABILITIES,pred_Q0_TOTAL_LIABILITIES,actual_Q0_TOTAL_STOCKHOLDERS_EQUITY,pred_Q0_TOTAL_STOCKHOLDERS_EQUITY,actual_Q0_GROSS_PROFIT,pred_Q0_GROSS_PROFIT,actual_Q0_COST_OF_REVENUES,pred_Q0_COST_OF_REVENUES,actual_Q0_REVENUES,pred_Q0_REVENUES,actual_Q0_OPERATING_INCOME,pred_Q0_OPERATING_INCOME,actual_Q0_OPERATING_EXPENSES,pred_Q0_OPERATING_EXPENSES,actual_Q0_EBITDA,pred_Q0_EBITDA
196,314,4,1192950000.0,1277198395.2206056,1055816000.0,1020391229.6236801,137134000.0,665725947.2182126,25598000.0,33059362.64404001,61899000.0,61676738.892923854,42992000.0,33897659.11897063,15222000.0,21258499.999999996,10383000.0,13753756.554283794,15215000.0,19919449.999999996
1568,1318,0,1219954000.0,2062030031.2589364,835046000.0,1032256301.099285,384908000.0,1697223286.692193,111786000.0,102059357.62132359,217796000.0,213612934.73364654,329582000.0,307057939.6950926,28908000.0,4712900.000000014,85522000.0,89266350.01999468,26264000.0,12756550.000000002
1218,1523,0,-135820000000.0,47710019830.51512,-37972000000.0,11803199348.488888,-97848000000.0,9131131131.808523,-435000000.0,-662221527.1926987,4445000000.0,5592521449.487295,4010000000.0,6333215895.714924,-1472000000.0,-1323349999.9999952,219000000.0,353304200.73733455,-654000000.0,-283549999.99999666
23,1421,2,83298000.0,-371571804.16264987,16040000.0,-402100556.5600811,-31633000.0,229054449.0335083,494000.0,16629676.695879143,3339000.0,2982575.000991428,3833000.0,4741280.159301709,-12348000.0,-14842949.999999996,12842000.0,20099593.078958362,-12348000.0,-14950249.999999996
783,1306,2,148546000.0,-252262631.7310168,56555000.0,-328520289.3753005,91991000.0,428665335.3159312,1761000.0,147649676.69587913,-2375000.0,-117050526.36896817,-614000.0,2009347.3029728679,-10098000.0,77799249.99999997,11859000.0,21100740.58688517,-10098000.0,90518849.99999999
1251,1292,1,7304300000.0,5702030578.637471,2451900000.0,2218981802.9363556,4830200000.0,2372643911.0360413,578200000.0,615364523.6307039,581100000.0,588868100.0764642,1159300000.0,1179663050.7660067,245200000.0,270024999.99999994,333000000.0,324128250.5605819,245200000.0,271744999.99999994
1224,1572,2,1976905000.0,1154950994.0685906,699909000.0,168547710.62469947,1276996000.0,881710281.1687622,53993000.0,94669406.93420675,315825000.0,318087457.49125063,369818000.0,394371200.8428501,-1572000.0,13610199.999999993,371390000.0,367607791.00755,-317397000.0,-296983700.0
1410,638,0,2097274000.0,2683155785.715148,1132234000.0,1330181313.0321083,965931000.0,1794084993.1735134,70481000.0,174255357.6213236,291052000.0,296512145.0781973,361533000.0,456722463.027508,58709000.0,114865400.0,11772000.0,17799445.333370022,58709000.0,130047400.0
529,10,4,31183000.0,170608528.52156404,15926000.0,-68549418.7359584,15257000.0,380140800.1754877,2456000.0,7569908.210209351,2151000.0,64713.341794490814,4607000.0,-6148993.2946454305,-2931000.0,-4293499.999999998,5387000.0,10215784.601133969,-2931000.0,-4277099.999999999
730,598,0,978523000.0,1861547479.1321998,851196000.0,928147021.110732,-94184000.0,1672741508.227941,24321000.0,30399357.621323586,137937000.0,155570661.05436853,162258000.0,167997923.88143232,-764000.0,-17477100.00000005,25085000.0,39279905.91531134,-764000.0,-17576200.00000003
1590,740,3,27253000.0,-165198298.9015097,14465193.072010836,-411008100.6621157,12787806.927989164,370494297.6335,-17000.0,8583771.6193141,17493000.0,24415529.186002266,17476000.0,25378686.066518165,1196000.0,1385199.9999999995,138000.0,3324837.3088019793,-155000.0,2825850.0000000168
367,140,3,798398000.0,574802133.8623998,795372000.0,384720375.98328805,3026000.0,608999800.9019214,37121000.0,47816123.51971301,256160000.0,356653174.9225457,293281000.0,391903323.7864476,10257000.0,-7484899.999999992,26864000.0,37153272.10321926,10257000.0,-3109899.999999995
636,741,2,1059052000.0,809774082.7019787,883921000.0,390961847.9412337,175131000.0,573773453.9879831,91945000.0,122596676.69587915,202788000.0,233049221.2050172,235132000.0,273330447.30297285,-287000.0,1052600.000000015,84957000.0,102839938.78093767,6988000.0,6469450.000000004
1270,1352,1,11069000000.0,9004015551.044954,5919000000.0,5805119583.287268,5105000000.0,2739075535.8546934,727000000.0,763763673.582478,1752000000.0,1817406789.5740788,2479000000.0,2557055753.0980635,462000000.0,504800000.0,265000000.0,230185781.5151149,462000000.0,500100000.0
102,263,0,12331000.0,1032203654.0481818,10875000.0,39882127.67649071,1456000.0,1579203571.1615043,1472000.0,6186357.6213235855,1968000.0,32356712.930925105,3440000.0,89255492.78877346,-4166000.0,-1176629.5499999996,5638000.0,6418960.239010274,-4166000.0,-1271452.8499999996
1658,1092,1,180372000.0,-247202837.32799017,121221000.0,-165408096.53185683,30642000.0,388547357.2268964,18014000.0,27254909.87524496,31653000.0,30249146.89957355,49667000.0,45659066.52723458,-11599000.0,1731400.0000000023,29613000.0,20539299.818141546,-11599000.0,1957000.0000000014
6,33,0,2319806000.0,3099561603.6604247,1534495000.0,1916357401.9287825,785311000.0,1779376294.2694938,376397000.0,298032397.1621235,415254000.0,332656663.4722718,791651000.0,631782385.5760204,93430000.0,44960350.0,288680000.0,263387397.76516244,87717000.0,38266750.0
1147,1055,3,19295025.0,-191180133.0348549,28370931.0,-399210006.7812103,-13369686.0,345263714.723932,2067435.0,11192192.971579045,4847499.0,5104462.4942264985,6914934.0,6269075.561887055,-1108124.0,-893052.8499999996,3175559.0,6546003.241051514,-1108124.0,-762982.8499999999
114,1011,2,3549408000.0,2514487238.842123,2109262000.0,1516819413.083432,1440146000.0,1094266955.189368,264579000.0,250865244.17482963,494402000.0,487796423.37482464,758981000.0,721947447.3029729,58594000.0,88931199.99999997,205985000.0,193412860.9474135,58594000.0,70595499.99999997
139,1334,4,331401784.0,471824519.3858495,56254670.0,-48247454.71464187,275147114.0,509179758.8556876,17982150.0,29326480.570652165,0.0,-467989.0986900142,17982150.0,14708400.348259134,-40215832.0,-30712708.799999982,58197982.0,55609656.508983344,-40215832.0,-34477879.14999999
411,814,4,5533000.0,110200227.91772613,4648000.0,-85515591.6435892,885000.0,348624521.66990143,-1669000.0,5025974.191390686,2438000.0,-915461.3284097097,769000.0,-11355970.612149727,-6339000.0,-4973000.0,4670000.0,8600769.354371965,-6339000.0,-4862100.0
681,761,2,36550000000.0,29830083880.58701,16943241279.095451,14950474972.490654,15250000000.0,7316328672.7247505,577000000.0,554700406.9342067,3467000000.0,3196461500.370671,4044000000.0,3725810800.84285,714000000.0,482749999.99999976,627000000.0,677694053.833735,-50000000.0,-157299999.99999997
1671,696,2,100449000.0,-122877948.71122897,141057000.0,-304181152.0587663,-40608000.0,315130533.731243,-171000.0,17131406.934206754,512000.0,1149336.6383224728,341000.0,2480180.1593017094,-48297000.0,-51438799.999999985,24344000.0,28832854.78740319,-24515000.0,-24708900.0
500,1236,2,10599934.0,-399715686.5622305,26203416.0,-406444898.16267097,-15603482.0,162736666.6681218,-6219.0,16004042.898572193,193120.0,996590.9958818621,186901.0,2209756.0593017093,-1076399.0,-844235.3000000004,1070180.0,6024744.383294359,-1076399.0,-807383.9000000003
1203,449,4,13322000.0,132054008.43731207,67881000.0,-5177828.866805255,8277888.77383834,398287569.1337376,3223000.0,4530338.069093896,1889000.0,565961.7501388025,5112000.0,-8562751.078890804,-3552000.0,-6966150.000000003,8664000.0,15729971.003739603,-5441000.0,-9466650.000000002
180,11,3,635001000.0,956164413.650785,115305000.0,-296941820.39425087,502273000.0,707906464.1136391,21465000.0,33159123.519713007,40457000.0,38096748.00344608,61922000.0,61119841.59687789,-143360000.0,-169040899.99999988,205282000.0,170462533.5714056,-183817000.0,-177242650.0
1960,1026,2,2672864000.0,2155494813.9484124,288913000.0,-41593289.37530053,2383951000.0,1276866191.192874,132902000.0,163886676.69587913,168499000.0,195371869.57885042,301401000.0,342306947.30297285,55706000.0,73958700.00000001,77196000.0,76922056.6569588,55706000.0,73622400.0
356,863,0,8388335000.0,8036849784.205271,5163154000.0,5746681208.119629,3225181000.0,2130454653.1716423,313343000.0,336140397.1621235,687959000.0,736848279.8227153,1001302000.0,1068009973.3465849,116260000.0,132464650.00000001,85661000.0,94579908.37462178,227682000.0,238872699.99999994
1646,1578,1,1563399000.0,771671547.1498795,1445358000.0,933330347.9194324,-136248000.0,683779935.8018086,72333000.0,77271699.82794784,116682000.0,115373686.41904373,189015000.0,177945750.76600662,23506000.0,18309099.999999993,11423000.0,16573355.011905713,60910000.0,55483250.0
1793,1064,4,320019000.0,543323204.0929483,126984000.0,80808749.2878936,193035000.0,764667701.1721911,177377000.0,216515795.18206125,58492000.0,86363419.35632496,235869000.0,291286782.72236985,25509000.0,42879749.99999999,151868000.0,184039239.60670406,25509000.0,41399249.99999999
235,94,4,0.0,84543265.05642274,0.0,-101844341.79952824,-804876.0,298021377.72417253,0.0,5067166.554342381,0.0,-1824200.6977909878,0.0,-13102299.939287804,-14550.0,-1163556.3499999996,14550.0,4630095.716052088,-14550.0,-1327382.65
1668,245,3,267194000.0,137336698.9178633,175308000.0,-247180328.82526958,91886000.0,484767024.46740323,5103000.0,12148771.6193141,0.0,-105859.7068508938,5103000.0,475717.24728814885,-32762000.0,-29229899.999999993,37865000.0,34559581.217541896,-32762000.0,-28932399.999999993
1456,1010,3,2249377000.0,2020820548.9151554,1923326000.0,1738715253.0991127,326519000.0,958988980.6588919,-76300000.0,-63829876.48028699,416103000.0,429978215.4517236,339803000.0,351909144.83077705,34941000.0,13190799.999999981,184914000.0,188858779.30276126,-261214000.0,-261488500.0
1291,1021,2,396890000.0,17821159.89547372,107071000.0,-309779152.0587663,289819000.0,421189180.93057585,52569000.0,62116676.69587915,13634000.0,14884694.483959997,66203000.0,59194947.30297287,8375000.0,-6537700.000000005,57828000.0,68053584.11730532,-5259000.0,-18668050.0
1376,1176,2,7827000.0,-329233375.96387845,4744000.0,-414500152.0587663,3083000.0,247737827.10688502,1288000.0,17244518.89857219,867000.0,2767586.382115309,2155000.0,4363580.159301709,-3880000.0,-4787250.0,5168000.0,11287899.326674482,-3880000.0,-4621750.0
1702,1493,0,11990000.0,848081837.3821989,3030000.0,33046947.464342467,8960000.0,1597194789.8643053,1480000.0,7337472.8073013015,3017000.0,10469002.499546055,4497000.0,2870105.9074017312,-944000.0,-1143199.9999999995,2424000.0,7354252.5004186705,-944000.0,-1110799.9999999998
1591,1286,2,7472874.0,-417186563.99481076,3243445.0,-421530990.6811537,4067990.0,177795200.90843982,3065804.0,16509151.898572193,0.0,3014471.6925748847,3065804.0,4128868.4394923425,-21884.0,-2966913.749999999,3087688.0,8016935.9988096235,-21884.0,-2819211.6499999994
647,1028,0,2182494000.0,2842154244.979044,2467501000.0,2462352701.939521,-484456000.0,1613833773.0099878,389190000.0,381074357.6213236,141172000.0,148388657.37237048,531030000.0,525377613.2570616,-54175000.0,-54304100.000000015,443365000.0,432659532.0366968,-54175000.0,-53357200.00000001
100,1407,1,12166000.0,-476506141.24620765,2892000.0,-312888745.1365911,9274000.0,222045192.27663678,5000.0,10035346.671728864,54000.0,1445236.0424602064,59000.0,-2721449.2339933924,-3433000.0,-4606749.999999998,3433000.0,9222710.27922542,-3428000.0,-4682649.999999999
507,447,1,189783000.0,-247760809.48985672,45792000.0,-282283339.63033575,143991000.0,345497405.70221084,2372000.0,12590554.910637539,0.0,1527046.413619326,2372000.0,-1294733.472765421,-18270000.0,-23745449.999999996,20642000.0,30550115.395215075,-18270000.0,-24136549.999999996
547,960,3,1072653000.0,670218351.0693974,455367000.0,-15089598.357904613,617286000.0,625855370.5255865,134998000.0,139917832.97157905,27783000.0,27728525.682280604,163452000.0,152045111.6861231,5489000.0,-3773350.000000005,129509000.0,134764450.54117492,5489000.0,-3910850.0000000033
457,632,1,665104000.0,96599487.75134009,575531000.0,179082479.77458274,89573000.0,525908033.6016047,30803000.0,39421395.754569344,19437000.0,18591748.225292176,50240000.0,41038250.766006604,10357000.0,-1210949.9999999965,22017000.0,26045726.64794928,8786000.0,6306250.0
560,618,0,1900367000.0,2257166551.49291,289037000.0,427125241.8907635,1613343000.0,1736136435.0966973,45433000.0,203820512.34810123,413911000.0,493472080.38963616,459344000.0,691271861.0354563,-6757000.0,205495749.99999988,52246000.0,64854963.68688008,-6813000.0,177621099.99999994
1402,1560,4,88944000.0,236323807.41612318,45361000.0,-42214323.877337635,43583000.0,427893133.52469224,0.0,4701317.784818238,45000.0,-1333550.167973373,45000.0,-13645300.03307507,-14351000.0,-14335349.999999994,14351000.0,18176836.943879448,-14351000.0,-14741149.999999996
1274,683,0,5390785000.0,5757273644.61623,4083098000.0,4600969871.460546,1050686000.0,1811308356.2376947,352054000.0,362803397.1621235,284900000.0,326496192.9376757,636954000.0,693052989.3649673,120850000.0,124850550.00000001,187232000.0,197696645.08272067,164822000.0,169682600.0
799,1475,3,18535000.0,-132389899.00400406,13748000.0,-408564820.2254392,4787000.0,396426329.58957005,2839000.0,11880771.6193141,7502000.0,9178806.966973428,10341000.0,8711754.352258597,-2229000.0,-2158649.999999998,3071000.0,6649852.239708304,-232000.0,162800.00000000116
1436,366,2,13281300000.0,9211229874.259811,5777300000.0,5018801434.113987,7484300000.0,4082011833.0110655,1030700000.0,1009461244.1748296,1150100000.0,1106791669.5788505,2180800000.0,2105652447.3029728,687000000.0,634739999.9999998,343700000.0,367350009.63899803,687000000.0,645719999.9999999
1518,564,4,108681735.0,257788085.0185409,9192190.0,-105179688.71891016,67531550.37365061,422052118.7183219,2201326.0,5937998.3159024725,255772.0,545035.3573997226,2457098.0,-12589473.724120738,-8935951.0,-11210550.549999999,11137277.0,15747284.88242557,-8935951.0,-11414929.45
211,1245,3,189692000.0,45227897.10378051,90178000.0,-342028328.8252696,99514000.0,499451810.7104631,-4411000.0,6439771.619314101,24963000.0,25823964.239512682,20552000.0,21337507.973287567,-10000000.0,-5309500.000000002,5589000.0,8067766.028675867,-10000000.0,-5838300.000000001
1542,539,4,230878000.0,343540052.97898245,57278000.0,-8868048.3282969,173600000.0,489323953.600399,26973000.0,33089243.283420343,7041000.0,4206490.459087967,34014000.0,20719121.959099952,-11169000.0,-11875649.999999998,38142000.0,42296799.55757366,-11169000.0,-11942649.999999998
1496,129,4,73773000.0,226802805.84452116,50819000.0,-64567460.04714036,38847689.64492722,445763910.35384285,5428000.0,10414707.571449187,22481000.0,15930759.801135162,27909000.0,16442436.543956406,-1778000.0,-2132749.9999999986,7206000.0,11822801.719321111,-1778000.0,-2042549.9999999993
1891,794,4,1582767000.0,1608424271.1281686,680421000.0,654994030.9203508,880211000.0,752602383.9013661,56683000.0,61036186.9332853,17637000.0,13946868.545952672,74320000.0,58816112.63794394,-5119000.0,-11668811.949999996,35279000.0,42330892.86829576,21404000.0,17065378.4
362,1155,3,5641000.0,-192079091.7386412,5200000.0,-417667280.7812103,-3859000.0,289114653.5065539,1192000.0,9619832.971579045,781000.0,-378464.1650121296,1973000.0,-1842447.5130972462,-97000.0,-115300.00000000009,2070000.0,5145021.750641004,-878000.0,-858399.9999999999
605,905,3,3208196000.0,2651157632.781876,2133043000.0,1540154990.8774457,1075153000.0,1405793457.9535818,625972000.0,659018123.519713,1066275000.0,1075692106.7177138,1692247000.0,1714806588.9287379,91616000.0,90858399.99999997,497965000.0,478926263.35981756,128007000.0,152008049.99999997
384,713,0,13057000.0,811878005.5472007,4943774.229094189,14172410.61962089,10949000.0,1596198891.380939,7944000.0,5831472.8073013015,0.0,6518229.23007821,7944000.0,3198991.090168122,1997000.0,-2812949.999999998,5947000.0,7776496.382232132,1997000.0,-2615249.999999999
438,1575,4,5973000000.0,5219429127.827913,4408000000.0,3848559627.143635,1554000000.0,2008203980.6509848,244000000.0,256966852.46432808,1526000000.0,1491056672.243886,1770000000.0,1730664671.4582598,147000000.0,49250000.0,127000000.0,120497240.15117024,117000000.0,129850000.0
1761,738,0,589088000.0,1454120789.5371888,253950000.0,363820456.8275144,335138000.0,1707009430.5307202,19294000.0,28259472.8073013,99428000.0,103729861.78199947,118722000.0,120585028.8145962,9057000.0,9926450.000000004,10237000.0,16344077.934645958,9057000.0,10601850.000000002
403,525,3,21286772.0,-199430521.1059006,1383236.0,-420995158.7812103,19903536.0,353823788.57356364,781782.0,9611090.971579045,421382.0,-66890.43239240907,1203164.0,-2129769.881890537,-1960898.0,-1649585.2999999998,2742680.0,5860512.482651248,-1960898.0,-1640923.8999999997
388,1349,4,3445920.0,226252303.52251992,1859560.0,-66299169.926041186,1616914.0883314284,218812549.8705582,2970901.0,5285653.60812927,569508.0,-840270.4022379238,805185.0,-5698418.475829327,2437201.0,479634.0499999999,533700.0,5047826.553036621,2437201.0,531952.1499999999
1452,124,4,328158000.0,506855476.83328074,124250521.82515822,64151214.01177563,270486000.0,544115663.8439399,24944000.0,35015105.04230764,16521000.0,11521774.463283975,41465000.0,30489887.519661203,-7674000.0,-5969849.999999998,24827000.0,27752646.17650659,117000.0,3678600.000000001
1876,412,1,2498305.0,-491381238.7904855,2997402.0,-311403212.72448415,-3454854.0,234657770.14031306,467340.0,8767873.852730459,346611.0,3502482.498803244,813951.0,-3131319.072765421,-114631.0,2279949.799999999,581971.0,5233485.190502674,-114631.0,-561072.7
757,651,2,1288046000.0,766099342.4951754,649920845.9604261,245600048.76635957,889849000.0,786755553.7273016,105384000.0,112934676.69587915,285360000.0,273407794.48396,390744000.0,368984147.30297285,53190000.0,39866200.0,52194000.0,56816981.892283686,53190000.0,41236900.0
660,226,2,600057000.0,87988274.51651579,369915000.0,-141204152.0587663,225443000.0,407246714.8861312,43121000.0,56012676.69587915,106269000.0,90488069.57885043,149390000.0,128536747.30297287,7853000.0,7525999.999999998,30439000.0,32637541.2701658,12682000.0,10610799.999999998
197,709,4,538955000.0,534137709.70225745,291671000.0,-64417839.88777822,247284000.0,473832215.5350705,-14193000.0,-7357648.692716096,14235000.0,10619791.647158131,42000.0,-7167288.2788131,-51845000.0,-56965049.999999985,37652000.0,50236120.97749929,-51845000.0,-58774649.999999985
93,962,1,25334074.0,-486478633.2687164,18917048.0,-316575205.996789,5501613.0,263688092.75538057,-536032.0,9808807.461859602,4501393.0,5121028.443044394,3965361.0,2311694.5980636724,-2975120.0,-4867727.149999999,2439088.0,9731517.66102653,-2975120.0,-5102806.05
472,1463,0,1934400000.0,2639187296.155713,855887268.5537325,993618843.435107,957200000.0,1796247427.6314886,84000000.0,126228512.34810123,375600000.0,448871706.7132539,459600000.0,569840568.3001676,30800000.0,69330000.0,59000000.0,67551300.6615178,25000000.0,61964999.999999985
1345,573,0,102973000.0,1114749599.3918774,162948000.0,73036564.01753053,-346214000.0,1559689624.8885825,-13037000.0,1648397.1621235125,25768000.0,32573638.24342107,12731000.0,23255691.560818568,-23219000.0,-12819447.149999993,35950000.0,31374061.991261613,-48987000.0,-34195147.15
1672,351,2,2501300000.0,1978542098.7604537,1075500000.0,954195710.6246995,1407900000.0,934566461.0364048,99600000.0,130995676.69587915,151100000.0,164507921.2050172,250700000.0,278652447.30297285,31900000.0,-384999.9999999888,67700000.0,123965791.39983577,31900000.0,-6704999.9999999935
521,298,0,27910000000.0,27942129524.84433,24392000000.0,27317227032.71287,14058781786.346067,4028073210.3454704,1525000000.0,1392136397.1621234,6421000000.0,5264045042.905827,7946000000.0,6501561256.812472,561000000.0,-7199999.999999404,638000000.0,485769948.5020737,887000000.0,488000000.00000036
1143,519,4,105238000.0,266350677.45704225,42240000.0,-54538399.40224105,62998000.0,441184239.00085175,8572000.0,13533295.127736751,322000.0,-2429526.0433323155,8894000.0,-2677768.260390939,2218000.0,2956600.0000000005,6354000.0,9551768.420242628,2218000.0,2921550.0
502,1365,3,2010176000.0,1636683623.5511322,889414829.379791,391775260.7070439,1057656000.0,1091995627.3321228,113627000.0,131133123.51971301,250202000.0,252373578.100407,363829000.0,370759541.520481,44531000.0,51197849.999999985,69096000.0,73814855.8894265,44531000.0,51273149.99999999
319,621,2,15154000000.0,11700415931.756695,5534200000.0,5005301434.113987,9554000000.0,5069050436.512558,739300000.0,714200406.9342067,999600000.0,987578505.8650839,1738900000.0,1670852447.3029728,318400000.0,260254999.9999999,315200000.0,310503556.1128424,424100000.0,373314999.99999994
471,516,2,346507000.0,43498336.33968061,100361000.0,-283246227.79667336,246146000.0,354183367.83038235,14398000.0,28739518.89857219,62502000.0,62661650.095881864,72480000.0,73290247.30297287,4926000.0,1944950.0000000012,9472000.0,14509535.082484916,4926000.0,2414050.000000001
1756,421,2,229309000.0,-172504062.33611238,190264000.0,-210114152.0587663,-44269000.0,282710364.22079396,9225000.0,29150676.695879143,52669000.0,77939686.3821153,61894000.0,90365880.15930171,1401000.0,5149299.999999995,7511000.0,11292993.109308219,1714000.0,5719849.999999998
848,415,3,101740000.0,-92157215.36262792,28463000.0,-411962002.3254673,50734000.0,370822405.5837568,29850000.0,37121771.619314104,12745000.0,12738325.682280604,40857000.0,34855653.7990643,2689000.0,3028999.9999999995,27161000.0,28664732.289120555,2689000.0,2805699.9999999995
1310,660,3,9582645000.0,6247672466.8410845,3280269000.0,1268913800.1109095,6302376000.0,2488645072.909533,376175000.0,319376123.519713,424915000.0,518052401.60773474,801090000.0,797050469.3894703,272965000.0,119043349.99999999,103421000.0,135721188.34753627,272754000.0,133689999.99999997
202,496,2,609678000.0,179915124.14214772,288631252.1743736,-135915621.72057062,366720000.0,444594203.408463,84451000.0,95040518.89857219,21802000.0,24480990.8054946,106253000.0,103897247.30297287,5683000.0,1371149.9999999916,78768000.0,83366793.0093143,5683000.0,2111149.9999999944
1444,1250,3,43441700000.0,37236600917.608154,21559314449.01792,19854190892.072716,21882385550.98208,8703168376.993753,1370000000.0,1305956123.519713,587400000.0,569576184.7200172,1957400000.0,1849351478.4668112,472000000.0,485244999.9999998,1485400000.0,1467832128.7939649,-115400000.0,-202264999.99999994
1578,687,1,1146353000.0,590143200.5629773,752649000.0,428864956.02276343,393704000.0,550149214.9805641,95229000.0,102413197.27451392,32092000.0,34267121.77471412,127321000.0,123788750.7660066,-58245000.0,-60154799.999999985,153474000.0,153088361.8521302,-58245000.0,-60395899.999999985
451,1036,2,796771.0,-411002930.400244,1072746.0,-424006188.56854343,-275975.0,203650921.51395842,205707.0,16369116.695879143,158335.0,1900205.8821153091,364042.0,2386596.6593017094,-168127.0,-31384.300000000007,373834.0,5054137.005206464,-168127.0,-30083.500000000007
35,1172,1,9069035000.0,5051767909.944914,2563480000.0,1540397909.4680126,6505555000.0,2407192971.3848314,942419000.0,896056772.3861685,522866000.0,530804750.3811714,1285548000.0,1233495250.7660067,602695000.0,513055249.99999994,339724000.0,343294128.3223175,602695000.0,517603650.0
237,194,4,48924605000.0,41200890494.93163,25766652000.0,21348678969.595825,22441501000.0,12891170714.716747,1560160000.0,1523753761.2701235,915531000.0,937453186.9981673,2475691000.0,2426856004.6316743,558196000.0,455424050.0,1001964000.0,988657241.6724703,558196000.0,464605849.99999994
917,1116,2,514281000.0,126022202.54088771,309957000.0,-56948289.37530053,198004000.0,526114713.0767679,106985000.0,67393676.69587915,149052000.0,97406559.6610581,309744000.0,183971947.30297285,62399000.0,13100650.000000019,44586000.0,40344475.18234415,62399000.0,15185450.000000011
558,251,2,17876000000.0,17630043916.211296,4077000000.0,2352427107.6418676,13799000000.0,6788385907.785702,-917000000.0,-687299593.0657933,1453000000.0,972294448.8758084,536000000.0,331410800.8428501,-1774000000.0,-1629150000.0,857000000.0,949641199.2995661,-1774000000.0,-1642050000.0
73,532,1,218354000.0,-210508460.66027105,62021000.0,-253510806.39717942,156333000.0,391130327.96809816,-143000.0,10536996.042349001,848000.0,2155311.8683013553,705000.0,-2664833.472765421,-31577000.0,-30793699.999999996,40859000.0,39235353.47142635,-41002000.0,-33921799.99999999
532,205,3,2268100000.0,2055206503.2485194,1627400000.0,1325796921.0753975,640700000.0,1055649348.8499886,78400000.0,104656123.51971301,665200000.0,717526408.4030395,743600000.0,806064811.7120492,19100000.0,30054999.999999993,724500000.0,766021317.5845335,-646100000.0,-687395000.0
986,275,3,49117000.0,-119237063.81397712,7104000.0,-416365820.2254392,42013000.0,389587231.8117334,1616000.0,10456771.6193141,3273000.0,3629931.275045462,4889000.0,801054.3522585956,-1489000.0,-1552249.999999999,3105000.0,6539595.343962541,-1489000.0,-1468849.9999999995
252,1030,3,12822000.0,-199286785.0019526,1624000.0,-418525280.7812103,11198000.0,329217022.2288697,0.0,8491832.971579045,0.0,-1446588.4154962911,0.0,-4629171.380902123,-1983000.0,-2971250.0000000005,1983000.0,5683539.710035243,-1983000.0,-2669350.0
982,1392,1,543788000.0,203830494.50982535,205894547.02387,-24531152.93162614,402777000.0,470689991.533299,1944000.0,10950941.832677986,0.0,910507.6098121321,1944000.0,-1223533.472765421,-51279000.0,-55263050.000000015,53223000.0,74322228.39623818,-51279000.0,-58660350.00000001
1947,616,2,16965000000.0,14273879730.038815,7506269391.549871,7143099922.070669,7744800000.0,5969515577.674617,1329900000.0,1169195676.6958792,1175700000.0,1149469632.586141,2505600000.0,2288375180.1593018,1069200000.0,1008274999.9999996,32700000.0,37576913.66295996,1297200000.0,1182435000.0
1206,918,0,29788000.0,947476906.0073363,27907000.0,122845688.4421064,1881000.0,1601789212.0517006,0.0,5956472.8073013015,3452000.0,10722426.704769686,3452000.0,4123190.936272852,-23801000.0,-17694250.0,23801000.0,23307026.325831845,-23801000.0,-17579550.0
542,1191,2,39315010.0,-360169888.76648915,15768167.0,-407337261.5600811,23791305.0,236200748.69281012,7600979.0,21852891.934206754,41810204.0,31384549.087224875,49411183.0,37358947.95930171,-1588725.0,-1058603.6999999997,9189704.0,11640881.978823815,-1588725.0,-1097049.0
15,899,4,184728000.0,273870608.9943969,40367000.0,-64191672.88275826,144361000.0,413509077.0536374,0.0,4419655.42941638,8094000.0,4692352.808871813,8094000.0,-5497993.887846505,-23114000.0,-27854199.99999999,23114000.0,30208745.059178665,-23114000.0,-27335499.999999993
1754,856,2,5014090000.0,3611480553.4639387,2606263000.0,2248073710.6246996,2407827000.0,1517366072.0786786,420690000.0,437995676.69587916,905430000.0,898902469.5788504,1326120000.0,1317068047.3029728,237492000.0,226973550.0,183198000.0,185405149.28939515,237492000.0,230740750.0
1448,1495,3,3543460000.0,2597727948.899332,2602227000.0,1945423869.7895947,941233000.0,980664795.5489411,443568000.0,435382123.519713,134292000.0,121770204.82535699,414603000.0,388877795.17988706,14363000.0,-38110399.99999997,429205000.0,412050186.589462,14363000.0,-25280299.999999985
459,1563,1,747087000.0,250785504.1686372,79688000.0,-218356475.46607864,667399000.0,496478650.8946109,34565000.0,44790576.47225328,22203000.0,18607351.16376185,57261000.0,51021450.766006604,-16306000.0,-19883849.999999993,50871000.0,59024590.393723935,-16306000.0,-20293649.999999996
1505,8,3,4578121000.0,5364828972.584075,2310023301.364386,2900436087.812337,2489780000.0,1995259656.5006378,2190001000.0,2248708123.519713,-1465670000.0,-1626816338.092438,724331000.0,825268746.4953264,216069000.0,269286300.0,1973932000.0,2262937312.946278,216069000.0,266539100.0
1613,399,4,11895943000.0,10518409388.879827,3479745000.0,3576476885.2045493,8416198000.0,4042051061.477901,335683000.0,369794919.86980623,296441000.0,315877646.91409034,632124000.0,672170850.1432862,90949000.0,82849950.0,201199000.0,211132496.36694932,134484000.0,152394050.0
1214,1410,3,1059300000.0,973247185.768127,513000000.0,156606282.5111314,545000000.0,998303881.4558283,132000000.0,148456123.519713,172700000.0,181158923.72382143,304700000.0,315141026.93838423,34700000.0,40494999.999999985,88200000.0,86813238.47650956,43800000.0,50034999.999999985
454,235,3,11204065000.0,9045600551.51982,4242197120.938668,3484886891.081185,3489373000.0,1881106994.1222072,480702000.0,507088771.6193141,457696000.0,462861872.30515444,938398000.0,945301064.5214074,172392000.0,143097100.0,308310000.0,339812133.8214078,172392000.0,146255200.0
1392,34,4,531121000.0,712548750.2081945,248900000.0,245550340.11083674,282221000.0,625793358.0704672,62379000.0,73956939.89344017,135419000.0,139350727.24845952,197798000.0,196091982.72236988,18703000.0,17033499.999999996,43698000.0,55893339.59975582,18681000.0,16689400.0
1519,1545,4,961035000.0,1087473674.1244,1381722000.0,1286524405.5667303,-420687000.0,713801206.4918642,271111000.0,271751013.52487063,201537000.0,196754140.22822776,472648000.0,456915108.2040238,5387000.0,14973549.999999996,265724000.0,260440203.14318228,5387000.0,13502849.999999996
1060,432,1,3194462000.0,2195067943.685926,1643299000.0,1130317884.6192517,1512215000.0,1029144349.0473757,817744000.0,822402298.3332721,0.0,216878.73354880372,817744000.0,809990050.7660066,37900000.0,50198150.0,779844000.0,755700560.6355978,37900000.0,49579350.0
1100,895,3,6042273.0,-207004761.00337124,3627261.0,-420598410.36693126,2415012.0,291620376.195121,0.0,8491832.971579045,0.0,-1071951.84547337,0.0,-3484073.4307359327,-1829562.0,-1777269.0499999996,1829562.0,4652793.587330167,-1829562.0,-1770957.4499999997
203,426,2,76266906.0,-288583825.13627464,57438990.0,-377111378.79667336,40912361.81482647,302576674.85204923,9146097.0,25905858.695879143,0.0,767050.0958818621,9146097.0,12273570.55930171,-2633902.0,-2094624.7499999984,11779999.0,17356917.690639228,-2633902.0,-2102503.9499999993
1493,1399,4,-3532973000.0,1251432078.8696454,-2747133000.0,984022632.9400227,-773571000.0,740871504.7348108,87737000.0,105311440.74811219,40236000.0,367676707.2576909,103187000.0,460711482.72236985,7123000.0,-2227699.9999999553,80614000.0,145062470.4664644,7123000.0,-2391199.999999974
543,815,3,846734000.0,693339552.0921048,635659000.0,-199273955.7021054,69332000.0,632698940.6881245,204774000.0,356585123.519713,-13024000.0,-303736806.667932,191750000.0,-1233032.9420871604,-52860000.0,-126868650.00000036,257634000.0,555550989.9016265,-52860000.0,-127432650.00000021
1966,624,4,1354514000.0,1268536221.667857,675720000.0,590600864.0204985,319291000.0,619792401.9375099,-16558000.0,-8152517.698935162,64132000.0,61396019.37177494,47574000.0,39917332.147492975,22229000.0,18596999.999999993,13428000.0,19281045.170289733,-29986000.0,-27985850.0
1802,437,1,270533000.0,-244424639.25147885,240046000.0,-112952266.35342693,30487000.0,334873996.3387351,26052000.0,40473410.20991379,12454000.0,19287820.777871296,38506000.0,43968066.52723458,-21038000.0,-12164949.999999996,47090000.0,46899776.770243965,-21038000.0,-12720249.999999998
1372,1341,2,583783000.0,141318247.5291311,717382000.0,226026847.9412337,-133599000.0,422428885.32993484,41865000.0,50063676.69587915,32703000.0,28948100.370670836,74568000.0,59441980.15930171,-32006000.0,-45138800.0,48224000.0,49655566.03127215,-6359000.0,-15791500.000000004
1325,1439,4,534446.0,89277445.31991738,9794849.0,-95065442.25362039,-9132038.0,302589664.8979441,6264.0,4626246.919071733,3881.0,-1639228.9388945822,10145.0,-9702733.557285352,-961868.0,-978365.8499999999,972013.0,4736790.649868593,-965749.0,-977143.7999999998
1504,1241,2,106308000.0,-231580912.43895924,29369000.0,-377782152.0587663,76939000.0,298587978.1113861,15630000.0,30292676.695879143,0.0,1659011.2872248748,15630000.0,17099380.15930171,-23899000.0,-7779299.999999997,39529000.0,27512302.650623262,-23899000.0,-7802399.999999998
1347,1518,0,369031000.0,1234487311.1897001,216722530.1814524,283057983.32681155,188777000.0,1639481128.6311321,45044000.0,58969397.162123516,42173000.0,56589512.08574488,87217000.0,104347326.82106724,-3804000.0,3300750.0000000023,48848000.0,56258242.57244712,-3804000.0,1882750.0
1492,872,1,327784000.0,-119189712.9672361,323919000.0,-57209051.77251828,3865000.0,396417995.17207915,33496000.0,40476349.44108707,8201000.0,9259476.976051532,41697000.0,32597766.52723458,-4913000.0,-15443550.0,37287000.0,41630921.26339373,-3791000.0,-8146300.0
1107,1504,4,85658000000.0,66509355038.35773,88335000000.0,91576673806.3484,-2772000000.0,3751265337.521794,5387000000.0,5062976690.273539,14002000000.0,12897541361.144642,16935000000.0,15590459935.851276,1165000000.0,1109049999.9999998,4222000000.0,3955517130.1309505,1165000000.0,1097049999.9999998
1336,431,2,898860000.0,407958728.4345958,527877640.3036609,102963349.27199948,360528000.0,434650158.5513041,68259000.0,99266676.69587915,42065000.0,48632309.917265266,110324000.0,129482947.30297287,-1325000.0,8381449.999999994,69584000.0,74645722.76964983,-1325000.0,9168249.999999996
599,1357,1,50546000.0,-425553558.2984634,5959000.0,-306177401.70640385,44587000.0,313311297.8027071,1989000.0,12125921.217227798,1909000.0,4138283.3243475566,3898000.0,2218350.7660066076,-1895000.0,-1415599.999999998,3884000.0,8678464.850612765,-1895000.0,-1234399.9999999986
117,630,3,939056000.0,450772853.31861067,419590000.0,-59332820.22543919,517473000.0,830705614.849018,90527000.0,118626123.51971301,120216000.0,114710691.8217082,210268000.0,222493876.38637108,61012000.0,74077299.99999999,29515000.0,38097371.413970456,61012000.0,74159399.99999999
1825,1520,3,20027115000.0,16181142034.304773,12952737000.0,10107816816.828728,5611108000.0,3837948040.0854015,32786000.0,42418123.51971301,283742000.0,267201255.13460535,316528000.0,300935113.59760684,-1347477000.0,-207894449.99999994,1910658000.0,786624704.1826777,-1877872000.0,-766657650.0
1507,300,3,124094000.0,-18549549.53400588,18130000.0,-410116328.8252696,105964000.0,443252490.4937764,830000.0,10266771.6193141,0.0,-932181.0957171596,830000.0,-4135359.4021640103,-5787000.0,-6930999.999999996,6617000.0,10640882.273038138,-5787000.0,-6509699.999999998
321,587,1,68675000.0,-375096612.246524,40331082.646745786,-270698737.076533,53645000.0,341208485.2899816,10938000.0,20874373.74608208,6604000.0,7311875.583532819,17542000.0,14078166.527234579,880000.0,896918.6440677966,10058000.0,15330450.762044271,880000.0,857871.186440678
1482,433,0,1833700000.0,2501589465.5311456,811331929.4597701,910896320.596107,482900000.0,1728041400.7204206,110200000.0,122828512.34810123,356000000.0,360038312.0759897,466200000.0,475429401.81713307,45700000.0,62284999.999999985,55600000.0,59779367.56974341,54600000.0,64404999.999999985
508,1187,1,62515472.0,-434839149.4297944,29595817.732691668,-312944098.2498709,21861273.0,314576713.7573133,7032458.0,16783381.42353763,11256239.0,12608656.569509674,18288697.0,15866618.866006609,-1564350.0,-1648154.4499999997,8596808.0,13179783.258289032,-1564350.0,-1574733.8499999999
1411,610,3,33859785.0,-165262832.18856436,6178818.0,-420405528.7812103,27680967.0,368657410.4492305,-63384.0,8464570.971579045,87873.0,-424211.2296326924,24489.0,-4017561.938445319,-2675666.0,-2640990.1500000022,2612282.0,6175875.537788061,-2675666.0,-2621346.7500000014
718,1603,3,770792000.0,646596898.4683142,581187000.0,88934538.10420108,188503000.0,741451948.2158936,456709000.0,470987771.6193141,0.0,1240691.7748104958,456709000.0,450569480.81233543,-29756000.0,-26354050.000000004,486465000.0,466215355.99223334,-29756000.0,-25471050.0
1865,1457,1,4753100000.0,2179501372.977845,2691038000.0,1387110399.547019,2062062000.0,1242124576.1508565,383135000.0,378166468.68268955,0.0,2240063.535704777,383135000.0,365444850.7660066,126771000.0,38459900.00000004,256364000.0,309519096.19424796,126771000.0,41717200.00000002
710,1426,2,9330700000.0,5781849224.516613,4987700000.0,2807768689.594145,4343000000.0,2650704772.1462564,590200000.0,621200406.9342067,367100000.0,389516794.48396,444000000.0,493272447.30297285,121300000.0,105890000.0,468900000.0,485975382.46895266,121300000.0,101550000.0
285,985,3,1797231000.0,1367258233.209905,1568932000.0,1113040282.5111313,228299000.0,713495693.3682408,143030000.0,146106123.519713,0.0,1267682.6857495317,143030000.0,134239095.30784202,-113543000.0,-124474949.99999997,256573000.0,257017741.28305638,-113543000.0,-123031049.99999999
1609,179,4,90048000.0,266491322.14307186,45436321.63528667,-45948725.282933556,37547000.0,452553611.23339903,2482000.0,6960230.285253855,9262000.0,6174060.355609667,11744000.0,948535.1245650556,1360000.0,-157749.99999999895,2815000.0,6563643.763326202,-333000.0,-382799.99999999907
1814,1095,3,190817000.0,24666837.36681074,91955000.0,-368948820.2254392,118567925.39840196,491778146.3267199,16838000.0,24984771.6193141,21962000.0,20318009.76626979,38800000.0,33695039.57229915,3292000.0,4053450.000000001,13546000.0,15508262.48331325,3292000.0,3894650.0000000005
720,50,3,24930824.0,-140744805.54157144,6278564.0,-415419692.2254392,18652260.0,446437890.7169978,7866761.0,14179531.6193141,20382092.0,14687542.26899598,28248853.0,17464359.159967985,1448213.0,1186396.4000000008,6418548.0,7829225.695880206,1448213.0,1253934.6000000006
1707,149,4,6071000000.0,6513152092.464468,14261000000.0,14387472954.394678,-8190000000.0,450694168.6157217,1287000000.0,1329184794.3386533,421000000.0,412658991.21349174,1708000000.0,1717660743.2070057,613000000.0,559150000.0,1095000000.0,1097094193.128837,192000000.0,151600000.0
485,1443,0,5768300000.0,5392206674.897072,3017800000.0,3120431425.1855674,2739100000.0,2023187455.8774838,487400000.0,501978472.8073013,888400000.0,884559486.5845346,1375800000.0,1376330965.573727,276300000.0,273839999.9999999,211100000.0,207757334.5469174,276300000.0,277739999.99999994
1364,1252,1,3486179000.0,3007905173.6861367,1927467000.0,1543119646.9920826,1501742000.0,1293332216.2183387,315111000.0,340700873.1166922,669472000.0,661117076.8550469,949217000.0,948441850.7660066,-24190000.0,128728199.99999999,194277000.0,195283394.31032044,120834000.0,130254900.0
1943,1464,4,496042000.0,707208103.788086,349488000.0,343118512.3457241,146554000.0,617051544.245782,33924000.0,44272852.489518754,212763000.0,220591099.79307976,246687000.0,247875663.11467972,12448000.0,15298699.999999994,21476000.0,25940728.853563905,12448000.0,15428699.999999996
708,512,1,1713800000.0,1084977409.5028768,864747334.9608463,582756686.4189451,585500000.0,869549215.9835122,141400000.0,134595313.03196964,205900000.0,202841433.6642868,347300000.0,322603050.7660066,100200000.0,82115000.0,64600000.0,66427763.9458862,76800000.0,60000000.0
1795,256,2,5817000.0,-391471074.79049146,1413000.0,-413150227.79667336,5436000.0,189729257.71501046,5000.0,16055518.898572193,0.0,1765886.3821153091,5000.0,2118280.1593017094,-3525000.0,-2510000.0,3530000.0,7042102.891918117,-3525000.0,-2353350.0
1196,860,3,4180537.0,-132503133.8702215,13379601.0,-398548220.2254392,-9199064.0,350812177.51181525,1107842.0,9933743.6193141,974711.0,931846.3609435312,2069845.0,-514360.5722271418,-2577294.0,-1755517.0999999992,3685136.0,6577466.404649091,-2577294.0,-1738518.8999999994
1785,368,0,6656000000.0,6343049115.770202,2127000000.0,2233099495.5627055,4529000000.0,2347666661.4559455,386000000.0,407778472.8073013,110000000.0,113876333.65301509,496000000.0,523034548.5328071,-53000000.0,-60699999.99999997,439000000.0,459503641.08149344,-53000000.0,-62899999.999999985
1117,1482,1,191593000.0,-259501420.78389567,250675000.0,-106552842.49358028,89973054.63642293,388444215.15693796,28173000.0,31943389.187292904,35245000.0,39617329.67873633,63418000.0,56839050.766006604,-6852000.0,-14269449.999999998,35025000.0,41525835.57861298,-6852000.0,-14242850.0
611,528,0,69753000.0,921863975.771819,24624000.0,190576063.99693325,45129000.0,1608385629.0649385,4333000.0,7409472.8073013015,3937000.0,18093422.085494302,8270000.0,12231848.811097462,-17948000.0,-25064500.0,22281000.0,32144654.808421824,-17948000.0,-25365900.0
1037,1096,2,12798100000.0,10949571938.860498,7698700000.0,8127153898.695864,5099400000.0,4055207745.758264,578600000.0,606700406.9342067,1141600000.0,1160862796.2999077,1720200000.0,1756592447.3029728,210200000.0,121779999.99999999,368400000.0,360968278.57166904,210200000.0,234469999.99999994
1049,1368,0,41718000.0,908823970.7011458,16883000.0,64854312.713677764,24835000.0,1599049624.686137,4472000.0,10271472.807301302,-7000.0,9189429.150644222,4465000.0,10125299.658610128,467000.0,195100.00000000017,4005000.0,9327322.915169904,467000.0,187100.00000000012
181,192,1,2175066000.0,1377262225.0205698,720018000.0,152647745.29473656,1455048000.0,847482831.8670225,262895000.0,270227618.5327603,0.0,-177237.17188567016,262895000.0,252619250.76600662,-74357000.0,-44354299.99999999,337252000.0,299704306.98615444,-74357000.0,-45786299.99999999
1530,1427,1,432444000.0,-53110267.52916896,58115000.0,-243243834.16931283,374329000.0,429397679.37949955,30953000.0,40563396.27387171,9019000.0,10170293.533843953,39972000.0,36341150.766006604,-4508000.0,-6405999.999999997,35461000.0,39780835.515059896,-4508000.0,-6105499.999999998
1172,703,0,1951144000.0,2719831373.6796,976648000.0,1090708399.1607938,828149000.0,1797918519.3918726,81471000.0,28269512.34810123,811299000.0,857464562.7991014,892770000.0,874224449.8161398,21174000.0,-46965000.0,35340000.0,37613732.552381314,46131000.0,-14165900.000000004
1844,177,1,5184000.0,-497375361.791604,33317000.0,-300544264.40670854,2568262.933576247,259614250.5766508,28000.0,9101953.804166567,1138000.0,2700269.1904755053,1166000.0,-2727033.472765421,-1174000.0,-1504899.9999999995,1202000.0,6689486.716104556,-1174000.0,-1579499.9999999995
937,1211,2,30042800000.0,24966056081.80516,15158963259.867964,13935799505.081087,10331300000.0,6474284947.672807,1541600000.0,1517695676.6958792,2284300000.0,2223661669.5788503,3825900000.0,3714522447.302973,727800000.0,689279999.9999998,402100000.0,390900649.1423085,1139500000.0,1091389999.9999998
1319,819,4,3143366000.0,2835075410.30888,724791000.0,666009965.4697953,1686216654.8151803,1096038839.5497646,293240000.0,166797473.53296533,0.0,-2416180.3922815006,293240000.0,155833664.06666368,242794000.0,117714800.0,50446000.0,52711572.449039996,242794000.0,116692200.0
785,508,0,2558318838.0,2925027590.794775,289865031.0,385490751.2050718,2268453807.0,1973693511.854462,191440633.0,198861511.8073013,384407857.0,392345072.13367766,575848490.0,585076077.9412501,122416529.0,121754810.34999996,69024104.0,69188589.6933209,122416529.0,123158684.44999999
534,742,1,355784000.0,41133144.32443929,359982000.0,28737179.93745196,21035000.0,491360695.3076794,21274000.0,30448678.699776065,23247000.0,23549807.81018266,43857000.0,41691766.52723458,-2501000.0,-4073999.9999999995,23775000.0,32768100.74519302,-2501000.0,-4694000.0
1073,970,3,107571000000.0,95978272708.87311,49865975585.04998,48551496937.775734,57705024414.95002,28627520381.630028,4680000000.0,4236956123.519713,16059000000.0,14188192045.525406,20739000000.0,18594741117.367107,2233000000.0,1898649999.9999998,234000000.0,255330449.58714867,4446000000.0,1994000000.0000024
871,1115,3,357016000.0,176152103.82209986,134021000.0,-294821820.2254392,222995000.0,516880048.1192539,10859000.0,18456771.6193141,60424000.0,57818748.15961793,71283000.0,63474280.250884496,4410000.0,2412299.9999999986,6449000.0,9799123.935417194,4410000.0,2576699.999999999
145,1561,3,10492900000.0,8955952293.611961,4642648635.342979,4101269052.2324476,7724300000.0,3190889936.491824,1077000000.0,1231656123.519713,2546000000.0,2695287336.6820536,3623000000.0,3924745426.274757,389500000.0,513735000.00000006,626900000.0,643195707.0801253,450100000.0,574329999.9999999
1137,1231,2,221167000.0,-134683214.0759405,272405000.0,-223995152.0587663,-51238000.0,351657900.11625135,26384000.0,40919676.69587915,0.0,2372627.091728044,26384000.0,25998280.15930171,3123000.0,-4953950.0000000065,23261000.0,34895937.63067673,3123000.0,-5291845.000000003
1853,1087,1,644700000.0,202503459.0997612,668700000.0,413214780.7022587,-24000000.0,513155060.9210254,11300000.0,39085002.582741536,30400000.0,57422384.925315276,40500000.0,41303050.766006604,-2900000.0,11514999.999999989,9300000.0,13866019.848191183,2000000.0,17749999.999999993
1607,435,3,5733000000.0,4372986487.943933,4386600000.0,3656196921.0753975,1332700000.0,1651918342.6038814,508800000.0,513956123.519713,1740100000.0,1718467654.0151608,2248900000.0,2229942032.645707,201100000.0,190190000.0,328200000.0,326028199.64788204,180600000.0,174075000.0
497,361,2,3187469000.0,2189235861.999018,1581882073.387936,1014572015.3979198,1402929000.0,756588699.2653356,12023000.0,9166244.174829636,118303000.0,124989969.57885043,130326000.0,120372200.8428501,121116000.0,100211249.99999999,236940000.0,239585207.66259477,-224917000.0,-236893899.99999997
1789,988,0,160962000.0,1031731897.8225592,136871000.0,213046923.72504318,14091000.0,1612052738.951869,33234000.0,40444397.162123516,28516000.0,42443792.32850504,61750000.0,74087314.69054146,-4105000.0,-11233800.0,29699000.0,41330543.89180993,3535000.0,-284085.00000000256
1733,155,3,1070082000.0,689093677.73247,790095000.0,389280788.7048249,279987000.0,703401505.6983846,59499000.0,67911123.51971301,92514000.0,86919109.17343628,152013000.0,143841462.90323204,-6147000.0,-8271649.999999996,65646000.0,68574008.50522447,-6147000.0,-7847949.999999998
1735,42,1,55335000.0,-351849674.004122,11648000.0,-294413150.43971556,43687000.0,364585874.8927982,13874000.0,22220745.088335954,0.0,2920386.1642136183,13874000.0,8752466.527234579,364000.0,-782599.9999999964,13510000.0,17870543.221462335,364000.0,-745649.9999999998
1273,370,3,8855100000.0,5954057179.944134,4468096700.788768,3080507181.5320334,3543300000.0,1828918905.5853217,468100000.0,433456123.519713,2041800000.0,1974973614.377824,2509900000.0,2379508855.432901,256500000.0,202494999.99999994,211600000.0,188959845.3789985,256500000.0,212904999.99999994
226,1510,3,1045317000.0,746534145.9616284,491551000.0,59111997.67453271,553766000.0,528878992.10619104,49476000.0,55877123.51971301,27012000.0,29049074.293862544,76488000.0,72509101.16960426,5569000.0,1688300.0000000005,43907000.0,47543531.22472906,5569000.0,1667000.0000000002
856,682,1,3335011000.0,2242635261.8728676,1532336000.0,1198124454.0464373,1376443773.6613572,1236640027.2732816,158805000.0,153910652.34205273,458734000.0,498233289.7851584,617539000.0,632693450.7660066,82276000.0,56801800.00000001,26748000.0,33936267.634497635,132057000.0,108202950.0
610,1489,4,50788000000.0,44637801743.45925,23543456582.29001,22706782291.028873,11845000000.0,6497101207.514729,1286000000.0,1339292769.4795752,484000000.0,475046828.48163927,1770000000.0,1735956297.35091,994000000.0,989999999.9999999,146000000.0,166431151.4619433,1140000000.0,1104149999.9999998
434,1542,2,9209798000.0,6770673776.311845,3242862000.0,2665501710.6246996,3654836000.0,1973795897.3331642,758604000.0,639593676.6958791,-63000.0,3353930.7701934436,758541000.0,617468447.3029729,306700000.0,204138450.0,451904000.0,411710348.7872433,306700000.0,199659250.0
1765,981,2,3861516000.0,3274258478.2032447,3060094000.0,2334923847.9412336,801422000.0,1118511306.1795907,246503000.0,380654518.8985722,543454000.0,499354348.8758083,789957000.0,839683280.1593018,-286586000.0,-168529150.0,130761000.0,148013367.29640672,115742000.0,192943049.99999994
667,231,2,3117800000.0,2807297533.2006497,2444800000.0,2157786847.9412336,673000000.0,900613765.4022471,86700000.0,144695676.69587913,411500000.0,542692796.2999077,498200000.0,670312447.3029729,-419900000.0,25149999.99999998,63400000.0,74339043.47637773,23300000.0,59119999.999999985
1194,1588,3,84073.0,-249053819.10834056,2814055.0,-420965671.8812384,-2729982.0,280939954.4440692,0.0,8491832.971579045,0.0,588464.3346365622,0.0,-2263283.6962844487,-647078.0,-780284.0999999989,647078.0,3638606.857872576,-647078.0,-651956.2999999993
626,281,2,250689000.0,9889367.08085239,83024000.0,-324975152.0587663,167665000.0,344520197.5050945,0.0,16195676.695879143,33193000.0,32792727.091728043,33193000.0,32475280.15930171,-43672000.0,-39677749.99999999,43672000.0,44162296.85952911,-43672000.0,-39535049.99999999
1654,95,3,2267553000.0,1829578689.9141154,1375272000.0,983358773.911301,519294000.0,915393489.4971976,30179000.0,34597123.51971301,36686000.0,42148249.89219692,66865000.0,76461332.7114447,-15417000.0,-1651399.9999999627,38864000.0,38431449.3374373,-8685000.0,-672499.9999999665
288,1008,0,2221575000.0,2725936090.3087053,1034139000.0,1137353803.1197398,1187436000.0,1832158826.9535182,131964000.0,140221472.8073013,106311000.0,121057518.04616407,188755000.0,203527424.76092413,3712000.0,606100.000000013,128252000.0,132886172.8244608,3712000.0,3677200.000000008
1665,605,3,555271000.0,471843401.62844664,273881000.0,-76290436.60238945,281390000.0,687369130.9515566,77610000.0,81172123.51971301,73228000.0,70357637.94295114,150838000.0,143720939.83149692,6400000.0,-47081400.0,144438000.0,199896830.55806744,-66828000.0,-127743800.0
652,935,3,1810200000.0,1276270449.9638276,1334200000.0,847669433.7052164,472000000.0,748739647.6128874,111400000.0,-287843876.480287,439000000.0,823477418.3942962,550400000.0,570130049.3656244,53300000.0,53625769.23076923,43800000.0,46248367.28437937,67600000.0,-215720243.902439
1078,46,2,339972000.0,-161486684.9782225,145992000.0,-351215289.3753005,193980000.0,456092056.1591946,800000.0,21958676.695879143,85000.0,2905527.091728044,885000.0,6851347.302972868,-35502000.0,-42327650.0,45899000.0,63732800.29505534,-45099000.0,-52305150.0
778,1331,2,992330000.0,346680396.1030782,401273000.0,-106887289.37530053,544681000.0,775862670.4967744,417282000.0,430051406.9342067,0.0,2461669.578850431,417282000.0,407738247.30297285,5536000.0,6335099.999999994,411746000.0,393634924.22278583,5536000.0,6361599.999999996
29,1129,4,600271000.0,755787778.7913201,137438000.0,72862915.35758787,462833000.0,591647942.0763482,73869000.0,82468523.4141809,24421000.0,21704971.956868008,98290000.0,86736344.05108963,-8089000.0,-4882450.000000001,81958000.0,82677842.48507226,-8089000.0,-4718650.0
854,464,4,47193000.0,202804784.08081818,31000000.0,-51560977.11155254,16193000.0,412842315.5189312,4954000.0,9638573.576023424,3898000.0,2374224.9576771953,8852000.0,-2754831.3029097673,-615000.0,-2059199.9999999993,5569000.0,10253408.71875304,-615000.0,-1996799.9999999995
1423,1344,4,150549000.0,455805847.1654153,163792000.0,139558871.9231878,16674000.0,501554087.9996098,28323000.0,14859484.238064056,6429000.0,6346852.7627643645,34752000.0,3536755.612866331,-13758000.0,-52326949.99999999,21733000.0,29520983.373036206,6590000.0,-15801750.000000002
1406,183,0,62996000.0,901355185.3597593,12638000.0,58024920.523504116,50358000.0,1601835179.1220286,9919000.0,14971472.807301302,5920000.0,14243319.747102384,13543000.0,17930493.84526986,1979000.0,1405650.0,7940000.0,12495199.923145398,1979000.0,1498350.0
1624,411,2,56415000000.0,53359024898.02563,26707757359.48695,26909515277.910786,20622000000.0,11634319667.919064,4258000000.0,4251195676.695879,2744000000.0,2762572796.2999077,7002000000.0,6972232447.302973,471000000.0,535049999.9999999,1302000000.0,1252350903.9000745,2956000000.0,2974399999.9999995
926,211,2,572995000.0,218066141.87164444,271264937.13018215,-176998212.3113328,210105000.0,570463799.7235978,-46109000.0,247716406.93420675,111142000.0,99419996.29990764,65033000.0,311474047.30297285,53448000.0,48947849.999999985,184993000.0,179641775.0032436,-231102000.0,1554599.9999999935
1324,186,2,11156646.0,-393597098.341794,14063458.0,-415653630.3992632,-2906812.0,165150666.75125265,-483256.0,15470634.898572193,692752.0,1407674.095881862,209496.0,2133561.0593017093,-2378023.0,-3844852.05,1407493.0,6449195.464013892,-1890749.0,-1814816.0999999999
809,491,2,746651000.0,394066786.92111194,563281000.0,106007772.20332664,350347808.70326334,494930716.5599306,20268000.0,32429518.89857219,132273000.0,194864832.58614108,152541000.0,212049780.1593017,1482000.0,-2127250.000000005,18377000.0,25023482.0904624,1891000.0,-1602799.9999999972
492,346,2,203605000.0,-166935800.3386764,164863000.0,-245398152.0587663,38742000.0,309600151.92453724,38308000.0,55889676.69587915,13284000.0,12602975.000991428,51592000.0,53257047.30297287,8585000.0,4635299.999999998,22801000.0,29360624.94802054,15507000.0,14740650.0
383,831,2,35610551.0,-403245027.3111155,44852933.0,-411076910.5600811,-9242382.0,204288659.54178432,3037874.0,19812968.695879143,5691278.0,7893147.082115309,8729152.0,11591272.65930171,-7028283.0,-7510899.899999999,15757435.0,21182410.85876824,-12719561.0,-13672031.799999997
1250,12,2,4596600000.0,4121640851.952553,2319347415.031524,1940142344.1374674,3466600000.0,2315048886.268099,2555100000.0,1724200406.9342067,3033000000.0,2116677921.205017,5588100000.0,3897912447.302973,1174900000.0,706005000.0000002,1380200000.0,946332117.223569,1174900000.0,745495000.0000001
229,649,4,3802385000.0,3767823473.9732323,2636965000.0,2704333323.3121347,1165420000.0,1264392100.9073117,157645000.0,143155512.3551261,488142000.0,459534034.0760354,645787000.0,588919196.5292916,66824000.0,41486099.999999985,83253000.0,86454204.7972231,74392000.0,51957499.99999999
1531,264,4,12852000.0,155713421.62394762,5815000.0,-82176229.26959711,7037000.0,378589678.95917934,1838000.0,6299452.798619503,1427000.0,569898.3611054178,400000.0,-7124514.300373379,-1116000.0,-1404850.0,2954000.0,7105089.574762011,-1116000.0,-1366950.0
1035,1424,4,11747000000.0,10868094190.535837,7158000000.0,7054706001.186679,4503000000.0,3599606176.158401,770000000.0,774780996.6103175,1424000000.0,1460235307.1474438,2194000000.0,2211720562.078503,154000000.0,215099999.99999917,2040000000.0,2187938441.7748294,-1270000000.0,-1234800000.0000002
1774,1335,3,7236206.0,-219109909.0300539,4913744.0,-421717765.3254673,2190428.0,285787096.2509881,634746.0,9093994.6193141,2326079.0,1094374.7442413853,2960825.0,-1606664.2965867994,-234151.0,-345340.9999999999,886442.0,3996133.639466553,-251696.0,-391529.6
868,1093,0,6411000000.0,6240885659.700825,3370100000.0,3981147731.6847215,3176144611.7201624,2142273374.3591797,371800000.0,405278472.8073013,637000000.0,693368539.9409528,1008800000.0,1094735593.5548735,180100000.0,199204999.99999994,166200000.0,169448246.40519562,205600000.0,227334999.99999997
1391,1232,1,345836000.0,-156181532.29659498,48837000.0,-255038384.3896743,296999000.0,447367337.72342366,3870000.0,1822449.1845254954,113328000.0,93459140.21325682,116752000.0,85026666.52723458,297000.0,-2700849.999999998,3573000.0,8515119.270784337,297000.0,-5993150.0
1734,577,1,20108000.0,-487759794.979273,9068000.0,-324081888.36842525,11040000.0,217628510.3347909,3847000.0,11911383.07734137,661000.0,2659783.3243475566,4508000.0,636550.7660066076,-4126000.0,-5318649.999999998,7973000.0,12192106.07576149,-4126000.0,-5197749.999999999
1416,1268,0,1564856000.0,2190945150.909417,1122858000.0,1188267722.3230593,416354000.0,1671363150.7680595,276207000.0,277991357.6213236,-11227000.0,1156581.269528903,264980000.0,264615786.09284177,5657000.0,2285049.999999999,270550000.0,262057474.52564928,5657000.0,3078749.999999999
352,288,0,1125373000.0,2198002989.012929,521681703.6382896,788410586.5189445,29987000.0,1606246055.947115,142411000.0,131959472.8073013,-42080000.0,-37017919.58849078,100331000.0,97822829.34250787,17283000.0,9543000.00000006,125128000.0,129516867.77512115,17283000.0,8515100.000000037
135,561,2,630871000.0,216744434.7604432,398464000.0,-61805289.37530053,232407000.0,466472412.25534356,80823000.0,76905406.93420675,413091000.0,279733030.77019346,493914000.0,336999347.30297285,-14453000.0,-1918150.0000000093,95276000.0,65309076.22666821,-14453000.0,-1678550.0000000056
1338,659,4,123668000.0,312913735.72579455,40963000.0,-27782339.379676342,50285000.0,460372891.09337455,29188000.0,39579553.51405084,11108000.0,11080113.97188762,40296000.0,36507548.98416411,-25553000.0,-11557950.000000007,35508000.0,34456734.53991758,-6320000.0,3562699.999999996
1076,444,4,34865437.0,148214130.74257797,19085704.0,-85446352.76877564,15779733.0,387678772.1863461,0.0,5189903.464491805,1198.0,-342728.30952924443,1198.0,427808.52438962087,-6520186.0,-5898829.4,6520186.0,9990196.076619344,-6520186.0,-5949032.8
1426,1104,4,1275550000.0,1150855821.601505,1504271000.0,1241265255.0981655,-228721000.0,565107697.1804101,-35238000.0,-30127690.069999844,59168000.0,43083843.69888517,23930000.0,15247286.777298568,6621000.0,13072850.0,102745000.0,94699010.35584052,-137983000.0,-99931349.99999997
2023,1321,2,151712000.0,-279397871.2008925,195428000.0,-301447556.5600811,28605000.0,295092549.25645167,11588000.0,21007676.695879143,43977000.0,32817986.38211531,55565000.0,37636880.15930171,-8864000.0,-10664049.999999996,20452000.0,20234487.33116284,-8864000.0,-10653449.999999998
1219,102,1,1812825000.0,1334622755.9075449,1134969000.0,890189341.4164665,677856000.0,817504026.9385656,53184000.0,72022395.75456934,120142000.0,127662094.79511155,173326000.0,186195350.76600662,31929000.0,27410400.0,16945000.0,27146075.629743785,36239000.0,36276550.0
201,633,0,-1450776000.0,1493741141.3754091,-894261000.0,369033235.0395264,-556515000.0,1705723503.4765112,162740000.0,174089357.6213236,213058000.0,331805121.73219013,375798000.0,570422897.279654,-31210000.0,-44402650.00000006,193950000.0,332903116.4092897,-31210000.0,-40206350.00000004
580,782,1,526507000.0,82353017.42574441,370554000.0,69519044.76033401,155953000.0,573129701.7486527,66328000.0,76594799.5126479,107226000.0,117671599.29394327,173554000.0,177463450.76600662,-7923000.0,-4937800.000000004,69543000.0,74700963.57311484,-3215000.0,-1895000.0000000019
268,1214,4,3089123000.0,2496737527.3496575,1300561000.0,1115288962.5427988,1788562000.0,1418775715.1827466,286131000.0,316010782.6807417,850247000.0,837169806.5599351,1136378000.0,1133826062.4891737,205227000.0,209963749.99999997,1010678000.0,980452384.2314303,-724547000.0,-677435100.0
484,1597,4,2026392000.0,1900894602.5957599,773709000.0,405256939.4735118,1259138837.126244,970582361.4210463,36270000.0,50554325.33860184,906000.0,1513210.8486962458,37176000.0,32019347.76169002,-286393000.0,-215493000.0000001,341823000.0,333580908.23417425,-305553000.0,-252079800.00000012
1169,141,2,59798486.0,-373213436.1031807,24561228.0,-422299174.0415984,24680354.49630476,218017341.7916964,-143441.0,16003193.695879143,231837.0,2138210.982115309,88396.0,2218088.3593017096,-6239976.0,-6126269.399999999,6096535.0,10784117.416091608,-6239976.0,-6173106.0
595,745,3,269960000.0,62995183.387006044,370356000.0,-54406328.82526958,-100396000.0,399239791.0623076,29296000.0,35874771.619314104,911000.0,2129630.652524394,30207000.0,26535631.001710758,-31260000.0,-29967800.0,67269000.0,69607401.73240338,-37973000.0,-40105550.0
1664,134,4,1411497000.0,1427404365.8596168,713457000.0,650621334.5406051,667698000.0,790408440.4495456,123110000.0,126351547.51924865,21917000.0,22534537.0677263,145027000.0,125792538.03132421,16171000.0,14331849.999999994,124278000.0,123532079.90880352,-1168000.0,-3308849.9999999977
1737,1476,2,1068388000.0,547899491.0152167,793168000.0,232327847.9412337,275220000.0,533273785.6361667,1125000.0,47235406.934206754,126961000.0,81186748.72592226,114574000.0,98957980.15930171,-123332000.0,-80039900.0,124457000.0,113357744.84380162,-123332000.0,-80201700.0
1105,754,4,736494000.0,740610596.1155634,390655000.0,308345781.231293,345839000.0,610617254.9772742,107458000.0,107586632.75513288,77264000.0,74308973.25103159,184722000.0,165417887.0485634,-21496000.0,-33205199.999999996,128954000.0,133176857.54856758,-21496000.0,-31223700.0
366,1105,3,1026034000.0,756616379.4320596,544592518.5648394,55757551.90367067,829659000.0,987160771.653849,179923000.0,195520123.519713,-1664000.0,-677168.2135054255,178259000.0,181815660.7069721,43073000.0,45965999.99999999,136850000.0,140751974.48174948,43073000.0,46441799.99999999
847,1594,2,2995900000.0,2240558438.5335054,1720300000.0,1381786847.9412336,1275600000.0,870663580.9905969,234800000.0,237250518.8985722,244100000.0,240119632.58614108,478900000.0,466755180.1593017,25200000.0,39965000.000000015,209600000.0,202468794.1699006,25200000.0,36209000.00000001
1604,937,1,700529000.0,213047565.7795298,363632000.0,70207362.27114797,335762000.0,457956018.3638856,46249000.0,53691060.18320641,72678000.0,65994472.972862095,118927000.0,106702966.52723458,-13197000.0,-25343799.999999996,59446000.0,73750520.86904943,-13197000.0,-26170400.0
579,168,0,5913288000.0,6608687490.522307,5639252000.0,6534037301.558458,274036000.0,1745167290.232988,470311000.0,488923357.6213236,1040995000.0,980939977.697543,1511306000.0,1473211166.6691868,65962000.0,69984750.00000004,404349000.0,410804870.13814116,65962000.0,71193250.00000003
874,482,1,232365000.0,-155596480.70716703,164743000.0,-156904247.87033725,67622000.0,523970015.87374294,43176000.0,39557673.68466021,202053000.0,144367008.35161588,245229000.0,169012555.96615312,9035000.0,5638950.000000003,31930000.0,26904371.39385097,11246000.0,7041000.000000002
193,38,0,24556000.0,833308205.6382464,5997000.0,22658744.682792827,18559000.0,1596916410.5106206,-561000.0,5428472.8073013015,1648000.0,9654619.629381146,1087000.0,4647521.651610639,-8770000.0,-5207100.000000002,3225000.0,7056080.2166944,-3786000.0,-2363300.000000001
680,820,3,7852974.0,-186007633.20894015,8726749.0,-415183658.7812103,-873775.0,317718432.19566596,1562860.0,9623200.971579045,0.0,-324955.1993968482,1562860.0,-3488997.085251023,-1603437.0,-1883501.9,3166297.0,5998376.761163961,-1603437.0,-1846432.9
702,1325,3,52606000.0,-116385769.66758794,31088000.0,-385994820.2254392,21518000.0,379113482.75257206,2202000.0,9641771.6193141,21569000.0,17387088.993185338,23771000.0,13713720.7034132,-1737000.0,-2613450.0,2889000.0,6656800.95770812,-687000.0,-2031100.0000000005
499,967,1,641605000.0,124571989.23089397,98505000.0,-207208007.61556113,543100000.0,559108701.4922905,35752000.0,53387855.15049726,3063000.0,4754829.793189387,38815000.0,45225250.766006604,-5995000.0,-1310499.999999999,24767000.0,33828200.2511622,10985000.0,16026600.000000002
277,961,2,428119000.0,292771853.6654382,200385000.0,-81900152.0587663,227734000.0,493923327.3049222,32734000.0,52711676.69587915,3693000.0,6413127.091728045,36427000.0,45820169.939492345,-31432000.0,-36724499.99999999,67859000.0,88489977.14800297,-35125000.0,-41066050.0
1540,700,3,1748597000.0,1428484169.3249552,773677579.6790999,331209644.10449135,871968000.0,1022036917.3770182,88936000.0,98011123.51971301,314131000.0,312596840.10231245,403067000.0,399745606.57285875,36520000.0,35430650.0,38806000.0,42107550.74378596,50130000.0,49954449.999999985
40,1512,1,-12646800000.0,-9013560895.706211,-10176700000.0,-9475831193.248034,-2456100000.0,822386826.9036167,244400000.0,274414367.7994491,496400000.0,449504703.2366012,740800000.0,734274355.9661531,16300000.0,-105719999.99999994,228100000.0,358070862.0843348,16300000.0,-110489999.99999997
109,958,0,1646711000.0,2423062275.141388,1388441000.0,1446429014.3564422,258270000.0,1723746226.1085963,48094000.0,52137397.162123516,144654000.0,152608755.6856056,147710000.0,159760536.14110786,-42502000.0,-57801549.999999985,79586000.0,98171390.9186643,-31492000.0,-44788600.0
111,1108,0,632540000.0,1482476510.1709795,270366000.0,265751890.2592566,362174000.0,1673413543.2006824,197077000.0,163504512.34810123,14622000.0,16588430.796764158,211699000.0,168995027.10473734,-57776000.0,-12813399.999999993,97890000.0,97397891.14484116,99187000.0,54303900.0
662,285,3,156269000.0,38402846.9637723,70363000.0,-328541820.2254392,85906000.0,507491974.0763349,19503000.0,28630771.6193141,30881000.0,34173998.13905307,50384000.0,48990452.85561908,3657000.0,4269649.999999999,15846000.0,17862357.42767368,3657000.0,4575849.999999999
1749,1091,2,12875300000.0,11166049444.32878,6095371591.431398,5984817048.09766,1810000000.0,2467660617.158578,1227700000.0,1197695676.6958792,4400600000.0,4500831669.578851,5628300000.0,5686472447.302973,478400000.0,400684999.9999999,749300000.0,760052347.535603,478400000.0,406374999.99999994
340,1347,1,441781000.0,-64680662.640987456,86587000.0,-208433257.71052825,355194000.0,485480975.1156191,97393000.0,106832582.4463846,44971000.0,42671243.628789954,142364000.0,133616366.52723458,9954000.0,5980950.000000002,87439000.0,92078899.86683238,9954000.0,6307850.000000001
811,109,4,1903960000.0,1992817922.3297963,1118147333.3250542,1112807300.07756,464992000.0,748076237.0235589,314173000.0,309464248.9902029,381360000.0,362777051.56308883,695533000.0,658621645.5258477,49703000.0,44598150.00000001,262823000.0,255814541.83461028,51350000.0,46970350.0
1016,567,1,413017000.0,-237060883.50451684,156380700.0672279,-225783647.4363886,290614000.0,376936991.5515565,164000.0,10732996.042349001,0.0,2058156.385379178,164000.0,-2488446.9019363276,-47612000.0,-48386100.0,47776000.0,53943522.76581699,-47612000.0,-49572000.0
1696,268,0,6459000000.0,6184460062.180648,3814000000.0,3966939457.4149895,2645000000.0,2033898355.056763,417000000.0,442136397.1621235,1137000000.0,1175888903.7031755,1554000000.0,1616062784.6884794,109000000.0,149350000.0,308000000.0,241953345.3266953,109000000.0,191299999.99999997
200,763,0,6683800000.0,6294415266.714601,2530688381.1304083,2535926675.1623445,4153111618.869592,2262626491.0860457,363300000.0,384328512.3481012,268000000.0,289425154.21157944,631300000.0,674801726.9290991,83300000.0,76980000.0,257700000.0,271346632.4382459,105600000.0,104075000.0
1994,1188,0,165094000.0,1018949607.0431719,70482000.0,122949529.50965305,94612000.0,1609592329.0446827,17629000.0,22643472.8073013,13074000.0,21308187.584422786,30703000.0,33430799.915364817,1152000.0,-608899.9999999987,16477000.0,21949237.604764227,1152000.0,-417099.9999999992
735,352,1,8604673.0,-476423884.9538032,2338502.0,-314820166.77185273,6266171.0,269883213.2870183,1119391.0,10225120.11220237,1576117.0,2891579.7389330296,2695508.0,-1305835.472765421,23726.0,21146.249999999978,1095665.0,5387142.983052474,23726.0,34217.14999999998
1160,1540,4,30395557000.0,24633612583.83144,16133181687.752192,15224928294.595598,6297705000.0,4273760478.8476753,3044686000.0,2959699026.492213,6751495000.0,6379663558.602162,9796181000.0,9334222929.001245,692314000.0,797565399.9999999,2352372000.0,2168273839.267035,692314000.0,778333799.9999999
2018,841,2,764077821.0,232699609.3731404,149164973.0,-259769748.79667336,540969385.0,460777026.9660335,20737462.0,36603446.69587915,3810639.0,5234046.474824656,24548101.0,25371956.50297287,-1942729.0,-1983990.65,26490830.0,30570563.571140975,-5753368.0,-5643831.399999999
597,1362,1,19932000000.0,17400470326.585167,15924000000.0,16235097823.681934,3938000000.0,2981005135.89263,677000000.0,662727673.0149261,2894000000.0,2958222176.5683,3571000000.0,3601743050.7660065,325000000.0,332600000.0,132000000.0,166124582.96705848,545000000.0,490799999.9999999
1089,365,3,114455000.0,-56721084.49687219,66800000.0,-350878280.7812103,47655000.0,398563970.2988424,-324000.0,8532832.971579045,692000.0,567321.1449782513,368000.0,-2379351.568570951,-4444000.0,-3634599.9999999995,6127000.0,9232746.257245444,-6451000.0,-5984749.999999999
1635,1058,0,123009000000.0,89743062186.70992,61047097858.95223,54932963498.04056,24132000000.0,4977499477.048844,3661000000.0,3185728512.348101,846000000.0,693511532.1225315,4507000000.0,3854692031.7574396,401000000.0,533699999.9999998,5487000000.0,4732886700.354192,-1826000000.0,-1668800000.0
394,898,0,1472222000.0,1917584532.870888,444895000.0,408860979.0931288,1027327000.0,1744568320.1532125,423804000.0,441027472.8073013,0.0,8513512.631061079,423804000.0,433057675.726909,44683000.0,47785749.999999985,379121000.0,371442387.90556484,44683000.0,48888049.999999985
176,1342,1,1707972000.0,866684595.7754246,826699000.0,489048979.6563506,881273000.0,616305336.714849,161237000.0,183696861.9532448,18721000.0,15481516.53634686,179958000.0,185879766.52723458,-38330000.0,14855699.999999987,218288000.0,178675042.78038332,-57051000.0,-889000.0000000065
958,1209,4,140348000.0,352805852.58391064,22627000.0,-40360632.61944324,117721000.0,510558020.1882446,18849000.0,22601461.64762032,19797000.0,16082091.190056896,38646000.0,24390948.98416411,5179000.0,7737900.000000009,24028000.0,29989564.008081414,-5179000.0,-7474800.0
651,1103,0,68862000000.0,59354764197.97783,37281000000.0,38000675440.264,30258000000.0,6280248939.75264,682000000.0,1079778472.8073013,1405000000.0,1123802081.8446994,2087000000.0,1964317130.8024867,938000000.0,1066049999.9999996,2969000000.0,2706557399.746734,-2287000000.0,-1640350000.0000005
648,1099,4,484306000.0,672232874.8849738,160149000.0,116773718.37871754,324110000.0,646857004.464834,35935000.0,45016686.13522592,49919000.0,49825027.248459525,85854000.0,76405282.72236988,8224000.0,11331699.999999998,26558000.0,30535106.82888259,9377000.0,11674049.999999998
1124,928,0,263629355.0,1064278439.0173706,139827658.8984726,186005844.9126503,106790041.0,1610298315.4013574,4718481.0,10248543.807301302,-3354938.0,3979317.031788316,1363543.0,6439077.008954401,2345966.0,1972362.7000000002,2372515.0,7934664.312728768,2345966.0,1934857.5000000002
1983,736,2,22654400000.0,20527844030.66689,10023579681.929111,9975365274.551403,12050300000.0,7051196805.203116,409600000.0,587295676.6958791,3138700000.0,2927721669.5788503,3548300000.0,3590882447.302973,145800000.0,452325000.0000001,119900000.0,135414685.39236432,289700000.0,503240000.0000001
1330,241,2,55695000.0,-219558631.1006518,80300000.0,-305894350.54028356,-24605000.0,259423017.1772049,-33328000.0,11033518.898572193,45694000.0,13864750.095881863,12366000.0,10292680.15930171,-48025000.0,-20528800.0,14697000.0,19782349.829625353,-48025000.0,-20093500.0
445,395,3,33248145.0,-7027462.803788543,21743057.0,-417809546.30390143,11505088.0,357453645.5045682,1461398.0,8491832.971579045,569502.0,26895733.820843734,2030900.0,98924669.6995964,-12979193.0,-2379918.6999999993,15010093.0,5491047.227778831,-13548695.0,-2507882.4999999995
908,1449,4,19900000000.0,13457260470.643597,10348000000.0,7817094001.947742,9552000000.0,4712032642.443758,2649000000.0,2526085279.028465,0.0,696835.579177663,2649000000.0,2610179495.864027,467000000.0,609850000.0,2182000000.0,1978935829.7297187,467000000.0,595150000.0
1585,674,4,2485319000.0,2269781590.3783016,1254039550.5762374,1120422967.0064065,1849463000.0,1188995277.5432816,775144000.0,701728389.9054747,0.0,-54102.58867308183,775144000.0,691233120.8325033,128435000.0,115381999.99999999,646709000.0,571700471.5704103,128435000.0,117493199.99999999
643,1569,0,959084000.0,1753753455.5665154,491986000.0,505994561.4034201,395838334.6316486,1653671441.904975,56609000.0,64859512.34810123,47928000.0,61951858.35676223,104537000.0,116179029.24805267,-22287000.0,-20316000.0,141301000.0,144316855.24294204,-84692000.0,-84672200.0
1240,1570,4,1657157000.0,2443417910.793646,2335507000.0,2704179048.6740437,-678350000.0,1015490393.6722788,-96698000.0,239544763.77048662,98929000.0,91876726.08126806,2231000.0,308691109.2746005,-125632000.0,-45731549.99999997,312618000.0,441890929.67165875,-409316000.0,-210469100.0
64,427,1,1590600000.0,873622215.7098435,748600000.0,377103376.7523326,842000000.0,789233506.7842677,59700000.0,86938349.44108707,141700000.0,150185532.3443763,201400000.0,222803550.76600662,13800000.0,28387150.0,37700000.0,42683421.64951747,22000000.0,37050850.0
1027,658,0,919607000.0,1702989790.0214782,266509000.0,318485712.7548877,653098000.0,1704831991.1082766,68886000.0,71499472.8073013,19532000.0,28635897.641682886,84131000.0,83602483.61512311,-18050000.0,-20210099.999999993,86936000.0,87562503.12726,-18050000.0,-19779499.999999996
1034,320,3,121754701.0,213909031.67526546,28424394.0,-330160415.8812384,93330307.0,427193986.267936,1406469.0,9749378.971579045,-1378985.0,4003008.2950886153,27484.0,-2078438.4893326084,-14928443.0,-211904347.29999992,16334912.0,239453551.82918382,-14928443.0,-239517348.19999993
802,514,4,12973000000.0,11232211605.473673,6013807636.489885,5851436623.9370365,6537000000.0,2460844319.477788,82000000.0,77988567.72593078,545000000.0,562030086.0824623,627000000.0,774395535.2005719,7000000.0,232300000.00000083,46000000.0,48089388.2239571,36000000.0,165700000.0000003
981,945,3,613608000.0,335496920.1714426,391072000.0,-59769178.04463971,222536000.0,566159159.5804847,1437000.0,5687631.844256709,10955000.0,8727814.966368688,12392000.0,4335615.863717166,-84729000.0,-61837700.000000015,40703000.0,41827943.082570866,-39266000.0,-41837299.999999985
1046,867,1,102303000.0,-353756928.1797034,104192000.0,-192147271.25164855,-1889000.0,297699280.43569875,12811000.0,20799192.246762577,42439000.0,44963865.571940474,55250000.0,50586666.52723458,700000.0,-2887200.0,12111000.0,18683890.828570526,700000.0,-2958800.0
581,454,4,1023085000.0,1231167650.7292702,937155000.0,863290009.3595004,85930000.0,653573996.9059529,87759000.0,103513099.19943681,257840000.0,227205550.0745402,345599000.0,316806450.32313895,-36941000.0,-37936349.999999985,111965000.0,117111718.42462727,-24206000.0,-20751149.99999999
1033,472,1,822101000.0,-35278483.542593,260505000.0,-119901010.67244285,561596000.0,438048006.5929192,113425000.0,93436266.09790799,-8261000.0,-5051724.183987208,105164000.0,66810766.52723458,25956000.0,-17402000.000000015,87469000.0,92353889.18861318,25956000.0,-13581600.00000001
1908,1238,0,972779000.0,2078657713.2691195,674585000.0,1218626527.1116326,298194000.0,1649313328.6977103,81122000.0,83664357.62132359,33069000.0,43770743.72867745,114191000.0,118571191.78837629,-12742000.0,-15609550.0,93864000.0,96745535.17407432,-12742000.0,-15613450.0
1486,904,4,505122000.0,647554933.3328362,329765000.0,285671069.2621937,175357000.0,561419655.5555843,66862000.0,75064010.38279441,-15726000.0,-17522070.594312686,51136000.0,41986860.547509454,-8784000.0,7163050.000000005,75646000.0,63107065.40933344,-8784000.0,7398450.000000003
640,990,3,420505000.0,153646314.2503937,230508000.0,-205775002.3254673,189997000.0,524238466.9589624,53603000.0,59355771.619314104,71511000.0,71760703.14133516,125114000.0,116465209.30596954,16734000.0,14442499.999999998,36869000.0,37479245.11085773,16734000.0,14909300.0
1988,706,2,216274000000.0,155636957744.83856,73401000000.0,54458174228.4803,142873000000.0,46187035538.77217,27936000000.0,26071156676.08936,6210000000.0,5838585862.582172,34146000000.0,31576010835.3259,13748000000.0,8664349999.999996,20398000000.0,22133491894.462322,7538000000.0,2922850000.0
469,262,1,122531000000.0,93389013544.19829,74517000000.0,71635043324.05873,57494689417.43809,10997026525.23195,11370000000.0,9968007374.55083,10501000000.0,10664848805.127975,21871000000.0,20511205634.37684,5767000000.0,4222349999.999999,5604000000.0,5544207609.970985,5766000000.0,4213749999.999999
606,1374,4,5723214000.0,4410911773.381536,2776207000.0,2091125560.438498,2947007000.0,2022541912.8914323,448941000.0,496296567.9904314,516900000.0,528831908.74623954,865197000.0,897694904.7145449,78214000.0,94628449.99999994,370727000.0,371933385.59821963,78214000.0,96388149.99999997
1877,1138,0,689227000.0,1152078723.9652827,562767000.0,173274272.09155145,126460000.0,1636826292.694271,40662000.0,42519472.8073013,11086000.0,17749449.317220554,47740000.0,48622872.753973685,-28335000.0,-1433650.000000001,68997000.0,39854207.66630159,-28335000.0,-1315350.0000000005
1148,1255,3,600857000.0,181252124.14863104,331349000.0,-241464857.7812103,269508000.0,538040588.5209497,50595000.0,49909832.971579045,6532000.0,5457391.6909606485,57127000.0,40974851.12311137,-62120000.0,-49254008.60000001,83188000.0,75099489.45929663,-32593000.0,-39288824.099999994
1653,1150,3,56794000.0,-62873264.336678624,12682000.0,-409719820.2254392,44112000.0,414788192.95734674,25087000.0,25490771.6193141,14791000.0,10294725.78769083,39878000.0,24844415.00392454,-4627000.0,-3002750.0000000033,44505000.0,34802344.32009689,-19418000.0,-12551350.000000004
1205,743,0,3747000.0,813287325.4234185,4407000.0,31021798.063996255,-660000.0,1595121190.5927792,-1515000.0,3915357.6213235855,1515000.0,10212796.224599998,0.0,3442246.436291769,-2598000.0,-3446900.0,1083000.0,5641132.496052215,-2598000.0,-3441100.0
1612,891,2,3505835000.0,2726796549.525574,1860807256.214476,1363413470.7580476,1470074000.0,1485527491.8548756,601953000.0,749836676.6958791,626097000.0,780746248.2799342,1228050000.0,1495381247.3029728,88554000.0,85245850.0,475916000.0,554949029.9340272,126037000.0,133145699.99999997
1894,1039,4,203011000.0,302904609.06324434,255300000.0,128732122.82866871,-52289000.0,495103350.28194594,8409000.0,14314142.51058535,25579000.0,26713476.484678894,33988000.0,28344063.746155303,-8212000.0,-10779650.0,15533000.0,21798514.27767871,-7124000.0,-8320049.999999998
458,712,1,3126495000.0,2185984890.0819697,2137404000.0,1891757152.537363,989091000.0,1107661436.627107,70679000.0,98520463.0346417,930828000.0,889609948.7499474,1001507000.0,972321066.5272346,21039000.0,31858099.999999993,49640000.0,64086504.19345718,21039000.0,32227199.999999993
782,165,3,36175654.0,-85641875.882563,19187381.496044576,-403995873.24970895,18868678.0,361518219.3435851,22295962.0,22891636.6193141,2274626.0,2379554.558158845,24570588.0,13078535.702424787,-1191082.0,-3384864.75,23487044.0,19841371.316087898,-1191082.0,-3375229.65
21,232,1,3642433000.0,2620515364.115649,1611617055.0351417,1205861689.8817792,2307595000.0,1430200995.7963297,392263000.0,400397979.0061118,1442178000.0,1453947413.6604729,1834441000.0,1845600466.5272346,185633000.0,179851500.00000006,1648808000.0,1626051453.7019663,-1256545000.0,-1222454200.0
323,342,1,102171000.0,-357007332.0979407,80142000.0,-221384917.04342324,22029000.0,331109291.6736885,11994000.0,23637106.89009215,1280000.0,3042516.1869826973,12084000.0,10054750.766006608,-8453000.0,-8655049.999999996,20447000.0,26952872.14394495,-8453000.0,-8647649.999999996
1847,1419,4,11562769000.0,7951111736.188648,8634392000.0,6060230034.055609,2928377000.0,2707537855.0134454,696915000.0,834104218.7638838,4617768000.0,4271286603.066183,5314683000.0,5075991011.532952,87484000.0,133914149.99999994,6096071000.0,5514726127.727949,-5399156000.0,-4839183650.0
1304,989,4,1061958000.0,978648826.0725477,603583000.0,308627109.5617006,275904000.0,633776862.9103911,75380000.0,62244325.583805546,85007000.0,88731142.7911529,160387000.0,135607166.092936,19279000.0,-6897600.000000013,56101000.0,67872025.2187285,19279000.0,-5370100.000000008
1031,77,1,1709464000.0,953433674.5590429,792444897.6724385,469013232.4788567,917019102.3275616,814041392.0293832,-50089000.0,-36184380.19115118,206500000.0,187121315.18320754,156411000.0,145534866.52723458,62554000.0,60896750.0,32611000.0,31634738.93251043,-82700000.0,-49247449.999999985
1109,1048,0,1182200000.0,2176040555.253574,559672263.5892134,764698936.0072489,993300000.0,1829808641.1896174,77500000.0,79478472.8073013,102700000.0,117860090.88922562,175100000.0,185827298.85400516,21600000.0,10850000.0,55900000.0,60747164.14374097,21600000.0,12640000.0
1483,1507,1,15318000000.0,13272063184.010427,8995872209.433592,8761986016.40367,2835000000.0,1900261819.4751394,2220000000.0,2135269759.668877,7363000000.0,7392421636.953253,9583000000.0,9550443050.766006,348000000.0,385499999.9999999,1879000000.0,1851128270.47107,341000000.0,364299999.99999994
739,1417,1,2898416000.0,-168382577.26267678,2080781000.0,-240288694.9452089,476998000.0,302849941.14994377,19746000.0,24492054.602478556,-19746000.0,-15361852.455829065,0.0,-2756949.2339933924,-16089000.0,-10417099.999999996,35835000.0,30391881.338003732,-16089000.0,-11185499.999999998
1565,1261,2,37777000.0,-295767929.18859816,8088000.0,-410099152.0587663,29689000.0,316569344.8320553,1942000.0,18921676.695879143,1878000.0,4075886.382115309,3820000.0,6868580.159301709,-3377000.0,-4564550.000000006,5319000.0,14014516.336473765,-3377000.0,-4469050.000000004
1547,48,0,350115000.0,1242651075.3820744,124447000.0,194495438.6061421,144501356.0121529,1686055362.157123,23341000.0,33684472.8073013,74465000.0,104920616.45064265,97806000.0,128471020.1589124,1273000.0,235550.0000000042,21144000.0,32847333.353499528,2197000.0,2316700.000000002
1772,61,2,60756000.0,-312920384.2756739,14120000.0,-399416152.0587663,46636000.0,271286676.8622324,39398000.0,61092676.69587915,0.0,767050.0958818621,39398000.0,46708347.30297287,1277000.0,1015800.0000000002,38121000.0,48302886.7427611,1277000.0,1149500.0000000002
396,1484,4,2329417000.0,2301592560.0424814,1103945000.0,1059957013.8429126,1225472000.0,797729456.4705824,201803000.0,212554532.8088811,84310000.0,86585039.49910165,286113000.0,277339844.05108964,4458000.0,4979049.999999948,134794000.0,126704062.60576858,67009000.0,73767499.99999999
370,1128,0,322707000.0,1217481041.752965,203952000.0,318800459.54435027,133189378.04611006,1619425161.3200045,59563000.0,69488357.62132359,32549000.0,43706588.016858816,92112000.0,102837361.37930413,2829000.0,6720199.999999999,56734000.0,60517044.321194366,2829000.0,7081100.0
1387,362,1,16986396.0,-494006589.480199,28398941.0,-296908048.8340713,7976898.609990532,217775546.2732461,-2992.0,13084369.154809633,2987192.0,2654167.616286721,2984200.0,1470091.8980636727,-2823081.0,-5520310.200000003,2820089.0,14547475.540399935,-2823081.0,-6184003.200000002
1633,1474,4,5507733.0,103038195.6374085,3754986.0,-82283701.31895149,1752747.0,380001136.41749424,77969.0,5041990.738239911,690.0,-1239563.4651495088,78659.0,-13096153.553970171,-1288944.0,-1496464.5499999993,1288944.0,4787902.117856298,-1210975.0,-1431267.7499999995
1459,843,0,2951779000.0,3250193744.5679674,1733504809.66769,1753031333.0927558,-705417000.0,1548541982.3207214,103159000.0,107230357.62132359,95357000.0,99444143.46396825,198516000.0,211900615.74301425,63542000.0,70973399.99999994,39617000.0,45017323.46524727,63542000.0,73019699.99999999
447,15,2,1389340000.0,772992992.6425707,870172000.0,488165634.8867924,518687000.0,661416015.8484228,122910000.0,167727406.93420675,509918000.0,540809869.5788504,632828000.0,684905447.3029729,77637000.0,92435749.99999999,35836000.0,40760725.550524585,87074000.0,106173249.99999999
1342,527,1,670100000.0,147545477.82550192,96919000.0,-210981661.36243916,573181000.0,463366785.5780343,45369000.0,56719071.50009622,10723000.0,11039135.471626448,56092000.0,53034166.52723458,-44376000.0,-40532000.0,100468000.0,100393501.83192335,-55099000.0,-51126449.99999999
1101,1050,3,796235000.0,-122274864.22092623,203741000.0,-405203280.7812103,463390000.0,417910920.9944519,475000.0,8558631.84425671,0.0,-707996.212743212,475000.0,-1943528.0768886358,-25797000.0,-14943599.999999998,26272000.0,19675903.573482823,-25797000.0,-16428400.0
1559,148,0,243654000.0,1063041016.2622876,108112000.0,142120543.23230338,135542000.0,1625720653.6701665,37230000.0,40852472.8073013,3845000.0,14819326.163801342,4798000.0,9840548.457409315,-21869000.0,-21160249.999999993,59099000.0,60058416.78306724,-21869000.0,-21563349.999999993
1859,83,0,63057347.0,952059898.487061,37031977.76980746,82513265.56288293,50373559.0,1603740339.579618,5114390.0,12139668.621323586,9540399.0,17814741.588701054,14654789.0,19963378.64527598,3126608.0,3687951.8499999987,1987782.0,7205443.773316732,3126608.0,3678151.249999999
625,862,1,2120798000.0,1099028047.3594337,1472395000.0,945282894.7944378,648403000.0,627297422.0462041,67913000.0,70926788.72123955,30767000.0,29942446.795312166,98680000.0,86718366.52723458,-9629000.0,-19720349.999999996,77542000.0,84703933.39686747,-9629000.0,-20055949.999999996
1728,309,4,706517000.0,727661091.2422094,905805000.0,867314486.8290713,-199288000.0,569775141.3773475,73709000.0,81880520.30548985,16853000.0,16097417.001364965,90562000.0,82014843.1967189,38915000.0,37440000.0,34794000.0,42898304.05545896,38915000.0,37924500.0
1404,810,3,76126346.0,-153663054.98474795,61120101.0,-374645981.2254392,15006245.0,301238074.5280967,2282652.0,11535072.6193141,31006950.0,18345654.120470665,33289602.0,18437509.03212176,-2890968.0,-23438.500000000407,5173620.0,6041858.422023753,-2890968.0,40172.69999999975
1515,939,4,156303000.0,393070263.1379746,83901000.0,24784666.32356119,72402000.0,533098915.458841,17689000.0,16851380.636677884,41469000.0,33347827.93591299,59158000.0,36981824.44339948,-2517000.0,-13362999.999999998,20206000.0,30149105.2687981,-2517000.0,-14293099.999999998
1800,66,2,3271200000.0,3281267405.176699,1447362713.447565,1406171610.6258736,-21400000.0,935535876.9170446,31300000.0,69650518.89857219,847700000.0,941632796.2999077,879000000.0,986205180.1593018,-16400000.0,-248264999.99999994,66600000.0,64642588.36449694,-35300000.0,-13285000.000000017
4,694,4,7361000.0,102975677.50297496,2671000.0,-98863123.01249051,4573903.262590003,333301084.30747336,349000.0,4178201.087648675,109000.0,-1160976.8635732871,458000.0,-10318834.366785498,-670000.0,-1016249.9999999998,1019000.0,4761208.140127239,-670000.0,-1011649.9999999998
1400,327,1,-4860602000.0,1701987928.2057252,-990657000.0,178560357.51317024,-3869945000.0,1124966225.56994,193881000.0,208263698.98499075,378009000.0,476254583.8584365,571890000.0,716326450.7660066,36078000.0,35272950.000000015,124685000.0,182828467.3287503,69196000.0,71404750.00000004
617,1153,0,5475000000.0,5606262929.481453,4861300000.0,5295290294.0815325,613700000.0,1741458487.3793018,130600000.0,184386357.6213236,1421300000.0,1396897746.9720511,1551900000.0,1577913351.063594,23900000.0,52600000.0,81800000.0,94501479.83659008,48800000.0,83610000.0
570,813,0,9643000.0,839177939.6897916,6164000.0,57615148.33094403,3479000.0,1609089880.004966,1843000.0,7446512.348101228,2246000.0,10005105.796275713,4089000.0,9944467.282375682,-437000.0,642699.9999999984,2240000.0,7617174.888546493,-397000.0,-930500.0
2015,17,2,12012800000.0,2692722806.929682,6608200000.0,1159769710.6246996,4911800000.0,2088727189.4257734,457000000.0,535500406.9342067,316800000.0,265098894.48396,773800000.0,751592047.3029729,145800000.0,122692699.99999999,203500000.0,185166041.96193856,253500000.0,280889099.99999994
576,1047,1,6644800000.0,5352264365.725226,3248100000.0,3227846632.1012044,2786600000.0,1710732986.791517,345800000.0,352055816.7070583,33000000.0,180680555.76922363,378800000.0,516133050.7660066,36000000.0,51194999.999999985,342800000.0,460482874.78448296,3000000.0,-136339999.99999997
1397,68,0,136174000.0,1087506319.7760172,62163000.0,189339762.0401879,72304000.0,1625773893.2975693,10072000.0,16816472.8073013,-3712000.0,6279821.864587426,6360000.0,11469629.61248185,-12604000.0,-11765049.99999999,22676000.0,25957832.186605494,-12604000.0,-10421749.999999994
1134,1221,2,160043000.0,-201023572.74717045,101422000.0,-337873152.0587663,58621000.0,343368124.621045,15202000.0,25300676.695879143,-14386000.0,-1664290.082734734,816000.0,7772880.159301709,-14398000.0,-21849625.0,29600000.0,36039015.256949924,-14398000.0,-22126915.0
188,196,2,9282000.0,-395480748.9468564,3493000.0,-415452893.1798389,5789000.0,196162242.3446678,355000.0,16764518.898572193,552000.0,1744450.095881862,907000.0,3244347.302972868,-972000.0,-571949.9999999998,1327000.0,6569837.157743298,-972000.0,-609449.9999999998
488,145,3,16124000000.0,10189010226.086637,13383000000.0,9929680416.801392,2741000000.0,2822976269.7539177,5251000000.0,3264956123.519713,4961000000.0,3292512939.358742,9233000000.0,5929284022.215681,1583000000.0,747850000.0,3668000000.0,2368123632.6740985,1583000000.0,803650000.0
1211,498,0,1601068000.0,2233465367.5351715,1081707000.0,1125482971.3287568,519361000.0,1689412310.6827824,248876000.0,267272357.6213236,-34521000.0,-21631543.433175396,214355000.0,234868201.35304233,19006000.0,39626199.999999985,229870000.0,224641111.35366392,19006000.0,37606599.999999985
1580,184,4,779622000.0,900371908.3841329,153452000.0,250278607.96937913,626170000.0,672164707.4518176,134561000.0,140354154.04163057,57608000.0,55303321.096267134,192169000.0,175907544.0510896,56917000.0,54372599.999999985,77644000.0,81185384.85717909,56917000.0,53766199.999999985
1533,213,0,4162272000.0,4115819757.786882,862254000.0,1080030895.237537,3299439000.0,2097082176.5191586,357871000.0,367219512.3481012,794265000.0,820196479.5107489,1152136000.0,1188810900.3963203,114028000.0,140146300.00000003,194829000.0,197758872.71111798,163042000.0,165269300.0
818,583,0,13900400000.0,10777203602.189234,12204100000.0,10399890660.049435,7319729781.089915,2633775879.71952,78200000.0,71686357.62132359,235100000.0,245879786.83789673,313300000.0,317212154.53038114,174900000.0,151219399.99999994,116600000.0,106809424.71684021,-38400000.0,-41254299.999999985
50,537,1,594022000.0,39602324.17344046,132343000.0,-250742647.2186948,461679000.0,573920069.593044,121956000.0,127023192.32657148,1645000.0,3642117.791741307,123601000.0,112554966.52723458,31177000.0,25855200.000000007,45262000.0,47012332.01880029,76694000.0,69520285.0
590,1171,2,1341960000.0,766686497.270562,666970000.0,243715710.62469947,674990000.0,641458588.3641074,55930000.0,70725676.69587915,179410000.0,180275669.57885042,235340000.0,233156447.30297285,23760000.0,17588500.0,32290000.0,39302988.41874756,23640000.0,18357500.0
377,276,2,52901000.0,-320919870.36816317,24522965.98920461,-391970333.24313754,33404000.0,318122637.0279389,-1183000.0,16374244.174829636,24144000.0,19318150.09588186,22961000.0,20606080.15930171,-5692000.0,-3874550.0000000005,28653000.0,27896133.423519257,-29836000.0,-24104899.999999993
1953,1136,2,877565000.0,444038663.0558555,1336553000.0,663556710.6246995,-475192000.0,647059318.9087507,522812000.0,530725676.69587916,-345617000.0,-337457903.7000924,177195000.0,176239447.30297285,31868000.0,34860449.999999985,490944000.0,478313519.30534256,31868000.0,34572049.999999985
1018,1253,0,26568400000.0,23964549814.1618,13080400000.0,13418272352.068018,13246000000.0,3631174450.871731,1346200000.0,1224628512.3481011,1952200000.0,2045739168.2215497,3298400000.0,3254914762.932775,592200000.0,398005000.0,746800000.0,710522470.79389,599400000.0,426740000.0
709,868,0,2933971000.0,2923867238.7938313,2618511000.0,1919893228.8439355,315460000.0,1693009951.717268,65062000.0,64611397.162123516,2191000.0,13499105.320012096,67253000.0,74038718.41800733,-143265000.0,-94631199.99999997,69951000.0,49094328.486486435,-4889000.0,11660400.000000002
1121,747,1,27828200000.0,22616842305.168495,13810622382.415062,12447815384.973965,7212400000.0,5209324516.649704,821300000.0,827689852.0897658,181300000.0,261541632.96539626,1002600000.0,1063543050.7660066,233000000.0,258814999.99999982,794400000.0,940024823.2415298,26900000.0,-140509999.99999997
1026,1037,1,2788943000.0,2380140496.859311,2662320000.0,2422537668.7993846,126623000.0,833174196.0183789,299166000.0,309530935.74005187,0.0,-325351.42642998416,299166000.0,297814353.09806365,-281667000.0,-105352550.00000001,580833000.0,427961576.09329677,-281667000.0,-117661150.0
1015,242,1,2489159000.0,1736439863.4111164,1954765000.0,1582125513.667866,488897000.0,855219877.8792735,294443000.0,243990356.76287672,370069000.0,343744889.04609114,636496000.0,550354250.7660066,64600000.0,27914649.999999993,229652000.0,231707905.11762857,64791000.0,19616999.99999998
1575,208,0,11961066.0,828291819.509952,1068497.0,22716248.626082726,10892569.0,1597558377.2148294,611174.0,6379517.348101228,0.0,8313185.247421113,611174.0,5411667.883125082,-1146685.0,-763442.9500000004,1757859.0,6088852.638035732,-1146685.0,-930332.9300000002
826,84,4,93941000000.0,68083551688.19055,39446000000.0,33936584534.67591,53466000000.0,29945194989.713707,4178000000.0,4505710374.622986,15656000000.0,19955696025.28077,18582000000.0,24577615820.60302,1764000000.0,2529700000.0,2414000000.0,2038222172.061789,1764000000.0,2503200000.0
463,901,2,32097000000.0,26787226883.406677,20419000000.0,19745059229.000145,10658000000.0,5903654947.49983,2071000000.0,2164700406.934207,6360000000.0,6413453630.770193,8431000000.0,8509555180.159302,950000000.0,985699999.9999995,831000000.0,835623409.5294417,1240000000.0,1258099999.9999998
1660,1497,1,6578196.0,-483841182.5180589,4441488.0,-304496561.35162246,2465776.0,267891538.03595382,2008368.0,11474967.001471773,923641.0,4425514.145977625,2932009.0,-881210.3727654209,-1328968.0,-1596700.9666666673,3337336.0,8102591.745543204,-1328968.0,-1550229.4000000004
700,60,3,1658042000.0,1086301199.0715208,1223260000.0,432254869.78959453,434782000.0,874104818.3705924,207698000.0,217400123.519713,674127000.0,656166176.4769399,881825000.0,857669747.3114974,25549000.0,21816500.0,179614000.0,171174900.96845293,28084000.0,26933900.0
402,1152,1,9094896.0,-455989919.84315205,13593163.0,-286761031.35702825,-4498267.0,280330965.32680786,-928960.0,8148436.181302857,1115703.0,5081378.201298183,186743.0,-2565678.772765421,-5136642.0,-5871533.399999998,4207682.0,9647426.556823708,-5136642.0,-6210942.126382977
591,406,2,16788482.0,-400384648.56217116,821758.0,-423505624.6811537,15966723.0,207747659.23683387,906228.0,16734703.898572193,333325.0,2632392.3136320915,1239553.0,4704489.942850108,-1096396.0,-315689.29999999976,2002625.0,5710378.287668854,-1096397.0,-173651.87999999986
412,1415,3,1678241000.0,1419800210.2687802,730813000.0,320600282.5111314,947428000.0,828163851.1687161,62311000.0,68847123.51971301,89643000.0,85913750.99306048,127553000.0,120226940.10023837,-24195000.0,-31669550.0,86506000.0,91566196.17798024,-24195000.0,-31151650.0
26,113,0,1363308942.0,1901717078.4694023,629855415.0,687768179.074128,733453527.0,1696421515.8520284,93681798.0,85077085.34810123,0.0,7400283.542383653,93681798.0,74257521.80262107,39573525.0,32351515.000000004,54108273.0,47118978.34697871,39573525.0,29021058.499999985
205,526,2,15264467000.0,11852852696.433945,7226441209.924589,6463167823.994182,3059451000.0,2702140300.3606477,592816000.0,588706406.9342067,378076000.0,376466469.57885045,970892000.0,944089047.3029729,444977000.0,402112249.9999999,147839000.0,161314807.82822642,444977000.0,405857749.99999994
699,1263,0,65987000.0,951633800.6258116,35279000.0,104776234.6560431,30708000.0,1600736386.1601193,5319000.0,11660357.621323586,28050000.0,37687112.943793006,33369000.0,35609274.63878752,1124000.0,1129800.0000000002,4195000.0,9365207.738854527,1124000.0,1134400.0000000002
550,304,4,31945000000.0,32006349310.429935,26424000000.0,29626784519.447205,5506000000.0,5001451029.146205,1191000000.0,912124049.832265,2895000000.0,2409497920.4584203,4086000000.0,3284751191.1419816,834000000.0,741150000.0,357000000.0,312554798.1028076,834000000.0,687150000.0
140,207,1,2655001000.0,1842441634.9687471,1989549000.0,1528932379.971281,665452000.0,929831448.0984675,67554000.0,-24585091.232733727,403267000.0,545325180.6597459,470821000.0,473315366.52723455,-3426000.0,-75776499.99999993,30096000.0,36820813.64003384,37458000.0,-70475100.00000012
2004,586,2,9403000.0,-452016517.1069837,5511000.0,-418922496.16267097,3892000.0,169319336.23368526,-48000.0,16374676.695879143,1387000.0,1748150.095881862,1339000.0,3181080.1593017094,-903000.0,-1191100.0000000002,855000.0,6250250.601359007,-903000.0,-1180800.0000000002
28,456,2,551232000.0,82309585.58494848,628224000.0,-28278693.876615345,-138322000.0,329922590.86346257,23716000.0,37105676.69587915,12709000.0,16332584.566167668,36425000.0,36052747.30297287,7478000.0,23193699.999999993,48579000.0,47187738.34720037,-24863000.0,-21957249.999999996
844,949,4,435750000.0,591274178.3122683,62826000.0,-21409159.812304378,372924000.0,637332666.1612215,28152000.0,33749942.829987876,49267000.0,47819770.79840506,77419000.0,63401682.72236988,143000.0,-801700.0000000006,28009000.0,33277759.34959144,143000.0,-69100.00000000035
967,1059,4,367699000.0,428859762.9086324,382822000.0,184700391.42089677,-15123000.0,471722649.53534025,310000.0,132624477.06926379,0.0,-808524.5065180042,310000.0,101472268.70959006,-47413000.0,14069449.999999996,47723000.0,78073058.95262599,-47413000.0,26078650.0
433,1396,2,3810682000.0,2641367239.016493,2050315000.0,1472355422.4093642,1303319000.0,691167628.6081893,110314000.0,121063676.69587915,71850000.0,70848686.3821153,148990000.0,147617380.1593017,11661000.0,7049350.0,98653000.0,97617936.03612748,11661000.0,8139150.0
228,315,3,2333529000.0,1945482818.9021182,1032484368.2283514,598363238.5542274,1202771000.0,1098228297.0491478,71236000.0,75353123.51971301,490990000.0,523923370.48512316,562226000.0,590738077.2109708,19517000.0,20463500.000000004,46091000.0,54135376.964828745,25145000.0,20200450.000000007
1855,735,3,20737275.0,-229014075.27339333,10788720.0,-406236358.96970344,10368036.0,-410610592.3487802,562564.0,8415930.971579045,77061.0,-261003108.99828416,87201.0,16645856.151368037,-4142505.0,-139025.0,4705069.0,50345990.3210412,-4142505.0,-640259.0
776,330,3,386844000.0,233197461.25099224,412960000.0,15515179.77456081,-26116000.0,527252177.06331307,16927000.0,32554771.6193141,91131000.0,97714217.37455736,108058000.0,119645975.65712415,-813000.0,9226300.000000004,13060000.0,17599298.350618027,3867000.0,9943200.0
839,1420,3,6911775000.0,5934568131.994479,5109042000.0,4633814407.364899,1802733000.0,1701431784.1369574,225256000.0,230169123.519713,195092000.0,203868294.02399492,420348000.0,426027020.91147304,132530000.0,133955949.99999999,92726000.0,90223016.6084749,132530000.0,134249550.0
793,1146,2,2883631000.0,2210839125.1314335,1772390000.0,1306221689.5941446,1110345000.0,1214645320.3595774,319055000.0,405956676.69587916,1257690000.0,1320132150.095882,1576745000.0,1702795747.3029728,38222000.0,94299699.99999997,280833000.0,283496834.28209776,38222000.0,97218499.99999997
820,846,2,133032000.0,-100521025.23816675,232711000.0,-88392152.0587663,-16246000.0,297147552.6407103,12296000.0,29816518.89857219,62277000.0,72306750.09588186,74573000.0,88841769.93949234,-14749000.0,-14166399.999999996,89322000.0,104945459.32622842,-77026000.0,-89429949.99999999
2016,513,0,296638000.0,1162193210.1958907,208509000.0,303711577.0720676,88129000.0,1626677888.8918378,7319000.0,11316357.621323586,0.0,10930894.37365397,7319000.0,12150654.696686482,-46633000.0,-33171100.000000007,53952000.0,54026388.192987174,-46633000.0,-37827500.0
1438,1294,4,38809000.0,239304883.9534666,43090000.0,-41624082.9969939,-4281000.0,495096795.20478165,7318000.0,11842245.172203433,25818000.0,23729778.21545484,33136000.0,22288335.560148224,-933000.0,-2454299.999999999,8251000.0,12745672.71117716,-933000.0,-2019299.9999999993
866,229,1,2376172000.0,1217054181.0448046,1870972000.0,1189239241.292945,486613000.0,625263297.6364653,-5214000.0,67771573.59998381,182832000.0,145349323.66689044,304976000.0,211802750.76600662,-103708000.0,-56669050.0,98494000.0,113753190.934669,-103708000.0,-55746550.0
689,1207,1,3719784000.0,2505580882.2015724,3332984000.0,2456476855.321179,286813000.0,1043386498.5037868,2618169000.0,2476147661.3736463,-531777000.0,-501760118.6128859,2086392000.0,1955786066.5272346,44074000.0,33300850.000000007,2574095000.0,2365036313.584391,44074000.0,36373550.00000001
919,481,2,1537935000.0,1231191009.8527842,1281456000.0,996556772.2033267,256479000.0,688519590.6825149,229699000.0,238789406.93420675,0.0,2287751.99683761,229699000.0,225159080.1593017,-26947000.0,-119557750.00000003,256646000.0,364036313.0591885,-26947000.0,-133147450.00000001
1827,890,3,1182488000.0,873819613.0891162,303489000.0,-118994717.4888686,759221000.0,924133167.9672023,56265000.0,70130123.51971301,333008000.0,341719626.5781436,251870000.0,258372323.97110933,16750000.0,22435850.000000007,39515000.0,38450153.05820482,16750000.0,23809450.000000004
1182,716,2,8225559.0,-360796029.36741203,12447189.0,-417713837.6811537,-4221630.0,182733691.59465286,17564.0,16085758.898572193,106922.0,957582.6958818621,124486.0,2286372.8593017096,-8095209.0,-4679187.85,8112773.0,9379087.541346293,-8095209.0,-4521292.049999999
817,604,4,278892877.0,351709019.34181285,18169545.0,-74200280.10186863,260723332.0,438173891.3730983,-508287.0,5889057.1985056875,6373902.0,5407496.684371494,5865615.0,-3670946.2891106885,-2293288.0,4084913.3100000005,8158903.0,13633820.56972943,-8667190.0,-5245874.992
351,23,1,5277000.0,-485282963.1927933,3275000.0,-313332607.5926545,2002000.0,239824278.02748156,-247000.0,9069676.11220237,1247000.0,3676738.4468604187,1000000.0,-3411033.472765421,-3759000.0,-1159900.0,3512000.0,5650889.361689055,-3759000.0,-1080600.0
345,233,0,15200000000.0,13371088490.270426,16953000000.0,16571666994.237879,-1763000000.0,1452913105.0108073,2673000000.0,2666186357.6213236,-2030000000.0,-2132308497.2085497,643000000.0,560047805.8336767,653000000.0,627450000.0,2020000000.0,1911691200.478594,653000000.0,645050000.0
